NCOLS 35 
NROWS 26 
XLLCORNER -80 
YLLCORNER 33 
CELLSIZE 0.5 
NODATA_value -9999 
-9999.000000000000000 -9999 -9999 -9999 -9999 -9999 -9999 -9999 -9999 -9999 -9999 -9999 -9999 -9999 -9999 -9999 -9999 -9999 -9999 -9999 -9999 -9999 -9999 -9999 -9999 -9999 -9999 -9999 -9999 -9999 -9999 -9999 -9999 -9999 -9999
-9999 -9999 -9999 -9999 -9999 -9999 -9999 -9999 -9999 -9999 -9999 -9999 -9999 -9999 -9999 -9999 -9999 -9999 -9999 -9999 -9999 -9999 -9999 -9999 -9999 -9999 -9999 -9999 -9999 32.6478364560368 -9999 -9999 -9999 -9999 -9999
-9999 -9999 -9999 -9999 -9999 -9999 -9999 -9999 -9999 -9999 -9999 -9999 -9999 -9999 -9999 -9999 -9999 -9999 -9999 -9999 -9999 -9999 -9999 -9999 -9999 -9999 32.3155270842735 32.0787824123898 31.8975555718314 32.0688572160868 -9999 -9999 -9999 -9999 -9999
-9999 -9999 -9999 -9999 -9999 -9999 -9999 -9999 -9999 -9999 -9999 -9999 -9999 -9999 -9999 -9999 -9999 -9999 -9999 -9999 -9999 -9999 -9999 32.3468126201075 32.6051877015063 32.568754388947 32.0619618961914 31.6219029807145 -9999 -9999 -9999 30.2815547279776 30.1144223610065 30.1456080310172 30.5174746803734
-9999 -9999 -9999 -9999 -9999 -9999 -9999 -9999 -9999 -9999 -9999 -9999 -9999 -9999 -9999 -9999 -9999 -9999 -9999 -9999 32.1011798630726 32.2579515183464 32.4214335849955 32.6163355202284 32.5678747592672 32.334469252671 31.5839007847587 31.1918368841346 -9999 -9999 30.4310627509864 30.1913727213737 30.3295271327238 30.9453177671265 31.7825662993622
-9999 -9999 -9999 -9999 -9999 -9999 -9999 -9999 -9999 -9999 -9999 -9999 -9999 -9999 -9999 -9999 -9999 -9999 -9999 32.3019131260785 32.5520846286995 32.5495156100866 32.5373076267913 32.5654210737905 32.2200039045329 31.6362175883019 31.1433922770445 30.9125343254941 30.7909288655442 30.6104413905421 30.474416019391 30.3845317356016 30.8905379454794 32.0123874989146 32.2465984728171
-9999 -9999 -9999 -9999 -9999 -9999 -9999 -9999 -9999 -9999 -9999 -9999 -9999 -9999 -9999 -9999 -9999 -9999 -9999 32.3554402429637 32.598487036332 32.6445315322759 32.6161890797477 32.6330849462178 32.4897522204816 31.9056060809631 31.4379695655661 31.0006180145432 30.8491435259783 31.2382379891223 31.1452992572965 31.3469194934964 32.2778978550062 32.9552877719317 32.8292070898297
-9999 -9999 -9999 -9999 -9999 -9999 -9999 -9999 -9999 -9999 -9999 -9999 -9999 -9999 -9999 -9999 -9999 -9999 -9999 32.0459807674654 32.4069678748306 32.5613755898126 32.5960129779057 32.6066634346506 32.5562406527308 32.3661119620547 31.9597818266124 31.381127726956 31.5132083882596 32.366309815899 32.5113758816296 32.968873906723 33.5032502571305 33.8795652306029 33.9692108100139
-9999 -9999 -9999 -9999 -9999 -9999 -9999 -9999 -9999 -9999 -9999 -9999 -9999 -9999 -9999 -9999 -9999 -9999 -9999 31.7746983361346 32.2759969602374 32.4582722894492 32.5327067703322 32.5364597072322 32.5271441555785 32.5111243232575 32.3420158817605 31.9491673213424 32.6782610745306 33.8132577107362 33.8684812272421 33.889318687318 34.3069464570288 35.2318671908787 35.5814299501911
-9999 -9999 -9999 -9999 -9999 -9999 -9999 -9999 -9999 -9999 -9999 -9999 -9999 -9999 -9999 -9999 -9999 31.4202629421179 31.5600375504069 31.790168667872 32.1936621495078 32.448217866572 32.5292202150803 32.4369307883542 32.421828892431 32.4416386138658 32.3195990170518 32.62768770959 33.3245127496799 33.6678358676006 34.2147419589547 34.338247567035 34.371870621826 35.024269447832 35.7191345315618
-9999 -9999 -9999 -9999 -9999 -9999 -9999 -9999 -9999 -9999 -9999 -9999 -9999 -9999 30.9625324982656 31.7134529198808 31.9351899312111 32.235276408985 32.2917872995128 32.2307276419202 32.3668164459609 32.5020111314558 32.5019882405615 32.4994151988712 32.5397649114398 32.6020744743735 32.901981245749 33.5227179807703 34.3935789782096 35.1578580467973 35.6766130413725 36.0025549291318 35.8982379217331 35.3598639323217 35.3720194318297
-9999 -9999 -9999 -9999 -9999 -9999 -9999 -9999 -9999 -9999 -9999 -9999 31.3970462732169 31.9581571808046 32.3832705278298 32.6471404100743 32.8448567748875 32.9811940881323 32.9789119985086 32.879594020885 32.8338872420959 32.8780807106242 33.115677669552 33.4220458626749 33.5794989956557 34.0034672278401 34.6414559072265 35.2830660041641 35.6807599957053 35.9707039922935 36.4450383278243 36.6825210670385 36.6916870256784 36.4255661759824 35.5337634726047
-9999 -9999 -9999 -9999 -9999 -9999 -9999 -9999 -9999 -9999 -9999 -9999 31.8936553832614 32.6204836913487 33.0261131955951 33.267720353738 33.6171150171004 33.8550140421981 33.8235503644519 33.6726046093985 33.6314112082764 33.7305982085064 34.0290050615454 34.3999210424019 34.6336784575951 34.9250364605681 35.2496339026806 35.478608638172 35.5828828794132 35.8042158807495 36.2468536320018 36.5932427453579 36.6277501447229 36.4048524023947 35.895660563183
-9999 -9999 -9999 -9999 -9999 -9999 -9999 -9999 -9999 29.4230445679417 30.5423666209281 31.5451953625275 32.4219690709876 33.0066410102163 33.4543575109562 34.100177977677 34.4582745224805 34.6670512458524 34.7240573988004 34.6014380227464 34.3441864971444 34.3672421846831 34.5696790975373 34.9553927738637 35.135449272512 35.3200320672117 35.4130394690374 35.4527364812384 35.5083896943329 35.5861752470663 35.8123525687861 36.1470059643964 36.3396151981789 36.2950035871685 36.1779193779903
-9999 -9999 -9999 -9999 -9999 -9999 -9999 -9999 -9999 -9999 31.5516396737875 32.5256527918151 33.0156484859013 33.5099512860676 34.3001752529592 34.6891384529758 34.9016270400291 35.1269879547306 35.1250995793668 34.9110912872511 34.5962945995068 34.6825442911392 34.9621654401388 35.1890573886416 35.4236609204543 35.6394189695103 35.8319890054534 35.966678670654 35.9789850483067 35.896389224456 35.7988594302651 35.8316969882574 36.0094913704726 36.2732042856267 36.3655940505045
-9999 -9999 -9999 -9999 -9999 -9999 -9999 17.341870000906 18.6714945903926 -9999 32.145182632732 33.0799677416459 33.6557276053794 34.2230387504455 34.8659852307775 35.1377927023274 35.1607752245904 35.2601780544021 35.3008792543453 35.1301637859462 35.0417150351579 35.205616973333 35.3746499516111 35.4575274713651 35.6445741185649 36.114972976265 36.3615403781758 36.4324753156658 36.4090269736309 36.3499156619501 36.2807612977167 36.2116580368951 36.1252750404134 36.1591509279758 36.2758034189657
-9999 -9999 -9999 -9999 -9999 -9999 -9999 18.3444672521494 22.1854509524427 31.174730785731 32.7158274883058 33.6733247067083 34.3396257373116 34.7306231629962 35.1632025098795 35.3604903559174 35.4242090610549 35.5972041427186 35.8253062835976 35.9157592070357 35.8518929506062 35.7095450860116 35.629782799116 35.6778407761904 35.9810114250166 36.3992301175831 36.4992445799097 36.5065046609883 36.5084095311034 36.4997074792951 36.4812605333935 36.4503272700244 36.4004676773487 36.3555278427875 36.3568393257611
-9999 -9999 -9999 -9999 -9999 -9999 -9999 20.6847710265179 -9999 32.0108164912318 33.2233061565688 34.1138710466424 34.5786716547017 35.0191900665106 35.2656099332271 35.5060826211171 35.8297560633739 36.1587769722709 36.3597725663512 36.4358311980384 36.4345652433149 36.3613019662385 36.2213653040139 36.125892667971 36.2381475866285 36.4438713161207 36.4819772770209 36.4899005528099 36.5074905698202 36.5044491555349 36.5063412762912 36.5005519754153 36.4829720127447 36.4680045216786 36.4609484746102
-9999 -9999 -9999 -9999 -9999 -9999 -9999 -9999 29.2248555655674 32.1278501020628 33.3501411475651 34.1114293579583 34.5610907127559 35.3238712916758 35.9303018388646 36.2384893630804 36.3977202092976 36.4727049154301 36.5014177902235 36.5099597224799 36.5078008337312 36.4999206554434 36.4899601879896 36.4584999685606 36.4620546411256 36.4654983618049 36.4613870812621 36.480013863685 36.5018685465958 36.4985425052889 36.5043052892692 36.4880145303896 36.4730338311809 36.4620870859902 36.479611111922
-9999 -9999 -9999 -9999 -9999 -9999 -9999 -9999 -9999 32.0846781960343 33.5502088984698 34.8358994134276 35.9172555677859 36.3561815774308 36.4527897327585 36.4926215670146 36.5061326168823 36.5085463693924 36.5117962244265 36.5233086607084 36.5161035370933 36.5157033609583 36.5000401632435 36.4982290205014 36.5011778583974 36.4678398746555 36.4712466645847 36.4820526409708 36.489064050527 36.4970078615839 36.4918612201507 36.4853242251836 36.4712939944331 36.4635961974407 36.4787244144045
-9999 -9999 -9999 -9999 -9999 -9999 -9999 -9999 -9999 32.0181666105454 34.4801151494379 36.1566988723888 36.4367266446424 36.478524980305 36.5031214031774 36.5111104782143 36.5174642856608 36.5151126379821 36.5084896143552 36.5016616096382 36.4976176737201 36.5042867407228 36.5067119252653 36.5085650011101 36.4981894390007 36.504580658786 36.5080591906882 36.4962244306535 36.4855168311857 36.4818223181154 36.4787482725008 36.4780527254873 36.4700161006005 36.4631187403909 36.4607097380365
-9999 -9999 -9999 -9999 -9999 -9999 -9999 33.0211307185901 33.202348051882 34.2131789401224 36.0105525721564 36.4400858149651 36.4854278137242 36.5056321455228 36.5129296644282 36.5158336837132 36.5233426388765 36.5067880337327 36.4966320640367 36.4942057150956 36.4976008409176 36.5026448704025 36.5030727439294 36.5082580721008 36.4887529468539 36.5032038098603 36.5151666590975 36.5126080744611 36.4953400686405 36.4811553753295 36.472031337719 36.4702678856815 36.4724974633469 36.4695902178195 36.4654920582235
-9999 -9999 -9999 -9999 -9999 -9999 34.9668317493411 35.1722105488665 35.8405129794115 36.2167577334827 36.4109916063656 36.4851724039833 36.5109633213155 36.5271973506457 36.5163015519144 36.5073893020278 36.5083556320621 36.4863600703458 36.4861729147482 36.494073841598 36.4916028886817 36.491572678711 36.4948230206997 36.4929905619525 36.4729066662533 36.4829767883884 36.5037229022058 36.5185244664836 36.5106934504962 36.499148902035 36.495171622566 36.4849700226678 36.4777289663585 36.472261733014 36.4695823286171
-9999 -9999 -9999 -9999 34.3613560562902 35.4447805063756 35.9701022336026 36.1352182008832 36.2709576725964 36.3633300761314 36.4537930552507 36.5223942054328 36.5340051648534 36.5425562955898 36.5347742125109 36.5223113654541 36.5104188214724 36.5068256888782 36.5123043797431 36.5226477800387 36.5180030668047 36.5020221653699 36.4674212693652 36.4555579708352 36.4556445146206 36.4920460174388 36.518259178136 36.5366943150513 36.5326711853786 36.5231212274259 36.5211150197617 36.5071103279731 36.4845454666035 36.4982725539813 36.5057626627912
-9999 -9999 -9999 35.0177794406377 35.3929094025225 36.0704209642145 36.2146793773792 36.276642997246 36.3437345449985 36.41947042232 36.503596145086 36.5284350338269 36.5314254453109 36.5469903331811 36.5661677298807 36.5735947639744 36.5696480137466 36.5536911327263 36.5327252963726 36.5273213912829 36.5081234405348 36.4817810959933 36.4616642711578 36.4672823960618 36.498212877216 36.5181709011675 36.5403640229455 36.5619714884906 36.5715705966705 36.5634224229426 36.5489904344605 36.5350357407099 36.5158600597542 36.517892562971 36.5085043356792
-9999 -9999 35.2632027164607 35.8658197336707 36.0968180992061 36.1958253635253 36.2707555005507 36.3429442007873 36.4123530618893 36.483422774483 36.5206341922611 36.5127089049334 36.504915491774 36.5249373262398 36.5588133955717 36.5724445200118 36.5859081085669 36.5815580766942 36.5399839132335 36.5005565813627 36.499523338658 36.5097938802044 36.5066364741196 36.5061146780354 36.5290432107076 36.5458594205144 36.5655590231182 36.5773883059189 36.580694964954 36.580147993447 36.5633438320795 36.5462744306572 36.5381320956903 36.5216387455547 36.507869348791
