NCOLS 35 
NROWS 26 
XLLCORNER -80 
YLLCORNER 33 
CELLSIZE 0.5 
NODATA_value -9999 
-9999.000000000000000 -9999 -9999 -9999 -9999 -9999 -9999 -9999 -9999 -9999 -9999 -9999 -9999 -9999 -9999 -9999 -9999 -9999 -9999 -9999 -9999 -9999 -9999 -9999 -9999 -9999 -9999 -9999 -9999 -9999 -9999 -9999 -9999 -9999 -9999
-9999 -9999 -9999 -9999 -9999 -9999 -9999 -9999 -9999 -9999 -9999 -9999 -9999 -9999 -9999 -9999 -9999 -9999 -9999 -9999 -9999 -9999 -9999 -9999 -9999 -9999 -9999 -9999 -9999 30.3189067583662 -9999 -9999 -9999 -9999 -9999
-9999 -9999 -9999 -9999 -9999 -9999 -9999 -9999 -9999 -9999 -9999 -9999 -9999 -9999 -9999 -9999 -9999 -9999 -9999 -9999 -9999 -9999 -9999 -9999 -9999 -9999 30.9630963241936 30.4417364060876 30.292126464638 30.4310096496168 -9999 -9999 -9999 -9999 -9999
-9999 -9999 -9999 -9999 -9999 -9999 -9999 -9999 -9999 -9999 -9999 -9999 -9999 -9999 -9999 -9999 -9999 -9999 -9999 -9999 -9999 -9999 -9999 31.6333688579868 31.7453671965292 31.8173483872229 31.489327449148 31.0286186983329 -9999 -9999 -9999 30.4077010380141 30.244837126863 30.0360600005561 30.0473997981875
-9999 -9999 -9999 -9999 -9999 -9999 -9999 -9999 -9999 -9999 -9999 -9999 -9999 -9999 -9999 -9999 -9999 -9999 -9999 -9999 31.4887488261635 31.5396720151051 31.5450552118594 31.6377977660498 31.8343641312925 31.9666164877181 31.796229705678 31.4205093839089 -9999 -9999 30.7761519617224 30.4101676270253 30.1779786538773 30.3292496450212 30.6849662692623
-9999 -9999 -9999 -9999 -9999 -9999 -9999 -9999 -9999 -9999 -9999 -9999 -9999 -9999 -9999 -9999 -9999 -9999 -9999 31.5332805966383 31.5168482309417 31.5921271918471 31.6176315732417 31.698427599187 31.9990964439021 32.119038380817 31.9533738343908 31.5967015434838 31.2627980151508 30.9771644327149 30.6569839579506 30.4052888669363 30.1679828627579 30.5311170395619 31.0514149788767
-9999 -9999 -9999 -9999 -9999 -9999 -9999 -9999 -9999 -9999 -9999 -9999 -9999 -9999 -9999 -9999 -9999 -9999 -9999 31.5606056147872 31.6286458991564 31.6394474983162 31.7147329117065 31.7991517127736 32.1693978398479 32.1873631446457 31.9994394934119 31.7515495695466 31.4721644218575 31.0704951992764 30.8724739324195 30.8294714517407 30.7029377703236 31.136711348738 31.7376695421801
-9999 -9999 -9999 -9999 -9999 -9999 -9999 -9999 -9999 -9999 -9999 -9999 -9999 -9999 -9999 -9999 -9999 -9999 -9999 31.6886254000525 31.7815453338179 31.7762111209304 31.821229919955 31.9029542693232 32.0714866675823 32.0022692997307 31.9178842259763 31.8489064854365 31.9988090306412 32.7644571676116 33.2469273219045 33.3751147537263 32.9753663674713 32.5127775800001 32.9076828599046
-9999 -9999 -9999 -9999 -9999 -9999 -9999 -9999 -9999 -9999 -9999 -9999 -9999 -9999 -9999 -9999 -9999 -9999 -9999 31.6069105228857 31.7757859673009 31.9276084519961 31.9491887178358 32.0027581619835 32.0210501825165 31.987766248061 31.9991578377528 32.4323138194636 34.130324202895 35.1320273682071 35.332774988331 35.2999243187821 34.7252127504212 33.6600396118601 32.9337338016446
-9999 -9999 -9999 -9999 -9999 -9999 -9999 -9999 -9999 -9999 -9999 -9999 -9999 -9999 -9999 -9999 -9999 31.495049155621 31.5950982964054 31.6307491440342 31.7119086239634 32.0934520622551 32.1648206603863 32.058817797111 32.0325796997733 32.0076092085123 32.6233145292602 34.5408945089419 35.3943925081785 35.4505312325263 35.4862656463381 35.5103328017928 34.9265034752562 34.0805698715767 33.3411389492347
-9999 -9999 -9999 -9999 -9999 -9999 -9999 -9999 -9999 -9999 -9999 -9999 -9999 -9999 31.2108786093606 31.6384177528315 32.011268879506 32.3808511545481 32.4075539461619 32.0871494091964 32.052927583933 32.349326014536 32.3664958781962 32.2647787499955 32.4084933930784 33.1450367184472 34.2443598879813 35.1308506254588 35.2313771025197 35.1330753201626 35.0606094092375 35.0401276662003 34.8417148126596 34.9095684377762 35.1401466170954
-9999 -9999 -9999 -9999 -9999 -9999 -9999 -9999 -9999 -9999 -9999 -9999 31.229648058344 31.2889175866466 31.566492023548 32.3667414898188 33.1336863549018 33.7316141864543 33.8038068299506 33.4684939380707 33.2574826051685 33.2530294743927 33.4130783306883 33.6213669752277 33.9230077694073 34.5705085678191 34.7947468802787 34.876004638528 34.9666476433161 34.9396206633021 34.8291637020491 34.9493904376941 35.122217415359 35.2673244657708 35.5713925599958
-9999 -9999 -9999 -9999 -9999 -9999 -9999 -9999 -9999 -9999 -9999 -9999 31.3746852005652 31.4615113478989 32.1286380296104 33.2378814613127 33.8801001697683 34.2512710640207 34.3894701901236 34.3390666650479 34.3228911574748 34.4462387695548 34.6115326106651 34.6664093376346 34.6388795158783 34.6045685148595 34.6188821921354 34.6696748986339 34.7147528700299 34.8950508847839 35.0349681761392 35.0830733220852 35.126977424168 35.4277714283087 35.901666491817
-9999 -9999 -9999 -9999 -9999 -9999 -9999 -9999 -9999 30.9120077655924 31.4128475307897 31.573276247954 31.5287296594786 31.8661733174683 32.9360088471939 33.7867269871738 34.2667959344116 34.5536316939228 34.6923119419796 34.7389032383927 34.8394535883061 34.8895274088448 34.9055231000188 34.7898035417529 34.6153572855136 34.5930771611664 34.7795383171345 34.8558048999328 34.8766394543784 35.0626179564305 35.3267255825588 35.525473616529 35.7091841264966 35.9770980640503 36.2442622577423
-9999 -9999 -9999 -9999 -9999 -9999 -9999 -9999 -9999 -9999 31.604756322524 31.569218552548 31.8392220233577 32.7375848191836 33.8648144652225 34.6970259597303 35.2556381088634 35.3377442736265 35.1138177208202 35.0794268511853 35.0484698477696 34.9747536438177 34.8344783911393 34.818975382733 34.9032277083494 34.9764491046406 35.1114318964353 35.3332000273255 35.5882940472376 35.8787563943368 36.1369166363932 36.2870358536246 36.3605835605261 36.3610448783149 36.3386508816955
-9999 -9999 -9999 -9999 -9999 -9999 -9999 15.1132066724743 16.8867473315941 -9999 31.4780665808521 31.6666085505021 32.5493746588416 33.6551927010923 34.4239916065393 34.7969937924574 34.9923725521307 35.2097467809586 35.2103229878561 35.1860762064915 35.1479550292638 35.0870425138139 35.1000493335149 35.2077810213866 35.4574190776683 35.7612922196549 35.986571248165 36.1507300864576 36.2821148425745 36.3503332369892 36.3690912114415 36.3761328859687 36.3791197988913 36.3801071041965 36.3573187212393
-9999 -9999 -9999 -9999 -9999 -9999 -9999 18.6980397217099 21.5105344148227 31.0812782595242 31.4872402757664 32.152978739569 33.1719481600797 34.1072302216696 34.6597162958275 34.746572880551 34.89652146779 35.2200999740067 35.4311319803485 35.5574130463129 35.6330630371707 35.7497221912567 35.8985994889354 36.0650262455314 36.2097844539534 36.2861210817614 36.3262704641266 36.3557658013069 36.3652699197877 36.3633565930271 36.3699922479632 36.3712439428293 36.3699203731844 36.3460650228927 36.3192472831453
-9999 -9999 -9999 -9999 -9999 -9999 -9999 23.6006641077379 -9999 31.6296847713523 31.914469734651 32.898574842164 33.6061507227605 34.4887815046511 34.9522498087352 35.2643378882165 35.6772765955978 35.9795466961984 36.1528751218151 36.2341143878598 36.2847761330623 36.3073366426936 36.3251368886361 36.3434916257121 36.3513829476157 36.3523322208215 36.3652164446518 36.3737984507294 36.365042858053 36.345229329518 36.3687430965299 36.3601529812483 36.3411849294503 36.3356100563169 36.3200167144641
-9999 -9999 -9999 -9999 -9999 -9999 -9999 -9999 31.9815560815129 32.1838498605455 32.2842998119409 33.2634474069251 34.2814301593301 35.196513591723 35.8159637415084 36.1479974846096 36.2582601267995 36.3163883118632 36.3444114334648 36.3655615345419 36.3541616558887 36.3464238682464 36.3553728637599 36.3704229587054 36.3794632910871 36.3816386209281 36.3851515374648 36.3824113844656 36.3724041975337 36.3602537701349 36.3893754534417 36.3681534038048 36.3367947110726 36.3214272464339 36.2927496657937
-9999 -9999 -9999 -9999 -9999 -9999 -9999 -9999 -9999 33.1845367635175 33.2123553265929 34.3852760950902 35.5677706769535 36.1120779891174 36.2891897172156 36.3237410645756 36.3406923003415 36.3492415811867 36.3717982649372 36.3974228436489 36.3903287202125 36.3858503643796 36.3823042879733 36.3942500696502 36.4148835990094 36.3960932481076 36.3879535430984 36.3775472371121 36.3719807830629 36.3929905794848 36.4266410553242 36.3843095458746 36.3422675786034 36.328775973386 36.3229209537506
-9999 -9999 -9999 -9999 -9999 -9999 -9999 -9999 -9999 34.6055428664938 35.1109700474232 35.9793189798249 36.2100307966787 36.2896642525373 36.3157003683184 36.3274776301398 36.3386335324259 36.352174785557 36.3645444606105 36.3851451641268 36.3838165934709 36.3892330949916 36.3923601770804 36.3948355233207 36.3952758886436 36.3850773674258 36.3806901673623 36.3755049183377 36.3781104666003 36.4047049812256 36.4182284544743 36.4103916030796 36.41547717664 36.4330893950275 36.4196631758842
-9999 -9999 -9999 -9999 -9999 -9999 -9999 35.4371597120262 35.6032684583647 35.6301880522595 36.0353173847614 36.2221985411517 36.2972785535709 36.3328360163697 36.3292507220019 36.3276240827654 36.338649169976 36.3485047235139 36.3599760731625 36.3745010807199 36.3817642753572 36.3794187823563 36.3788090064399 36.3848306316489 36.3969693372571 36.4069766878487 36.4132651226357 36.4067391639665 36.4027866910152 36.4263155442317 36.454451943833 36.4641550564101 36.4685708244814 36.4636084813084 36.4579453419383
-9999 -9999 -9999 -9999 -9999 -9999 35.6629462896894 35.8098263215798 35.9764324600544 36.0799998792021 36.2223015313954 36.2957915241064 36.3405104033178 36.3625196078139 36.3489937038163 36.3398729152533 36.3454098045803 36.3531763560855 36.3634670230797 36.3755561089452 36.3656656100372 36.3642710281806 36.3669784693621 36.3731142928212 36.3785601497943 36.404059068711 36.4222691145154 36.4185381496008 36.4238243847084 36.4577338090944 36.4837823563053 36.4852450648652 36.4861521420397 36.4714746371796 36.4514817805416
-9999 -9999 -9999 -9999 35.5087555093092 35.8743637592956 36.0201946751273 36.0349087030463 36.0535675446312 36.1864885756843 36.2661226271569 36.3333857694208 36.3641266991067 36.3760878741856 36.3834274214384 36.3849979374714 36.3792790934373 36.3658909774916 36.3577701402993 36.3607116550945 36.3454928860241 36.351455961305 36.3597129244642 36.3722105290849 36.3686962200993 36.390921415154 36.4215592808152 36.4230524341035 36.4299917086352 36.4598077772399 36.4716809959624 36.4789366823756 36.4951722933025 36.4775064441682 36.4485711263315
-9999 -9999 -9999 35.6792429199299 35.858701230305 36.051693392905 36.0670241655758 36.0494130418302 36.1186423622057 36.2336529050699 36.2916548535053 36.3582946682931 36.3831814167642 36.3878415784007 36.406582123095 36.4284383983342 36.4262299985022 36.4205728689309 36.4025028889994 36.3738996662044 36.349377660202 36.3481616605894 36.3601505934265 36.3599402316884 36.354911103285 36.3879283931636 36.4226806381701 36.4231892106848 36.4251623443336 36.4362063315565 36.4394019535224 36.4482104686479 36.4644572848982 36.4638644933707 36.4583560057088
-9999 -9999 35.7405708770394 35.9821804388686 36.0475404287735 36.0412616029572 36.0328718386718 36.1110443466537 36.2209101616958 36.2745873341696 36.3028765235146 36.3660211043914 36.3938074587015 36.4051777940961 36.4106909031322 36.4231662486924 36.4215176710074 36.4197260741968 36.4328250309547 36.4224842230555 36.3886300613181 36.3710874412299 36.3606959357145 36.3575791205889 36.3537339808998 36.4019494448855 36.4253374917361 36.4376494271113 36.4472029265525 36.4487951362152 36.4434474529272 36.4437893742582 36.4642586630606 36.480823666632 36.4508941100871
