NCOLS 70 
NROWS 52 
XLLCORNER -80 
YLLCORNER 33 
CELLSIZE 0.25 
NODATA_value -9999 
-9999.000000000000000 -9999 -9999 -9999 -9999 -9999 -9999 -9999 -9999 -9999 -9999 -9999 -9999 -9999 -9999 -9999 -9999 -9999 -9999 -9999 -9999 -9999 -9999 -9999 -9999 -9999 -9999 -9999 -9999 -9999 -9999 -9999 -9999 -9999 -9999 -9999 -9999 -9999 -9999 -9999 -9999 -9999 -9999 -9999 -9999 -9999 -9999 -9999 -9999 -9999 -9999 -9999 -9999 -9999 -9999 -9999 -9999 -9999 -9999 -9999 -9999 -9999 -9999 -9999 -9999 -9999 -9999 -9999 -9999 -9999
-9999 -9999 -9999 -9999 -9999 -9999 -9999 -9999 -9999 -9999 -9999 -9999 -9999 -9999 -9999 -9999 -9999 -9999 -9999 -9999 -9999 -9999 -9999 -9999 -9999 -9999 -9999 -9999 -9999 -9999 -9999 -9999 -9999 -9999 -9999 -9999 -9999 -9999 -9999 -9999 -9999 -9999 -9999 -9999 -9999 -9999 -9999 -9999 -9999 -9999 -9999 -9999 -9999 -9999 -9999 -9999 -9999 -9999 -9999 -9999 -9999 -9999 -9999 -9999 -9999 -9999 -9999 -9999 -9999 -9999
-9999 -9999 -9999 -9999 -9999 -9999 -9999 -9999 -9999 -9999 -9999 -9999 -9999 -9999 -9999 -9999 -9999 -9999 -9999 -9999 -9999 -9999 -9999 -9999 -9999 -9999 -9999 -9999 -9999 -9999 -9999 -9999 -9999 -9999 -9999 -9999 -9999 -9999 -9999 -9999 -9999 -9999 -9999 -9999 -9999 -9999 -9999 -9999 -9999 -9999 -9999 -9999 -9999 -9999 -9999 -9999 -9999 -9999 -9999 30.1529598236084 -9999 -9999 -9999 -9999 -9999 -9999 -9999 -9999 -9999 -9999
-9999 -9999 -9999 -9999 -9999 -9999 -9999 -9999 -9999 -9999 -9999 -9999 -9999 -9999 -9999 -9999 -9999 -9999 -9999 -9999 -9999 -9999 -9999 -9999 -9999 -9999 -9999 -9999 -9999 -9999 -9999 -9999 -9999 -9999 -9999 -9999 -9999 -9999 -9999 -9999 -9999 -9999 -9999 -9999 -9999 -9999 -9999 -9999 -9999 -9999 -9999 -9999 -9999 -9999 -9999 30.9856338500977 30.9302539825439 30.9946765899658 30.8992729187012 30.6790943145752 -9999 -9999 -9999 -9999 -9999 -9999 -9999 -9999 -9999 -9999
-9999 -9999 -9999 -9999 -9999 -9999 -9999 -9999 -9999 -9999 -9999 -9999 -9999 -9999 -9999 -9999 -9999 -9999 -9999 -9999 -9999 -9999 -9999 -9999 -9999 -9999 -9999 -9999 -9999 -9999 -9999 -9999 -9999 -9999 -9999 -9999 -9999 -9999 -9999 -9999 -9999 -9999 -9999 -9999 -9999 -9999 -9999 -9999 -9999 -9999 -9999 -9999 31.6413612365723 31.5625019073486 31.4715003967285 31.3632030487061 31.1438083648682 30.9752388000488 -9999 -9999 -9999 -9999 -9999 -9999 -9999 -9999 -9999 -9999 -9999 -9999
-9999 -9999 -9999 -9999 -9999 -9999 -9999 -9999 -9999 -9999 -9999 -9999 -9999 -9999 -9999 -9999 -9999 -9999 -9999 -9999 -9999 -9999 -9999 -9999 -9999 -9999 -9999 -9999 -9999 -9999 -9999 -9999 -9999 -9999 -9999 -9999 -9999 -9999 -9999 -9999 -9999 -9999 -9999 -9999 -9999 -9999 -9999 -9999 -9999 -9999 32.1768577575684 32.112174987793 32.137565612793 32.1011619567871 31.9232406616211 31.407398223877 -9999 -9999 -9999 -9999 -9999 -9999 -9999 -9999 -9999 -9999 -9999 30.225627263387 30.1898589134216 30.162748336792
-9999 -9999 -9999 -9999 -9999 -9999 -9999 -9999 -9999 -9999 -9999 -9999 -9999 -9999 -9999 -9999 -9999 -9999 -9999 -9999 -9999 -9999 -9999 -9999 -9999 -9999 -9999 -9999 -9999 -9999 -9999 -9999 -9999 -9999 -9999 -9999 -9999 -9999 -9999 -9999 -9999 -9999 -9999 -9999 31.9856713612874 -9999 -9999 32.2413339614868 32.2887573242188 32.330135345459 32.3442153930664 32.3559494018555 32.3498115539551 32.1847763061523 31.8282928466797 -9999 -9999 -9999 -9999 -9999 -9999 -9999 -9999 30.2771968841553 30.2524929046631 30.2206077575684 30.237943649292 30.2449131011963 30.1940250396729 30.1577491760254
-9999 -9999 -9999 -9999 -9999 -9999 -9999 -9999 -9999 -9999 -9999 -9999 -9999 -9999 -9999 -9999 -9999 -9999 -9999 -9999 -9999 -9999 -9999 -9999 -9999 -9999 -9999 -9999 -9999 -9999 -9999 -9999 -9999 -9999 -9999 -9999 -9999 -9999 -9999 -9999 -9999 -9999 -9999 -9999 31.9788932800293 31.9728183746338 32.0779647827148 32.2309379577637 32.36767578125 32.4575996398926 32.477970123291 32.4598007202148 32.3817329406738 32.1303787231445 32.0411911010742 -9999 -9999 -9999 -9999 -9999 -9999 -9999 30.2804107666016 30.3075790405273 30.2907447814941 30.2413921356201 30.1629066467285 30.1393756866455 30.1812381744385 30.2757129669189
-9999 -9999 -9999 -9999 -9999 -9999 -9999 -9999 -9999 -9999 -9999 -9999 -9999 -9999 -9999 -9999 -9999 -9999 -9999 -9999 -9999 -9999 -9999 -9999 -9999 -9999 -9999 -9999 -9999 -9999 -9999 -9999 -9999 -9999 -9999 -9999 -9999 -9999 -9999 -9999 31.7207889556885 31.9357719421387 32.2211418151855 32.4030914306641 32.4709701538086 32.5532302856445 32.5952453613281 32.6262283325195 32.6195030212402 32.5536994934082 32.4482879638672 32.3708915710449 32.2798347473145 32.0213165283203 31.7774757385254 -9999 -9999 -9999 -9999 -9999 30.2528940836589 30.2398109436035 30.2023410797119 30.1762561798096 30.1717853546143 30.1652317047119 30.1632537841797 30.2677364349365 30.373405456543 30.4479026794434
-9999 -9999 -9999 -9999 -9999 -9999 -9999 -9999 -9999 -9999 -9999 -9999 -9999 -9999 -9999 -9999 -9999 -9999 -9999 -9999 -9999 -9999 -9999 -9999 -9999 -9999 -9999 -9999 -9999 -9999 -9999 -9999 -9999 -9999 -9999 -9999 -9999 -9999 -9999 31.6276950836182 31.6621513366699 31.8725204467773 32.2726440429688 32.5521507263184 32.6856498718262 32.7493515014648 32.7597808837891 32.7411460876465 32.6722373962402 32.5096168518066 32.2900161743164 32.1720085144043 32.102970123291 31.8681221008301 31.5507583618164 31.3168029785156 -9999 -9999 -9999 30.380982875824 30.2966041564941 30.2222671508789 30.1701774597168 30.1389007568359 30.1276741027832 30.1794948577881 30.3548393249512 30.582067489624 30.665189743042 30.6716251373291
-9999 -9999 -9999 -9999 -9999 -9999 -9999 -9999 -9999 -9999 -9999 -9999 -9999 -9999 -9999 -9999 -9999 -9999 -9999 -9999 -9999 -9999 -9999 -9999 -9999 -9999 -9999 -9999 -9999 -9999 -9999 -9999 -9999 -9999 -9999 -9999 -9999 -9999 32.2535167694092 32.2826461791992 32.4048156738281 32.544246673584 32.6358947753906 32.7412185668945 32.8200836181641 32.8743057250977 32.9009971618652 32.8887329101562 32.8107414245605 32.5684700012207 32.1810760498047 31.9488162994385 31.8750801086426 31.6935195922852 31.4319381713867 31.2070217132568 31.0021743774414 30.7995688120524 30.5452747344971 30.4055576324463 30.2764949798584 30.2080574035645 30.187686920166 30.1652927398682 30.1448001861572 30.2210903167725 30.4263381958008 30.6344928741455 30.7766265869141 30.894437789917
-9999 -9999 -9999 -9999 -9999 -9999 -9999 -9999 -9999 -9999 -9999 -9999 -9999 -9999 -9999 -9999 -9999 -9999 -9999 -9999 -9999 -9999 -9999 -9999 -9999 -9999 -9999 -9999 -9999 -9999 -9999 -9999 -9999 -9999 -9999 -9999 -9999 32.3231430053711 32.4433097839355 32.5907897949219 32.6679801940918 32.7120704650879 32.7630310058594 32.8364791870117 32.9043121337891 32.9610481262207 33.0004844665527 33.0022201538086 32.9168434143066 32.5921745300293 32.0250434875488 31.5988807678223 31.4844818115234 31.4298725128174 31.2886257171631 31.0919322967529 30.9001979827881 30.7047824859619 30.4761734008789 30.3016662597656 30.2315769195557 30.2396202087402 30.2940807342529 30.3274250030518 30.2419834136963 30.2357692718506 30.3968658447266 30.6118679046631 30.8673496246338 31.0729217529297
-9999 -9999 -9999 -9999 -9999 -9999 -9999 -9999 -9999 -9999 -9999 -9999 -9999 -9999 -9999 -9999 -9999 -9999 -9999 -9999 -9999 -9999 -9999 -9999 -9999 -9999 -9999 -9999 -9999 -9999 -9999 -9999 -9999 -9999 -9999 -9999 -9999 32.5049133300781 32.6215476989746 32.7619132995605 32.8141937255859 32.8342895507812 32.8589553833008 32.9037475585938 32.954158782959 32.9945030212402 33.0116157531738 32.9902420043945 32.904956817627 32.6304779052734 32.0730934143066 31.4813327789307 31.1721630096436 31.0983753204346 31.0528011322021 30.9329814910889 30.7485980987549 30.5732841491699 30.415433883667 30.3012542724609 30.2751655578613 30.3365955352783 30.4862384796143 30.6400413513184 30.5191383361816 30.403923034668 30.4927463531494 30.694917678833 30.9792385101318 31.212230682373
-9999 -9999 -9999 -9999 -9999 -9999 -9999 -9999 -9999 -9999 -9999 -9999 -9999 -9999 -9999 -9999 -9999 -9999 -9999 -9999 -9999 -9999 -9999 -9999 -9999 -9999 -9999 -9999 -9999 -9999 -9999 -9999 -9999 -9999 -9999 -9999 -9999 32.4021072387695 32.6503067016602 32.8026924133301 32.846363067627 32.8787078857422 32.9186477661133 32.9609336853027 32.9947624206543 33.0106468200684 32.9939117431641 32.9289970397949 32.831974029541 32.6332740783691 32.1631622314453 31.5652198791504 31.1573028564453 31.0136642456055 31.0156326293945 31.0184574127197 30.8529949188232 30.724573135376 30.584810256958 30.4543132781982 30.3920497894287 30.4624195098877 30.6706829071045 30.891565322876 30.8514175415039 30.8481349945068 30.942834854126 31.0722255706787 31.1983184814453 31.3712482452393
-9999 -9999 -9999 -9999 -9999 -9999 -9999 -9999 -9999 -9999 -9999 -9999 -9999 -9999 -9999 -9999 -9999 -9999 -9999 -9999 -9999 -9999 -9999 -9999 -9999 -9999 -9999 -9999 -9999 -9999 -9999 -9999 -9999 -9999 -9999 -9999 31.9208030700684 32.2887153625488 32.6375465393066 32.7539329528809 32.7915229797363 32.8459320068359 32.9101638793945 32.9621925354004 32.9939231872559 33.0038261413574 32.973072052002 32.8763771057129 32.7228775024414 32.4829330444336 32.0837860107422 31.6547451019287 31.3554878234863 31.2741394042969 31.4201240539551 31.4804744720459 31.1556549072266 30.9707889556885 30.8253288269043 30.7285346984863 30.6601886749268 30.7242641448975 30.9513263702393 31.1513786315918 31.3134212493896 31.5410099029541 31.6551265716553 31.643871307373 31.466157913208 31.5649547576904
-9999 -9999 -9999 -9999 -9999 -9999 -9999 -9999 -9999 -9999 -9999 -9999 -9999 -9999 -9999 -9999 -9999 -9999 -9999 -9999 -9999 -9999 -9999 -9999 -9999 -9999 -9999 -9999 -9999 -9999 -9999 -9999 -9999 -9999 -9999 -9999 -9999 32.3771514892578 32.4826469421387 32.6051979064941 32.6909980773926 32.780647277832 32.8608360290527 32.9230499267578 32.9640502929688 32.9845428466797 32.9652290344238 32.893684387207 32.7670860290527 32.5871047973633 32.3429679870605 32.0872535705566 31.8520965576172 31.7196197509766 31.8120899200439 31.686731338501 31.1445236206055 30.9372444152832 30.9698867797852 31.0791568756104 31.1662063598633 31.1773204803467 31.2618255615234 31.3641891479492 31.6166210174561 31.9113864898682 32.0450859069824 32.0518531799316 31.9146747589111 32.2140960693359
-9999 -9999 -9999 -9999 -9999 -9999 -9999 -9999 -9999 -9999 -9999 -9999 -9999 -9999 -9999 -9999 -9999 -9999 -9999 -9999 -9999 -9999 -9999 -9999 -9999 -9999 -9999 -9999 -9999 -9999 -9999 -9999 -9999 -9999 -9999 -9999 -9999 -9999 32.1656608581543 -9999 32.5835571289062 32.6979637145996 32.7996635437012 32.8783073425293 32.930835723877 32.9556465148926 32.9480819702148 32.9301261901855 32.900505065918 32.8466110229492 32.7651557922363 32.6569366455078 32.5109748840332 32.3540840148926 32.2820854187012 31.9924583435059 31.3432750701904 31.0487957000732 31.2092971801758 31.5693206787109 31.719051361084 31.6556587219238 31.6545810699463 31.7353363037109 32.0499877929688 32.431640625 32.6320571899414 32.6692314147949 32.7714157104492 33.1876220703125
-9999 -9999 -9999 -9999 -9999 -9999 -9999 -9999 -9999 -9999 -9999 -9999 -9999 -9999 -9999 -9999 -9999 -9999 -9999 -9999 -9999 -9999 -9999 -9999 -9999 -9999 -9999 -9999 -9999 -9999 -9999 -9999 -9999 -9999 -9999 -9999 -9999 -9999 -9999 -9999 32.2118263244629 32.540641784668 32.7178382873535 32.835636138916 32.8962173461914 32.9041290283203 32.8865051269531 32.881664276123 32.886589050293 32.89208984375 32.8779449462891 32.8355255126953 32.7731819152832 32.704662322998 32.5719108581543 32.1571311950684 31.6555366516113 31.3301334381104 31.5084438323975 31.9344635009766 32.0123825073242 32.0437049865723 32.1352653503418 32.3035163879395 32.6681442260742 33.1565780639648 33.2443656921387 33.132266998291 33.2486534118652 33.4765968322754
-9999 -9999 -9999 -9999 -9999 -9999 -9999 -9999 -9999 -9999 -9999 -9999 -9999 -9999 -9999 -9999 -9999 -9999 -9999 -9999 -9999 -9999 -9999 -9999 -9999 -9999 -9999 -9999 -9999 -9999 -9999 -9999 -9999 -9999 31.9681072235107 31.571647644043 31.5204277038574 -9999 31.3298454284668 31.3158187866211 31.7332916259766 32.2625732421875 32.5948486328125 32.7703552246094 32.8318367004395 32.8185577392578 32.7975463867188 32.8077278137207 32.8287239074707 32.8460083007812 32.8380661010742 32.7913208007812 32.741943359375 32.7086524963379 32.5435104370117 32.1437454223633 31.8544960021973 31.7245960235596 31.9661540985107 32.2774772644043 32.315616607666 32.4165878295898 32.5844039916992 32.8732681274414 33.295467376709 33.6398315429688 33.6468887329102 33.6374893188477 33.8150787353516 33.9884490966797
-9999 -9999 -9999 -9999 -9999 -9999 -9999 -9999 -9999 -9999 -9999 -9999 -9999 -9999 -9999 -9999 -9999 -9999 -9999 -9999 -9999 -9999 -9999 -9999 -9999 -9999 -9999 25.2451572418213 25.2451572418213 26.1606063842773 27.3959789276123 29.6741561889648 31.6844177246094 32.098503112793 32.0681304931641 32.134147644043 32.1999855041504 32.0783233642578 31.8218269348145 31.6003131866455 31.752758026123 32.1834907531738 32.5451316833496 32.7281150817871 32.7729606628418 32.7458190917969 32.7264633178711 32.7485046386719 32.7780303955078 32.7928352355957 32.7734909057617 32.7183494567871 32.654411315918 32.5388107299805 32.2997360229492 32.0809364318848 32.0824508666992 32.2336845397949 32.529972076416 32.7701873779297 32.8306198120117 32.9102325439453 33.0823745727539 33.3710517883301 33.6764144897461 33.8864212036133 34.1250343322754 34.3447341918945 34.5723342895508 34.8727836608887
-9999 -9999 -9999 -9999 -9999 -9999 -9999 -9999 -9999 -9999 -9999 -9999 -9999 -9999 -9999 -9999 -9999 -9999 -9999 -9999 -9999 -9999 -9999 -9999 -9999 -9999 -9999 -9999 -9999 -9999 29.4484577178955 31.1180515289307 32.6618461608887 32.9714813232422 32.903938293457 32.8071899414062 32.6774940490723 32.5121879577637 32.2926979064941 32.0640029907227 32.0683631896973 32.3158302307129 32.5777626037598 32.7223358154297 32.7496109008789 32.7119598388672 32.6799545288086 32.6989974975586 32.7343711853027 32.7370986938477 32.6919288635254 32.6224937438965 32.5161209106445 32.3093948364258 32.1444969177246 32.209659576416 32.5216598510742 32.7882308959961 33.0564880371094 33.2774467468262 33.4338531494141 33.5564117431641 33.6554183959961 33.7381820678711 33.881778717041 34.2224502563477 34.7858543395996 35.1851348876953 35.3116073608398 35.6061134338379
-9999 -9999 -9999 -9999 -9999 -9999 -9999 -9999 -9999 -9999 -9999 -9999 -9999 -9999 -9999 -9999 -9999 -9999 -9999 -9999 -9999 -9999 -9999 -9999 -9999 32.1435082753499 32.4183133443197 32.6738560994466 32.9281711578369 32.8967361450195 33.0401802062988 33.0876159667969 33.1203231811523 33.1002922058105 32.9981422424316 32.8719787597656 32.7512168884277 32.6452713012695 32.524658203125 32.3990097045898 32.3855133056641 32.4882469177246 32.6316604614258 32.7314224243164 32.7563858032227 32.7305603027344 32.6933555603027 32.7019424438477 32.7305183410645 32.7431144714355 32.668529510498 32.5415954589844 32.4530296325684 32.4819297790527 32.6914978027344 33.0318641662598 33.4134178161621 33.5838851928711 33.7004089355469 33.8031158447266 33.9483871459961 34.080265045166 34.0700492858887 34.0156631469727 34.0600509643555 34.4112663269043 34.9794845581055 35.3525772094727 35.4987907409668 35.6659927368164
-9999 -9999 -9999 -9999 -9999 -9999 -9999 -9999 -9999 -9999 -9999 -9999 -9999 -9999 -9999 -9999 -9999 -9999 -9999 -9999 -9999 -9999 -9999 -9999 31.8144474029541 32.1843910217285 32.4316864013672 32.6388626098633 32.9510192871094 33.2260665893555 33.3412551879883 33.3420524597168 33.2891731262207 33.2172012329102 33.125904083252 33.0066452026367 32.8954811096191 32.8144989013672 32.7441825866699 32.7221832275391 32.7349739074707 32.7270431518555 32.7398796081543 32.7870330810547 32.8354949951172 32.864803314209 32.8846054077148 32.9483985900879 33.0799140930176 33.2542991638184 33.2135887145996 33.0724182128906 33.3168754577637 33.76611328125 34.136344909668 34.400463104248 34.5379104614258 34.553394317627 34.5190773010254 34.4966201782227 34.5473937988281 34.6497802734375 34.5875129699707 34.4512329101562 34.4120597839355 34.5731964111328 34.9085464477539 35.2211875915527 35.5025787353516 35.7098617553711
-9999 -9999 -9999 -9999 -9999 -9999 -9999 -9999 -9999 -9999 -9999 -9999 -9999 -9999 -9999 -9999 -9999 -9999 -9999 -9999 -9999 -9999 -9999 -9999 32.3234825134277 32.8767852783203 33.1677589416504 33.3067932128906 33.4661827087402 33.5452880859375 33.5211906433105 33.4749145507812 33.4752578735352 33.4966773986816 33.4595527648926 33.3358955383301 33.160270690918 33.0158615112305 32.9711494445801 33.0743293762207 33.1477966308594 33.0781059265137 32.9602890014648 32.9054412841797 32.9455833435059 33.0591659545898 33.224178314209 33.5178565979004 33.8526229858398 34.1324920654297 34.0890922546387 34.1223678588867 34.7237815856934 35.2264785766602 35.3390655517578 35.2919311523438 35.147647857666 34.9920616149902 34.8904991149902 34.805778503418 34.8058166503906 34.9133567810059 34.9343147277832 34.8393898010254 34.7220916748047 34.7877655029297 35.1199569702148 35.447811126709 35.6830406188965 35.8185653686523
-9999 -9999 -9999 -9999 -9999 -9999 -9999 -9999 -9999 -9999 -9999 -9999 -9999 -9999 -9999 -9999 -9999 -9999 -9999 -9999 -9999 -9999 -9999 32.5519952774048 32.5600128173828 33.1454010009766 33.4878692626953 33.6276931762695 33.7000770568848 33.7101669311523 33.6923561096191 33.7470359802246 33.9361381530762 34.0704193115234 34.0217018127441 33.8661346435547 33.6752128601074 33.5189170837402 33.5313682556152 33.7661514282227 33.9861030578613 34.0626945495605 33.9394493103027 33.7181091308594 33.6064720153809 33.6986465454102 33.9454536437988 34.2769966125488 34.512939453125 34.6740379333496 34.5353050231934 34.657844543457 35.2214851379395 35.6117706298828 35.755241394043 35.7493553161621 35.5661697387695 35.3114852905273 35.1205673217773 34.960620880127 34.9066390991211 35.0370864868164 35.1925811767578 35.2265663146973 35.1466217041016 35.1761283874512 35.5032119750977 35.7874794006348 35.8500175476074 35.8678207397461
-9999 -9999 -9999 -9999 -9999 -9999 -9999 -9999 -9999 -9999 -9999 -9999 -9999 -9999 -9999 -9999 -9999 -9999 -9999 -9999 -9999 -9999 -9999 32.4700736999512 32.8544120788574 33.2954406738281 33.5453567504883 33.6861877441406 33.8286895751953 33.983699798584 34.0746612548828 34.1804618835449 34.3869400024414 34.4452857971191 34.3259429931641 34.2720260620117 34.3420562744141 34.3978424072266 34.4585418701172 34.6139793395996 34.8276634216309 35.0610961914062 35.138599395752 34.9799346923828 34.7670974731445 34.7288932800293 34.9197807312012 35.0668563842773 35.0598106384277 35.109546661377 34.9136276245117 34.8452835083008 35.182674407959 35.4861679077148 35.7053604125977 35.8707656860352 35.8533096313477 35.6533508300781 35.420726776123 35.2407073974609 35.1845779418945 35.3387145996094 35.5525741577148 35.6357231140137 35.611026763916 35.5803756713867 35.7373275756836 35.9037590026855 35.9438934326172 35.955451965332
-9999 -9999 -9999 -9999 -9999 -9999 -9999 -9999 -9999 -9999 -9999 -9999 -9999 -9999 -9999 -9999 -9999 -9999 -9999 -9999 -9999 -9999 32.9065742492676 33.0048713684082 33.2661933898926 33.5170593261719 33.677806854248 33.8352355957031 34.0512504577637 34.2608909606934 34.354434967041 34.3978843688965 34.4415588378906 34.3754425048828 34.3521499633789 34.5622482299805 34.8262481689453 34.9801597595215 35.0429000854492 35.0428085327148 35.1094398498535 35.3213005065918 35.5035820007324 35.4870834350586 35.3516082763672 35.3223571777344 35.4872055053711 35.6044769287109 35.5764274597168 35.5425910949707 35.3711395263672 35.2145118713379 35.3065910339355 35.4552154541016 35.5888748168945 35.8023414611816 35.9667930603027 35.9400062561035 35.7793083190918 35.602481842041 35.5380973815918 35.6489906311035 35.8359222412109 35.9454689025879 35.9671173095703 35.9277267456055 35.9204750061035 35.9713935852051 36.0193824768066 36.0616188049316
-9999 -9999 -9999 -9999 -9999 -9999 -9999 -9999 -9999 -9999 -9999 -9999 -9999 -9999 17.90188492669 -9999 -9999 -9999 -9999 32.6106796264648 -9999 33.120304107666 33.2000617980957 33.4267196655273 33.6291007995605 33.7873725891113 33.9400291442871 34.1607818603516 34.4028739929199 34.4894943237305 34.4628639221191 34.4726181030273 34.4435272216797 34.3624992370605 34.4550590515137 34.7382202148438 34.9597969055176 35.1244010925293 35.2593994140625 35.2597122192383 35.2961273193359 35.4781188964844 35.6034851074219 35.5888290405273 35.5458145141602 35.600715637207 35.7466468811035 35.8463325500488 35.8778915405273 35.8732795715332 35.8312797546387 35.7757263183594 35.7885818481445 35.8458137512207 35.8620414733887 35.9276237487793 36.0359115600586 36.08056640625 36.0376853942871 35.8683204650879 35.7291641235352 35.7726440429688 35.9183120727539 36.0474967956543 36.1122016906738 36.127555847168 36.1377334594727 36.1781234741211 36.2373504638672 36.3029556274414
-9999 -9999 -9999 -9999 -9999 -9999 -9999 -9999 -9999 -9999 -9999 -9999 -9999 -9999 17.9128131866455 -9999 -9999 -9999 -9999 32.747314453125 33.1864486694336 33.465763092041 33.6743392944336 33.8592567443848 33.9798965454102 34.0842971801758 34.2892265319824 34.5882034301758 34.7948417663574 34.7734184265137 34.6777458190918 34.6388816833496 34.5610656738281 34.4400520324707 34.4572486877441 34.6383972167969 34.8597946166992 35.1099281311035 35.3284339904785 35.4059524536133 35.4688873291016 35.6166572570801 35.7220687866211 35.7492485046387 35.7629051208496 35.7985153198242 35.8629531860352 35.9254493713379 35.9831962585449 36.0415954589844 36.0943870544434 36.1346092224121 36.1700096130371 36.1989135742188 36.2028923034668 36.1915397644043 36.1857872009277 36.1903686523438 36.1920852661133 36.1133918762207 35.9989700317383 35.9707412719727 36.0260848999023 36.1207237243652 36.2070083618164 36.2728424072266 36.3405838012695 36.4126396179199 36.476432800293 36.525074005127
-9999 -9999 -9999 -9999 -9999 -9999 -9999 -9999 -9999 -9999 -9999 -9999 -9999 -9999 17.8636360168457 -9999 -9999 -9999 -9999 -9999 33.8069314956665 33.8515472412109 34.0807304382324 34.2774810791016 34.4205627441406 34.5622711181641 34.8185997009277 35.0851631164551 35.150146484375 35.0432014465332 34.9638252258301 34.9233207702637 34.8215141296387 34.7038192749023 34.6851463317871 34.761547088623 34.9474945068359 35.2190437316895 35.4262771606445 35.5291595458984 35.5936622619629 35.6766319274902 35.7975425720215 35.8957023620605 35.9230766296387 35.9164924621582 35.929744720459 35.9774398803711 36.0522804260254 36.1356658935547 36.2115821838379 36.2703971862793 36.3090591430664 36.3296928405762 36.3390579223633 36.3427886962891 36.3436317443848 36.3416900634766 36.3398170471191 36.3339538574219 36.3035926818848 36.2722206115723 36.2778053283691 36.3278312683105 36.3961639404297 36.4575424194336 36.5129165649414 36.5541915893555 36.5786819458008 36.5899772644043
-9999 -9999 -9999 -9999 -9999 -9999 -9999 -9999 -9999 -9999 -9999 -9999 -9999 -9999 17.9622898101807 -9999 18.0603446960449 -9999 -9999 -9999 33.8268814086914 34.0835342407227 34.4302368164062 34.7103424072266 34.9064865112305 35.0777740478516 35.3085327148438 35.486988067627 35.4874420166016 35.4003639221191 35.363166809082 35.29736328125 35.1640434265137 35.1232414245605 35.1795845031738 35.1959762573242 35.2399024963379 35.3950996398926 35.5300941467285 35.6265258789062 35.7139892578125 35.7693023681641 35.851146697998 35.9431762695312 35.9548568725586 35.9254608154297 35.9434814453125 36.0146408081055 36.1187477111816 36.2208633422852 36.3050765991211 36.3702125549316 36.4106025695801 36.4300804138184 36.4405632019043 36.4489212036133 36.4568901062012 36.4601936340332 36.4590263366699 36.455150604248 36.4514579772949 36.4517364501953 36.4630088806152 36.4901504516602 36.5244140625 36.555290222168 36.5759391784668 36.586368560791 36.590404510498 36.5902366638184
-9999 -9999 -9999 -9999 -9999 -9999 -9999 -9999 -9999 -9999 -9999 -9999 -9999 -9999 17.9622898101807 18.0609436035156 18.3648910522461 -9999 -9999 33.8173837661743 33.9023551940918 34.3577499389648 34.8005027770996 35.0897483825684 35.2717323303223 35.4366264343262 35.6327590942383 35.7469024658203 35.7125701904297 35.659782409668 35.6428642272949 35.5770568847656 35.5135231018066 35.5897979736328 35.7218437194824 35.7619247436523 35.7373657226562 35.7386131286621 35.7686805725098 35.8287467956543 35.8918838500977 35.9242782592773 35.9604682922363 36.0010795593262 35.9895973205566 35.960033416748 35.9954032897949 36.0813484191895 36.1877136230469 36.2893257141113 36.3764114379883 36.4418525695801 36.4785194396973 36.4942626953125 36.5063629150391 36.5174674987793 36.5257606506348 36.5274314880371 36.5241737365723 36.5214157104492 36.5200805664062 36.5207214355469 36.5257453918457 36.5402946472168 36.5604553222656 36.5798645019531 36.589786529541 36.5924415588379 36.5904579162598 36.5831108093262
-9999 -9999 -9999 -9999 -9999 -9999 -9999 -9999 -9999 -9999 -9999 -9999 -9999 -9999 -9999 19.7560852050781 18.8910541534424 -9999 29.3737697601318 33.5146522521973 34.0256462097168 34.6073989868164 35.0547370910645 35.2955207824707 35.4800338745117 35.7261238098145 35.9344635009766 35.9844055175781 35.9235649108887 35.8358039855957 35.7569160461426 35.703742980957 35.7186012268066 35.8169555664062 35.9336776733398 36.0029258728027 36.0205574035645 36.0085144042969 36.0032386779785 36.0287017822266 36.0503692626953 36.0429954528809 36.0470161437988 36.0701637268066 36.0705528259277 36.0698776245117 36.1072273254395 36.1706047058105 36.2594413757324 36.3564109802246 36.4400825500488 36.4927597045898 36.5166168212891 36.5283470153809 36.5438842773438 36.5551223754883 36.5589752197266 36.5610771179199 36.5625991821289 36.5634498596191 36.5633163452148 36.5631942749023 36.5658378601074 36.5732841491699 36.587100982666 36.5977325439453 36.5990562438965 36.5967178344727 36.5898475646973 36.5763206481934
-9999 -9999 -9999 -9999 -9999 -9999 -9999 -9999 -9999 -9999 -9999 -9999 -9999 -9999 -9999 21.2668056488037 22.1967315673828 -9999 32.1800765991211 33.2330932617188 34.009838104248 34.6766586303711 35.1218528747559 35.428825378418 35.7386779785156 36.0240287780762 36.1390800476074 36.1134567260742 36.0703773498535 36.016300201416 35.9641952514648 35.9540634155273 35.9817123413086 36.0166816711426 36.0514106750488 36.0853157043457 36.1068305969238 36.1159973144531 36.1236152648926 36.1372451782227 36.1444091796875 36.1310424804688 36.1238441467285 36.1403846740723 36.1591415405273 36.1760177612305 36.2031059265137 36.2513999938965 36.3307151794434 36.4194984436035 36.4887886047363 36.520751953125 36.5293350219727 36.5342330932617 36.5460090637207 36.5550231933594 36.560115814209 36.5713272094727 36.5843544006348 36.5879135131836 36.5881195068359 36.5889282226562 36.5891342163086 36.5881004333496 36.5928764343262 36.598503112793 36.5961837768555 36.5902519226074 36.5807418823242 36.5647087097168
-9999 -9999 -9999 -9999 -9999 -9999 -9999 -9999 -9999 -9999 -9999 -9999 -9999 -9999 -9999 22.1979942321777 -9999 27.8381775447301 31.7067413330078 33.2279472351074 34.2144584655762 34.8290977478027 35.247428894043 35.5990180969238 35.932186126709 36.1416320800781 36.1779327392578 36.148754119873 36.1227073669434 36.1132278442383 36.1251068115234 36.1558990478516 36.1883888244629 36.2125930786133 36.232177734375 36.2503547668457 36.2612190246582 36.2676849365234 36.2730484008789 36.275074005127 36.2741279602051 36.2693061828613 36.262638092041 36.2635536193848 36.2739410400391 36.2854423522949 36.3076400756836 36.3473701477051 36.4040832519531 36.4689865112305 36.5174827575684 36.5269813537598 36.5158424377441 36.5074996948242 36.5111274719238 36.5208358764648 36.530891418457 36.549674987793 36.5750694274902 36.5836334228516 36.586727142334 36.5898704528809 36.5912437438965 36.591236114502 36.593204498291 36.594539642334 36.5869636535645 36.5795211791992 36.569953918457 36.5546684265137
-9999 -9999 -9999 -9999 -9999 -9999 -9999 -9999 -9999 -9999 -9999 -9999 -9999 -9999 22.1979942321777 23.5982519785563 24.8495140075684 28.7266750335693 31.4602565765381 33.4760475158691 34.5863761901855 35.1499176025391 35.5540809631348 35.828914642334 36.0459518432617 36.1668167114258 36.1710815429688 36.1666030883789 36.1679649353027 36.1822204589844 36.212345123291 36.2509613037109 36.2900733947754 36.3264427185059 36.3579330444336 36.3818244934082 36.3942832946777 36.4007339477539 36.401969909668 36.3979911804199 36.392936706543 36.3904571533203 36.3897743225098 36.3937721252441 36.4031143188477 36.4178123474121 36.4335136413574 36.443717956543 36.464656829834 36.5040016174316 36.5298538208008 36.5251617431641 36.5025100708008 36.4899978637695 36.4965324401855 36.5103149414062 36.5213241577148 36.5332145690918 36.5556793212891 36.5711135864258 36.5783157348633 36.5830764770508 36.5879096984863 36.5949516296387 36.5994758605957 36.5969581604004 36.5849151611328 36.5782318115234 36.5685119628906 36.5539970397949
-9999 -9999 -9999 -9999 -9999 -9999 -9999 -9999 -9999 -9999 -9999 -9999 -9999 -9999 -9999 -9999 28.6493639945984 29.7369575500488 32.4460830688477 34.0052146911621 34.8977584838867 35.4389495849609 35.8562965393066 36.0354347229004 36.1172065734863 36.154613494873 36.1614532470703 36.1825752258301 36.2145080566406 36.2558097839355 36.3028831481934 36.349235534668 36.3896713256836 36.4202842712402 36.4423522949219 36.4595565795898 36.4699821472168 36.4748268127441 36.4753303527832 36.4720840454102 36.466983795166 36.4651298522949 36.4703483581543 36.4795417785645 36.4899559020996 36.4990234375 36.5036544799805 36.4988479614258 36.5061073303223 36.5234565734863 36.5225219726562 36.5024452209473 36.4795074462891 36.4759788513184 36.4900131225586 36.5058784484863 36.5202713012695 36.5330047607422 36.5483283996582 36.561710357666 36.5708236694336 36.5758895874023 36.5814933776855 36.5882911682129 36.5905609130859 36.5868263244629 36.577808380127 36.5751113891602 36.5687370300293 36.5569458007812
-9999 -9999 -9999 -9999 -9999 -9999 -9999 -9999 -9999 -9999 -9999 -9999 -9999 -9999 -9999 -9999 30.5106334686279 31.284309387207 33.4979820251465 34.6302261352539 35.2412223815918 35.6720161437988 35.9776840209961 36.0756645202637 36.1197624206543 36.1553916931152 36.1965026855469 36.2497673034668 36.3081436157227 36.3646087646484 36.4101371765137 36.439380645752 36.4574508666992 36.4701957702637 36.4815406799316 36.4983367919922 36.5158042907715 36.5237846374512 36.522632598877 36.5181503295898 36.5136375427246 36.5140380859375 36.5216522216797 36.5319900512695 36.5338516235352 36.5296058654785 36.5321159362793 36.5324935913086 36.5301170349121 36.5293197631836 36.5101623535156 36.4799575805664 36.4628105163574 36.467227935791 36.4842796325684 36.501953125 36.5215148925781 36.537841796875 36.549560546875 36.5603408813477 36.5705299377441 36.5763397216797 36.5796432495117 36.5835037231445 36.5799827575684 36.575008392334 36.570915222168 36.5720138549805 36.5736618041992 36.5690765380859
-9999 -9999 -9999 -9999 -9999 -9999 -9999 -9999 -9999 -9999 -9999 -9999 -9999 -9999 -9999 -9999 -9999 33.1855278015137 33.8532600402832 35.0276031494141 35.5365142822266 35.836368560791 36.0182914733887 36.1018257141113 36.1613502502441 36.2137489318848 36.2736549377441 36.3416900634766 36.4045448303223 36.4483947753906 36.4694709777832 36.4783515930176 36.4877433776855 36.5022430419922 36.522575378418 36.5450210571289 36.559139251709 36.5592651367188 36.5505638122559 36.538501739502 36.527645111084 36.5293960571289 36.5439987182617 36.5565948486328 36.5513153076172 36.5428886413574 36.5487442016602 36.5566940307617 36.5469093322754 36.530345916748 36.5008010864258 36.4699974060059 36.4597396850586 36.4695281982422 36.4899864196777 36.5115242004395 36.5323600769043 36.548511505127 36.5577659606934 36.5662231445312 36.5762710571289 36.5807151794434 36.5783004760742 36.5795783996582 36.5766487121582 36.5704498291016 36.5668869018555 36.5692291259766 36.5753135681152 36.5784225463867
-9999 -9999 -9999 -9999 -9999 -9999 -9999 -9999 -9999 -9999 -9999 -9999 -9999 -9999 31.0908904075623 31.284309387207 33.1390767097473 33.9799098968506 34.106559753418 35.0711441040039 35.6288375854492 35.916202545166 36.0818786621094 36.1658363342285 36.2127113342285 36.2722053527832 36.3550796508789 36.4351959228516 36.483211517334 36.4957389831543 36.4936561584473 36.5003433227539 36.5162544250488 36.5385818481445 36.5633964538574 36.5797424316406 36.5835876464844 36.5765609741211 36.5614814758301 36.5402221679688 36.5345497131348 36.5480041503906 36.565258026123 36.5690612792969 36.562931060791 36.5595664978027 36.5623817443848 36.5658645629883 36.5539703369141 36.5315437316895 36.4986114501953 36.4706382751465 36.4620780944824 36.4777641296387 36.5037841796875 36.5276222229004 36.5478324890137 36.5614166259766 36.5687713623047 36.5761222839355 36.5836868286133 36.5831604003906 36.5773887634277 36.5763473510742 36.5737571716309 36.567512512207 36.5616989135742 36.5606079101562 36.566276550293 36.5740356445312
-9999 -9999 -9999 -9999 -9999 -9999 -9999 -9999 -9999 -9999 -9999 -9999 -9999 -9999 -9999 -9999 -9999 -9999 34.9351243972778 35.1557960510254 35.7117385864258 36.0403900146484 36.1608924865723 36.2106323242188 36.268424987793 36.3619575500488 36.454402923584 36.5050735473633 36.509033203125 36.493709564209 36.4910888671875 36.5129890441895 36.5411376953125 36.5690574645996 36.5892944335938 36.5953674316406 36.5919342041016 36.5833282470703 36.5771484375 36.5734252929688 36.5777015686035 36.5852127075195 36.5867309570312 36.5836982727051 36.5779266357422 36.5709419250488 36.5681457519531 36.5669860839844 36.5563812255859 36.5327606201172 36.500675201416 36.478687286377 36.4768409729004 36.4989356994629 36.5276718139648 36.5483016967773 36.5628623962402 36.570858001709 36.5766983032227 36.5814933776855 36.5821304321289 36.5765609741211 36.5716209411621 36.5720634460449 36.5698661804199 36.5635643005371 36.5557098388672 36.5507164001465 36.5555381774902 36.5659637451172
-9999 -9999 -9999 -9999 -9999 -9999 -9999 -9999 -9999 -9999 -9999 -9999 -9999 -9999 -9999 -9999 -9999 35.4767608642578 35.4536724090576 35.4069976806641 35.8792457580566 36.1401252746582 36.2051200866699 36.2538452148438 36.3482894897461 36.4540214538574 36.5147399902344 36.5265693664551 36.508903503418 36.4885368347168 36.4939994812012 36.5251655578613 36.5601501464844 36.5908317565918 36.6049728393555 36.6078681945801 36.6052703857422 36.6003608703613 36.5993537902832 36.601734161377 36.604808807373 36.6046371459961 36.5975112915039 36.588809967041 36.5806159973145 36.5745582580566 36.5740432739258 36.5703468322754 36.5631370544434 36.5442695617676 36.5138664245605 36.495922088623 36.5065650939941 36.5340576171875 36.5565071105957 36.5663604736328 36.5728416442871 36.5785713195801 36.5839920043945 36.5834121704102 36.5766220092773 36.568660736084 36.565845489502 36.5685844421387 36.5676651000977 36.5638198852539 36.5579147338867 36.5539588928223 36.5574417114258 36.5622329711914
-9999 -9999 -9999 -9999 -9999 -9999 -9999 -9999 -9999 -9999 -9999 -9999 -9999 35.7259674072266 35.7787929111057 -9999 35.8124084472656 35.7497320175171 35.4767608642578 35.7751350402832 36.1023445129395 36.1994132995605 36.2361183166504 36.3162078857422 36.4339065551758 36.5132064819336 36.5387382507324 36.5342903137207 36.5187301635742 36.5122413635254 36.528018951416 36.5580863952637 36.5902252197266 36.6101608276367 36.6121025085449 36.6111488342285 36.6112937927246 36.60986328125 36.6097183227539 36.611930847168 36.6112747192383 36.6059989929199 36.5985870361328 36.592342376709 36.586051940918 36.5816192626953 36.5776252746582 36.5684928894043 36.5604667663574 36.5490875244141 36.5333061218262 36.5301971435547 36.5455474853516 36.5608367919922 36.5667953491211 36.5715522766113 36.5782699584961 36.5841903686523 36.5855751037598 36.5802154541016 36.5714530944824 36.5655899047852 36.5639724731445 36.5657997131348 36.5655670166016 36.5636253356934 36.5598640441895 36.5565910339355 36.5566558837891 36.554557800293
-9999 -9999 -9999 -9999 -9999 -9999 -9999 -9999 -9999 -9999 -9999 -9999 -9999 -9999 35.7259674072266 35.8228518168131 35.7875595092773 35.8372573852539 35.8973503112793 36.1198348999023 36.2072906494141 36.2352714538574 36.2940139770508 36.4143562316895 36.5091400146484 36.5449295043945 36.5567665100098 36.5556297302246 36.5549430847168 36.5689239501953 36.5901947021484 36.6033782958984 36.612247467041 36.6150054931641 36.6141967773438 36.6144943237305 36.6149635314941 36.6144676208496 36.6157531738281 36.6174736022949 36.6142158508301 36.6056900024414 36.5962753295898 36.5891418457031 36.5818977355957 36.5748558044434 36.5682525634766 36.5621566772461 36.5583648681641 36.5554161071777 36.553108215332 36.5590476989746 36.5667266845703 36.5690612792969 36.5693969726562 36.5726852416992 36.5762138366699 36.5774803161621 36.5769538879395 36.5756568908691 36.5729103088379 36.5712738037109 36.5694465637207 36.5672798156738 36.5655288696289 36.5632095336914 36.5598411560059 36.5563583374023 36.5543365478516 36.5515022277832
-9999 -9999 -9999 -9999 -9999 -9999 -9999 -9999 -9999 -9999 -9999 -9999 -9999 -9999 35.7949934005737 35.7259674072266 35.9550285339355 36.0453643798828 36.1430320739746 36.2146835327148 36.2261238098145 36.2591094970703 36.3643417358398 36.4827690124512 36.5332298278809 36.5538711547852 36.5683441162109 36.5788955688477 36.5895118713379 36.6036911010742 36.6150856018066 36.6172180175781 36.6170539855957 36.6167221069336 36.6174011230469 36.6179733276367 36.6193199157715 36.6223487854004 36.6241798400879 36.6212501525879 36.6131782531738 36.6034393310547 36.5945930480957 36.5874710083008 36.5805969238281 36.5754280090332 36.5735816955566 36.5727424621582 36.5734252929688 36.5756454467773 36.576301574707 36.5734100341797 36.572021484375 36.571418762207 36.5699501037598 36.5695190429688 36.5710716247559 36.5737953186035 36.5771942138672 36.5795135498047 36.580493927002 36.5810279846191 36.5793724060059 36.5769844055176 36.5737266540527 36.5679206848145 36.561149597168 36.5544242858887 36.5512161254883 36.5514106750488
-9999 -9999 -9999 -9999 -9999 -9999 -9999 -9999 -9999 -9999 -9999 35.3184127807617 35.5292358398438 35.7728080749512 35.7085838317871 35.9726142883301 36.1559982299805 36.187141418457 36.1945457458496 36.206485748291 36.2367362976074 36.3205795288086 36.4569778442383 36.5242576599121 36.5460357666016 36.5629196166992 36.5834732055664 36.597541809082 36.6047325134277 36.6113128662109 36.6162414550781 36.6178207397461 36.6184997558594 36.6198501586914 36.6211013793945 36.6202278137207 36.6205787658691 36.624698638916 36.6258087158203 36.6202697753906 36.6110687255859 36.6028175354004 36.5980682373047 36.5957145690918 36.5912017822266 36.5879287719727 36.5886344909668 36.5908966064453 36.5915031433105 36.5873794555664 36.5801162719727 36.5743865966797 36.5696105957031 36.5667533874512 36.5648803710938 36.5651245117188 36.5682029724121 36.5720138549805 36.5760154724121 36.57861328125 36.5808906555176 36.5829772949219 36.583610534668 36.5823974609375 36.5798110961914 36.5762710571289 36.5702323913574 36.5597038269043 36.5492668151855 36.5468559265137
-9999 -9999 -9999 -9999 -9999 -9999 -9999 -9999 -9999 35.0868301391602 35.4630432128906 35.7060012817383 35.9677696228027 36.0665283203125 36.0286102294922 36.1382331848145 36.1703567504883 36.1834716796875 36.1927947998047 36.2226257324219 36.2739028930664 36.3851585388184 36.5058708190918 36.5344886779785 36.5469551086426 36.5603904724121 36.5844612121582 36.5986557006836 36.603630065918 36.6078186035156 36.6113471984863 36.6141052246094 36.6158294677734 36.616886138916 36.616641998291 36.6174011230469 36.6196517944336 36.6237182617188 36.6253623962402 36.6221122741699 36.6161422729492 36.6118621826172 36.6117630004883 36.6116943359375 36.6088638305664 36.605899810791 36.602294921875 36.5947265625 36.5849227905273 36.5750770568848 36.5689353942871 36.5663032531738 36.5637969970703 36.5616569519043 36.5606155395508 36.5622138977051 36.5662155151367 36.571533203125 36.576904296875 36.5815200805664 36.5849647521973 36.5858116149902 36.5832405090332 36.5790557861328 36.5746002197266 36.5702934265137 36.5654106140137 36.5609512329102 36.5491180419922 36.5389366149902
-9999 -9999 -9999 -9999 -9999 -9999 -9999 -9999 -9999 35.446102142334 35.8150787353516 36.0447731018066 36.1350898742676 36.1615905761719 36.1616897583008 36.1784248352051 36.1691474914551 36.1763229370117 36.2051734924316 36.2500076293945 36.3266868591309 36.4582710266113 36.5241584777832 36.5317611694336 36.5404014587402 36.5511474609375 36.5728797912598 36.5835266113281 36.5860748291016 36.5886764526367 36.5913887023926 36.5957832336426 36.5988998413086 36.6017913818359 36.6069793701172 36.6115036010742 36.6153030395508 36.6252746582031 36.6310348510742 36.6288795471191 36.6254920959473 36.6248435974121 36.6262245178223 36.6255683898926 36.6212196350098 36.6109733581543 36.5944786071777 36.5772094726562 36.5665435791016 36.5626792907715 36.5619964599609 36.5612564086914 36.5613174438477 36.5611267089844 36.5625076293945 36.5650215148926 36.5698699951172 36.5755462646484 36.5822372436523 36.5882453918457 36.5923461914062 36.5899467468262 36.5786895751953 36.5657424926758 36.5584106445312 36.5564765930176 36.555793762207 36.5587730407715 36.5508651733398 36.5354270935059
-9999 -9999 -9999 -9999 -9999 35.2929973602295 35.360954284668 35.5024604797363 35.4935302734375 35.6141624450684 35.8961906433105 36.105281829834 36.1791038513184 36.1893615722656 36.1744728088379 36.1588249206543 36.1622047424316 36.1911201477051 36.2294769287109 36.2748870849609 36.3621063232422 36.4878807067871 36.5151901245117 36.5214881896973 36.5319976806641 36.5369453430176 36.5470314025879 36.5582275390625 36.564136505127 36.5689697265625 36.5699462890625 36.5720405578613 36.574031829834 36.578987121582 36.5914421081543 36.6059226989746 36.6089210510254 36.6165885925293 36.6306915283203 36.6333770751953 36.6311187744141 36.6302223205566 36.6277351379395 36.6198844909668 36.6083297729492 36.5958137512207 36.5820198059082 36.5688629150391 36.560791015625 36.5573692321777 36.5560913085938 36.5569076538086 36.5597610473633 36.5628929138184 36.5669288635254 36.5722198486328 36.5787963867188 36.5855407714844 36.5913352966309 36.5959091186523 36.5997047424316 36.5974960327148 36.5840148925781 36.566577911377 36.5558929443359 36.553596496582 36.5536613464355 36.556079864502 36.5471153259277 36.5308456420898
-9999 -9999 -9999 -9999 34.8025398254395 35.2649917602539 35.7435035705566 35.9015846252441 35.9468193054199 35.9723510742188 36.0819778442383 36.168758392334 36.184700012207 36.1586990356445 36.1402778625488 36.1467704772949 36.1784133911133 36.2188491821289 36.2527198791504 36.2979698181152 36.3877563476562 36.5008125305176 36.5116348266602 36.5175666809082 36.5251235961914 36.5340690612793 36.5406188964844 36.5455780029297 36.5502510070801 36.55859375 36.5651664733887 36.5681953430176 36.5655860900879 36.5656433105469 36.577320098877 36.6003913879395 36.6087341308594 36.6075401306152 36.6174926757812 36.6232566833496 36.6221466064453 36.6193542480469 36.6127662658691 36.6033897399902 36.5966682434082 36.5955009460449 36.5918006896973 36.5799179077148 36.5675239562988 36.5555992126465 36.5466156005859 36.5414695739746 36.5404510498047 36.5434761047363 36.5543937683105 36.5686416625977 36.5821571350098 36.593204498291 36.6011848449707 36.6062049865723 36.6119689941406 36.6125907897949 36.6019706726074 36.5802612304688 36.5630035400391 36.5553169250488 36.550235748291 36.5465850830078 36.5379066467285 36.5354614257812
-9999 -9999 -9999 35.1796808242798 35.2470016479492 35.7356872558594 35.9851989746094 36.0842971801758 36.1275863647461 36.155086517334 36.166389465332 36.1776008605957 36.1550750732422 36.1348838806152 36.1365928649902 36.1650123596191 36.2168884277344 36.2562522888184 36.2769355773926 36.3171882629395 36.4124526977539 36.5056037902832 36.5148696899414 36.5224761962891 36.5194854736328 36.5251541137695 36.5363006591797 36.5483283996582 36.5526580810547 36.5493698120117 36.5524635314941 36.5643157958984 36.5687065124512 36.5676193237305 36.5769271850586 36.6038475036621 36.6138038635254 36.6055793762207 36.6106872558594 36.6156349182129 36.6135101318359 36.6104736328125 36.6068572998047 36.604190826416 36.604248046875 36.6050224304199 36.6009216308594 36.5897178649902 36.5754470825195 36.5624351501465 36.552677154541 36.5452194213867 36.5393562316895 36.5361671447754 36.5375556945801 36.5483207702637 36.5653533935547 36.580738067627 36.5910873413086 36.5977172851562 36.606388092041 36.6150703430176 36.615837097168 36.6031723022461 36.578685760498 36.5638771057129 36.5564002990723 36.5511245727539 36.544807434082 36.544807434082
-9999 -9999 -9999 35.1046333312988 35.5645484924316 35.9299468994141 36.1155090332031 36.1666030883789 36.1863479614258 36.1811370849609 36.1659889221191 36.1418914794922 36.1222610473633 36.1241569519043 36.1540756225586 36.2104797363281 36.2634391784668 36.2853927612305 36.2911529541016 36.3330993652344 36.4235763549805 36.4914016723633 36.5099258422852 36.5428123474121 36.5546836853027 36.5564002990723 36.5636863708496 36.5736618041992 36.5809631347656 36.5752258300781 36.5634956359863 36.5578308105469 36.5629615783691 36.5678749084473 36.5802955627441 36.6114883422852 36.6202392578125 36.6080169677734 36.6104125976562 36.6136245727539 36.6113586425781 36.6094818115234 36.6078071594238 36.6060371398926 36.6048889160156 36.6049919128418 36.6021766662598 36.5917663574219 36.5793724060059 36.5717239379883 36.5712471008301 36.5773773193359 36.5819892883301 36.577507019043 36.5612258911133 36.5460205078125 36.5497093200684 36.5654487609863 36.5791702270508 36.5832061767578 36.5865669250488 36.5979843139648 36.6101875305176 36.6172676086426 36.603931427002 36.5784187316895 36.561336517334 36.554515838623 36.5496253967285 36.5482368469238
