NCOLS 70 
NROWS 52 
XLLCORNER -80 
YLLCORNER 33 
CELLSIZE 0.25 
NODATA_value -9999 
-9999.000000000000000 -9999 -9999 -9999 -9999 -9999 -9999 -9999 -9999 -9999 -9999 -9999 -9999 -9999 -9999 -9999 -9999 -9999 -9999 -9999 -9999 -9999 -9999 -9999 -9999 -9999 -9999 -9999 -9999 -9999 -9999 -9999 -9999 -9999 -9999 -9999 -9999 -9999 -9999 -9999 -9999 -9999 -9999 -9999 -9999 -9999 -9999 -9999 -9999 -9999 -9999 -9999 -9999 -9999 -9999 -9999 -9999 -9999 -9999 -9999 -9999 -9999 -9999 -9999 -9999 -9999 -9999 -9999 -9999 -9999
-9999 -9999 -9999 -9999 -9999 -9999 -9999 -9999 -9999 -9999 -9999 -9999 -9999 -9999 -9999 -9999 -9999 -9999 -9999 -9999 -9999 -9999 -9999 -9999 -9999 -9999 -9999 -9999 -9999 -9999 -9999 -9999 -9999 -9999 -9999 -9999 -9999 -9999 -9999 -9999 -9999 -9999 -9999 -9999 -9999 -9999 -9999 -9999 -9999 -9999 -9999 -9999 -9999 -9999 -9999 -9999 -9999 -9999 -9999 -9999 -9999 -9999 -9999 -9999 -9999 -9999 -9999 -9999 -9999 -9999
-9999 -9999 -9999 -9999 -9999 -9999 -9999 -9999 -9999 -9999 -9999 -9999 -9999 -9999 -9999 -9999 -9999 -9999 -9999 -9999 -9999 -9999 -9999 -9999 -9999 -9999 -9999 -9999 -9999 -9999 -9999 -9999 -9999 -9999 -9999 -9999 -9999 -9999 -9999 -9999 -9999 -9999 -9999 -9999 -9999 -9999 -9999 -9999 -9999 -9999 -9999 -9999 -9999 -9999 -9999 -9999 -9999 -9999 -9999 25.6521396636963 -9999 -9999 -9999 -9999 -9999 -9999 -9999 -9999 -9999 -9999
-9999 -9999 -9999 -9999 -9999 -9999 -9999 -9999 -9999 -9999 -9999 -9999 -9999 -9999 -9999 -9999 -9999 -9999 -9999 -9999 -9999 -9999 -9999 -9999 -9999 -9999 -9999 -9999 -9999 -9999 -9999 -9999 -9999 -9999 -9999 -9999 -9999 -9999 -9999 -9999 -9999 -9999 -9999 -9999 -9999 -9999 -9999 -9999 -9999 -9999 -9999 -9999 -9999 -9999 -9999 25.8863792419434 25.8041534423828 26.1705799102783 26.4844245910645 26.5224285125732 -9999 -9999 -9999 -9999 -9999 -9999 -9999 -9999 -9999 -9999
-9999 -9999 -9999 -9999 -9999 -9999 -9999 -9999 -9999 -9999 -9999 -9999 -9999 -9999 -9999 -9999 -9999 -9999 -9999 -9999 -9999 -9999 -9999 -9999 -9999 -9999 -9999 -9999 -9999 -9999 -9999 -9999 -9999 -9999 -9999 -9999 -9999 -9999 -9999 -9999 -9999 -9999 -9999 -9999 -9999 -9999 -9999 -9999 -9999 -9999 -9999 -9999 27.7184600830078 27.394416809082 27.059627532959 26.9241714477539 26.6871871948242 26.4160823822021 -9999 -9999 -9999 -9999 -9999 -9999 -9999 -9999 -9999 -9999 -9999 -9999
-9999 -9999 -9999 -9999 -9999 -9999 -9999 -9999 -9999 -9999 -9999 -9999 -9999 -9999 -9999 -9999 -9999 -9999 -9999 -9999 -9999 -9999 -9999 -9999 -9999 -9999 -9999 -9999 -9999 -9999 -9999 -9999 -9999 -9999 -9999 -9999 -9999 -9999 -9999 -9999 -9999 -9999 -9999 -9999 -9999 -9999 -9999 -9999 -9999 -9999 29.1202388763428 28.9151744842529 28.8002643585205 28.464262008667 27.9107093811035 26.8652286529541 -9999 -9999 -9999 -9999 -9999 -9999 -9999 -9999 -9999 -9999 -9999 30.3384348551432 30.4101281166077 30.3207569122314
-9999 -9999 -9999 -9999 -9999 -9999 -9999 -9999 -9999 -9999 -9999 -9999 -9999 -9999 -9999 -9999 -9999 -9999 -9999 -9999 -9999 -9999 -9999 -9999 -9999 -9999 -9999 -9999 -9999 -9999 -9999 -9999 -9999 -9999 -9999 -9999 -9999 -9999 -9999 -9999 -9999 -9999 -9999 -9999 29.0971043904622 -9999 -9999 29.5641412734985 29.5956840515137 29.5912609100342 29.5748443603516 29.6148872375488 29.3417320251465 28.8080711364746 27.739839553833 -9999 -9999 -9999 -9999 -9999 -9999 -9999 -9999 29.9381160736084 30.0905609130859 30.2074146270752 30.2722587585449 30.3092880249023 30.4337577819824 30.5767097473145
-9999 -9999 -9999 -9999 -9999 -9999 -9999 -9999 -9999 -9999 -9999 -9999 -9999 -9999 -9999 -9999 -9999 -9999 -9999 -9999 -9999 -9999 -9999 -9999 -9999 -9999 -9999 -9999 -9999 -9999 -9999 -9999 -9999 -9999 -9999 -9999 -9999 -9999 -9999 -9999 -9999 -9999 -9999 -9999 29.0659980773926 29.2086505889893 29.4112491607666 29.5678443908691 29.6817874908447 29.7444458007812 29.7742443084717 29.8036155700684 29.693115234375 29.3403434753418 28.9319090843201 -9999 -9999 -9999 -9999 -9999 -9999 -9999 30.0122909545898 30.0464744567871 30.2225284576416 30.4356536865234 30.570369720459 30.6858921051025 30.8290824890137 30.8933658599854
-9999 -9999 -9999 -9999 -9999 -9999 -9999 -9999 -9999 -9999 -9999 -9999 -9999 -9999 -9999 -9999 -9999 -9999 -9999 -9999 -9999 -9999 -9999 -9999 -9999 -9999 -9999 -9999 -9999 -9999 -9999 -9999 -9999 -9999 -9999 -9999 -9999 -9999 -9999 -9999 26.5268980662028 27.0964469909668 28.3416454315186 29.0617637634277 29.2950649261475 29.5307865142822 29.7220230102539 29.8404083251953 29.886474609375 29.9242839813232 30.0129299163818 30.1112785339355 30.0917358398438 29.8393821716309 29.8977523803711 -9999 -9999 -9999 -9999 -9999 30.1706104278564 30.1751728057861 30.1398372650146 30.1946754455566 30.423583984375 30.7343406677246 30.9219226837158 30.9972133636475 31.0530967712402 31.1020545959473
-9999 -9999 -9999 -9999 -9999 -9999 -9999 -9999 -9999 -9999 -9999 -9999 -9999 -9999 -9999 -9999 -9999 -9999 -9999 -9999 -9999 -9999 -9999 -9999 -9999 -9999 -9999 -9999 -9999 -9999 -9999 -9999 -9999 -9999 -9999 -9999 -9999 -9999 -9999 26.232889175415 26.4000720977783 26.947732925415 27.941535949707 28.7405300140381 29.1895141601562 29.5411949157715 29.837251663208 30.0262069702148 30.1304550170898 30.2508335113525 30.3887634277344 30.4334831237793 30.3376598358154 30.1318092346191 30.0570449829102 30.1201820373535 -9999 -9999 -9999 30.0670161247253 30.1546306610107 30.1820278167725 30.1659698486328 30.2037773132324 30.4326324462891 30.7646255493164 30.9440841674805 30.9551734924316 30.9675331115723 31.0177211761475
-9999 -9999 -9999 -9999 -9999 -9999 -9999 -9999 -9999 -9999 -9999 -9999 -9999 -9999 -9999 -9999 -9999 -9999 -9999 -9999 -9999 -9999 -9999 -9999 -9999 -9999 -9999 -9999 -9999 -9999 -9999 -9999 -9999 -9999 -9999 -9999 -9999 -9999 28.4751079559326 28.2721405029297 28.4050254821777 28.6623554229736 29.0708427429199 29.6380653381348 29.9333343505859 30.0689010620117 30.2054805755615 30.3264694213867 30.4416408538818 30.5839366912842 30.6828231811523 30.635425567627 30.4769859313965 30.3006210327148 30.1905612945557 30.1457633972168 30.0898418426514 30.0612386067708 30.0183849334717 30.0281562805176 30.0668926239014 30.1364898681641 30.1737308502197 30.1980686187744 30.3555507659912 30.6037731170654 30.7035694122314 30.7176036834717 30.8098564147949 30.9336185455322
-9999 -9999 -9999 -9999 -9999 -9999 -9999 -9999 -9999 -9999 -9999 -9999 -9999 -9999 -9999 -9999 -9999 -9999 -9999 -9999 -9999 -9999 -9999 -9999 -9999 -9999 -9999 -9999 -9999 -9999 -9999 -9999 -9999 -9999 -9999 -9999 -9999 29.2176856994629 29.3046836853027 29.3481407165527 29.3184833526611 29.4729137420654 30.0112781524658 30.5079174041748 30.6677989959717 30.7383460998535 30.7909107208252 30.7886867523193 30.7944374084473 30.8681373596191 30.9259071350098 30.8298931121826 30.5972862243652 30.3576812744141 30.223991394043 30.159797668457 30.1001091003418 30.0510215759277 30.0216884613037 30.0430431365967 30.1222534179688 30.2301273345947 30.3124389648438 30.3522853851318 30.4090595245361 30.5353775024414 30.5938720703125 30.6784019470215 30.8388748168945 31.0201091766357
-9999 -9999 -9999 -9999 -9999 -9999 -9999 -9999 -9999 -9999 -9999 -9999 -9999 -9999 -9999 -9999 -9999 -9999 -9999 -9999 -9999 -9999 -9999 -9999 -9999 -9999 -9999 -9999 -9999 -9999 -9999 -9999 -9999 -9999 -9999 -9999 -9999 29.2038974761963 29.331090927124 29.4948482513428 29.6065044403076 29.8754692077637 30.4439487457275 30.9712257385254 31.2746620178223 31.4420795440674 31.4706249237061 31.3718318939209 31.2429237365723 31.1853904724121 31.1288604736328 30.9358253479004 30.6158924102783 30.3174591064453 30.17506980896 30.1204376220703 30.0808753967285 30.0450553894043 30.0532321929932 30.1385116577148 30.2947158813477 30.4767646789551 30.7066612243652 30.8786449432373 30.8551788330078 30.8576583862305 30.8798885345459 30.8929500579834 31.0197505950928 31.316047668457
-9999 -9999 -9999 -9999 -9999 -9999 -9999 -9999 -9999 -9999 -9999 -9999 -9999 -9999 -9999 -9999 -9999 -9999 -9999 -9999 -9999 -9999 -9999 -9999 -9999 -9999 -9999 -9999 -9999 -9999 -9999 -9999 -9999 -9999 -9999 -9999 -9999 29.09423828125 29.2729911804199 29.5211372375488 29.7653770446777 30.0640716552734 30.5430698394775 31.0287246704102 31.4014835357666 31.6063289642334 31.6226921081543 31.555212020874 31.4466285705566 31.3132171630859 31.1186065673828 30.8500747680664 30.5435047149658 30.300048828125 30.1990489959717 30.1866264343262 30.1894950866699 30.1577472686768 30.1077194213867 30.1454372406006 30.3161354064941 30.6127471923828 31.224739074707 31.6453533172607 31.5768909454346 31.4500541687012 31.4528560638428 31.3250350952148 31.3885650634766 31.8734188079834
-9999 -9999 -9999 -9999 -9999 -9999 -9999 -9999 -9999 -9999 -9999 -9999 -9999 -9999 -9999 -9999 -9999 -9999 -9999 -9999 -9999 -9999 -9999 -9999 -9999 -9999 -9999 -9999 -9999 -9999 -9999 -9999 -9999 -9999 -9999 -9999 28.869213104248 29.0568256378174 29.2732124328613 29.4991207122803 29.7773456573486 30.0981616973877 30.5346069335938 31.0289821624756 31.4565868377686 31.64284324646 31.5993976593018 31.5194263458252 31.4351425170898 31.3004627227783 31.0920734405518 30.865442276001 30.669153213501 30.5014190673828 30.3937644958496 30.4187164306641 30.5091209411621 30.5462436676025 30.4038314819336 30.3292846679688 30.5142478942871 31.2570610046387 32.4823722839355 32.9883575439453 32.8956260681152 32.6025924682617 32.4382705688477 32.1114768981934 31.9766407012939 32.4550628662109
-9999 -9999 -9999 -9999 -9999 -9999 -9999 -9999 -9999 -9999 -9999 -9999 -9999 -9999 -9999 -9999 -9999 -9999 -9999 -9999 -9999 -9999 -9999 -9999 -9999 -9999 -9999 -9999 -9999 -9999 -9999 -9999 -9999 -9999 -9999 -9999 -9999 29.1006317138672 29.2419853210449 29.4614696502686 29.6892223358154 30.0007171630859 30.4318389892578 30.9484901428223 31.4283275604248 31.6961212158203 31.7239093780518 31.6803779602051 31.6630725860596 31.6201934814453 31.4814968109131 31.3196029663086 31.1979637145996 31.0406341552734 30.7590465545654 30.714527130127 30.9040145874023 31.1565208435059 31.321174621582 31.2872886657715 31.4604148864746 32.4806632995605 33.3217315673828 33.6331253051758 33.5545425415039 33.3246612548828 33.2243576049805 32.939567565918 32.5946807861328 32.843074798584
-9999 -9999 -9999 -9999 -9999 -9999 -9999 -9999 -9999 -9999 -9999 -9999 -9999 -9999 -9999 -9999 -9999 -9999 -9999 -9999 -9999 -9999 -9999 -9999 -9999 -9999 -9999 -9999 -9999 -9999 -9999 -9999 -9999 -9999 -9999 -9999 -9999 -9999 29.2086887359619 -9999 29.6962032318115 29.9279460906982 30.2802562713623 30.7478141784668 31.2372016906738 31.6679439544678 31.9402923583984 32.0522994995117 32.1224746704102 32.1457061767578 32.0459175109863 31.9163932800293 31.832935333252 31.7133159637451 31.2884883880615 31.0838413238525 31.1908664703369 31.6953182220459 32.5976181030273 32.9315948486328 32.8193435668945 33.1502494812012 33.6766548156738 34.0532379150391 34.054515838623 34.0439910888672 33.9785232543945 33.8096809387207 33.2656631469727 33.2024230957031
-9999 -9999 -9999 -9999 -9999 -9999 -9999 -9999 -9999 -9999 -9999 -9999 -9999 -9999 -9999 -9999 -9999 -9999 -9999 -9999 -9999 -9999 -9999 -9999 -9999 -9999 -9999 -9999 -9999 -9999 -9999 -9999 -9999 -9999 -9999 -9999 -9999 -9999 -9999 -9999 30.1203365325928 30.0262317657471 30.1812343597412 30.5130863189697 30.9669227600098 31.5149154663086 32.0162811279297 32.321647644043 32.4686965942383 32.5011215209961 32.3892707824707 32.250373840332 32.1507606506348 32.0786361694336 31.756929397583 31.4839019775391 31.5011959075928 32.6648483276367 33.8852195739746 34.348030090332 34.2365188598633 33.9420127868652 34.2248191833496 34.5604286193848 34.7143287658691 34.9422149658203 34.9398345947266 34.8394546508789 34.1593551635742 33.8359756469727
-9999 -9999 -9999 -9999 -9999 -9999 -9999 -9999 -9999 -9999 -9999 -9999 -9999 -9999 -9999 -9999 -9999 -9999 -9999 -9999 -9999 -9999 -9999 -9999 -9999 -9999 -9999 -9999 -9999 -9999 -9999 -9999 -9999 -9999 29.7401566505432 29.9449920654297 30.2738151550293 -9999 30.7256011962891 30.726692199707 30.5145263671875 30.3069133758545 30.2498722076416 30.4259643554688 30.8681259155273 31.507194519043 32.1248245239258 32.486873626709 32.5922355651855 32.5415840148926 32.4036521911621 32.2658348083496 32.1609840393066 32.135368347168 31.9995937347412 31.8868198394775 32.2912368774414 34.0690536499023 34.885066986084 35.0299835205078 34.856819152832 34.5887184143066 34.8113021850586 35.0431060791016 35.2937316894531 35.4522666931152 35.4067420959473 35.354606628418 35.0054931640625 34.651252746582
-9999 -9999 -9999 -9999 -9999 -9999 -9999 -9999 -9999 -9999 -9999 -9999 -9999 -9999 -9999 -9999 -9999 -9999 -9999 -9999 -9999 -9999 -9999 -9999 -9999 -9999 -9999 24.5730056762695 24.5730056762695 24.8467884063721 25.2477779388428 26.6743011474609 28.6220550537109 29.3978328704834 29.5944061279297 30.0233955383301 30.4591884613037 30.7434883117676 30.8820037841797 30.8831424713135 30.7649173736572 30.6102066040039 30.4726257324219 30.5794544219971 31.0581130981445 31.7616939544678 32.3574714660645 32.6264419555664 32.618953704834 32.5276184082031 32.4291038513184 32.3160018920898 32.2280883789062 32.2492485046387 32.3476333618164 32.5973091125488 33.65576171875 34.9069747924805 35.1490364074707 34.9604797363281 34.9227027893066 34.948802947998 35.1119155883789 35.3969383239746 35.6027221679688 35.675651550293 35.6679801940918 35.5807952880859 35.5008087158203 35.3759155273438
-9999 -9999 -9999 -9999 -9999 -9999 -9999 -9999 -9999 -9999 -9999 -9999 -9999 -9999 -9999 -9999 -9999 -9999 -9999 -9999 -9999 -9999 -9999 -9999 -9999 -9999 -9999 -9999 -9999 -9999 26.8959159851074 27.9089965820312 29.6771106719971 30.4228248596191 30.5922660827637 30.8850517272949 31.0844631195068 31.1449108123779 31.1210746765137 31.0524520874023 30.9693927764893 30.8867969512939 30.7766723632812 30.9210739135742 31.4717979431152 32.1343650817871 32.5652465820312 32.7134399414062 32.7355728149414 32.777702331543 32.7847137451172 32.7009811401367 32.6854515075684 32.8387870788574 33.1855278015137 33.6877365112305 34.5299263000488 35.206916809082 35.3202629089355 35.1008758544922 35.0829238891602 35.2451324462891 35.4785079956055 35.6801948547363 35.7751579284668 35.8162651062012 35.8214302062988 35.7850074768066 35.7232322692871 35.6909980773926
-9999 -9999 -9999 -9999 -9999 -9999 -9999 -9999 -9999 -9999 -9999 -9999 -9999 -9999 -9999 -9999 -9999 -9999 -9999 -9999 -9999 -9999 -9999 -9999 -9999 30.0427792867025 30.3511931101481 30.6120878855387 30.735710144043 30.5619087219238 30.5459880828857 30.4591655731201 30.6266136169434 31.0391120910645 31.3303489685059 31.5321273803711 31.5617485046387 31.5108966827393 31.4303131103516 31.3431568145752 31.2973041534424 31.2752056121826 31.2789344787598 31.5348567962646 32.0704154968262 32.535816192627 32.7843322753906 32.9696960449219 33.1906776428223 33.3022308349609 33.267276763916 33.2214622497559 33.3860664367676 33.7656478881836 34.1403160095215 34.4973335266113 34.9342002868652 35.3181648254395 35.4663848876953 35.4483413696289 35.4975814819336 35.681510925293 35.7976112365723 35.8530235290527 35.8905334472656 35.9257545471191 35.9309959411621 35.9099311828613 35.8854522705078 35.8554496765137
-9999 -9999 -9999 -9999 -9999 -9999 -9999 -9999 -9999 -9999 -9999 -9999 -9999 -9999 -9999 -9999 -9999 -9999 -9999 -9999 -9999 -9999 -9999 -9999 29.7181396484375 30.0423107147217 30.3678874969482 30.6433811187744 30.8249950408936 30.9125556945801 30.9652156829834 30.9908351898193 31.1696929931641 31.5145530700684 31.8262100219727 32.0347595214844 32.0990982055664 32.0764961242676 32.0266265869141 31.9843273162842 31.9836597442627 32.0105133056641 32.0961074829102 32.3735084533691 32.7779235839844 33.0943756103516 33.3133850097656 33.6208953857422 33.982494354248 34.0624198913574 33.9487686157227 33.8916244506836 34.0704956054688 34.4249229431152 34.6865386962891 34.839599609375 35.0540962219238 35.2757682800293 35.4416007995605 35.5977592468262 35.7036285400391 35.7890968322754 35.8441352844238 35.8952598571777 35.942195892334 35.9823989868164 35.9971580505371 36.0006561279297 35.9934196472168 35.9754638671875
-9999 -9999 -9999 -9999 -9999 -9999 -9999 -9999 -9999 -9999 -9999 -9999 -9999 -9999 -9999 -9999 -9999 -9999 -9999 -9999 -9999 -9999 -9999 -9999 29.9657020568848 30.3293190002441 30.6632957458496 30.9514865875244 31.1407489776611 31.2383861541748 31.3382930755615 31.5058879852295 31.7942581176758 32.1327590942383 32.4043464660645 32.5660057067871 32.6263160705566 32.6562919616699 32.7149238586426 32.7796058654785 32.8304786682129 32.8916130065918 33.0177116394043 33.2347259521484 33.5355491638184 33.8873901367188 34.1902236938477 34.4853401184082 34.7540855407715 34.8276863098145 34.777515411377 34.7680854797363 34.7750091552734 34.8190765380859 34.9315071105957 35.0693092346191 35.2391510009766 35.3888053894043 35.5224647521973 35.6325988769531 35.7089157104492 35.7881889343262 35.851016998291 35.9155082702637 35.9733200073242 36.0163192749023 36.0323944091797 36.0514106750488 36.0438385009766 36.047924041748
-9999 -9999 -9999 -9999 -9999 -9999 -9999 -9999 -9999 -9999 -9999 -9999 -9999 -9999 -9999 -9999 -9999 -9999 -9999 -9999 -9999 -9999 -9999 30.373384475708 30.2767353057861 30.5951614379883 30.9140491485596 31.1979866027832 31.4076862335205 31.6047801971436 31.8865776062012 32.3157005310059 32.8512306213379 33.3116149902344 33.5790710449219 33.6164588928223 33.4723739624023 33.2849082946777 33.2223052978516 33.3026390075684 33.4577331542969 33.7042541503906 34.0088806152344 34.2747688293457 34.5398483276367 34.8668022155762 35.1333312988281 35.2952270507812 35.3848915100098 35.3794631958008 35.2767295837402 35.2336387634277 35.2173309326172 35.1539688110352 35.1604461669922 35.2562141418457 35.3865585327148 35.4764823913574 35.5375328063965 35.5937271118164 35.6551399230957 35.7437782287598 35.8359031677246 35.9188842773438 35.9876441955566 36.0339508056641 36.0619812011719 36.0854721069336 36.0861892700195 36.0973358154297
-9999 -9999 -9999 -9999 -9999 -9999 -9999 -9999 -9999 -9999 -9999 -9999 -9999 -9999 -9999 -9999 -9999 -9999 -9999 -9999 -9999 -9999 -9999 30.5695419311523 30.6815586090088 30.9022045135498 31.1829986572266 31.4655818939209 31.7159824371338 32.0451889038086 32.5561065673828 33.3313674926758 34.2010154724121 34.8014717102051 35.0524253845215 35.0342712402344 34.8043251037598 34.4058532714844 34.0279083251953 33.837646484375 33.9492835998535 34.3976097106934 34.908821105957 35.246898651123 35.4488525390625 35.5865592956543 35.6367568969727 35.6589279174805 35.6836357116699 35.6887893676758 35.5649032592773 35.3911361694336 35.3127975463867 35.3083877563477 35.3452339172363 35.3985023498535 35.4723014831543 35.5126304626465 35.5175323486328 35.5323257446289 35.5745887756348 35.6761627197266 35.8092613220215 35.9199295043945 35.999080657959 36.0526275634766 36.0889854431152 36.1059761047363 36.1187629699707 36.1256065368652
-9999 -9999 -9999 -9999 -9999 -9999 -9999 -9999 -9999 -9999 -9999 -9999 -9999 -9999 -9999 -9999 -9999 -9999 -9999 -9999 -9999 -9999 31.0845413208008 31.0018119812012 31.0587406158447 31.2336502075195 31.517110824585 31.8089828491211 32.1121711730957 32.5987815856934 33.3996620178223 34.4565010070801 35.3323593139648 35.7267990112305 35.8023948669434 35.7465019226074 35.5896148681641 35.2974166870117 34.899040222168 34.5267143249512 34.5293922424316 34.9807891845703 35.4700393676758 35.7346496582031 35.809513092041 35.7854270935059 35.695442199707 35.6323432922363 35.6417198181152 35.6590957641602 35.5804023742676 35.4324798583984 35.3595352172852 35.4039611816406 35.4376335144043 35.4406623840332 35.4805297851562 35.5441246032715 35.5847702026367 35.6018409729004 35.6378326416016 35.74072265625 35.87744140625 35.9865760803223 36.0639724731445 36.1142768859863 36.1401672363281 36.1465377807617 36.1609725952148 36.1644592285156
-9999 -9999 -9999 -9999 -9999 -9999 -9999 -9999 -9999 -9999 -9999 -9999 -9999 -9999 17.9747534328037 -9999 -9999 -9999 -9999 31.3363857269287 -9999 31.3386154174805 31.2639179229736 31.2660388946533 31.3613395690918 31.5632629394531 31.8592205047607 32.183708190918 32.6935729980469 33.6111335754395 34.6939811706543 35.5107727050781 35.8573875427246 35.9049339294434 35.8859710693359 35.8629531860352 35.7983589172363 35.6423530578613 35.4062156677246 35.1283493041992 35.0338325500488 35.2294769287109 35.507740020752 35.7244110107422 35.8272895812988 35.8404808044434 35.7813110351562 35.6915969848633 35.6293182373047 35.5741386413574 35.5016899108887 35.4339027404785 35.4337768554688 35.4730796813965 35.4538841247559 35.4205627441406 35.4603233337402 35.5650062561035 35.6487083435059 35.7027854919434 35.7882347106934 35.9138679504395 36.0358734130859 36.1229553222656 36.1816902160645 36.2095375061035 36.2191963195801 36.2242279052734 36.2281341552734 36.2230911254883
-9999 -9999 -9999 -9999 -9999 -9999 -9999 -9999 -9999 -9999 -9999 -9999 -9999 -9999 17.9977841377258 -9999 -9999 -9999 -9999 31.3551807403564 31.4353885650635 31.4793586730957 31.4698162078857 31.5056476593018 31.6284065246582 31.8442134857178 32.1849060058594 32.7786102294922 33.7765655517578 34.8997650146484 35.6481132507324 35.9145164489746 35.9147453308105 35.8812141418457 35.8793144226074 35.8816757202148 35.8551139831543 35.7781181335449 35.6857719421387 35.5959701538086 35.5083427429199 35.4672393798828 35.5125350952148 35.6324882507324 35.733325958252 35.7781448364258 35.7829818725586 35.7634811401367 35.7331962585449 35.6757926940918 35.6081809997559 35.5691719055176 35.5789413452148 35.6049499511719 35.5950050354004 35.5732040405273 35.5983924865723 35.671947479248 35.7515449523926 35.8440628051758 35.9726905822754 36.0984725952148 36.1873474121094 36.2419204711914 36.2690277099609 36.2745552062988 36.273509979248 36.2716331481934 36.2603416442871 36.24267578125
-9999 -9999 -9999 -9999 -9999 -9999 -9999 -9999 -9999 -9999 -9999 -9999 -9999 -9999 17.8941459655762 -9999 -9999 -9999 -9999 -9999 31.6985583305359 31.6486072540283 31.6616630554199 31.7459678649902 31.9434032440186 32.2946090698242 32.9348831176758 33.9324607849121 35.0172882080078 35.6801490783691 35.8718223571777 35.8841209411621 35.8658790588379 35.8725166320801 35.8957290649414 35.9060173034668 35.8883171081543 35.8455047607422 35.815860748291 35.8242034912109 35.8165855407715 35.7534103393555 35.6847724914551 35.6651840209961 35.6868591308594 35.7197761535645 35.7529106140137 35.7878189086914 35.821231842041 35.8292846679688 35.8055839538574 35.7781524658203 35.7802772521973 35.8082580566406 35.838680267334 35.8619766235352 35.8838310241699 35.9228401184082 35.9908332824707 36.0823707580566 36.1756935119629 36.2468528747559 36.2944412231445 36.3107452392578 36.299919128418 36.2850341796875 36.2669944763184 36.2488746643066 36.2334671020508 36.222957611084
-9999 -9999 -9999 -9999 -9999 -9999 -9999 -9999 -9999 -9999 -9999 -9999 -9999 -9999 18.0153541564941 -9999 18.3086986541748 -9999 -9999 -9999 31.856424331665 31.8098430633545 31.8646106719971 32.0448875427246 32.4317665100098 33.1121215820312 34.0689811706543 35.0378723144531 35.6526184082031 35.8080902099609 35.7736701965332 35.7393684387207 35.7310752868652 35.7778053283691 35.8586082458496 35.9131965637207 35.915412902832 35.895435333252 35.8874664306641 35.8940849304199 35.8929176330566 35.8544387817383 35.7771186828613 35.7158470153809 35.7114372253418 35.7484092712402 35.7996826171875 35.8395767211914 35.8765182495117 35.9139366149902 35.9414978027344 35.9541053771973 35.966911315918 35.9918403625488 36.029125213623 36.0694351196289 36.1066474914551 36.1478157043457 36.1947402954102 36.2433624267578 36.2860336303711 36.3183250427246 36.3298606872559 36.3109741210938 36.2766456604004 36.2490501403809 36.2332572937012 36.2322082519531 36.2304344177246 36.2262763977051
-9999 -9999 -9999 -9999 -9999 -9999 -9999 -9999 -9999 -9999 -9999 -9999 -9999 -9999 18.0153541564941 18.1365623474121 18.7589263916016 -9999 -9999 31.9854083061218 31.9775123596191 31.9918403625488 32.1083908081055 32.3989639282227 33.0033645629883 33.8912734985352 34.7093353271484 35.310676574707 35.6431999206543 35.6410942077637 35.5744171142578 35.5640487670898 35.5963706970215 35.6810035705566 35.7933959960938 35.8758735656738 35.9062995910645 35.914192199707 35.9223556518555 35.9312858581543 35.9363403320312 35.9142608642578 35.8532409667969 35.7929992675781 35.7729148864746 35.796501159668 35.8490295410156 35.8991470336914 35.945613861084 35.9878082275391 36.0231513977051 36.0482749938965 36.0686683654785 36.0997085571289 36.1405906677246 36.179573059082 36.217845916748 36.2503929138184 36.2724609375 36.2970886230469 36.3271484375 36.3502197265625 36.3461303710938 36.3243064880371 36.2912216186523 36.2514343261719 36.2439384460449 36.2643165588379 36.2691764831543 36.2539176940918
-9999 -9999 -9999 -9999 -9999 -9999 -9999 -9999 -9999 -9999 -9999 -9999 -9999 -9999 -9999 19.8601226806641 19.3888378143311 -9999 28.5403532981873 32.0036125183105 32.1040840148926 32.231388092041 32.5115165710449 32.9364547729492 33.5568962097168 34.2932891845703 34.8037414550781 35.120002746582 35.3589897155762 35.4282913208008 35.4560623168945 35.5188331604004 35.6096115112305 35.7351570129395 35.8618583679199 35.9425964355469 35.9826698303223 36.006519317627 36.0262069702148 36.0422668457031 36.0589332580566 36.0529556274414 36.0077743530273 35.9479141235352 35.909481048584 35.9190101623535 35.9639549255371 36.0133438110352 36.0523490905762 36.0735397338867 36.087646484375 36.1030807495117 36.1265563964844 36.1610984802246 36.2001724243164 36.2382774353027 36.2734527587891 36.3007545471191 36.3214073181152 36.3507461547852 36.3789482116699 36.3873443603516 36.3796691894531 36.3663902282715 36.3421401977539 36.3029747009277 36.2924613952637 36.3072204589844 36.3043670654297 36.2856254577637
-9999 -9999 -9999 -9999 -9999 -9999 -9999 -9999 -9999 -9999 -9999 -9999 -9999 -9999 -9999 20.886100769043 22.1301860809326 -9999 30.9770374298096 31.8367767333984 32.206657409668 32.5588455200195 33.0696258544922 33.600772857666 34.0703277587891 34.5347633361816 34.9382972717285 35.2248344421387 35.4391326904297 35.5756187438965 35.6694221496582 35.7597961425781 35.8596534729004 35.9676895141602 36.0405731201172 36.066234588623 36.0749588012695 36.0852279663086 36.0992698669434 36.1101913452148 36.1230201721191 36.1244773864746 36.0946311950684 36.0479698181152 36.0196685791016 36.0411033630371 36.0921440124512 36.1362724304199 36.1537933349609 36.1467132568359 36.1440467834473 36.1550559997559 36.1820755004883 36.2179985046387 36.2517700195312 36.2849273681641 36.3160820007324 36.3431549072266 36.3686828613281 36.4019966125488 36.4257469177246 36.4227180480957 36.4119033813477 36.3962593078613 36.3779296875 36.3539772033691 36.3383979797363 36.3369560241699 36.3279037475586 36.3154335021973
-9999 -9999 -9999 -9999 -9999 -9999 -9999 -9999 -9999 -9999 -9999 -9999 -9999 -9999 -9999 21.5669212341309 -9999 26.7176298413958 30.4356002807617 31.6841983795166 32.354808807373 33.0581359863281 34.021614074707 34.7542152404785 35.1271896362305 35.3795013427734 35.6011810302734 35.7588958740234 35.8602752685547 35.9236679077148 35.9653282165527 35.9973754882812 36.0256462097168 36.0447998046875 36.0414924621582 36.0376930236816 36.0533866882324 36.0827522277832 36.1103019714355 36.1244964599609 36.1360931396484 36.1462478637695 36.1317749023438 36.0962982177734 36.0759353637695 36.1032791137695 36.1588401794434 36.1992721557617 36.2095985412598 36.1999588012695 36.1994590759277 36.2107887268066 36.235034942627 36.2658615112305 36.2942276000977 36.3216552734375 36.3483695983887 36.3706130981445 36.3924865722656 36.4194793701172 36.4353065490723 36.4326705932617 36.4242362976074 36.4089469909668 36.3956146240234 36.382137298584 36.3602828979492 36.3484344482422 36.3354873657227 36.3228302001953
-9999 -9999 -9999 -9999 -9999 -9999 -9999 -9999 -9999 -9999 -9999 -9999 -9999 -9999 21.5669212341309 22.8523515065511 23.8119411468506 26.9931583404541 29.49729347229 31.2790603637695 32.3379936218262 33.5407371520996 34.9317893981934 35.5956192016602 35.7877578735352 35.8827018737793 35.9503555297852 35.9926223754883 36.0193634033203 36.0332298278809 36.0404586791992 36.042854309082 36.0428276062012 36.0428199768066 36.0532875061035 36.0869255065918 36.1244049072266 36.1516876220703 36.1674919128418 36.1721839904785 36.1756553649902 36.188404083252 36.1924781799316 36.1639022827148 36.1370582580566 36.1558837890625 36.2027244567871 36.2358856201172 36.2494812011719 36.2441673278809 36.248405456543 36.2544326782227 36.2649002075195 36.2852020263672 36.315242767334 36.3443870544434 36.3751831054688 36.4036560058594 36.420783996582 36.4311408996582 36.4412727355957 36.4403266906738 36.4303016662598 36.415943145752 36.4047546386719 36.3944358825684 36.3692207336426 36.3517112731934 36.3322067260742 36.3119888305664
-9999 -9999 -9999 -9999 -9999 -9999 -9999 -9999 -9999 -9999 -9999 -9999 -9999 -9999 -9999 -9999 26.9016561508179 27.6478652954102 29.4699573516846 30.99338722229 32.493953704834 34.3733863830566 35.5623817443848 35.8344230651855 35.9163665771484 35.9619255065918 35.9930458068848 36.0144538879395 36.0314407348633 36.0435638427734 36.0495376586914 36.0524291992188 36.0570182800293 36.065258026123 36.0884857177734 36.128849029541 36.1691207885742 36.199405670166 36.2110977172852 36.2086334228516 36.207447052002 36.2175712585449 36.2291374206543 36.2108955383301 36.187370300293 36.1990928649902 36.2320938110352 36.2623596191406 36.2854499816895 36.2872772216797 36.2907295227051 36.2890853881836 36.2890968322754 36.3029975891113 36.3338623046875 36.3716087341309 36.4165191650391 36.4529876708984 36.456729888916 36.4444847106934 36.4473495483398 36.4455528259277 36.4339866638184 36.4218902587891 36.4112663269043 36.4036521911621 36.3783874511719 36.3519020080566 36.3258018493652 36.3010559082031
-9999 -9999 -9999 -9999 -9999 -9999 -9999 -9999 -9999 -9999 -9999 -9999 -9999 -9999 -9999 -9999 28.4007625579834 29.1536598205566 30.302152633667 31.7926597595215 33.618480682373 35.1603965759277 35.7147254943848 35.847957611084 35.9209976196289 35.9711074829102 36.0075340270996 36.0419425964355 36.0730743408203 36.0914573669434 36.0954322814941 36.0964622497559 36.0971908569336 36.1018676757812 36.1246032714844 36.1618347167969 36.207103729248 36.2447700500488 36.254711151123 36.2482795715332 36.2460250854492 36.254566192627 36.2671012878418 36.2587280273438 36.2419052124023 36.2488899230957 36.2718772888184 36.2924385070801 36.3174591064453 36.326488494873 36.3283157348633 36.3233871459961 36.320686340332 36.332088470459 36.367847442627 36.4178047180176 36.4653663635254 36.4924774169922 36.479305267334 36.4543418884277 36.4521675109863 36.4486808776855 36.4372062683105 36.4252891540527 36.4172706604004 36.417724609375 36.3937721252441 36.3618011474609 36.3300514221191 36.3024711608887
-9999 -9999 -9999 -9999 -9999 -9999 -9999 -9999 -9999 -9999 -9999 -9999 -9999 -9999 -9999 -9999 -9999 30.5110573768616 31.0569839477539 32.607364654541 34.2420272827148 35.2916870117188 35.7051582336426 35.8624954223633 35.9425239562988 35.9902496337891 36.0340538024902 36.0858955383301 36.1266822814941 36.1429634094238 36.141788482666 36.140510559082 36.1380653381348 36.1408538818359 36.1636924743652 36.2020988464355 36.2495307922363 36.281852722168 36.2862968444824 36.2806053161621 36.2793464660645 36.2925300598145 36.3103446960449 36.3070907592773 36.2930068969727 36.302303314209 36.327320098877 36.3463516235352 36.363410949707 36.3686790466309 36.3694953918457 36.3625373840332 36.3603973388672 36.3733329772949 36.4127388000488 36.4561653137207 36.4844665527344 36.4948997497559 36.4781875610352 36.4613189697266 36.4609107971191 36.456356048584 36.4435157775879 36.4333381652832 36.4270782470703 36.4286117553711 36.4085121154785 36.3781204223633 36.3477935791016 36.3206634521484
-9999 -9999 -9999 -9999 -9999 -9999 -9999 -9999 -9999 -9999 -9999 -9999 -9999 -9999 28.9654355049133 29.1536598205566 30.6225897073746 31.2942085266113 31.5314331054688 32.776782989502 34.2401313781738 35.2955665588379 35.7338676452637 35.8962211608887 35.9765129089355 36.0358963012695 36.1021461486816 36.1592788696289 36.1814575195312 36.1855583190918 36.1884117126465 36.1886825561523 36.1855278015137 36.1929550170898 36.2133674621582 36.2402572631836 36.2748374938965 36.2934761047363 36.2946586608887 36.2913589477539 36.2859992980957 36.2928695678711 36.3120536804199 36.3222541809082 36.3231735229492 36.343994140625 36.3753433227539 36.3913307189941 36.3995704650879 36.4011154174805 36.4021453857422 36.3956871032715 36.3925552368164 36.408374786377 36.4446563720703 36.4705963134766 36.4837379455566 36.4873962402344 36.4737548828125 36.4649200439453 36.4658737182617 36.4627265930176 36.4536552429199 36.449031829834 36.4432792663574 36.4407958984375 36.4247627258301 36.3980407714844 36.3670196533203 36.3429756164551
-9999 -9999 -9999 -9999 -9999 -9999 -9999 -9999 -9999 -9999 -9999 -9999 -9999 -9999 -9999 -9999 -9999 -9999 32.8528518676758 33.1862907409668 34.5879859924316 35.470588684082 35.8428230285645 35.9566955566406 36.0098609924316 36.0634307861328 36.1264457702637 36.1756744384766 36.1977806091309 36.207447052002 36.213005065918 36.2107200622559 36.2120399475098 36.2282485961914 36.251651763916 36.2751350402832 36.2970581054688 36.3035202026367 36.3042411804199 36.3030967712402 36.3004570007324 36.3100471496582 36.326286315918 36.340690612793 36.3503494262695 36.3795890808105 36.4102325439453 36.4192314147949 36.416576385498 36.417350769043 36.4213981628418 36.4211921691895 36.4214859008789 36.4370079040527 36.462646484375 36.4795989990234 36.4794769287109 36.4762992858887 36.4622344970703 36.4559020996094 36.456428527832 36.4520225524902 36.4432754516602 36.4397468566895 36.4380760192871 36.4374046325684 36.4318161010742 36.4220123291016 36.4019660949707 36.3827590942383
-9999 -9999 -9999 -9999 -9999 -9999 -9999 -9999 -9999 -9999 -9999 -9999 -9999 -9999 -9999 -9999 -9999 35.2958068847656 34.3778228759766 33.9169006347656 35.0582656860352 35.7331809997559 35.9309158325195 35.9896011352539 36.0420837402344 36.1082153320312 36.1623954772949 36.1922416687012 36.2058868408203 36.2146949768066 36.2208290100098 36.2256278991699 36.2365531921387 36.2579345703125 36.2830619812012 36.3025131225586 36.3101768493652 36.3077850341797 36.3090782165527 36.310661315918 36.3157157897949 36.3310050964355 36.3457717895508 36.363468170166 36.3852691650391 36.4182777404785 36.4367218017578 36.438835144043 36.4348907470703 36.4342346191406 36.4338111877441 36.4357833862305 36.4421653747559 36.455192565918 36.4758720397949 36.4880752563477 36.4732093811035 36.4650955200195 36.4532318115234 36.4460220336914 36.4452667236328 36.4422912597656 36.4387397766113 36.4378776550293 36.4350776672363 36.4352951049805 36.4358406066895 36.4402313232422 36.4335746765137 36.4251365661621
-9999 -9999 -9999 -9999 -9999 -9999 -9999 -9999 -9999 -9999 -9999 -9999 -9999 35.6759452819824 35.6928011576335 -9999 35.700511932373 35.6131629943848 35.2958068847656 35.1122932434082 35.6944923400879 35.9239273071289 35.9936752319336 36.036563873291 36.0918731689453 36.1562118530273 36.1904640197754 36.2074317932129 36.2172889709473 36.223217010498 36.2292900085449 36.2378311157227 36.2500228881836 36.2718887329102 36.2979507446289 36.3124732971191 36.3138999938965 36.3151245117188 36.3179473876953 36.3229370117188 36.3335037231445 36.3504333496094 36.367919921875 36.3878974914551 36.4145889282227 36.4401435852051 36.4442977905273 36.4391975402832 36.4340553283691 36.4333381652832 36.4379730224609 36.4492797851562 36.4610176086426 36.4717636108398 36.4881477355957 36.4963569641113 36.4724197387695 36.4580039978027 36.4483261108398 36.4444961547852 36.4489479064941 36.4492111206055 36.4416160583496 36.4325256347656 36.4250717163086 36.4236106872559 36.4259719848633 36.4339599609375 36.4359130859375 36.4405822753906
-9999 -9999 -9999 -9999 -9999 -9999 -9999 -9999 -9999 -9999 -9999 -9999 -9999 -9999 35.6759452819824 35.7193565368652 35.6831016540527 35.7179222106934 35.7558212280273 35.8172035217285 35.9285774230957 35.9692153930664 36.0006256103516 36.0457038879395 36.1191101074219 36.1845779418945 36.207950592041 36.2240829467773 36.2347183227539 36.235668182373 36.2368202209473 36.2447052001953 36.2591896057129 36.282772064209 36.3047943115234 36.3138122558594 36.3184585571289 36.3246612548828 36.3290367126465 36.3363647460938 36.3497657775879 36.3728446960449 36.3965225219727 36.4167137145996 36.4364700317383 36.4459419250488 36.4456939697266 36.4449920654297 36.4381980895996 36.4358100891113 36.4416694641113 36.453441619873 36.4645233154297 36.4743614196777 36.4849395751953 36.4934043884277 36.4812278747559 36.4625205993652 36.4488105773926 36.4461822509766 36.4558906555176 36.4548645019531 36.4365692138672 36.417179107666 36.4027862548828 36.3984146118164 36.3987159729004 36.4012222290039 36.4026489257812 36.4102897644043
-9999 -9999 -9999 -9999 -9999 -9999 -9999 -9999 -9999 -9999 -9999 -9999 -9999 -9999 35.7388725280762 35.6759452819824 35.7990226745605 35.8422966003418 35.8835372924805 35.935863494873 35.963996887207 36.0039443969727 36.0448150634766 36.097354888916 36.1642532348633 36.200065612793 36.2134056091309 36.2282752990723 36.2391166687012 36.2430305480957 36.2452621459961 36.2552185058594 36.2711639404297 36.2895965576172 36.3050727844238 36.3155059814453 36.3279457092285 36.3393478393555 36.3482513427734 36.3582534790039 36.3705024719238 36.3952827453613 36.4197578430176 36.4328994750977 36.4417304992676 36.4453125 36.4460563659668 36.4475860595703 36.4405136108398 36.4240226745605 36.4178123474121 36.4341316223145 36.4565505981445 36.4671897888184 36.4643402099609 36.4608192443848 36.455680847168 36.4421615600586 36.4362106323242 36.4347991943359 36.4449882507324 36.4412231445312 36.4198150634766 36.3971138000488 36.3782119750977 36.3684501647949 36.3596076965332 36.3540687561035 36.3520736694336 36.3539886474609
-9999 -9999 -9999 -9999 -9999 -9999 -9999 -9999 -9999 -9999 -9999 35.4688491821289 35.601634979248 35.7500038146973 35.7122955322266 35.8172454833984 35.8965301513672 35.9063034057617 35.9236946105957 35.9557609558105 35.9944763183594 36.0435752868652 36.0765380859375 36.124755859375 36.1770172119141 36.1953659057617 36.2131614685059 36.2249069213867 36.2311172485352 36.2357444763184 36.2429962158203 36.254768371582 36.2673072814941 36.2809982299805 36.296070098877 36.3115882873535 36.3304176330566 36.3483657836914 36.3643379211426 36.3825340270996 36.4023818969727 36.409351348877 36.4050788879395 36.4144859313965 36.4378051757812 36.4532814025879 36.4520645141602 36.4463577270508 36.4393577575684 36.4159507751465 36.394474029541 36.4058685302734 36.4358215332031 36.4538383483887 36.4447326660156 36.4306221008301 36.4352378845215 36.4312324523926 36.4194717407227 36.4125747680664 36.4238548278809 36.4232597351074 36.4056739807129 36.3872375488281 36.3689498901367 36.3573837280273 36.3483657836914 36.3457717895508 36.3462142944336 36.3467483520508
-9999 -9999 -9999 -9999 -9999 -9999 -9999 -9999 -9999 35.3428039550781 35.5571212768555 35.6789093017578 35.8344802856445 35.8983268737793 35.8841133117676 35.9260177612305 35.9201774597168 35.9216423034668 35.9544944763184 35.9920463562012 36.0241775512695 36.0636444091797 36.0849418640137 36.1266136169434 36.173469543457 36.1858787536621 36.2087783813477 36.2293586730957 36.2415313720703 36.241813659668 36.2392425537109 36.2382469177246 36.239917755127 36.2488327026367 36.2645835876465 36.2864761352539 36.3134307861328 36.3346366882324 36.3502883911133 36.3712348937988 36.3996849060059 36.4188957214355 36.4147987365723 36.4088172912598 36.4151992797852 36.4210624694824 36.4271354675293 36.4275321960449 36.4171905517578 36.3983383178711 36.3862571716309 36.3992500305176 36.4280319213867 36.4503555297852 36.4377708435059 36.4096221923828 36.409839630127 36.4076690673828 36.4014701843262 36.3982353210449 36.4061813354492 36.3995361328125 36.3830223083496 36.3683967590332 36.3531723022461 36.3435974121094 36.3331527709961 36.329532623291 36.3327522277832 36.3415374755859
-9999 -9999 -9999 -9999 -9999 -9999 -9999 -9999 -9999 35.5616264343262 35.7608451843262 35.8913764953613 35.9386253356934 35.9491882324219 35.9347648620605 35.9054756164551 35.9009666442871 35.9222831726074 35.9593162536621 35.9887847900391 36.0471000671387 36.1066856384277 36.1201515197754 36.1239624023438 36.1498413085938 36.1567115783691 36.1736145019531 36.2032012939453 36.2330780029297 36.2392082214355 36.237419128418 36.2329177856445 36.2248497009277 36.2234420776367 36.2292861938477 36.2428359985352 36.2667579650879 36.2894973754883 36.3035888671875 36.3182945251465 36.339241027832 36.3651351928711 36.3924407958984 36.4112968444824 36.4224510192871 36.4233818054199 36.4192771911621 36.4083099365234 36.3980865478516 36.3907012939453 36.3912315368652 36.4075164794922 36.4334449768066 36.4571952819824 36.4412651062012 36.3894500732422 36.3800735473633 36.3816223144531 36.3835487365723 36.3828468322754 36.3819999694824 36.3693504333496 36.355827331543 36.3435592651367 36.3309669494629 36.3196868896484 36.308422088623 36.3059959411621 36.3069305419922 36.3119964599609
-9999 -9999 -9999 -9999 -9999 35.4958934783936 35.5137634277344 35.5969543457031 35.5969886779785 35.6542930603027 35.7915649414062 35.9060211181641 35.9278869628906 35.9225234985352 35.905200958252 35.8981742858887 35.9098815917969 35.945499420166 35.9862747192383 36.0209197998047 36.079517364502 36.1300468444824 36.1305274963379 36.127513885498 36.151481628418 36.1521034240723 36.1598510742188 36.1741104125977 36.2043304443359 36.2216415405273 36.2217864990234 36.2218894958496 36.218505859375 36.2171287536621 36.2221031188965 36.2362861633301 36.2620162963867 36.2845573425293 36.2940559387207 36.2982940673828 36.3095359802246 36.3359985351562 36.3720245361328 36.4006996154785 36.4176864624023 36.4187316894531 36.4128227233887 36.4080848693848 36.4122886657715 36.4193344116211 36.4283409118652 36.4387893676758 36.4471168518066 36.4580001831055 36.44921875 36.3909568786621 36.3600959777832 36.3669052124023 36.36669921875 36.3602027893066 36.3508262634277 36.3391532897949 36.3318176269531 36.3291893005371 36.3254432678223 36.3101654052734 36.2981224060059 36.2939186096191 36.2924575805664 36.2900161743164
-9999 -9999 -9999 -9999 35.2578735351562 35.5012054443359 35.7107315063477 35.7977905273438 35.8225936889648 35.8347129821777 35.8860664367676 35.9274482727051 35.9181442260742 35.9029159545898 35.8956489562988 35.9015769958496 35.9230422973633 35.9698219299316 36.0079536437988 36.0445175170898 36.098087310791 36.1372947692871 36.1269416809082 36.1194076538086 36.1623268127441 36.188606262207 36.1992797851562 36.2041130065918 36.2187576293945 36.2326278686523 36.225772857666 36.222972869873 36.2285232543945 36.2350730895996 36.2452850341797 36.2602462768555 36.2864456176758 36.3112831115723 36.3250961303711 36.335636138916 36.3554725646973 36.385627746582 36.4173202514648 36.4431228637695 36.458381652832 36.4654922485352 36.4722785949707 36.4786033630371 36.4815368652344 36.4817008972168 36.4777755737305 36.464225769043 36.4505615234375 36.4534683227539 36.445426940918 36.3862037658691 36.3480186462402 36.3529205322266 36.3460655212402 36.3336219787598 36.3190422058105 36.3154449462891 36.3211555480957 36.3270072937012 36.319408416748 36.2952156066895 36.2798233032227 36.2758140563965 36.2732696533203 36.269229888916
-9999 -9999 -9999 35.4954986572266 35.534366607666 35.7459602355957 35.8393402099609 35.8920364379883 35.9140090942383 35.9161529541016 35.9262733459473 35.920524597168 35.9067535400391 35.8979911804199 35.9020118713379 35.9170455932617 35.9519500732422 35.9952125549316 36.0297164916992 36.059139251709 36.1076545715332 36.133846282959 36.1208267211914 36.111385345459 36.1431198120117 36.1902351379395 36.2211227416992 36.2414741516113 36.2643508911133 36.2797012329102 36.2654418945312 36.2538299560547 36.2597007751465 36.2716865539551 36.2919502258301 36.3229446411133 36.3689346313477 36.4034996032715 36.4157485961914 36.4239501953125 36.4361305236816 36.456600189209 36.4755096435547 36.4774971008301 36.474853515625 36.4776077270508 36.4850769042969 36.490406036377 36.4894027709961 36.4841613769531 36.4751586914062 36.4636344909668 36.4569435119629 36.451717376709 36.419921875 36.3531646728516 36.3402709960938 36.3527717590332 36.347484588623 36.3217811584473 36.2970809936523 36.2920036315918 36.2959938049316 36.2951812744141 36.2865676879883 36.2803230285645 36.2685089111328 36.264476776123 36.259220123291 36.2477111816406
-9999 -9999 -9999 35.4892387390137 35.7005157470703 35.8309288024902 35.8948440551758 35.9140968322754 35.9159965515137 35.9105644226074 35.9136047363281 35.9173698425293 35.9085922241211 35.9109001159668 35.920768737793 35.9483261108398 35.9844436645508 36.0201797485352 36.0562629699707 36.1033668518066 36.1472473144531 36.1455993652344 36.1241264343262 36.1106224060059 36.1322898864746 36.1776123046875 36.2156753540039 36.2449531555176 36.2928504943848 36.3273811340332 36.3120460510254 36.3019752502441 36.3142280578613 36.335506439209 36.369571685791 36.4140739440918 36.4452171325684 36.4458465576172 36.431209564209 36.4258575439453 36.4446220397949 36.4698677062988 36.4647331237793 36.445743560791 36.4422988891602 36.4551582336426 36.4769248962402 36.4931449890137 36.4956550598145 36.4920959472656 36.4873352050781 36.4846382141113 36.4788475036621 36.4501533508301 36.4084053039551 36.3770790100098 36.3778686523438 36.3989219665527 36.4015274047852 36.3691635131836 36.3216285705566 36.2817535400391 36.2682113647461 36.2681770324707 36.2688941955566 36.2731056213379 36.2601509094238 36.2597770690918 36.2544860839844 36.2319412231445
