NCOLS 70 
NROWS 52 
XLLCORNER -80 
YLLCORNER 33 
CELLSIZE 0.25 
NODATA_value -9999 
-9999.000000000000000 -9999 -9999 -9999 -9999 -9999 -9999 -9999 -9999 -9999 -9999 -9999 -9999 -9999 -9999 -9999 -9999 -9999 -9999 -9999 -9999 -9999 -9999 -9999 -9999 -9999 -9999 -9999 -9999 -9999 -9999 -9999 -9999 -9999 -9999 -9999 -9999 -9999 -9999 -9999 -9999 -9999 -9999 -9999 -9999 -9999 -9999 -9999 -9999 -9999 -9999 -9999 -9999 -9999 -9999 -9999 -9999 -9999 -9999 -9999 -9999 -9999 -9999 -9999 -9999 -9999 -9999 -9999 -9999 -9999
-9999 -9999 -9999 -9999 -9999 -9999 -9999 -9999 -9999 -9999 -9999 -9999 -9999 -9999 -9999 -9999 -9999 -9999 -9999 -9999 -9999 -9999 -9999 -9999 -9999 -9999 -9999 -9999 -9999 -9999 -9999 -9999 -9999 -9999 -9999 -9999 -9999 -9999 -9999 -9999 -9999 -9999 -9999 -9999 -9999 -9999 -9999 -9999 -9999 -9999 -9999 -9999 -9999 -9999 -9999 -9999 -9999 -9999 -9999 -9999 -9999 -9999 -9999 -9999 -9999 -9999 -9999 -9999 -9999 -9999
-9999 -9999 -9999 -9999 -9999 -9999 -9999 -9999 -9999 -9999 -9999 -9999 -9999 -9999 -9999 -9999 -9999 -9999 -9999 -9999 -9999 -9999 -9999 -9999 -9999 -9999 -9999 -9999 -9999 -9999 -9999 -9999 -9999 -9999 -9999 -9999 -9999 -9999 -9999 -9999 -9999 -9999 -9999 -9999 -9999 -9999 -9999 -9999 -9999 -9999 -9999 -9999 -9999 -9999 -9999 -9999 -9999 -9999 -9999 26.978910446167 -9999 -9999 -9999 -9999 -9999 -9999 -9999 -9999 -9999 -9999
-9999 -9999 -9999 -9999 -9999 -9999 -9999 -9999 -9999 -9999 -9999 -9999 -9999 -9999 -9999 -9999 -9999 -9999 -9999 -9999 -9999 -9999 -9999 -9999 -9999 -9999 -9999 -9999 -9999 -9999 -9999 -9999 -9999 -9999 -9999 -9999 -9999 -9999 -9999 -9999 -9999 -9999 -9999 -9999 -9999 -9999 -9999 -9999 -9999 -9999 -9999 -9999 -9999 -9999 -9999 29.7828884124756 29.4694862365723 29.1091899871826 28.4854755401611 27.8091411590576 -9999 -9999 -9999 -9999 -9999 -9999 -9999 -9999 -9999 -9999
-9999 -9999 -9999 -9999 -9999 -9999 -9999 -9999 -9999 -9999 -9999 -9999 -9999 -9999 -9999 -9999 -9999 -9999 -9999 -9999 -9999 -9999 -9999 -9999 -9999 -9999 -9999 -9999 -9999 -9999 -9999 -9999 -9999 -9999 -9999 -9999 -9999 -9999 -9999 -9999 -9999 -9999 -9999 -9999 -9999 -9999 -9999 -9999 -9999 -9999 -9999 -9999 31.5565929412842 31.4247894287109 31.0477924346924 30.3855590820312 29.6606597900391 29.1266765594482 -9999 -9999 -9999 -9999 -9999 -9999 -9999 -9999 -9999 -9999 -9999 -9999
-9999 -9999 -9999 -9999 -9999 -9999 -9999 -9999 -9999 -9999 -9999 -9999 -9999 -9999 -9999 -9999 -9999 -9999 -9999 -9999 -9999 -9999 -9999 -9999 -9999 -9999 -9999 -9999 -9999 -9999 -9999 -9999 -9999 -9999 -9999 -9999 -9999 -9999 -9999 -9999 -9999 -9999 -9999 -9999 -9999 -9999 -9999 -9999 -9999 -9999 32.2457984924316 32.217098236084 32.1826438903809 31.9018783569336 31.2779502868652 30.3932228088379 -9999 -9999 -9999 -9999 -9999 -9999 -9999 -9999 -9999 -9999 -9999 31.3913269042969 31.2235503196716 31.0615539550781
-9999 -9999 -9999 -9999 -9999 -9999 -9999 -9999 -9999 -9999 -9999 -9999 -9999 -9999 -9999 -9999 -9999 -9999 -9999 -9999 -9999 -9999 -9999 -9999 -9999 -9999 -9999 -9999 -9999 -9999 -9999 -9999 -9999 -9999 -9999 -9999 -9999 -9999 -9999 -9999 -9999 -9999 -9999 -9999 31.9076461791992 -9999 -9999 32.2352313995361 32.3651657104492 32.4506950378418 32.4952201843262 32.5046539306641 32.3801345825195 31.840353012085 31.1115646362305 -9999 -9999 -9999 -9999 -9999 -9999 -9999 -9999 31.9707946777344 31.8117656707764 31.6741638183594 31.5299015045166 31.3792343139648 31.2648448944092 31.1885681152344
-9999 -9999 -9999 -9999 -9999 -9999 -9999 -9999 -9999 -9999 -9999 -9999 -9999 -9999 -9999 -9999 -9999 -9999 -9999 -9999 -9999 -9999 -9999 -9999 -9999 -9999 -9999 -9999 -9999 -9999 -9999 -9999 -9999 -9999 -9999 -9999 -9999 -9999 -9999 -9999 -9999 -9999 -9999 -9999 31.8973369598389 31.9124355316162 32.0419807434082 32.2033958435059 32.3303833007812 32.4205474853516 32.4587287902832 32.46044921875 32.3808975219727 32.0775451660156 31.8211407661438 -9999 -9999 -9999 -9999 -9999 -9999 -9999 32.1805267333984 32.0408668518066 31.8958282470703 31.7692317962646 31.6720008850098 31.6029987335205 31.5454139709473 31.5614490509033
-9999 -9999 -9999 -9999 -9999 -9999 -9999 -9999 -9999 -9999 -9999 -9999 -9999 -9999 -9999 -9999 -9999 -9999 -9999 -9999 -9999 -9999 -9999 -9999 -9999 -9999 -9999 -9999 -9999 -9999 -9999 -9999 -9999 -9999 -9999 -9999 -9999 -9999 -9999 -9999 31.3241856892904 31.6029001871745 31.9647891998291 32.1900634765625 32.2159156799316 32.2445678710938 32.2826499938965 32.3230590820312 32.3700675964355 32.4236335754395 32.4598579406738 32.4714317321777 32.4274406433105 32.2551002502441 32.2992919921875 -9999 -9999 -9999 -9999 -9999 32.3612111409505 32.3176307678223 32.239917755127 32.1507453918457 32.0651168823242 31.9833106994629 31.9194717407227 31.8849868774414 31.8622264862061 31.8787975311279
-9999 -9999 -9999 -9999 -9999 -9999 -9999 -9999 -9999 -9999 -9999 -9999 -9999 -9999 -9999 -9999 -9999 -9999 -9999 -9999 -9999 -9999 -9999 -9999 -9999 -9999 -9999 -9999 -9999 -9999 -9999 -9999 -9999 -9999 -9999 -9999 -9999 -9999 -9999 31.1344947814941 31.2626438140869 31.57541847229 31.9706382751465 32.1746597290039 32.2297630310059 32.2644309997559 32.2978134155273 32.3357810974121 32.3830184936523 32.4359321594238 32.4758644104004 32.4915885925293 32.4690475463867 32.3960876464844 32.3797645568848 32.3879623413086 -9999 -9999 -9999 32.4429817199707 32.4061317443848 32.3598709106445 32.3281745910645 32.2944946289062 32.2320785522461 32.1615753173828 32.107494354248 32.0798606872559 32.0722770690918 32.0885353088379
-9999 -9999 -9999 -9999 -9999 -9999 -9999 -9999 -9999 -9999 -9999 -9999 -9999 -9999 -9999 -9999 -9999 -9999 -9999 -9999 -9999 -9999 -9999 -9999 -9999 -9999 -9999 -9999 -9999 -9999 -9999 -9999 -9999 -9999 -9999 -9999 -9999 -9999 31.9957050323486 31.9449977874756 32.0865440368652 32.2534637451172 32.2792854309082 32.2826919555664 32.2912750244141 32.3415641784668 32.4238128662109 32.4952545166016 32.5362205505371 32.5472373962402 32.5415115356445 32.5287170410156 32.5087203979492 32.4956321716309 32.5012474060059 32.4575500488281 32.3992538452148 32.4460175832113 32.4516639709473 32.4634323120117 32.4506988525391 32.428394317627 32.4003753662109 32.3581161499023 32.291862487793 32.2210083007812 32.1734771728516 32.1626777648926 32.1797294616699 32.2228775024414
-9999 -9999 -9999 -9999 -9999 -9999 -9999 -9999 -9999 -9999 -9999 -9999 -9999 -9999 -9999 -9999 -9999 -9999 -9999 -9999 -9999 -9999 -9999 -9999 -9999 -9999 -9999 -9999 -9999 -9999 -9999 -9999 -9999 -9999 -9999 -9999 -9999 32.2832641601562 32.3054733276367 32.3102951049805 32.3084144592285 32.3149604797363 32.3112869262695 32.3102607727051 32.3550300598145 32.4655914306641 32.5743675231934 32.631233215332 32.6341743469238 32.5982475280762 32.5605812072754 32.5394020080566 32.524730682373 32.5199012756348 32.532844543457 32.5207099914551 32.4884490966797 32.490177154541 32.5051574707031 32.5093574523926 32.5009384155273 32.4724884033203 32.4203872680664 32.3589515686035 32.291561126709 32.2183380126953 32.1720657348633 32.2012329101562 32.2821960449219 32.3855285644531
-9999 -9999 -9999 -9999 -9999 -9999 -9999 -9999 -9999 -9999 -9999 -9999 -9999 -9999 -9999 -9999 -9999 -9999 -9999 -9999 -9999 -9999 -9999 -9999 -9999 -9999 -9999 -9999 -9999 -9999 -9999 -9999 -9999 -9999 -9999 -9999 -9999 32.3038902282715 32.3256912231445 32.3408660888672 32.3331527709961 32.3232498168945 32.3287734985352 32.3639602661133 32.450252532959 32.5507659912109 32.6084785461426 32.624942779541 32.61181640625 32.5809097290039 32.5590133666992 32.5567321777344 32.556453704834 32.5502471923828 32.5475959777832 32.5389137268066 32.5315437316895 32.5370635986328 32.5483856201172 32.5671157836914 32.5811080932617 32.5608329772949 32.4993133544922 32.4095115661621 32.320068359375 32.2543296813965 32.2335548400879 32.324462890625 32.4896430969238 32.649974822998
-9999 -9999 -9999 -9999 -9999 -9999 -9999 -9999 -9999 -9999 -9999 -9999 -9999 -9999 -9999 -9999 -9999 -9999 -9999 -9999 -9999 -9999 -9999 -9999 -9999 -9999 -9999 -9999 -9999 -9999 -9999 -9999 -9999 -9999 -9999 -9999 -9999 32.1969261169434 32.2885704040527 32.3450775146484 32.3525123596191 32.3320045471191 32.345344543457 32.4086608886719 32.4858894348145 32.5358657836914 32.551456451416 32.5417060852051 32.5301628112793 32.5320701599121 32.5501480102539 32.5892372131348 32.6226997375488 32.6317939758301 32.6292991638184 32.6194953918457 32.6074180603027 32.6184196472168 32.6449012756348 32.7284545898438 32.8206367492676 32.8799018859863 32.8705520629883 32.7839584350586 32.6391487121582 32.5441360473633 32.5203323364258 32.6349830627441 32.8699569702148 33.0912551879883
-9999 -9999 -9999 -9999 -9999 -9999 -9999 -9999 -9999 -9999 -9999 -9999 -9999 -9999 -9999 -9999 -9999 -9999 -9999 -9999 -9999 -9999 -9999 -9999 -9999 -9999 -9999 -9999 -9999 -9999 -9999 -9999 -9999 -9999 -9999 -9999 32.002269744873 32.1458168029785 32.3016548156738 32.3827476501465 32.4139251708984 32.3956832885742 32.3610877990723 32.3837051391602 32.4369735717773 32.4603691101074 32.4523582458496 32.4319343566895 32.4246025085449 32.4504661560059 32.4827728271484 32.5408477783203 32.6058044433594 32.6423149108887 32.6849098205566 32.7419776916504 32.8045997619629 32.8753280639648 32.9256935119629 33.086109161377 33.2132949829102 33.2773780822754 33.2418327331543 33.1287460327148 32.9633560180664 32.8773307800293 32.9214973449707 33.1011848449707 33.3616981506348 33.5826072692871
-9999 -9999 -9999 -9999 -9999 -9999 -9999 -9999 -9999 -9999 -9999 -9999 -9999 -9999 -9999 -9999 -9999 -9999 -9999 -9999 -9999 -9999 -9999 -9999 -9999 -9999 -9999 -9999 -9999 -9999 -9999 -9999 -9999 -9999 -9999 -9999 -9999 32.1654167175293 32.2364616394043 32.3405265808105 32.441520690918 32.5128402709961 32.472339630127 32.4220428466797 32.4162216186523 32.4180030822754 32.4157295227051 32.4173965454102 32.4608268737793 32.5120277404785 32.4967613220215 32.4860458374023 32.5260887145996 32.5679931640625 32.6273612976074 32.7726173400879 33.027099609375 33.2518119812012 33.3533744812012 33.514518737793 33.5610427856445 33.4502983093262 33.2435684204102 33.0376319885254 32.9373207092285 33.0210914611816 33.2637786865234 33.5412902832031 33.7668800354004 33.8427276611328
-9999 -9999 -9999 -9999 -9999 -9999 -9999 -9999 -9999 -9999 -9999 -9999 -9999 -9999 -9999 -9999 -9999 -9999 -9999 -9999 -9999 -9999 -9999 -9999 -9999 -9999 -9999 -9999 -9999 -9999 -9999 -9999 -9999 -9999 -9999 -9999 -9999 -9999 32.0623092651367 -9999 32.4458808898926 32.6355361938477 32.7246932983398 32.7155990600586 32.6436996459961 32.6156272888184 32.6596946716309 32.7077903747559 32.7408599853516 32.6714210510254 32.5263748168945 32.453498840332 32.4733467102051 32.5219573974609 32.5798683166504 32.810489654541 33.2923583984375 33.6186180114746 33.7653694152832 33.9109687805176 33.855827331543 33.6643600463867 33.3837852478027 33.1235084533691 33.0434417724609 33.1639785766602 33.395809173584 33.6380004882812 33.8694305419922 33.963752746582
-9999 -9999 -9999 -9999 -9999 -9999 -9999 -9999 -9999 -9999 -9999 -9999 -9999 -9999 -9999 -9999 -9999 -9999 -9999 -9999 -9999 -9999 -9999 -9999 -9999 -9999 -9999 -9999 -9999 -9999 -9999 -9999 -9999 -9999 -9999 -9999 -9999 -9999 -9999 -9999 32.6540603637695 32.8200950622559 32.9964370727539 33.0870323181152 33.0471496582031 33.0162315368652 33.0352401733398 33.0115280151367 32.8720855712891 32.6280670166016 32.423828125 32.3751678466797 32.4165878295898 32.4826202392578 32.5777587890625 32.9600715637207 33.5767250061035 33.8687973022461 34.0555076599121 34.1301574707031 34.0543212890625 34.0487327575684 34.0040626525879 33.8111572265625 33.5282287597656 33.3548736572266 33.3669967651367 33.5818367004395 33.9134407043457 34.1549224853516
-9999 -9999 -9999 -9999 -9999 -9999 -9999 -9999 -9999 -9999 -9999 -9999 -9999 -9999 -9999 -9999 -9999 -9999 -9999 -9999 -9999 -9999 -9999 -9999 -9999 -9999 -9999 -9999 -9999 -9999 -9999 -9999 -9999 -9999 32.859486579895 32.6514053344727 32.6011428833008 -9999 32.4760780334473 32.4597396850586 32.6322784423828 32.8821220397949 33.0945930480957 33.2269630432129 33.241096496582 33.1847038269043 33.0870628356934 32.9199905395508 32.7056732177734 32.5105934143066 32.4134979248047 32.4469223022461 32.5403938293457 32.6252784729004 32.768180847168 33.1440353393555 33.5982856750488 33.922534942627 34.098274230957 34.0677108764648 33.9623641967773 34.0454216003418 34.293212890625 34.5757064819336 34.4398002624512 34.0989303588867 33.8554534912109 33.8244819641113 34.147144317627 34.4696350097656
-9999 -9999 -9999 -9999 -9999 -9999 -9999 -9999 -9999 -9999 -9999 -9999 -9999 -9999 -9999 -9999 -9999 -9999 -9999 -9999 -9999 -9999 -9999 -9999 -9999 -9999 -9999 28.2685565948486 28.2685565948486 28.8971748352051 29.8554859161377 31.4097232818604 32.6297988891602 32.8748245239258 32.9191474914551 32.9925689697266 33.0196990966797 32.9354286193848 32.7691116333008 32.6333770751953 32.6950569152832 32.8964462280273 33.1120071411133 33.2875709533691 33.3361167907715 33.2581367492676 33.1321144104004 32.9725494384766 32.8090400695801 32.7105026245117 32.7436332702637 32.9047050476074 33.171558380127 33.394889831543 33.5858993530273 33.6897239685059 33.7989196777344 33.9916839599609 34.0736846923828 33.950740814209 33.8505439758301 33.8649635314941 34.0942726135254 34.6112937927246 34.9554595947266 34.7858009338379 34.4856948852539 34.4178047180176 34.741828918457 34.9819641113281
-9999 -9999 -9999 -9999 -9999 -9999 -9999 -9999 -9999 -9999 -9999 -9999 -9999 -9999 -9999 -9999 -9999 -9999 -9999 -9999 -9999 -9999 -9999 -9999 -9999 -9999 -9999 -9999 -9999 -9999 31.229736328125 32.2771110534668 33.1393127441406 33.3140907287598 33.3372917175293 33.357421875 33.3280029296875 33.2259788513184 33.0854263305664 32.9641532897949 32.955810546875 33.0851097106934 33.2719802856445 33.4786987304688 33.5905265808105 33.5633697509766 33.5140800476074 33.4626502990723 33.3961563110352 33.3933982849121 33.5332832336426 33.8196258544922 34.2755928039551 34.6956558227539 34.9718475341797 35.0563430786133 35.024528503418 34.8612403869629 34.6541061401367 34.4090385437012 34.1987991333008 34.0961151123047 34.2480316162109 34.7294273376465 35.2073135375977 35.228141784668 35.0069313049316 35.0481185913086 35.363109588623 35.4925575256348
-9999 -9999 -9999 -9999 -9999 -9999 -9999 -9999 -9999 -9999 -9999 -9999 -9999 -9999 -9999 -9999 -9999 -9999 -9999 -9999 -9999 -9999 -9999 -9999 -9999 32.9746284484863 33.0868810017904 33.2549425760905 33.3764734268188 33.1892318725586 33.2411804199219 33.2571716308594 33.3408813476562 33.483715057373 33.5906257629395 33.6422576904297 33.622486114502 33.5291595458984 33.4298210144043 33.3540382385254 33.3245735168457 33.3827857971191 33.5301475524902 33.7580413818359 33.9671287536621 34.1287841796875 34.2518615722656 34.3214797973633 34.3341979980469 34.3913879394531 34.5728340148926 34.9144706726074 35.2795219421387 35.5158882141113 35.6146621704102 35.6443023681641 35.6587600708008 35.6581726074219 35.5278968811035 35.2117805480957 34.8739356994629 34.6146469116211 34.7252807617188 35.0871734619141 35.3988609313965 35.4361152648926 35.3112335205078 35.3414001464844 35.5974311828613 35.713077545166
-9999 -9999 -9999 -9999 -9999 -9999 -9999 -9999 -9999 -9999 -9999 -9999 -9999 -9999 -9999 -9999 -9999 -9999 -9999 -9999 -9999 -9999 -9999 -9999 32.9017181396484 32.9635124206543 33.0586547851562 33.2384757995605 33.4676971435547 33.6104888916016 33.5959663391113 33.5976486206055 33.8173675537109 34.1651420593262 34.4236106872559 34.5528373718262 34.5265274047852 34.3613433837891 34.2082061767578 34.1056098937988 34.0209541320801 33.9867515563965 34.0483436584473 34.2296829223633 34.4937973022461 34.8034172058105 35.0338134765625 35.1304588317871 35.1574020385742 35.2168388366699 35.3826713562012 35.5913696289062 35.6950531005859 35.6954231262207 35.6861190795898 35.7045974731445 35.7412796020508 35.8006896972656 35.8506202697754 35.6762084960938 35.372241973877 35.0986289978027 35.1569061279297 35.3074150085449 35.4746894836426 35.5205688476562 35.4615440368652 35.5055046081543 35.6894226074219 35.833251953125
-9999 -9999 -9999 -9999 -9999 -9999 -9999 -9999 -9999 -9999 -9999 -9999 -9999 -9999 -9999 -9999 -9999 -9999 -9999 -9999 -9999 -9999 -9999 -9999 33.319580078125 33.4455223083496 33.6814384460449 34.0254058837891 34.2965431213379 34.3484878540039 34.2449569702148 34.2677993774414 34.6179656982422 35.0667877197266 35.3757553100586 35.5531120300293 35.5811157226562 35.4687080383301 35.3235740661621 35.1784591674805 35.021427154541 34.8882179260254 34.8597946166992 34.9657363891602 35.1430358886719 35.303638458252 35.3780479431152 35.377613067627 35.398265838623 35.4994163513184 35.6381072998047 35.7288627624512 35.7541465759277 35.7503509521484 35.7425842285156 35.7426643371582 35.7595710754395 35.8019485473633 35.8677978515625 35.7700424194336 35.5193862915039 35.3608360290527 35.3563003540039 35.3833656311035 35.5036087036133 35.6112670898438 35.6748657226562 35.7594108581543 35.8651924133301 35.913890838623
-9999 -9999 -9999 -9999 -9999 -9999 -9999 -9999 -9999 -9999 -9999 -9999 -9999 -9999 -9999 -9999 -9999 -9999 -9999 -9999 -9999 -9999 -9999 33.6427421569824 33.6636619567871 33.9288749694824 34.3312950134277 34.7654876708984 35.0047035217285 35.0007667541504 34.9419441223145 35.1051597595215 35.4689445495605 35.7453689575195 35.8719215393066 35.9520492553711 36.0037994384766 36.0029029846191 35.9516754150391 35.8521270751953 35.6949310302734 35.5232238769531 35.4782104492188 35.553337097168 35.5898551940918 35.5586738586426 35.5072898864746 35.4900741577148 35.5712547302246 35.7075996398926 35.7958755493164 35.8512954711914 35.8820381164551 35.8815116882324 35.8586387634277 35.8222351074219 35.7787322998047 35.7449607849121 35.7375068664551 35.6534461975098 35.4954109191895 35.4327659606934 35.4059143066406 35.4252128601074 35.5661773681641 35.7277145385742 35.8179817199707 35.860954284668 35.864185333252 35.8281021118164
-9999 -9999 -9999 -9999 -9999 -9999 -9999 -9999 -9999 -9999 -9999 -9999 -9999 -9999 -9999 -9999 -9999 -9999 -9999 -9999 -9999 -9999 -9999 33.6680946350098 33.9196319580078 34.2828178405762 34.6874656677246 35.0741691589355 35.3451080322266 35.4486236572266 35.5389175415039 35.7640495300293 35.9742813110352 36.053337097168 36.0561790466309 36.0485649108887 36.0601463317871 36.0669059753418 36.0466461181641 36.016284942627 35.9398193359375 35.8069610595703 35.7543869018555 35.7835655212402 35.7651176452637 35.717227935791 35.6885223388672 35.7002868652344 35.7682037353516 35.840015411377 35.8803405761719 35.9283828735352 35.9782524108887 35.9943923950195 35.9813766479492 35.9490814208984 35.9024505615234 35.8197212219238 35.7029190063477 35.5805473327637 35.4796104431152 35.4366722106934 35.4213943481445 35.4468383789062 35.5488090515137 35.6826171875 35.7704162597656 35.8068237304688 35.8025588989258 35.7801055908203
-9999 -9999 -9999 -9999 -9999 -9999 -9999 -9999 -9999 -9999 -9999 -9999 -9999 -9999 -9999 -9999 -9999 -9999 -9999 -9999 -9999 -9999 33.674373626709 33.823787689209 34.0783386230469 34.3930130004883 34.7255744934082 35.127857208252 35.5307312011719 35.7791404724121 35.9187927246094 36.0299758911133 36.0913505554199 36.1194038391113 36.1241073608398 36.1026268005371 36.0826721191406 36.0660552978516 36.0383834838867 36.0258331298828 36.0078735351562 35.9241828918457 35.8455390930176 35.8246269226074 35.7977867126465 35.766788482666 35.768985748291 35.8065223693848 35.8533592224121 35.8856239318848 35.9024391174316 35.9373207092285 35.9866523742676 36.0101013183594 36.0123252868652 36.0160255432129 36.025074005127 35.9950103759766 35.8934211730957 35.7775230407715 35.6721992492676 35.5797004699707 35.505802154541 35.4739685058594 35.5070152282715 35.5746078491211 35.6457977294922 35.7164497375488 35.7620010375977 35.7663078308105
-9999 -9999 -9999 -9999 -9999 -9999 -9999 -9999 -9999 -9999 -9999 -9999 -9999 -9999 21.6846843295627 -9999 -9999 -9999 -9999 33.1952819824219 -9999 33.5630493164062 33.7289390563965 33.9517211914062 34.1940879821777 34.4648857116699 34.8252639770508 35.334098815918 35.7649116516113 35.9610176086426 36.0320663452148 36.0640182495117 36.08349609375 36.1037445068359 36.1148834228516 36.1071662902832 36.0903854370117 36.072437286377 36.0545310974121 36.0440101623535 36.0290031433105 35.9702987670898 35.8982963562012 35.8649406433105 35.8406715393066 35.8144264221191 35.823127746582 35.8713493347168 35.9206809997559 35.9517860412598 35.9708023071289 35.9967727661133 36.0200538635254 36.0214347839355 36.0185394287109 36.0340957641602 36.0636444091797 36.0852394104004 36.077995300293 36.0491943359375 35.9911994934082 35.9073944091797 35.8012619018555 35.7011795043945 35.6632080078125 35.6739959716797 35.6817054748535 35.697681427002 35.726993560791 35.7381019592285
-9999 -9999 -9999 -9999 -9999 -9999 -9999 -9999 -9999 -9999 -9999 -9999 -9999 -9999 21.698673248291 -9999 -9999 -9999 -9999 33.2656002044678 33.5621513366699 33.7212371826172 33.9296455383301 34.1444854736328 34.4187431335449 34.7796401977539 35.2147979736328 35.6383934020996 35.8885459899902 35.9735298156738 36.0123863220215 36.0394325256348 36.0544624328613 36.0723037719727 36.0981979370117 36.1134757995605 36.1104774475098 36.0982055664062 36.083610534668 36.0685577392578 36.0479698181152 36.004825592041 35.9562797546387 35.9379692077637 35.940113067627 35.9519958496094 35.9763526916504 36.0056686401367 36.0287475585938 36.0442771911621 36.0545501708984 36.0637550354004 36.0675354003906 36.0628471374512 36.0624084472656 36.0754585266113 36.0997123718262 36.1266746520996 36.1466178894043 36.1504669189453 36.1386032104492 36.1177558898926 36.0772323608398 35.9995803833008 35.9205513000488 35.8905601501465 35.8779411315918 35.8378715515137 35.8135299682617 35.8202133178711
-9999 -9999 -9999 -9999 -9999 -9999 -9999 -9999 -9999 -9999 -9999 -9999 -9999 -9999 21.6357231140137 -9999 -9999 -9999 -9999 -9999 34.0062370300293 33.9952697753906 34.2285842895508 34.5046539306641 34.9044151306152 35.3508148193359 35.6745758056641 35.8372535705566 35.9005546569824 35.9388313293457 35.9901885986328 36.0413551330566 36.0820732116699 36.1209297180176 36.1429862976074 36.142635345459 36.1378021240234 36.1315803527832 36.1232490539551 36.110050201416 36.0848159790039 36.0437240600586 36.0013847351074 35.9848709106445 35.9983367919922 36.0282707214355 36.0585250854492 36.073616027832 36.0767478942871 36.0841026306152 36.0964851379395 36.1073150634766 36.1128120422363 36.1154365539551 36.1222190856934 36.1357803344727 36.159839630127 36.1879615783691 36.2084732055664 36.2092094421387 36.1971435546875 36.1875801086426 36.1825714111328 36.163387298584 36.1096229553223 36.0577583312988 36.0333213806152 35.9876098632812 35.9538536071777 35.9660301208496
-9999 -9999 -9999 -9999 -9999 -9999 -9999 -9999 -9999 -9999 -9999 -9999 -9999 -9999 21.7316207885742 -9999 21.887523651123 -9999 -9999 -9999 34.0583038330078 34.2501373291016 34.5620574951172 34.9511451721191 35.4181442260742 35.7593421936035 35.8832893371582 35.9168815612793 35.9316024780273 35.9341850280762 35.9622840881348 36.0184593200684 36.0819778442383 36.1369476318359 36.1533126831055 36.1427040100098 36.1382865905762 36.1406097412109 36.1441650390625 36.1444816589355 36.1367607116699 36.1192321777344 36.0931396484375 36.069709777832 36.0611419677734 36.066764831543 36.0792045593262 36.0892791748047 36.1016387939453 36.1256523132324 36.1505851745605 36.1680717468262 36.1779708862305 36.1844253540039 36.1917381286621 36.2054290771484 36.2338066101074 36.2620658874512 36.2750663757324 36.269645690918 36.2569618225098 36.2471694946289 36.2432861328125 36.2425804138184 36.2246971130371 36.1832962036133 36.1379814147949 36.0809059143066 36.0311241149902 36.041072845459
-9999 -9999 -9999 -9999 -9999 -9999 -9999 -9999 -9999 -9999 -9999 -9999 -9999 -9999 21.7316207885742 21.8275184631348 22.1735324859619 -9999 -9999 34.2843885421753 34.2298126220703 34.613899230957 34.9710083007812 35.3629913330078 35.7241668701172 35.8866767883301 35.9204940795898 35.9382019042969 35.963077545166 35.9746437072754 35.9974822998047 36.0445098876953 36.0909652709961 36.121940612793 36.1324920654297 36.1344604492188 36.140438079834 36.1492118835449 36.1587448120117 36.1692008972168 36.1795387268066 36.1854858398438 36.1815719604492 36.1687698364258 36.1532974243164 36.1432647705078 36.1432456970215 36.1529541015625 36.175365447998 36.2052116394043 36.2284355163574 36.2446403503418 36.2556686401367 36.2598266601562 36.260326385498 36.269603729248 36.2954521179199 36.312801361084 36.3128662109375 36.3048057556152 36.2980690002441 36.2978515625 36.3001976013184 36.2959938049316 36.2844123840332 36.2653045654297 36.2280693054199 36.181079864502 36.1268615722656 36.1102142333984
-9999 -9999 -9999 -9999 -9999 -9999 -9999 -9999 -9999 -9999 -9999 -9999 -9999 -9999 -9999 23.5874866485596 22.7597789764404 -9999 31.1954426765442 34.2058792114258 34.6435585021973 35.158504486084 35.5034027099609 35.7657775878906 35.9300003051758 35.9724807739258 35.9633712768555 35.9680671691895 35.9956588745117 36.0140686035156 36.0375137329102 36.0730094909668 36.0972328186035 36.1119918823242 36.1244926452637 36.1398887634277 36.1591453552246 36.1786613464355 36.1976089477539 36.2172393798828 36.2338066101074 36.242992401123 36.2434196472168 36.2394943237305 36.2352142333984 36.2295799255371 36.2280349731445 36.2346534729004 36.2486724853516 36.2646064758301 36.2783699035645 36.2922058105469 36.3029975891113 36.3035202026367 36.2962760925293 36.2978286743164 36.3142356872559 36.3198509216309 36.3161239624023 36.31005859375 36.3072853088379 36.3124160766602 36.3224143981934 36.3230667114258 36.3104553222656 36.3015289306641 36.2755966186523 36.2479019165039 36.219482421875 36.2007751464844
-9999 -9999 -9999 -9999 -9999 -9999 -9999 -9999 -9999 -9999 -9999 -9999 -9999 -9999 -9999 25.3574733734131 25.8191299438477 -9999 33.762336730957 34.4082374572754 35.1305732727051 35.6562271118164 35.9001045227051 36.031364440918 36.0679817199707 36.0625190734863 36.042797088623 36.0394172668457 36.0501022338867 36.0542106628418 36.0652694702148 36.0846519470215 36.1023979187012 36.1208572387695 36.1422309875488 36.168025970459 36.1972618103027 36.2263603210449 36.2530517578125 36.2747039794922 36.2883110046387 36.2950706481934 36.2965507507324 36.2961387634277 36.2964401245117 36.2944107055664 36.2925415039062 36.2920036315918 36.291862487793 36.2949829101562 36.3034591674805 36.3141899108887 36.3204727172852 36.3174133300781 36.3053016662598 36.2997856140137 36.3109817504883 36.3129768371582 36.3092880249023 36.3069496154785 36.3101005554199 36.3170967102051 36.3246726989746 36.3272895812988 36.3165893554688 36.3138542175293 36.2997245788574 36.2747344970703 36.2600326538086 36.2550430297852
-9999 -9999 -9999 -9999 -9999 -9999 -9999 -9999 -9999 -9999 -9999 -9999 -9999 -9999 -9999 26.3509654998779 -9999 30.9850142342704 33.9036979675293 34.8640480041504 35.5596809387207 35.8857231140137 36.0110015869141 36.0886726379395 36.0950698852539 36.0861206054688 36.0745277404785 36.0648651123047 36.0625152587891 36.0636444091797 36.0717391967773 36.0901069641113 36.1161499023438 36.1462860107422 36.1802253723145 36.2162132263184 36.2510414123535 36.2810287475586 36.3031120300293 36.3169555664062 36.3230667114258 36.324779510498 36.3237991333008 36.3220252990723 36.3230972290039 36.3265342712402 36.3241119384766 36.3099021911621 36.2954025268555 36.2978782653809 36.3115653991699 36.3207168579102 36.3223457336426 36.3164253234863 36.3047828674316 36.3006286621094 36.3129348754883 36.317008972168 36.3107566833496 36.3087272644043 36.3186340332031 36.3292083740234 36.3307151794434 36.3269691467285 36.3135452270508 36.3073768615723 36.3034591674805 36.2878608703613 36.272533416748 36.2678108215332
-9999 -9999 -9999 -9999 -9999 -9999 -9999 -9999 -9999 -9999 -9999 -9999 -9999 -9999 26.3509654998779 27.7129090627034 29.1798667907715 32.472240447998 34.1499328613281 35.2091102600098 35.7458343505859 35.910587310791 35.9878349304199 36.0585556030273 36.0637016296387 36.0610008239746 36.0568008422852 36.0496025085449 36.0488166809082 36.0595169067383 36.0850257873535 36.1258888244629 36.1727485656738 36.2175331115723 36.2561454772949 36.2869071960449 36.3101119995117 36.3224906921387 36.3281440734863 36.3310203552246 36.327392578125 36.3221626281738 36.3200569152832 36.3184928894043 36.3211898803711 36.3253211975098 36.3221588134766 36.3086318969727 36.2983894348145 36.3065376281738 36.3180732727051 36.3195571899414 36.3177108764648 36.311695098877 36.3030586242676 36.3021087646484 36.314151763916 36.3235778808594 36.3180961608887 36.3130798339844 36.3217468261719 36.3297538757324 36.324951171875 36.3156433105469 36.301097869873 36.2934379577637 36.2931632995605 36.2898979187012 36.2831344604492 36.2745475769043
-9999 -9999 -9999 -9999 -9999 -9999 -9999 -9999 -9999 -9999 -9999 -9999 -9999 -9999 -9999 -9999 32.0359792709351 32.8906173706055 34.4313354492188 35.2891616821289 35.7336616516113 35.8906860351562 35.9507751464844 36.0127334594727 36.0267524719238 36.0346946716309 36.0401496887207 36.0442543029785 36.0625305175781 36.1042060852051 36.1641235351562 36.2262687683105 36.2767868041992 36.309741973877 36.3250961303711 36.3295211791992 36.3281669616699 36.3244972229004 36.3185005187988 36.3121032714844 36.3092651367188 36.3117942810059 36.3129005432129 36.3129425048828 36.3136024475098 36.313892364502 36.3131561279297 36.309009552002 36.3048248291016 36.3107528686523 36.3154449462891 36.3128967285156 36.3101654052734 36.3053092956543 36.2983627319336 36.2964630126953 36.3085632324219 36.3216400146484 36.3195457458496 36.3146286010742 36.3196411132812 36.3207931518555 36.3101463317871 36.3008689880371 36.2943572998047 36.2942276000977 36.2971801757812 36.2920608520508 36.2909545898438 36.287727355957
-9999 -9999 -9999 -9999 -9999 -9999 -9999 -9999 -9999 -9999 -9999 -9999 -9999 -9999 -9999 -9999 33.2459049224854 33.6011924743652 34.724292755127 35.4210090637207 35.775505065918 35.907600402832 35.9442558288574 35.9788627624512 35.9948997497559 36.0097541809082 36.0336875915527 36.0717926025391 36.1345596313477 36.2141494750977 36.286247253418 36.335620880127 36.3560562133789 36.3480834960938 36.3353881835938 36.328556060791 36.3170204162598 36.3028030395508 36.2901954650879 36.285758972168 36.2932777404785 36.3032493591309 36.3032836914062 36.3026580810547 36.3032760620117 36.3015174865723 36.3012619018555 36.3038444519043 36.3007125854492 36.3017234802246 36.3017959594727 36.3011627197266 36.3012657165527 36.2988700866699 36.2923698425293 36.2893142700195 36.3024520874023 36.3153038024902 36.3164138793945 36.3151245117188 36.3180885314941 36.3137855529785 36.3005485534668 36.2928428649902 36.2913208007812 36.2964324951172 36.3066673278809 36.3062286376953 36.3014755249023 36.2994613647461
-9999 -9999 -9999 -9999 -9999 -9999 -9999 -9999 -9999 -9999 -9999 -9999 -9999 -9999 -9999 -9999 -9999 34.555495262146 34.8688125610352 35.5629844665527 35.8419036865234 35.9207801818848 35.9399299621582 35.9628372192383 35.9856758117676 36.0233154296875 36.0817031860352 36.1601066589355 36.2535400390625 36.3328628540039 36.3762016296387 36.3859939575195 36.3676834106445 36.3375778198242 36.3201866149902 36.3122367858887 36.2965278625488 36.2792816162109 36.2688102722168 36.270336151123 36.2820663452148 36.2909660339355 36.2882194519043 36.2867965698242 36.2938194274902 36.2990837097168 36.3009223937988 36.309814453125 36.3095664978027 36.3067016601562 36.3036804199219 36.3021926879883 36.3024864196777 36.2984313964844 36.2905158996582 36.2927703857422 36.308895111084 36.313419342041 36.3110275268555 36.3086204528809 36.3076477050781 36.3039093017578 36.2947807312012 36.2838478088379 36.2792739868164 36.2796516418457 36.2896347045898 36.298469543457 36.3014259338379 36.3019027709961
-9999 -9999 -9999 -9999 -9999 -9999 -9999 -9999 -9999 -9999 -9999 -9999 -9999 -9999 33.5123705863953 33.6011924743652 34.5331547260284 34.9482479095459 35.0276832580566 35.5893058776855 35.8594703674316 35.9238891601562 35.9358901977539 35.9661293029785 36.0087776184082 36.0760383605957 36.1645545959473 36.2593765258789 36.3447685241699 36.3907928466797 36.3976364135742 36.381721496582 36.3505210876465 36.3244857788086 36.3108100891113 36.2972793579102 36.2794342041016 36.2683944702148 36.2667274475098 36.2725410461426 36.2820281982422 36.2831878662109 36.2793846130371 36.2845687866211 36.2953681945801 36.3036003112793 36.3064155578613 36.3202514648438 36.3298568725586 36.3310852050781 36.3297348022461 36.3259582519531 36.3234481811523 36.3188934326172 36.3114395141602 36.3138427734375 36.3179512023926 36.312629699707 36.3073921203613 36.3035316467285 36.2990875244141 36.2942733764648 36.284595489502 36.2736740112305 36.2672271728516 36.2662734985352 36.2710151672363 36.2775917053223 36.2853012084961 36.2912635803223
-9999 -9999 -9999 -9999 -9999 -9999 -9999 -9999 -9999 -9999 -9999 -9999 -9999 -9999 -9999 -9999 -9999 -9999 35.494927406311 35.6419715881348 35.8547058105469 35.9161567687988 35.942008972168 35.9958267211914 36.0644607543945 36.153018951416 36.2443199157715 36.3237419128418 36.3763313293457 36.3887367248535 36.3793830871582 36.3578453063965 36.3333282470703 36.3148345947266 36.2994422912598 36.28271484375 36.2692489624023 36.2673835754395 36.2745666503906 36.2832221984863 36.2923469543457 36.294807434082 36.2927474975586 36.299488067627 36.3099937438965 36.3189582824707 36.3175010681152 36.3229560852051 36.3353118896484 36.3424949645996 36.3480453491211 36.3470611572266 36.346492767334 36.3467445373535 36.3387222290039 36.3258323669434 36.3119697570801 36.3009300231934 36.2964134216309 36.2945671081543 36.2907676696777 36.2869262695312 36.2788314819336 36.2680130004883 36.2637367248535 36.2664833068848 36.2716636657715 36.2780570983887 36.2835998535156 36.2822952270508
-9999 -9999 -9999 -9999 -9999 -9999 -9999 -9999 -9999 -9999 -9999 -9999 -9999 -9999 -9999 -9999 -9999 35.8454132080078 35.7591066360474 35.7207489013672 35.8731842041016 35.9215240478516 35.9724655151367 36.0495796203613 36.1303901672363 36.2184448242188 36.2901153564453 36.3398323059082 36.3621635437012 36.3602600097656 36.3536186218262 36.3402404785156 36.3215827941895 36.3034019470215 36.2880363464355 36.2741508483887 36.2669715881348 36.273609161377 36.2869911193848 36.2957000732422 36.305778503418 36.3132591247559 36.3149070739746 36.3217391967773 36.3358535766602 36.3518028259277 36.3465690612793 36.3318176269531 36.3298568725586 36.3345794677734 36.3450126647949 36.3514518737793 36.3600769042969 36.3636436462402 36.3534240722656 36.3302688598633 36.3060989379883 36.2940940856934 36.2889099121094 36.2892150878906 36.2908973693848 36.2905426025391 36.2781219482422 36.2661361694336 36.2652435302734 36.2710952758789 36.2800712585449 36.2900848388672 36.2948951721191 36.2865524291992
-9999 -9999 -9999 -9999 -9999 -9999 -9999 -9999 -9999 -9999 -9999 -9999 -9999 35.7658843994141 35.7862544589572 -9999 35.8148593902588 35.8350477218628 35.8454132080078 35.8282928466797 35.8881568908691 35.9324645996094 36.0209884643555 36.109619140625 36.1904792785645 36.2615547180176 36.303050994873 36.3237228393555 36.3302230834961 36.3315124511719 36.3342704772949 36.3281478881836 36.3141136169434 36.2988166809082 36.2863616943359 36.2754898071289 36.2722358703613 36.2836799621582 36.2994842529297 36.308837890625 36.3164863586426 36.3205261230469 36.3283882141113 36.3464775085449 36.3709411621094 36.3938598632812 36.3815040588379 36.3441276550293 36.3224296569824 36.3201942443848 36.3337211608887 36.3449935913086 36.3569793701172 36.3655242919922 36.3629837036133 36.3454704284668 36.3167266845703 36.2963905334473 36.2867546081543 36.2854614257812 36.2883834838867 36.2845153808594 36.2705154418945 36.2656440734863 36.2669944763184 36.2735710144043 36.2827339172363 36.291316986084 36.292797088623 36.2817535400391
-9999 -9999 -9999 -9999 -9999 -9999 -9999 -9999 -9999 -9999 -9999 -9999 -9999 -9999 35.7658843994141 35.8002268473307 35.792652130127 35.8370666503906 35.8650588989258 35.8603591918945 35.9107704162598 35.9992523193359 36.1026573181152 36.1779632568359 36.2357292175293 36.2772102355957 36.2997207641602 36.3058967590332 36.3078880310059 36.3190994262695 36.3283271789551 36.3223342895508 36.3118362426758 36.3013496398926 36.2915382385254 36.2834854125977 36.2838668823242 36.2955589294434 36.3092422485352 36.3160514831543 36.3165016174316 36.317569732666 36.3348083496094 36.3676681518555 36.4016418457031 36.4195556640625 36.3942337036133 36.3469047546387 36.3204765319824 36.3172416687012 36.3300094604492 36.3429946899414 36.3493423461914 36.3561401367188 36.3568382263184 36.3331184387207 36.2996788024902 36.2824630737305 36.2751121520996 36.2734184265137 36.2734909057617 36.2701568603516 36.2634506225586 36.2606773376465 36.2607383728027 36.2666397094727 36.274471282959 36.2821960449219 36.2833595275879 36.2782859802246
-9999 -9999 -9999 -9999 -9999 -9999 -9999 -9999 -9999 -9999 -9999 -9999 -9999 -9999 35.769380569458 35.7658843994141 35.8421440124512 35.8546676635742 35.8590431213379 35.8858604431152 35.9707374572754 36.0698509216309 36.1530227661133 36.210521697998 36.2470359802246 36.2772483825684 36.2905082702637 36.2949676513672 36.3075523376465 36.3275413513184 36.3353233337402 36.3288612365723 36.3194618225098 36.3107757568359 36.3039016723633 36.2991561889648 36.2997436523438 36.3061790466309 36.3156242370605 36.323070526123 36.3261413574219 36.3314781188965 36.3552207946777 36.3899955749512 36.4201545715332 36.4240531921387 36.3878593444824 36.3446731567383 36.3243141174316 36.3218231201172 36.3337860107422 36.350471496582 36.3566780090332 36.3449745178223 36.3280448913574 36.3008117675781 36.2726707458496 36.2630462646484 36.2585983276367 36.2514762878418 36.2464942932129 36.2501792907715 36.2524452209473 36.2482948303223 36.2476119995117 36.2536544799805 36.2620582580566 36.272834777832 36.2795295715332 36.2843856811523
-9999 -9999 -9999 -9999 -9999 -9999 -9999 -9999 -9999 -9999 -9999 35.5128517150879 35.6514739990234 35.7448844909668 35.7433433532715 35.8234100341797 35.8464431762695 35.8316841125488 35.8641777038574 35.9548721313477 36.0620193481445 36.1330490112305 36.1881828308105 36.2192115783691 36.2429962158203 36.2662544250488 36.2783470153809 36.294620513916 36.3179931640625 36.3372650146484 36.3395843505859 36.3344421386719 36.328052520752 36.325366973877 36.3274612426758 36.3308753967285 36.3392105102539 36.3494033813477 36.3619766235352 36.3736419677734 36.3796653747559 36.3863639831543 36.4025650024414 36.4204139709473 36.435962677002 36.4240303039551 36.3835945129395 36.3475685119629 36.3312530517578 36.3328094482422 36.3450889587402 36.3598709106445 36.3702354431152 36.356315612793 36.3323097229004 36.3086471557617 36.2790832519531 36.2595291137695 36.2480964660645 36.2384910583496 36.2267036437988 36.223560333252 36.2324638366699 36.232666015625 36.2358245849609 36.2407531738281 36.2497520446777 36.2641334533691 36.2778015136719 36.2906723022461
-9999 -9999 -9999 -9999 -9999 -9999 -9999 -9999 -9999 35.3784103393555 35.5999069213867 35.7344818115234 35.8302841186523 35.8595962524414 35.8538360595703 35.8545570373535 35.8271331787109 35.850643157959 35.9282760620117 36.0151443481445 36.073543548584 36.1303215026855 36.1865425109863 36.2167510986328 36.2403984069824 36.262809753418 36.2714500427246 36.2889099121094 36.3198661804199 36.3417892456055 36.353572845459 36.3667831420898 36.3770751953125 36.3883972167969 36.4040565490723 36.4201583862305 36.4330444335938 36.4413299560547 36.4462661743164 36.4452285766602 36.4384689331055 36.4333572387695 36.4337692260742 36.4335479736328 36.4356575012207 36.4148483276367 36.375129699707 36.3476181030273 36.3414764404297 36.3500556945801 36.3623313903809 36.3772964477539 36.390495300293 36.3806266784668 36.3531646728516 36.3324508666992 36.3338050842285 36.321533203125 36.2950172424316 36.2804718017578 36.2459716796875 36.2115631103516 36.2086410522461 36.2165489196777 36.2214965820312 36.2267684936523 36.23388671875 36.2466888427734 36.2662086486816 36.2863006591797
-9999 -9999 -9999 -9999 -9999 -9999 -9999 -9999 -9999 35.5888175964355 35.7864379882812 35.8442840576172 35.8629760742188 35.8780975341797 35.8579750061035 35.8183631896973 35.8364105224609 35.8858871459961 35.9731903076172 36.0530471801758 36.1217155456543 36.1744346618652 36.2008590698242 36.2149276733398 36.2411308288574 36.2765083312988 36.2829322814941 36.2782402038574 36.3150024414062 36.3566474914551 36.391040802002 36.4249725341797 36.4488945007324 36.4563331604004 36.4567718505859 36.4573059082031 36.4589157104492 36.4662208557129 36.4745750427246 36.474178314209 36.4687194824219 36.459342956543 36.4491958618164 36.4373931884766 36.4281730651855 36.4057769775391 36.382926940918 36.3746490478516 36.3766975402832 36.3851776123047 36.3951263427734 36.4043045043945 36.417064666748 36.4074974060059 36.3780403137207 36.3542404174805 36.3495788574219 36.347282409668 36.3382568359375 36.3342094421387 36.3016777038574 36.2388687133789 36.188346862793 36.1946449279785 36.2034568786621 36.2121734619141 36.2197647094727 36.2279357910156 36.2413520812988 36.2576370239258
-9999 -9999 -9999 -9999 -9999 35.5176753997803 35.5471611022949 35.5966606140137 35.5940284729004 35.6579360961914 35.7778511047363 35.8263816833496 35.8467140197754 35.8470878601074 35.8241004943848 35.8282432556152 35.8730392456055 35.9482116699219 36.020450592041 36.0675239562988 36.1230125427246 36.1766586303711 36.2088470458984 36.2235832214355 36.2515869140625 36.3074607849121 36.3277549743652 36.2950401306152 36.3063316345215 36.346923828125 36.386100769043 36.4306182861328 36.4666328430176 36.4744148254395 36.4671173095703 36.458683013916 36.4556732177734 36.4642677307129 36.4716339111328 36.464054107666 36.4579849243164 36.454948425293 36.4464530944824 36.4304008483887 36.416877746582 36.400691986084 36.3927917480469 36.3943786621094 36.4006576538086 36.4105834960938 36.423267364502 36.4235801696777 36.4313354492188 36.4240913391113 36.3901062011719 36.3606224060059 36.3516502380371 36.3471031188965 36.3389358520508 36.3401374816895 36.3300476074219 36.2759857177734 36.1892929077148 36.1704788208008 36.1786041259766 36.1902275085449 36.2084350585938 36.220947265625 36.2331581115723 36.2392158508301
-9999 -9999 -9999 -9999 35.3065299987793 35.4998664855957 35.7171440124512 35.7728462219238 35.7810897827148 35.7880935668945 35.8163032531738 35.815113067627 35.8084030151367 35.8103981018066 35.8253860473633 35.8697547912598 35.9362831115723 35.9995460510254 36.0530281066895 36.0974998474121 36.155948638916 36.2135009765625 36.2390098571777 36.2428855895996 36.2619476318359 36.3279991149902 36.3807144165039 36.3611068725586 36.3343124389648 36.3446807861328 36.3722076416016 36.4111404418945 36.4518737792969 36.4683494567871 36.4651908874512 36.4549255371094 36.4513549804688 36.467041015625 36.472728729248 36.4518890380859 36.4304695129395 36.4291152954102 36.4260940551758 36.4134635925293 36.4041061401367 36.3950462341309 36.3934707641602 36.3994560241699 36.4128112792969 36.4241333007812 36.4275207519531 36.4110260009766 36.4093208312988 36.4084129333496 36.3722534179688 36.3377723693848 36.3273315429688 36.328254699707 36.3261222839355 36.3311233520508 36.3380928039551 36.3002891540527 36.211540222168 36.1565246582031 36.1567993164062 36.1680870056152 36.189208984375 36.2108497619629 36.2329559326172 36.2538871765137
-9999 -9999 -9999 35.5093812942505 35.5116348266602 35.7277908325195 35.8183403015137 35.8309707641602 35.8296966552734 35.8290405273438 35.8138694763184 35.7909736633301 35.7962684631348 35.8168411254883 35.8591499328613 35.9254455566406 35.9808540344238 36.0553321838379 36.111328125 36.1563529968262 36.2142791748047 36.2634353637695 36.2773246765137 36.2658958435059 36.2754325866699 36.332160949707 36.3920211791992 36.4072036743164 36.3946762084961 36.3966026306152 36.403678894043 36.4197578430176 36.4456481933594 36.4644813537598 36.4709701538086 36.4658393859863 36.4668922424316 36.4865379333496 36.4833068847656 36.4559020996094 36.4248390197754 36.4041595458984 36.3956756591797 36.3908424377441 36.390739440918 36.3885612487793 36.3910293579102 36.3979988098145 36.4032783508301 36.4023017883301 36.3912086486816 36.3752975463867 36.3800964355469 36.370792388916 36.3300743103027 36.3029594421387 36.307014465332 36.3233947753906 36.321662902832 36.3247413635254 36.3400917053223 36.314094543457 36.2285499572754 36.1564521789551 36.1445159912109 36.1566581726074 36.1789741516113 36.1971626281738 36.2063522338867 36.2372436523438
-9999 -9999 -9999 35.5219230651855 35.697437286377 35.7962989807129 35.830451965332 35.8172607421875 35.798282623291 35.7810134887695 35.7789573669434 35.8035736083984 35.8250923156738 35.8645286560059 35.9222640991211 35.9866561889648 36.0728721618652 36.154483795166 36.1990203857422 36.2347373962402 36.2723388671875 36.2999572753906 36.2885475158691 36.2712783813477 36.2890396118164 36.3375396728516 36.3712997436523 36.3936614990234 36.4016799926758 36.4101448059082 36.4154739379883 36.4269485473633 36.4525909423828 36.4772186279297 36.4934844970703 36.5013809204102 36.5140228271484 36.5240287780762 36.4995155334473 36.4663848876953 36.4362335205078 36.3954429626465 36.3650588989258 36.352611541748 36.3541069030762 36.3653182983398 36.386791229248 36.389518737793 36.3833808898926 36.3759002685547 36.3665924072266 36.3622779846191 36.3588752746582 36.3205032348633 36.2776832580566 36.2682266235352 36.2935905456543 36.3306655883789 36.335147857666 36.3330001831055 36.3477668762207 36.324577331543 36.2417793273926 36.1615371704102 36.1439552307129 36.1545867919922 36.1768646240234 36.1987838745117 36.1982765197754 36.2048530578613
