NCOLS 70 
NROWS 52 
XLLCORNER -80 
YLLCORNER 33 
CELLSIZE 0.25 
NODATA_value -9999 
-9999.000000000000000 -9999 -9999 -9999 -9999 -9999 -9999 -9999 -9999 -9999 -9999 -9999 -9999 -9999 -9999 -9999 -9999 -9999 -9999 -9999 -9999 -9999 -9999 -9999 -9999 -9999 -9999 -9999 -9999 -9999 -9999 -9999 -9999 -9999 -9999 -9999 -9999 -9999 -9999 -9999 -9999 -9999 -9999 -9999 -9999 -9999 -9999 -9999 -9999 -9999 -9999 -9999 -9999 -9999 -9999 -9999 -9999 -9999 -9999 -9999 -9999 -9999 -9999 -9999 -9999 -9999 -9999 -9999 -9999 -9999
-9999 -9999 -9999 -9999 -9999 -9999 -9999 -9999 -9999 -9999 -9999 -9999 -9999 -9999 -9999 -9999 -9999 -9999 -9999 -9999 -9999 -9999 -9999 -9999 -9999 -9999 -9999 -9999 -9999 -9999 -9999 -9999 -9999 -9999 -9999 -9999 -9999 -9999 -9999 -9999 -9999 -9999 -9999 -9999 -9999 -9999 -9999 -9999 -9999 -9999 -9999 -9999 -9999 -9999 -9999 -9999 -9999 -9999 -9999 -9999 -9999 -9999 -9999 -9999 -9999 -9999 -9999 -9999 -9999 -9999
-9999 -9999 -9999 -9999 -9999 -9999 -9999 -9999 -9999 -9999 -9999 -9999 -9999 -9999 -9999 -9999 -9999 -9999 -9999 -9999 -9999 -9999 -9999 -9999 -9999 -9999 -9999 -9999 -9999 -9999 -9999 -9999 -9999 -9999 -9999 -9999 -9999 -9999 -9999 -9999 -9999 -9999 -9999 -9999 -9999 -9999 -9999 -9999 -9999 -9999 -9999 -9999 -9999 -9999 -9999 -9999 -9999 -9999 -9999 28.58518409729 -9999 -9999 -9999 -9999 -9999 -9999 -9999 -9999 -9999 -9999
-9999 -9999 -9999 -9999 -9999 -9999 -9999 -9999 -9999 -9999 -9999 -9999 -9999 -9999 -9999 -9999 -9999 -9999 -9999 -9999 -9999 -9999 -9999 -9999 -9999 -9999 -9999 -9999 -9999 -9999 -9999 -9999 -9999 -9999 -9999 -9999 -9999 -9999 -9999 -9999 -9999 -9999 -9999 -9999 -9999 -9999 -9999 -9999 -9999 -9999 -9999 -9999 -9999 -9999 -9999 30.4034481048584 30.2489032745361 29.9549179077148 29.5176563262939 29.0116138458252 -9999 -9999 -9999 -9999 -9999 -9999 -9999 -9999 -9999 -9999
-9999 -9999 -9999 -9999 -9999 -9999 -9999 -9999 -9999 -9999 -9999 -9999 -9999 -9999 -9999 -9999 -9999 -9999 -9999 -9999 -9999 -9999 -9999 -9999 -9999 -9999 -9999 -9999 -9999 -9999 -9999 -9999 -9999 -9999 -9999 -9999 -9999 -9999 -9999 -9999 -9999 -9999 -9999 -9999 -9999 -9999 -9999 -9999 -9999 -9999 -9999 -9999 31.0166683197021 30.8994827270508 30.6688556671143 30.3908500671387 30.0721549987793 29.7091884613037 -9999 -9999 -9999 -9999 -9999 -9999 -9999 -9999 -9999 -9999 -9999 -9999
-9999 -9999 -9999 -9999 -9999 -9999 -9999 -9999 -9999 -9999 -9999 -9999 -9999 -9999 -9999 -9999 -9999 -9999 -9999 -9999 -9999 -9999 -9999 -9999 -9999 -9999 -9999 -9999 -9999 -9999 -9999 -9999 -9999 -9999 -9999 -9999 -9999 -9999 -9999 -9999 -9999 -9999 -9999 -9999 -9999 -9999 -9999 -9999 -9999 -9999 31.6147998809814 31.4275913238525 31.256139755249 30.9981079101562 30.7408256530762 30.187370300293 -9999 -9999 -9999 -9999 -9999 -9999 -9999 -9999 -9999 -9999 -9999 29.4452730814616 29.3360657691956 29.2239627838135
-9999 -9999 -9999 -9999 -9999 -9999 -9999 -9999 -9999 -9999 -9999 -9999 -9999 -9999 -9999 -9999 -9999 -9999 -9999 -9999 -9999 -9999 -9999 -9999 -9999 -9999 -9999 -9999 -9999 -9999 -9999 -9999 -9999 -9999 -9999 -9999 -9999 -9999 -9999 -9999 -9999 -9999 -9999 -9999 31.4118207295736 -9999 -9999 31.9066562652588 31.8867893218994 31.9130039215088 31.876838684082 31.8193664550781 31.6347351074219 31.594841003418 31.3527946472168 -9999 -9999 -9999 -9999 -9999 -9999 -9999 -9999 29.7776222229004 29.65456199646 29.5721778869629 29.5168762207031 29.450756072998 29.3681869506836 29.3013572692871
-9999 -9999 -9999 -9999 -9999 -9999 -9999 -9999 -9999 -9999 -9999 -9999 -9999 -9999 -9999 -9999 -9999 -9999 -9999 -9999 -9999 -9999 -9999 -9999 -9999 -9999 -9999 -9999 -9999 -9999 -9999 -9999 -9999 -9999 -9999 -9999 -9999 -9999 -9999 -9999 -9999 -9999 -9999 -9999 31.3726577758789 31.4780349731445 31.7204208374023 31.9310169219971 32.0883979797363 32.1869277954102 32.2312927246094 32.2398910522461 32.1601791381836 32.1113624572754 31.8096961975098 -9999 -9999 -9999 -9999 -9999 -9999 -9999 30.0180263519287 29.8367214202881 29.6403198242188 29.54323387146 29.5596332550049 29.6471061706543 29.67356300354 29.6114940643311
-9999 -9999 -9999 -9999 -9999 -9999 -9999 -9999 -9999 -9999 -9999 -9999 -9999 -9999 -9999 -9999 -9999 -9999 -9999 -9999 -9999 -9999 -9999 -9999 -9999 -9999 -9999 -9999 -9999 -9999 -9999 -9999 -9999 -9999 -9999 -9999 -9999 -9999 -9999 -9999 31.3462320963542 31.5478998819987 31.7181217193604 31.8419094085693 31.9055786132812 32.049617767334 32.1725883483887 32.2890014648438 32.4102630615234 32.4952774047852 32.5252342224121 32.4895172119141 32.3647613525391 32.1797866821289 32.0236030578613 -9999 -9999 -9999 -9999 -9999 30.2053839365641 30.1408233642578 29.9342975616455 29.7500152587891 29.7110061645508 29.8303127288818 30.0489845275879 30.2810821533203 30.3595237731934 30.2515640258789
-9999 -9999 -9999 -9999 -9999 -9999 -9999 -9999 -9999 -9999 -9999 -9999 -9999 -9999 -9999 -9999 -9999 -9999 -9999 -9999 -9999 -9999 -9999 -9999 -9999 -9999 -9999 -9999 -9999 -9999 -9999 -9999 -9999 -9999 -9999 -9999 -9999 -9999 -9999 31.2197437286377 31.3018608093262 31.5170917510986 31.8247470855713 32.0220909118652 32.1298522949219 32.2224197387695 32.292797088623 32.3779182434082 32.4787864685059 32.553825378418 32.57470703125 32.5150718688965 32.3336906433105 32.0820846557617 31.9105987548828 31.8341827392578 -9999 -9999 -9999 30.5484981536865 30.3534088134766 30.121919631958 29.9496288299561 29.9168586730957 30.0519256591797 30.3458251953125 30.6896133422852 30.9025058746338 30.8979721069336 30.7617969512939
-9999 -9999 -9999 -9999 -9999 -9999 -9999 -9999 -9999 -9999 -9999 -9999 -9999 -9999 -9999 -9999 -9999 -9999 -9999 -9999 -9999 -9999 -9999 -9999 -9999 -9999 -9999 -9999 -9999 -9999 -9999 -9999 -9999 -9999 -9999 -9999 -9999 -9999 31.6317554473877 31.6209011077881 31.761022567749 31.9137916564941 31.9834594726562 32.0543365478516 32.1235771179199 32.1950263977051 32.2702827453613 32.3777465820312 32.4999465942383 32.5771026611328 32.5922203063965 32.5149269104004 32.2900085449219 31.9891185760498 31.771053314209 31.6443634033203 31.4653930664062 31.2168305714925 30.8388957977295 30.6115703582764 30.3901176452637 30.2259368896484 30.1865196228027 30.2692737579346 30.4540405273438 30.7580089569092 31.0508689880371 31.1176109313965 31.0264167785645 30.9339599609375
-9999 -9999 -9999 -9999 -9999 -9999 -9999 -9999 -9999 -9999 -9999 -9999 -9999 -9999 -9999 -9999 -9999 -9999 -9999 -9999 -9999 -9999 -9999 -9999 -9999 -9999 -9999 -9999 -9999 -9999 -9999 -9999 -9999 -9999 -9999 -9999 -9999 31.7067813873291 31.7677612304688 31.8435897827148 31.9271507263184 32.0012893676758 32.0485763549805 32.0949897766113 32.1414794921875 32.1937065124512 32.2729263305664 32.411205291748 32.5602912902832 32.6309280395508 32.6204109191895 32.5083808898926 32.2462768554688 31.924222946167 31.6762714385986 31.4922561645508 31.3103618621826 31.0843887329102 30.8305492401123 30.6654682159424 30.6332397460938 30.6693286895752 30.7346172332764 30.8286399841309 30.9501686096191 31.1354007720947 31.2636260986328 31.2405681610107 31.1921539306641 31.1765422821045
-9999 -9999 -9999 -9999 -9999 -9999 -9999 -9999 -9999 -9999 -9999 -9999 -9999 -9999 -9999 -9999 -9999 -9999 -9999 -9999 -9999 -9999 -9999 -9999 -9999 -9999 -9999 -9999 -9999 -9999 -9999 -9999 -9999 -9999 -9999 -9999 -9999 31.8077487945557 31.8827419281006 31.9807968139648 32.0416069030762 32.0879707336426 32.1265983581543 32.1648750305176 32.199821472168 32.245964050293 32.3350143432617 32.4680213928223 32.5732192993164 32.6097946166992 32.5948753356934 32.4934921264648 32.2573928833008 31.9624500274658 31.7247142791748 31.5408897399902 31.3647003173828 31.170467376709 31.0201606750488 31.0263061523438 31.1780681610107 31.3257999420166 31.3944244384766 31.4164409637451 31.4064407348633 31.4507427215576 31.5149211883545 31.5569629669189 31.5644245147705 31.5333652496338
-9999 -9999 -9999 -9999 -9999 -9999 -9999 -9999 -9999 -9999 -9999 -9999 -9999 -9999 -9999 -9999 -9999 -9999 -9999 -9999 -9999 -9999 -9999 -9999 -9999 -9999 -9999 -9999 -9999 -9999 -9999 -9999 -9999 -9999 -9999 -9999 -9999 31.6797161102295 31.8667392730713 31.9989604949951 32.0695838928223 32.1267509460449 32.183464050293 32.2378463745117 32.2839889526367 32.3370628356934 32.4071846008301 32.4642677307129 32.4884490966797 32.5069999694824 32.5168266296387 32.4666595458984 32.316291809082 32.1117973327637 31.9360485076904 31.813793182373 31.7170639038086 31.6005535125732 31.5054817199707 31.6019973754883 31.827356338501 32.0057067871094 32.0877685546875 32.1036911010742 32.0095748901367 31.922492980957 31.9307518005371 32.028865814209 32.0803833007812 32.0304946899414
-9999 -9999 -9999 -9999 -9999 -9999 -9999 -9999 -9999 -9999 -9999 -9999 -9999 -9999 -9999 -9999 -9999 -9999 -9999 -9999 -9999 -9999 -9999 -9999 -9999 -9999 -9999 -9999 -9999 -9999 -9999 -9999 -9999 -9999 -9999 -9999 31.3079299926758 31.5822677612305 31.848503112793 31.9573307037354 32.0294151306152 32.1081085205078 32.1874656677246 32.2620086669922 32.3200454711914 32.3654251098633 32.3888969421387 32.3879623413086 32.3953475952148 32.4305763244629 32.4634895324707 32.4596748352051 32.3955268859863 32.2998390197754 32.2155342102051 32.1913223266602 32.2140998840332 32.2562026977539 32.2795600891113 32.4649238586426 32.6709518432617 32.8212471008301 32.9373893737793 33.0101280212402 32.9308013916016 32.765209197998 32.6451530456543 32.6058921813965 32.5891761779785 32.5602684020996
-9999 -9999 -9999 -9999 -9999 -9999 -9999 -9999 -9999 -9999 -9999 -9999 -9999 -9999 -9999 -9999 -9999 -9999 -9999 -9999 -9999 -9999 -9999 -9999 -9999 -9999 -9999 -9999 -9999 -9999 -9999 -9999 -9999 -9999 -9999 -9999 -9999 31.6548194885254 31.7315979003906 31.8211040496826 31.92551612854 32.049633026123 32.1526908874512 32.2344398498535 32.2910041809082 32.3257827758789 32.3309516906738 32.3331298828125 32.3582954406738 32.4128646850586 32.4694633483887 32.5109329223633 32.5118408203125 32.4890975952148 32.4756126403809 32.5231475830078 32.5763778686523 32.7724914550781 32.9726791381836 33.1139602661133 33.2801399230957 33.4136123657227 33.5291519165039 33.6039581298828 33.6208992004395 33.5129165649414 33.3604431152344 33.2056694030762 33.0666389465332 33.0579261779785
-9999 -9999 -9999 -9999 -9999 -9999 -9999 -9999 -9999 -9999 -9999 -9999 -9999 -9999 -9999 -9999 -9999 -9999 -9999 -9999 -9999 -9999 -9999 -9999 -9999 -9999 -9999 -9999 -9999 -9999 -9999 -9999 -9999 -9999 -9999 -9999 -9999 -9999 31.5031032562256 -9999 31.8488636016846 32.0130882263184 32.1214370727539 32.1922149658203 32.2402114868164 32.2718124389648 32.2800979614258 32.2925567626953 32.3247261047363 32.3819274902344 32.453052520752 32.5309638977051 32.5909767150879 32.6375160217285 32.6701812744141 32.7365264892578 32.7623710632324 33.0226898193359 33.2004089355469 33.1805305480957 33.2876586914062 33.4569282531738 33.5169868469238 33.5344924926758 33.7437629699707 33.8899383544922 33.9556427001953 33.8561668395996 33.5245056152344 33.5026931762695
-9999 -9999 -9999 -9999 -9999 -9999 -9999 -9999 -9999 -9999 -9999 -9999 -9999 -9999 -9999 -9999 -9999 -9999 -9999 -9999 -9999 -9999 -9999 -9999 -9999 -9999 -9999 -9999 -9999 -9999 -9999 -9999 -9999 -9999 -9999 -9999 -9999 -9999 -9999 -9999 31.8819007873535 32.0334281921387 32.1101531982422 32.1593399047852 32.2001571655273 32.2271575927734 32.2306480407715 32.2336921691895 32.2634506225586 32.3274154663086 32.4113349914551 32.5173301696777 32.6148529052734 32.6982116699219 32.7607688903809 32.7740097045898 32.8122940063477 33.1452598571777 33.2862854003906 33.1759262084961 33.285774230957 33.4036903381348 33.3818550109863 33.5254707336426 34.0505447387695 34.4263687133789 34.6847076416016 34.7318305969238 34.2796325683594 34.0651092529297
-9999 -9999 -9999 -9999 -9999 -9999 -9999 -9999 -9999 -9999 -9999 -9999 -9999 -9999 -9999 -9999 -9999 -9999 -9999 -9999 -9999 -9999 -9999 -9999 -9999 -9999 -9999 -9999 -9999 -9999 -9999 -9999 -9999 -9999 31.2265787124634 30.8660621643066 30.8742427825928 -9999 31.0268058776855 31.2904148101807 31.6916656494141 31.9619903564453 32.080451965332 32.1455116271973 32.186653137207 32.2020988464355 32.1950225830078 32.1913185119629 32.2233734130859 32.2981338500977 32.4074211120605 32.5533027648926 32.653923034668 32.7134246826172 32.758373260498 32.7466812133789 32.9391670227051 33.6073150634766 33.7881927490234 33.7907333374023 33.9249153137207 33.9115104675293 33.8694267272949 34.1760444641113 34.5890731811523 34.7918739318848 35.1364440917969 35.316722869873 35.1276741027832 34.8420219421387
-9999 -9999 -9999 -9999 -9999 -9999 -9999 -9999 -9999 -9999 -9999 -9999 -9999 -9999 -9999 -9999 -9999 -9999 -9999 -9999 -9999 -9999 -9999 -9999 -9999 -9999 -9999 25.6760902404785 25.6760902404785 26.5190563201904 27.7132015228271 29.6293506622314 31.0589370727539 31.3147430419922 31.3243160247803 31.4011936187744 31.4628429412842 31.400821685791 31.2980327606201 31.3431739807129 31.6144733428955 31.8838157653809 32.0627136230469 32.1709861755371 32.2337951660156 32.2541542053223 32.2375297546387 32.2202949523926 32.2574424743652 32.3721122741699 32.5501899719238 32.7371826171875 32.806396484375 32.8144645690918 32.8465690612793 32.9322357177734 33.4670028686523 34.4788818359375 34.7350540161133 34.8897094726562 34.9384384155273 34.9947853088379 35.0654602050781 35.2674026489258 35.2466316223145 35.1554298400879 35.4752578735352 35.5814170837402 35.4660491943359 35.1799583435059
-9999 -9999 -9999 -9999 -9999 -9999 -9999 -9999 -9999 -9999 -9999 -9999 -9999 -9999 -9999 -9999 -9999 -9999 -9999 -9999 -9999 -9999 -9999 -9999 -9999 -9999 -9999 -9999 -9999 -9999 29.3499240875244 30.8067951202393 31.960865020752 32.1949920654297 32.1828193664551 32.1307144165039 32.0244674682617 31.8921871185303 31.7191581726074 31.6263084411621 31.7508144378662 31.9485988616943 32.1170921325684 32.2682685852051 32.3866386413574 32.414493560791 32.3773040771484 32.3931999206543 32.5334243774414 32.753833770752 32.9894905090332 33.157398223877 33.1791954040527 33.2007102966309 33.2281150817871 33.4319496154785 34.1515007019043 35.0274238586426 35.2988204956055 35.4473457336426 35.4941596984863 35.5541000366211 35.6005706787109 35.7052001953125 35.6701202392578 35.5275764465332 35.6709480285645 35.7045249938965 35.6038513183594 35.3390350341797
-9999 -9999 -9999 -9999 -9999 -9999 -9999 -9999 -9999 -9999 -9999 -9999 -9999 -9999 -9999 -9999 -9999 -9999 -9999 -9999 -9999 -9999 -9999 -9999 -9999 31.4176890055339 31.6443907419841 31.8717695871989 32.0891098976135 32.0606231689453 32.1742248535156 32.2376594543457 32.3175239562988 32.3633880615234 32.3273506164551 32.2487106323242 32.1698722839355 32.1131210327148 32.0343971252441 31.9878196716309 32.0774383544922 32.191089630127 32.2911338806152 32.4970741271973 32.6470680236816 32.6504974365234 32.6647415161133 32.8549957275391 33.1524543762207 33.4065017700195 33.5633087158203 33.6798858642578 33.760684967041 33.8706932067871 33.9253158569336 34.101490020752 34.6115684509277 35.2007141113281 35.4388885498047 35.5741958618164 35.6988220214844 35.8193016052246 35.8551979064941 35.8909683227539 35.8447952270508 35.669189453125 35.7211456298828 35.7035331726074 35.5764198303223 35.4141998291016
-9999 -9999 -9999 -9999 -9999 -9999 -9999 -9999 -9999 -9999 -9999 -9999 -9999 -9999 -9999 -9999 -9999 -9999 -9999 -9999 -9999 -9999 -9999 -9999 31.1744155883789 31.4383544921875 31.6402969360352 31.8545207977295 32.120491027832 32.3208045959473 32.4101371765137 32.4555015563965 32.4908599853516 32.5150337219238 32.4963111877441 32.4212341308594 32.3756217956543 32.4051933288574 32.4478759765625 32.5269546508789 32.620849609375 32.6489639282227 32.7389450073242 32.9844131469727 33.0984039306641 33.1056671142578 33.2226142883301 33.5316314697266 33.8352661132812 34.0225448608398 34.1131820678711 34.2222785949707 34.39111328125 34.5150909423828 34.5394287109375 34.6052513122559 34.8396377563477 35.2123908996582 35.4333457946777 35.6490669250488 35.8261642456055 35.955680847168 36.0281028747559 36.0331954956055 35.9479942321777 35.7701606750488 35.753833770752 35.7142601013184 35.6202774047852 35.4944152832031
-9999 -9999 -9999 -9999 -9999 -9999 -9999 -9999 -9999 -9999 -9999 -9999 -9999 -9999 -9999 -9999 -9999 -9999 -9999 -9999 -9999 -9999 -9999 -9999 31.6238632202148 32.0016593933105 32.234790802002 32.3895568847656 32.5333518981934 32.6024131774902 32.6276473999023 32.672737121582 32.7455291748047 32.8280372619629 32.8791427612305 32.8438949584961 32.8221054077148 32.8904571533203 32.9863128662109 33.1064872741699 33.181640625 33.2233619689941 33.387809753418 33.5923500061035 33.6965179443359 33.8228073120117 34.0207443237305 34.2830810546875 34.5092697143555 34.6582450866699 34.7661895751953 34.8431510925293 34.945484161377 35.0369300842285 35.0607223510742 35.0810775756836 35.1703224182129 35.3663597106934 35.59716796875 35.8690338134766 36.0237083435059 36.0867347717285 36.1039619445801 36.0685081481934 35.9463806152344 35.8156890869141 35.7923355102539 35.7397079467773 35.6757774353027 35.5793228149414
-9999 -9999 -9999 -9999 -9999 -9999 -9999 -9999 -9999 -9999 -9999 -9999 -9999 -9999 -9999 -9999 -9999 -9999 -9999 -9999 -9999 -9999 -9999 31.799964427948 31.8310699462891 32.2416954040527 32.5008087158203 32.6523284912109 32.7629508972168 32.8116836547852 32.8702545166016 33.0050468444824 33.1794281005859 33.3158988952637 33.4219512939453 33.4533920288086 33.4331092834473 33.4469032287598 33.4897994995117 33.5598373413086 33.6047515869141 33.6671600341797 33.8547821044922 34.0593414306641 34.2568664550781 34.5745964050293 34.9316864013672 35.1921005249023 35.343132019043 35.4326095581055 35.5150108337402 35.559398651123 35.5906181335449 35.6254234313965 35.664737701416 35.6611709594727 35.6135330200195 35.632511138916 35.8072509765625 36.0327415466309 36.1289443969727 36.1511917114258 36.1349105834961 36.0506553649902 35.9015579223633 35.8084564208984 35.7998809814453 35.7532920837402 35.7008171081543 35.633975982666
-9999 -9999 -9999 -9999 -9999 -9999 -9999 -9999 -9999 -9999 -9999 -9999 -9999 -9999 -9999 -9999 -9999 -9999 -9999 -9999 -9999 -9999 -9999 31.7130680084229 32.0318565368652 32.3992462158203 32.6197624206543 32.7782974243164 32.9254760742188 33.030086517334 33.1527519226074 33.3865280151367 33.6602439880371 33.8374900817871 33.9644660949707 34.0412864685059 34.0900230407715 34.1490478515625 34.2335243225098 34.3182220458984 34.3016777038574 34.2648963928223 34.389591217041 34.595947265625 34.8455200195312 35.2585487365723 35.6410789489746 35.8211441040039 35.8885688781738 35.9186859130859 35.9412269592285 35.9722938537598 36.0016555786133 36.0260696411133 36.0359230041504 36.0205192565918 35.9706878662109 35.9026985168457 35.9529991149902 36.0841064453125 36.1391716003418 36.1433258056641 36.1047439575195 35.9906463623047 35.8637390136719 35.8052711486816 35.8028106689453 35.7691688537598 35.7322311401367 35.676342010498
-9999 -9999 -9999 -9999 -9999 -9999 -9999 -9999 -9999 -9999 -9999 -9999 -9999 -9999 -9999 -9999 -9999 -9999 -9999 -9999 -9999 -9999 31.9330425262451 32.0484428405762 32.3285140991211 32.6101684570312 32.8036651611328 32.9687995910645 33.1247749328613 33.2715187072754 33.483455657959 33.82421875 34.1887435913086 34.4583854675293 34.6403427124023 34.7630386352539 34.9299392700195 35.0550308227539 35.1028938293457 35.1440582275391 35.1149635314941 35.0527229309082 35.0658683776855 35.100471496582 35.3145637512207 35.6951751708984 35.9020500183105 35.9320755004883 35.9236640930176 35.9196701049805 35.9220581054688 35.9329719543457 35.9601593017578 36.0024757385254 36.0413703918457 36.0574493408203 36.0467948913574 35.9956092834473 36.0032653808594 36.0730934143066 36.1077651977539 36.0946273803711 36.035457611084 35.9316902160645 35.8470001220703 35.8225059509277 35.8401489257812 35.8535385131836 35.8697166442871 35.8482704162598
-9999 -9999 -9999 -9999 -9999 -9999 -9999 -9999 -9999 -9999 -9999 -9999 -9999 -9999 18.5407792197333 -9999 -9999 -9999 -9999 31.6669292449951 -9999 32.0845680236816 32.1619338989258 32.3810997009277 32.6321334838867 32.8706512451172 33.0804023742676 33.2679824829102 33.4103775024414 33.5536994934082 33.8426094055176 34.2727241516113 34.6676902770996 34.9909324645996 35.2565879821777 35.4596519470215 35.6542472839355 35.7262649536133 35.6435585021973 35.5781326293945 35.5597877502441 35.4930534362793 35.378345489502 35.3162994384766 35.5609092712402 35.8941688537598 35.9816207885742 35.9569625854492 35.9196014404297 35.8770294189453 35.8460426330566 35.8378105163574 35.8602600097656 35.9152412414551 35.9848136901855 36.0340728759766 36.0566864013672 36.0455017089844 36.0347290039062 36.0425872802734 36.0451545715332 36.0210151672363 35.9772033691406 35.9255180358887 35.8932685852051 35.901496887207 35.9447212219238 36.0004806518555 36.0579566955566 36.0866813659668
-9999 -9999 -9999 -9999 -9999 -9999 -9999 -9999 -9999 -9999 -9999 -9999 -9999 -9999 18.5485944747925 -9999 -9999 -9999 -9999 31.7756175994873 32.1316452026367 32.3587532043457 32.5302543640137 32.7244567871094 32.9379615783691 33.1470108032227 33.3864212036133 33.6581039428711 33.8487548828125 33.9976119995117 34.3211479187012 34.7263717651367 35.046745300293 35.3587493896484 35.6646575927734 35.89208984375 36.0113372802734 35.998291015625 35.8979721069336 35.8189086914062 35.7652320861816 35.6361961364746 35.4679069519043 35.4664840698242 35.7122116088867 35.9393615722656 36.0034637451172 36.0134010314941 35.9940910339355 35.9207611083984 35.834415435791 35.792667388916 35.7997894287109 35.8547706604004 35.9381141662598 36.006477355957 36.0561027526855 36.0816307067871 36.0871391296387 36.0810890197754 36.0694236755371 36.0536270141602 36.0429801940918 36.0425796508789 36.0533294677734 36.0817832946777 36.1216773986816 36.1616401672363 36.1999320983887 36.2320022583008
-9999 -9999 -9999 -9999 -9999 -9999 -9999 -9999 -9999 -9999 -9999 -9999 -9999 -9999 18.5134258270264 -9999 -9999 -9999 -9999 -9999 32.6566925048828 32.6636695861816 32.8204231262207 33.033088684082 33.2980194091797 33.5726776123047 33.9026527404785 34.2437591552734 34.4862785339355 34.6927528381348 34.9877128601074 35.2625274658203 35.4834442138672 35.7495880126953 35.9988975524902 36.1424980163574 36.1744918823242 36.1339645385742 36.0613288879395 35.9702568054199 35.8623428344727 35.7252426147461 35.5618057250977 35.542896270752 35.7396278381348 35.9028587341309 35.945182800293 35.9894638061523 36.0176887512207 35.9421043395996 35.8120002746582 35.7297515869141 35.7152328491211 35.7709655761719 35.871826171875 35.9590110778809 36.0254859924316 36.0722579956055 36.1078147888184 36.1306533813477 36.1464881896973 36.1673202514648 36.1941261291504 36.225269317627 36.2552070617676 36.2823524475098 36.3044166564941 36.3194770812988 36.3320808410645 36.3438339233398
-9999 -9999 -9999 -9999 -9999 -9999 -9999 -9999 -9999 -9999 -9999 -9999 -9999 -9999 18.5920476913452 -9999 18.6541004180908 -9999 -9999 -9999 32.762378692627 32.841968536377 33.0323448181152 33.325511932373 33.7493896484375 34.2215881347656 34.6483993530273 34.9237174987793 35.1094703674316 35.352108001709 35.6141395568848 35.7886657714844 35.892520904541 36.0219535827637 36.1620712280273 36.2298011779785 36.2424011230469 36.2372589111328 36.2141990661621 36.1611518859863 36.0710411071777 35.941276550293 35.7649688720703 35.6380386352539 35.6756744384766 35.7778358459473 35.8163146972656 35.8719596862793 35.9612350463867 35.9300308227539 35.7923164367676 35.6841201782227 35.6494522094727 35.7051467895508 35.8195991516113 35.9162940979004 35.9955101013184 36.0591430664062 36.1092109680176 36.1542549133301 36.2067070007324 36.2730865478516 36.3345375061035 36.3822479248047 36.4164123535156 36.4395217895508 36.4518775939941 36.4507942199707 36.444938659668 36.4399528503418
-9999 -9999 -9999 -9999 -9999 -9999 -9999 -9999 -9999 -9999 -9999 -9999 -9999 -9999 18.5920476913452 18.6706695556641 18.8972759246826 -9999 -9999 32.7838468551636 32.8128623962402 32.998779296875 33.2504806518555 33.6156425476074 34.1555290222168 34.7889213562012 35.2537651062012 35.429443359375 35.528377532959 35.7248878479004 35.9281921386719 36.0176734924316 36.0409355163574 36.1005363464355 36.1790161132812 36.207202911377 36.2131767272949 36.2243041992188 36.2397804260254 36.2522392272949 36.2437019348145 36.2006492614746 36.1252174377441 36.0234107971191 35.9230880737305 35.8550682067871 35.7863616943359 35.7607955932617 35.8487091064453 35.9100303649902 35.8448028564453 35.7409820556641 35.6695137023926 35.6954689025879 35.8123970031738 35.9178466796875 35.9972953796387 36.0702590942383 36.1300773620605 36.1929931640625 36.2792434692383 36.3668746948242 36.43359375 36.4822158813477 36.513843536377 36.5286560058594 36.5304908752441 36.5182037353516 36.5018463134766 36.4934158325195
-9999 -9999 -9999 -9999 -9999 -9999 -9999 -9999 -9999 -9999 -9999 -9999 -9999 -9999 -9999 20.3409820556641 19.4117774963379 -9999 29.0268416404724 32.6443901062012 32.9157562255859 33.2055931091309 33.5669860839844 34.0248603820801 34.5815124511719 35.1838912963867 35.6018218994141 35.7244338989258 35.7349815368652 35.8234367370605 35.9641799926758 36.0189476013184 36.048225402832 36.1158599853516 36.1609725952148 36.1684722900391 36.1757469177246 36.1929359436035 36.2276878356934 36.2712593078613 36.3108215332031 36.3398284912109 36.3568344116211 36.3496704101562 36.303596496582 36.2167320251465 36.0945281982422 35.9781951904297 35.9343109130859 35.9345588684082 35.8849220275879 35.8083992004395 35.7675628662109 35.7966079711914 35.8777503967285 35.9485969543457 36.0229682922363 36.1092262268066 36.1832962036133 36.2634925842285 36.3574371337891 36.4384269714355 36.4980697631836 36.5389862060547 36.5577697753906 36.5588073730469 36.549674987793 36.5314826965332 36.5160026550293 36.5147018432617
-9999 -9999 -9999 -9999 -9999 -9999 -9999 -9999 -9999 -9999 -9999 -9999 -9999 -9999 -9999 22.0378036499023 22.6873836517334 -9999 31.8655414581299 32.5732727050781 33.0187835693359 33.4004936218262 33.8222122192383 34.3820915222168 34.9838562011719 35.4634971618652 35.7737731933594 35.9003028869629 35.9102020263672 35.8972282409668 35.9565277099609 36.0073165893555 36.0520782470703 36.1131858825684 36.1405830383301 36.1464920043945 36.1629219055176 36.201171875 36.2669639587402 36.3400840759277 36.406135559082 36.4594917297363 36.4990501403809 36.5224266052246 36.5304374694824 36.5108795166016 36.4501609802246 36.3565406799316 36.257926940918 36.1775169372559 36.1074638366699 36.0556983947754 36.0465240478516 36.0861167907715 36.1386451721191 36.1696472167969 36.2035675048828 36.2581253051758 36.3199996948242 36.3912353515625 36.4646949768066 36.5209045410156 36.5573539733887 36.5731544494629 36.5730285644531 36.5647163391113 36.5468521118164 36.5239562988281 36.5155906677246 36.5198249816895
-9999 -9999 -9999 -9999 -9999 -9999 -9999 -9999 -9999 -9999 -9999 -9999 -9999 -9999 -9999 23.1056976318359 -9999 28.1627458844866 31.5866603851318 32.6181335449219 33.2368621826172 33.6734580993652 34.212345123291 34.9266929626465 35.498851776123 35.801197052002 35.9479217529297 36.0090751647949 36.0431861877441 36.046558380127 36.0592079162598 36.0760688781738 36.091064453125 36.117015838623 36.1366882324219 36.159008026123 36.2015991210938 36.2721061706543 36.364143371582 36.4531135559082 36.5258827209473 36.5761375427246 36.6055870056152 36.6189994812012 36.6236572265625 36.624397277832 36.6133270263672 36.5827026367188 36.5345573425293 36.4830665588379 36.4407119750977 36.4165573120117 36.4073791503906 36.4167251586914 36.4333114624023 36.4414901733398 36.4426040649414 36.4585494995117 36.4876098632812 36.5221061706543 36.5515441894531 36.5719718933105 36.5805931091309 36.5762557983398 36.566822052002 36.5533676147461 36.5301971435547 36.5085220336914 36.509838104248 36.5170593261719
-9999 -9999 -9999 -9999 -9999 -9999 -9999 -9999 -9999 -9999 -9999 -9999 -9999 -9999 23.1056976318359 24.46249071757 25.7650756835938 29.3124847412109 31.4053764343262 32.7594909667969 33.5211410522461 34.0428085327148 34.6912651062012 35.4427108764648 35.9188652038574 36.0696678161621 36.1246948242188 36.1463432312012 36.175422668457 36.2030029296875 36.2181663513184 36.223316192627 36.224292755127 36.233097076416 36.2568435668945 36.3012199401855 36.3636322021484 36.4410285949707 36.5180854797363 36.5734558105469 36.6011695861816 36.6074447631836 36.6105766296387 36.6200790405273 36.6317291259766 36.6439743041992 36.6501655578613 36.6508941650391 36.6425437927246 36.6275482177734 36.613151550293 36.6061477661133 36.5995407104492 36.5952339172363 36.5941162109375 36.5923118591309 36.5854988098145 36.5849075317383 36.5862770080566 36.5871658325195 36.587043762207 36.5875816345215 36.5849723815918 36.5757293701172 36.5601654052734 36.5392570495605 36.5126152038574 36.4963874816895 36.5060729980469 36.5169639587402
-9999 -9999 -9999 -9999 -9999 -9999 -9999 -9999 -9999 -9999 -9999 -9999 -9999 -9999 -9999 -9999 28.9729704856873 29.8993721008301 31.8293533325195 32.9681129455566 33.6865882873535 34.3708381652832 35.1757507324219 35.7954902648926 36.1050033569336 36.180606842041 36.2322082519531 36.286506652832 36.3388748168945 36.3787689208984 36.4042015075684 36.4170150756836 36.4274749755859 36.4454154968262 36.4715995788574 36.5012092590332 36.5335350036621 36.5638580322266 36.5796432495117 36.5787200927734 36.5715637207031 36.5689659118652 36.5783424377441 36.6016387939453 36.6274871826172 36.6477470397949 36.6552696228027 36.6576042175293 36.6582336425781 36.6554183959961 36.6500434875488 36.6481895446777 36.6470184326172 36.6474685668945 36.6463356018066 36.6406745910645 36.6313400268555 36.6235656738281 36.6129493713379 36.6001358032227 36.5926094055176 36.5853004455566 36.5733795166016 36.5611572265625 36.5487327575684 36.5289573669434 36.5053977966309 36.4955825805664 36.5073699951172 36.5156593322754
-9999 -9999 -9999 -9999 -9999 -9999 -9999 -9999 -9999 -9999 -9999 -9999 -9999 -9999 -9999 -9999 30.4071607589722 30.9149494171143 32.3980522155762 33.3003692626953 33.9696846008301 34.7323989868164 35.5857200622559 36.0421905517578 36.2023887634277 36.2800064086914 36.3540496826172 36.4268188476562 36.4815902709961 36.5145606994629 36.535472869873 36.548900604248 36.5604476928711 36.5716552734375 36.5783500671387 36.5820083618164 36.5849685668945 36.5830459594727 36.5730934143066 36.5630722045898 36.5621757507324 36.5719833374023 36.5923767089844 36.6182594299316 36.6386756896973 36.650707244873 36.6525840759277 36.6521263122559 36.6553535461426 36.6584777832031 36.6548614501953 36.6513481140137 36.6506881713867 36.6529579162598 36.6524276733398 36.6452751159668 36.6309089660645 36.6139831542969 36.5959053039551 36.5865707397461 36.5853652954102 36.5792198181152 36.5675201416016 36.5536499023438 36.541690826416 36.5276679992676 36.5139350891113 36.5109062194824 36.5230293273926 36.5287399291992
-9999 -9999 -9999 -9999 -9999 -9999 -9999 -9999 -9999 -9999 -9999 -9999 -9999 -9999 -9999 -9999 -9999 32.1559538841248 32.5951118469238 33.6117973327637 34.3798332214355 35.2013816833496 35.9591598510742 36.2056427001953 36.2974548339844 36.3682022094727 36.4409217834473 36.5054244995117 36.5484848022461 36.5761985778809 36.5952606201172 36.6073989868164 36.6150283813477 36.6202125549316 36.6216125488281 36.6197509765625 36.6137771606445 36.6002388000488 36.5789680480957 36.5647392272949 36.5749244689941 36.6001091003418 36.6250762939453 36.6433525085449 36.6537017822266 36.6574249267578 36.6538314819336 36.6502571105957 36.6514167785645 36.6541938781738 36.6515884399414 36.6476249694824 36.645393371582 36.6409034729004 36.6330528259277 36.622371673584 36.6044273376465 36.5882377624512 36.5804252624512 36.5819091796875 36.5826759338379 36.5810165405273 36.5774612426758 36.5714302062988 36.5644683837891 36.5576705932617 36.55029296875 36.547492980957 36.5513610839844 36.5513000488281
-9999 -9999 -9999 -9999 -9999 -9999 -9999 -9999 -9999 -9999 -9999 -9999 -9999 -9999 30.7880022525787 30.9149494171143 32.110503077507 32.6554069519043 32.7157020568848 33.6599502563477 34.6389579772949 35.555492401123 36.141960144043 36.2792549133301 36.3637542724609 36.438117980957 36.5117988586426 36.5658721923828 36.5967864990234 36.6174278259277 36.6353187561035 36.6476173400879 36.6550369262695 36.6578979492188 36.6532669067383 36.6411170959473 36.6256141662598 36.6035842895508 36.5778884887695 36.5738220214844 36.5975646972656 36.6241683959961 36.6402549743652 36.6484718322754 36.651294708252 36.6495819091797 36.6432571411133 36.6384696960449 36.6372756958008 36.6369819641113 36.6330757141113 36.629524230957 36.6260604858398 36.6188545227051 36.6098022460938 36.5983543395996 36.5862350463867 36.581413269043 36.5831832885742 36.5841064453125 36.5841445922852 36.5844116210938 36.5842781066895 36.5836067199707 36.5839958190918 36.5822601318359 36.5768661499023 36.5709342956543 36.5649108886719 36.5552597045898
-9999 -9999 -9999 -9999 -9999 -9999 -9999 -9999 -9999 -9999 -9999 -9999 -9999 -9999 -9999 -9999 -9999 -9999 33.6558322906494 33.9263725280762 34.937328338623 35.8361053466797 36.2265586853027 36.3470802307129 36.4161376953125 36.4859237670898 36.5520401000977 36.5890083312988 36.6072883605957 36.6246681213379 36.6421699523926 36.6546096801758 36.6620712280273 36.6631507873535 36.6517066955566 36.6308517456055 36.611385345459 36.5923385620117 36.5779876708984 36.586483001709 36.6093635559082 36.6241989135742 36.630054473877 36.6318855285645 36.6297912597656 36.6250419616699 36.620719909668 36.6201095581055 36.6198539733887 36.6161308288574 36.6115989685059 36.6110725402832 36.6075477600098 36.5994148254395 36.5914001464844 36.5838737487793 36.5807609558105 36.5835800170898 36.5883445739746 36.5859527587891 36.5840873718262 36.5854034423828 36.5876617431641 36.5889663696289 36.5888710021973 36.5850563049316 36.5796241760254 36.572338104248 36.5635566711426 36.5531539916992
-9999 -9999 -9999 -9999 -9999 -9999 -9999 -9999 -9999 -9999 -9999 -9999 -9999 -9999 -9999 -9999 -9999 34.3784217834473 34.424280166626 34.3213043212891 35.2749938964844 36.1159744262695 36.3358764648438 36.4007835388184 36.4555549621582 36.525749206543 36.5761375427246 36.598949432373 36.6133155822754 36.6291618347168 36.6424560546875 36.6478996276855 36.6470832824707 36.6406021118164 36.626407623291 36.6091766357422 36.5968208312988 36.5863952636719 36.5831642150879 36.5953483581543 36.6099472045898 36.6160087585449 36.6172142028809 36.6154365539551 36.6119041442871 36.6076507568359 36.6049842834473 36.6042556762695 36.6016731262207 36.5959739685059 36.5940170288086 36.5974197387695 36.593807220459 36.5842056274414 36.5772476196289 36.5756492614746 36.5772743225098 36.5837898254395 36.5919189453125 36.5901031494141 36.5851135253906 36.5844917297363 36.5885391235352 36.5925827026367 36.5892486572266 36.5820693969727 36.5767822265625 36.568733215332 36.5610542297363 36.5568084716797
-9999 -9999 -9999 -9999 -9999 -9999 -9999 -9999 -9999 -9999 -9999 -9999 -9999 35.7322463989258 35.713389078776 -9999 35.5248851776123 35.2203216552734 34.3784217834473 35.0710220336914 35.9801330566406 36.306079864502 36.3705253601074 36.4146423339844 36.4873008728027 36.5564384460449 36.5878868103027 36.6017799377441 36.6135711669922 36.6219635009766 36.6284675598145 36.6296577453613 36.6244468688965 36.616096496582 36.6057319641113 36.5972442626953 36.5919036865234 36.5888786315918 36.5928268432617 36.6035346984863 36.6103858947754 36.6104469299316 36.6077880859375 36.6049652099609 36.6009140014648 36.5959129333496 36.5912704467773 36.5864372253418 36.5799179077148 36.5729179382324 36.5722465515137 36.5792961120605 36.5817604064941 36.5775337219238 36.5737419128418 36.5747184753418 36.5774040222168 36.5825653076172 36.5909271240234 36.5936622619629 36.5896453857422 36.5844268798828 36.5856895446777 36.5918998718262 36.5882453918457 36.5812339782715 36.578182220459 36.5732803344727 36.567325592041 36.5654067993164
-9999 -9999 -9999 -9999 -9999 -9999 -9999 -9999 -9999 -9999 -9999 -9999 -9999 -9999 35.7322463989258 35.7783241271973 35.6295967102051 35.4201736450195 35.4530944824219 36.0843124389648 36.3551597595215 36.4027366638184 36.4259262084961 36.4738349914551 36.5369110107422 36.5770378112793 36.5904235839844 36.5994529724121 36.6084747314453 36.6136512756348 36.6143836975098 36.6121292114258 36.6072654724121 36.6020011901855 36.5979309082031 36.5958137512207 36.5949668884277 36.5965919494629 36.601978302002 36.6069564819336 36.6054267883301 36.6001586914062 36.5952186584473 36.5915832519531 36.5865631103516 36.5791091918945 36.5706443786621 36.5627784729004 36.5560989379883 36.5490684509277 36.5458526611328 36.5506973266602 36.554126739502 36.5564117431641 36.5634651184082 36.5752182006836 36.5818748474121 36.5835571289062 36.5878410339355 36.5924835205078 36.5927963256836 36.5854301452637 36.5824546813965 36.5881233215332 36.5854454040527 36.5812644958496 36.580135345459 36.5788841247559 36.5750198364258 36.5707664489746
-9999 -9999 -9999 -9999 -9999 -9999 -9999 -9999 -9999 -9999 -9999 -9999 -9999 -9999 35.7881736755371 35.7322463989258 35.9731292724609 36.031120300293 36.2128524780273 36.3782539367676 36.3902626037598 36.3953971862793 36.4278869628906 36.4864044189453 36.5463562011719 36.5791282653809 36.5905342102051 36.5972595214844 36.6031188964844 36.6058769226074 36.6050148010254 36.6023788452148 36.5996856689453 36.5979347229004 36.5977439880371 36.5989112854004 36.6014633178711 36.605152130127 36.6076354980469 36.6059951782227 36.6012191772461 36.5977630615234 36.5965003967285 36.5961608886719 36.594409942627 36.5879936218262 36.5749015808105 36.5569686889648 36.5411987304688 36.5322799682617 36.528133392334 36.5299911499023 36.5330085754395 36.5351295471191 36.541145324707 36.5584106445312 36.5763206481934 36.5825004577637 36.5838890075684 36.586841583252 36.5901298522949 36.5838775634766 36.578369140625 36.5821952819824 36.5816078186035 36.5802192687988 36.5790863037109 36.5799598693848 36.5785217285156 36.5733299255371
-9999 -9999 -9999 -9999 -9999 -9999 -9999 -9999 -9999 -9999 -9999 35.3363647460938 35.4761810302734 35.7200775146484 35.677116394043 36.0232543945312 36.2920761108398 36.3404884338379 36.370548248291 36.3781890869141 36.3870544433594 36.4200744628906 36.4725761413574 36.5336265563965 36.5737648010254 36.5876655578613 36.5902290344238 36.5959587097168 36.6004905700684 36.6033325195312 36.6022758483887 36.6002540588379 36.598876953125 36.5996131896973 36.6025199890137 36.6067085266113 36.6115303039551 36.6140747070312 36.611686706543 36.6065101623535 36.6016654968262 36.5996284484863 36.6007118225098 36.6032409667969 36.606876373291 36.6101951599121 36.6064300537109 36.5862731933594 36.5518531799316 36.5265464782715 36.5185470581055 36.5199775695801 36.5248260498047 36.527473449707 36.5280075073242 36.5361785888672 36.5556640625 36.5697593688965 36.5739059448242 36.5754241943359 36.5795135498047 36.5772705078125 36.5727157592773 36.5756225585938 36.5762367248535 36.5762748718262 36.5754508972168 36.5777816772461 36.5789222717285 36.5744438171387
-9999 -9999 -9999 -9999 -9999 -9999 -9999 -9999 -9999 35.3271827697754 35.5570793151855 35.7347412109375 35.9378929138184 36.0759162902832 35.9983901977539 36.2153625488281 36.3440361022949 36.3656463623047 36.3640060424805 36.373779296875 36.3974533081055 36.4384498596191 36.4955558776855 36.5631561279297 36.5905570983887 36.5907287597656 36.5886650085449 36.5938186645508 36.6010818481445 36.6066703796387 36.6073341369629 36.6067085266113 36.604061126709 36.6034507751465 36.6060562133789 36.6105728149414 36.615047454834 36.6169967651367 36.615161895752 36.6133995056152 36.6165046691895 36.6228332519531 36.6293754577637 36.6327285766602 36.6325149536133 36.6308631896973 36.6314506530762 36.6291618347168 36.6010398864746 36.5507545471191 36.5209503173828 36.5149879455566 36.5180015563965 36.5221633911133 36.5226173400879 36.5235862731934 36.535530090332 36.5523643493652 36.5627517700195 36.5660362243652 36.5685424804688 36.5675506591797 36.5654716491699 36.5682907104492 36.5707626342773 36.5707855224609 36.5703468322754 36.5721549987793 36.5753326416016 36.5735969543457
-9999 -9999 -9999 -9999 -9999 -9999 -9999 -9999 -9999 35.6609001159668 35.8678550720215 36.1069831848145 36.2620315551758 36.3128547668457 36.2677993774414 36.3455047607422 36.3621635437012 36.3617095947266 36.3726272583008 36.3952560424805 36.436466217041 36.4861259460449 36.5397644042969 36.5815315246582 36.5986862182617 36.6012382507324 36.5981292724609 36.598876953125 36.6037483215332 36.6135482788086 36.6239204406738 36.6307640075684 36.6318511962891 36.6264801025391 36.6187286376953 36.615665435791 36.6173439025879 36.6197967529297 36.6227149963379 36.6312561035156 36.6474494934082 36.6655349731445 36.6791648864746 36.6851119995117 36.6835021972656 36.6761512756348 36.6648597717285 36.6582908630371 36.6366882324219 36.586856842041 36.543514251709 36.5240898132324 36.518913269043 36.5195159912109 36.5211486816406 36.5231552124023 36.5291290283203 36.5446624755859 36.5550422668457 36.5573501586914 36.557014465332 36.5557250976562 36.555534362793 36.5592308044434 36.5651626586914 36.5674018859863 36.5657348632812 36.5652465820312 36.5684432983398 36.5704307556152
-9999 -9999 -9999 -9999 -9999 35.6107120513916 35.6478996276855 35.7691078186035 35.7511291503906 35.8204383850098 36.0182838439941 36.2709846496582 36.3617515563965 36.3778190612793 36.3653450012207 36.3571357727051 36.3512077331543 36.362663269043 36.3856544494629 36.4184722900391 36.4658546447754 36.5179252624512 36.5699844360352 36.5982208251953 36.6118431091309 36.6174621582031 36.6120300292969 36.6052627563477 36.6067543029785 36.6137504577637 36.6240386962891 36.6367988586426 36.6497764587402 36.6597480773926 36.6553993225098 36.6391983032227 36.6301612854004 36.6315231323242 36.638484954834 36.6527252197266 36.6734848022461 36.6906394958496 36.6987419128418 36.7022705078125 36.7037773132324 36.7003211975098 36.6898651123047 36.6699752807617 36.6309089660645 36.593807220459 36.563907623291 36.5428504943848 36.5304069519043 36.5244293212891 36.5268096923828 36.5344200134277 36.540168762207 36.5468292236328 36.5491485595703 36.5454406738281 36.5409355163574 36.5380897521973 36.5391845703125 36.5484313964844 36.5606727600098 36.5667457580566 36.5635108947754 36.559253692627 36.561149597168 36.5663909912109
-9999 -9999 -9999 -9999 35.2412757873535 35.5721702575684 35.981502532959 36.1422271728516 36.1494102478027 36.1626205444336 36.2540512084961 36.3629837036133 36.379280090332 36.3558044433594 36.3408088684082 36.3384399414062 36.3566017150879 36.3858985900879 36.414981842041 36.4500389099121 36.4994277954102 36.5504302978516 36.5997161865234 36.62744140625 36.6430969238281 36.6496543884277 36.6438179016113 36.625602722168 36.611026763916 36.6091613769531 36.6137008666992 36.6210861206055 36.6315231323242 36.654541015625 36.6760749816895 36.669303894043 36.6520614624023 36.6474418640137 36.6534690856934 36.667781829834 36.6861152648926 36.6968269348145 36.6998023986816 36.7032432556152 36.7074584960938 36.7054634094238 36.6902961730957 36.6530113220215 36.6180458068848 36.5878982543945 36.5604820251465 36.5439987182617 36.5353088378906 36.5309410095215 36.5363845825195 36.5458679199219 36.5519256591797 36.550365447998 36.5404281616211 36.5280113220215 36.5207977294922 36.5220336914062 36.5277442932129 36.541877746582 36.5615463256836 36.5700798034668 36.5645217895508 36.557861328125 36.5592575073242 36.5655822753906
-9999 -9999 -9999 35.5343637466431 35.5740852355957 35.9990692138672 36.2270889282227 36.3246688842773 36.3465347290039 36.3654098510742 36.3671188354492 36.3826179504395 36.3479232788086 36.3362236022949 36.3343162536621 36.3502540588379 36.3761672973633 36.3989906311035 36.4211158752441 36.4508171081543 36.5057334899902 36.5639495849609 36.6212501525879 36.6548118591309 36.6727752685547 36.6802024841309 36.6780624389648 36.6638717651367 36.6420364379883 36.6247253417969 36.616584777832 36.614372253418 36.6184387207031 36.6404838562012 36.6729698181152 36.6785202026367 36.6646690368652 36.6624374389648 36.6683158874512 36.6749229431152 36.6844100952148 36.693058013916 36.6976089477539 36.7013359069824 36.7059898376465 36.6997756958008 36.6701164245605 36.6276550292969 36.5877342224121 36.5557594299316 36.5460052490234 36.5431137084961 36.5401153564453 36.5376052856445 36.54150390625 36.5463752746582 36.5464553833008 36.5403099060059 36.5302543640137 36.5225105285645 36.5250701904297 36.5308418273926 36.5340728759766 36.5467834472656 36.568431854248 36.5772171020508 36.5723915100098 36.5630950927734 36.562183380127 36.5670928955078
-9999 -9999 -9999 35.4851188659668 35.8369750976562 36.1889610290527 36.3561897277832 36.3966064453125 36.3853416442871 36.3772125244141 36.359676361084 36.3359375 36.3266868591309 36.3261108398438 36.3401107788086 36.3688354492188 36.3998947143555 36.4313430786133 36.458568572998 36.4834175109863 36.5257301330566 36.5898323059082 36.6475868225098 36.6751708984375 36.6919174194336 36.7004814147949 36.6965179443359 36.6874237060547 36.6695899963379 36.6455345153809 36.6303367614746 36.6249465942383 36.6250495910645 36.6430015563965 36.6756439208984 36.6823844909668 36.6735000610352 36.6749153137207 36.6714973449707 36.6656532287598 36.6720504760742 36.6850738525391 36.692798614502 36.6930465698242 36.6877288818359 36.6678504943848 36.6269912719727 36.5838661193848 36.5531692504883 36.5407028198242 36.5389518737793 36.5378532409668 36.5340347290039 36.5313262939453 36.5327949523926 36.5343551635742 36.5342178344727 36.5343246459961 36.5325698852539 36.5341720581055 36.5396690368652 36.5426750183105 36.5438995361328 36.5545425415039 36.5763702392578 36.5912055969238 36.5872917175293 36.5749397277832 36.5690040588379 36.5726165771484
