NCOLS 70 
NROWS 52 
XLLCORNER -80 
YLLCORNER 33 
CELLSIZE 0.25 
NODATA_value -9999 
-9999.000000000000000 -9999 -9999 -9999 -9999 -9999 -9999 -9999 -9999 -9999 -9999 -9999 -9999 -9999 -9999 -9999 -9999 -9999 -9999 -9999 -9999 -9999 -9999 -9999 -9999 -9999 -9999 -9999 -9999 -9999 -9999 -9999 -9999 -9999 -9999 -9999 -9999 -9999 -9999 -9999 -9999 -9999 -9999 -9999 -9999 -9999 -9999 -9999 -9999 -9999 -9999 -9999 -9999 -9999 -9999 -9999 -9999 -9999 -9999 -9999 -9999 -9999 -9999 -9999 -9999 -9999 -9999 -9999 -9999 -9999
-9999 -9999 -9999 -9999 -9999 -9999 -9999 -9999 -9999 -9999 -9999 -9999 -9999 -9999 -9999 -9999 -9999 -9999 -9999 -9999 -9999 -9999 -9999 -9999 -9999 -9999 -9999 -9999 -9999 -9999 -9999 -9999 -9999 -9999 -9999 -9999 -9999 -9999 -9999 -9999 -9999 -9999 -9999 -9999 -9999 -9999 -9999 -9999 -9999 -9999 -9999 -9999 -9999 -9999 -9999 -9999 -9999 -9999 -9999 -9999 -9999 -9999 -9999 -9999 -9999 -9999 -9999 -9999 -9999 -9999
-9999 -9999 -9999 -9999 -9999 -9999 -9999 -9999 -9999 -9999 -9999 -9999 -9999 -9999 -9999 -9999 -9999 -9999 -9999 -9999 -9999 -9999 -9999 -9999 -9999 -9999 -9999 -9999 -9999 -9999 -9999 -9999 -9999 -9999 -9999 -9999 -9999 -9999 -9999 -9999 -9999 -9999 -9999 -9999 -9999 -9999 -9999 -9999 -9999 -9999 -9999 -9999 -9999 -9999 -9999 -9999 -9999 -9999 -9999 29.8861598968506 -9999 -9999 -9999 -9999 -9999 -9999 -9999 -9999 -9999 -9999
-9999 -9999 -9999 -9999 -9999 -9999 -9999 -9999 -9999 -9999 -9999 -9999 -9999 -9999 -9999 -9999 -9999 -9999 -9999 -9999 -9999 -9999 -9999 -9999 -9999 -9999 -9999 -9999 -9999 -9999 -9999 -9999 -9999 -9999 -9999 -9999 -9999 -9999 -9999 -9999 -9999 -9999 -9999 -9999 -9999 -9999 -9999 -9999 -9999 -9999 -9999 -9999 -9999 -9999 -9999 31.052921295166 30.9731006622314 30.8498249053955 30.739803314209 30.3702011108398 -9999 -9999 -9999 -9999 -9999 -9999 -9999 -9999 -9999 -9999
-9999 -9999 -9999 -9999 -9999 -9999 -9999 -9999 -9999 -9999 -9999 -9999 -9999 -9999 -9999 -9999 -9999 -9999 -9999 -9999 -9999 -9999 -9999 -9999 -9999 -9999 -9999 -9999 -9999 -9999 -9999 -9999 -9999 -9999 -9999 -9999 -9999 -9999 -9999 -9999 -9999 -9999 -9999 -9999 -9999 -9999 -9999 -9999 -9999 -9999 -9999 -9999 30.9692077636719 30.9922676086426 30.9518661499023 30.8723278045654 30.7002811431885 30.4937038421631 -9999 -9999 -9999 -9999 -9999 -9999 -9999 -9999 -9999 -9999 -9999 -9999
-9999 -9999 -9999 -9999 -9999 -9999 -9999 -9999 -9999 -9999 -9999 -9999 -9999 -9999 -9999 -9999 -9999 -9999 -9999 -9999 -9999 -9999 -9999 -9999 -9999 -9999 -9999 -9999 -9999 -9999 -9999 -9999 -9999 -9999 -9999 -9999 -9999 -9999 -9999 -9999 -9999 -9999 -9999 -9999 -9999 -9999 -9999 -9999 -9999 -9999 31.3351913452148 31.225471496582 31.1196842193604 30.9299545288086 30.7409782409668 30.4042930603027 -9999 -9999 -9999 -9999 -9999 -9999 -9999 -9999 -9999 -9999 -9999 29.1743825276693 29.1707835197449 29.0579681396484
-9999 -9999 -9999 -9999 -9999 -9999 -9999 -9999 -9999 -9999 -9999 -9999 -9999 -9999 -9999 -9999 -9999 -9999 -9999 -9999 -9999 -9999 -9999 -9999 -9999 -9999 -9999 -9999 -9999 -9999 -9999 -9999 -9999 -9999 -9999 -9999 -9999 -9999 -9999 -9999 -9999 -9999 -9999 -9999 31.7751210530599 -9999 -9999 31.7555394172668 31.6962814331055 31.6258296966553 31.5075931549072 31.3587684631348 31.027229309082 30.6448135375977 30.4152641296387 -9999 -9999 -9999 -9999 -9999 -9999 -9999 -9999 29.0544242858887 29.0869235992432 29.1219959259033 29.137939453125 29.175745010376 29.2094631195068 29.2399578094482
-9999 -9999 -9999 -9999 -9999 -9999 -9999 -9999 -9999 -9999 -9999 -9999 -9999 -9999 -9999 -9999 -9999 -9999 -9999 -9999 -9999 -9999 -9999 -9999 -9999 -9999 -9999 -9999 -9999 -9999 -9999 -9999 -9999 -9999 -9999 -9999 -9999 -9999 -9999 -9999 -9999 -9999 -9999 -9999 31.7606983184814 31.8015632629395 31.8443851470947 31.7926902770996 31.6888008117676 31.5085792541504 31.18869972229 30.8680210113525 30.548303604126 30.3017807006836 30.3372669219971 -9999 -9999 -9999 -9999 -9999 -9999 -9999 29.1375064849854 29.1660137176514 29.1645183563232 29.1904296875 29.234582901001 29.2829990386963 29.3368072509766 29.3967704772949
-9999 -9999 -9999 -9999 -9999 -9999 -9999 -9999 -9999 -9999 -9999 -9999 -9999 -9999 -9999 -9999 -9999 -9999 -9999 -9999 -9999 -9999 -9999 -9999 -9999 -9999 -9999 -9999 -9999 -9999 -9999 -9999 -9999 -9999 -9999 -9999 -9999 -9999 -9999 -9999 32.0719896952311 32.2154947916667 32.2168422698975 32.2525024414062 32.2132034301758 32.1399726867676 31.9479198455811 31.7004508972168 31.4799766540527 31.1924343109131 30.708044052124 30.2558898925781 30.0338020324707 29.9872093200684 30.0161518096924 -9999 -9999 -9999 -9999 -9999 29.1726767222087 29.154483795166 29.1505603790283 29.1866455078125 29.2404670715332 29.3110466003418 29.3666973114014 29.4175434112549 29.4896774291992 29.5623188018799
-9999 -9999 -9999 -9999 -9999 -9999 -9999 -9999 -9999 -9999 -9999 -9999 -9999 -9999 -9999 -9999 -9999 -9999 -9999 -9999 -9999 -9999 -9999 -9999 -9999 -9999 -9999 -9999 -9999 -9999 -9999 -9999 -9999 -9999 -9999 -9999 -9999 -9999 -9999 31.9778900146484 32.036979675293 32.201099395752 32.4084053039551 32.4591026306152 32.3666687011719 32.1726531982422 31.8661518096924 31.5283069610596 31.2562847137451 30.966703414917 30.4940872192383 30.0558261871338 29.8557662963867 29.851957321167 29.9481372833252 29.9916744232178 -9999 -9999 -9999 29.2376227378845 29.1900768280029 29.173469543457 29.1885185241699 29.2333221435547 29.296932220459 29.367395401001 29.420539855957 29.4688396453857 29.5280246734619 29.5965232849121
-9999 -9999 -9999 -9999 -9999 -9999 -9999 -9999 -9999 -9999 -9999 -9999 -9999 -9999 -9999 -9999 -9999 -9999 -9999 -9999 -9999 -9999 -9999 -9999 -9999 -9999 -9999 -9999 -9999 -9999 -9999 -9999 -9999 -9999 -9999 -9999 -9999 -9999 32.4234832763672 32.4418525695801 32.5660781860352 32.6876792907715 32.7114219665527 32.6647338867188 32.5366744995117 32.3519859313965 32.0961036682129 31.7082977294922 31.2468299865723 30.8609676361084 30.4396667480469 30.019983291626 29.7787570953369 29.7229480743408 29.7588806152344 29.7929611206055 29.7120876312256 29.5537195205688 29.3137893676758 29.2485160827637 29.1981086730957 29.1803188323975 29.1927242279053 29.2285976409912 29.2871837615967 29.3583335876465 29.4321250915527 29.4931526184082 29.5375823974609 29.5932064056396
-9999 -9999 -9999 -9999 -9999 -9999 -9999 -9999 -9999 -9999 -9999 -9999 -9999 -9999 -9999 -9999 -9999 -9999 -9999 -9999 -9999 -9999 -9999 -9999 -9999 -9999 -9999 -9999 -9999 -9999 -9999 -9999 -9999 -9999 -9999 -9999 -9999 32.4517860412598 32.5432777404785 32.7026100158691 32.8693389892578 32.9688491821289 33.0049934387207 33.0026931762695 32.9536819458008 32.868221282959 32.6895942687988 32.2749633789062 31.6078186035156 30.9552459716797 30.443868637085 30.0219058990479 29.7646102905273 29.6338710784912 29.5672969818115 29.5557498931885 29.5190773010254 29.4292774200439 29.3890590667725 29.3626441955566 29.2855987548828 29.2208976745605 29.2096424102783 29.2606334686279 29.3503379821777 29.4507446289062 29.5716285705566 29.6664772033691 29.7056293487549 29.7240314483643
-9999 -9999 -9999 -9999 -9999 -9999 -9999 -9999 -9999 -9999 -9999 -9999 -9999 -9999 -9999 -9999 -9999 -9999 -9999 -9999 -9999 -9999 -9999 -9999 -9999 -9999 -9999 -9999 -9999 -9999 -9999 -9999 -9999 -9999 -9999 -9999 -9999 32.6113052368164 32.7052421569824 32.868335723877 33.0173301696777 33.1124458312988 33.1731910705566 33.226188659668 33.2501640319824 33.2215347290039 33.0729141235352 32.7377662658691 32.1553611755371 31.3853912353516 30.6909465789795 30.2318725585938 29.9870529174805 29.8252964019775 29.6858463287354 29.617301940918 29.6171932220459 29.66628074646 29.7634258270264 29.7706928253174 29.5414447784424 29.3731536865234 29.3237762451172 29.4219131469727 29.5668468475342 29.6917190551758 29.8634586334229 30.0267753601074 30.0545673370361 30.0322170257568
-9999 -9999 -9999 -9999 -9999 -9999 -9999 -9999 -9999 -9999 -9999 -9999 -9999 -9999 -9999 -9999 -9999 -9999 -9999 -9999 -9999 -9999 -9999 -9999 -9999 -9999 -9999 -9999 -9999 -9999 -9999 -9999 -9999 -9999 -9999 -9999 -9999 32.6159782409668 32.7673683166504 32.9156036376953 33.0224723815918 33.115306854248 33.2041702270508 33.2683067321777 33.2932090759277 33.2592811584473 33.0918426513672 32.7853088378906 32.3489532470703 31.7848892211914 31.1691074371338 30.7050628662109 30.4738273620605 30.3367557525635 30.1344165802002 29.9526290893555 29.9375495910645 30.0437564849854 30.1941776275635 30.157958984375 29.7525787353516 29.5711460113525 29.6244335174561 29.8532524108887 30.1175956726074 30.3023262023926 30.4480209350586 30.5464496612549 30.5055484771729 30.4886074066162
-9999 -9999 -9999 -9999 -9999 -9999 -9999 -9999 -9999 -9999 -9999 -9999 -9999 -9999 -9999 -9999 -9999 -9999 -9999 -9999 -9999 -9999 -9999 -9999 -9999 -9999 -9999 -9999 -9999 -9999 -9999 -9999 -9999 -9999 -9999 -9999 32.386791229248 32.554443359375 32.7508850097656 32.8656272888184 32.9384765625 33.0368118286133 33.1446075439453 33.2171478271484 33.2463989257812 33.2313957214355 33.1298789978027 32.9205703735352 32.558479309082 32.0722312927246 31.5806007385254 31.2332382202148 31.1106510162354 31.0852527618408 30.862771987915 30.4857406616211 30.3170204162598 30.3830337524414 30.5495223999023 30.5631694793701 30.1715450286865 30.1072940826416 30.3626976013184 30.7156238555908 31.1526927947998 31.3412437438965 31.264741897583 31.0652446746826 30.97047996521 31.0742473602295
-9999 -9999 -9999 -9999 -9999 -9999 -9999 -9999 -9999 -9999 -9999 -9999 -9999 -9999 -9999 -9999 -9999 -9999 -9999 -9999 -9999 -9999 -9999 -9999 -9999 -9999 -9999 -9999 -9999 -9999 -9999 -9999 -9999 -9999 -9999 -9999 -9999 32.5608291625977 32.6325492858887 32.7283020019531 32.8212242126465 32.9366493225098 33.0490417480469 33.137580871582 33.1862564086914 33.1950035095215 33.1696357727051 33.1302452087402 33.0110893249512 32.7357025146484 32.3742485046387 32.1153831481934 32.0308570861816 32.0325927734375 31.7846164703369 31.2595291137695 30.8903827667236 30.8624038696289 31.1068420410156 31.434907913208 31.4718208312988 31.6182250976562 31.8580284118652 32.1384201049805 32.6593170166016 32.7787551879883 32.4975814819336 31.9723892211914 31.5963745117188 31.7210369110107
-9999 -9999 -9999 -9999 -9999 -9999 -9999 -9999 -9999 -9999 -9999 -9999 -9999 -9999 -9999 -9999 -9999 -9999 -9999 -9999 -9999 -9999 -9999 -9999 -9999 -9999 -9999 -9999 -9999 -9999 -9999 -9999 -9999 -9999 -9999 -9999 -9999 -9999 32.4445571899414 -9999 32.706916809082 32.8392181396484 32.9602394104004 33.0713195800781 33.1437683105469 33.1643981933594 33.1502952575684 33.1432189941406 33.1177368164062 33.0387763977051 32.9065322875977 32.7636260986328 32.6514282226562 32.6155776977539 32.3923683166504 31.9174842834473 31.4722518920898 31.4379405975342 31.8918952941895 32.7839736938477 33.2829551696777 33.5823860168457 33.7257308959961 33.955265045166 34.2543258666992 34.2262191772461 33.9835472106934 33.3145332336426 32.5163993835449 32.2900924682617
-9999 -9999 -9999 -9999 -9999 -9999 -9999 -9999 -9999 -9999 -9999 -9999 -9999 -9999 -9999 -9999 -9999 -9999 -9999 -9999 -9999 -9999 -9999 -9999 -9999 -9999 -9999 -9999 -9999 -9999 -9999 -9999 -9999 -9999 -9999 -9999 -9999 -9999 -9999 -9999 32.6043395996094 32.7867584228516 32.9223823547363 33.0395774841309 33.1153831481934 33.1307640075684 33.1085968017578 33.0925025939941 33.0638313293457 33.020824432373 32.9496002197266 32.834888458252 32.7297668457031 32.7244682312012 32.6244354248047 32.269458770752 31.937162399292 32.0099678039551 32.8435096740723 33.9881248474121 34.3562927246094 34.5549392700195 34.7464981079102 34.9852256774902 35.0630416870117 34.9608688354492 34.842399597168 34.5784530639648 33.8026008605957 33.1142921447754
-9999 -9999 -9999 -9999 -9999 -9999 -9999 -9999 -9999 -9999 -9999 -9999 -9999 -9999 -9999 -9999 -9999 -9999 -9999 -9999 -9999 -9999 -9999 -9999 -9999 -9999 -9999 -9999 -9999 -9999 -9999 -9999 -9999 -9999 31.6750898361206 31.4336051940918 31.5305290222168 -9999 31.7537879943848 32.0037956237793 32.3750114440918 32.6851921081543 32.8895225524902 33.0214347839355 33.0834846496582 33.0754547119141 33.0381546020508 33.0190048217773 33.0015487670898 32.9562492370605 32.8579788208008 32.7281761169434 32.6689147949219 32.7257690429688 32.6995239257812 32.4205169677734 32.3353614807129 32.7173118591309 33.6765899658203 34.3840522766113 34.5526885986328 34.7581520080566 34.9915237426758 35.2303009033203 35.3036918640137 35.289680480957 35.1101837158203 34.9887466430664 34.5524253845215 33.9291954040527
-9999 -9999 -9999 -9999 -9999 -9999 -9999 -9999 -9999 -9999 -9999 -9999 -9999 -9999 -9999 -9999 -9999 -9999 -9999 -9999 -9999 -9999 -9999 -9999 -9999 -9999 -9999 26.3272666931152 26.3272666931152 27.040283203125 28.1873989105225 30.0777950286865 31.4447135925293 31.6669502258301 31.7253456115723 31.8744583129883 32.0296058654785 32.0562057495117 32.0127754211426 32.0806541442871 32.354793548584 32.6599578857422 32.8726959228516 32.9958076477051 33.040958404541 33.0214767456055 32.9809646606445 32.9606666564941 32.9346885681152 32.8516082763672 32.7160873413086 32.6086158752441 32.6226539611816 32.6954460144043 32.6911659240723 32.6911087036133 32.9472694396973 33.3902015686035 33.9776039123535 34.3844680786133 34.7274894714355 35.0713958740234 35.3594818115234 35.558235168457 35.6182861328125 35.5708656311035 35.3289794921875 35.1096343994141 34.8582763671875 34.3814735412598
-9999 -9999 -9999 -9999 -9999 -9999 -9999 -9999 -9999 -9999 -9999 -9999 -9999 -9999 -9999 -9999 -9999 -9999 -9999 -9999 -9999 -9999 -9999 -9999 -9999 -9999 -9999 -9999 -9999 -9999 30.0165500640869 31.3875751495361 32.390308380127 32.6174240112305 32.6513519287109 32.6459274291992 32.5867500305176 32.5055465698242 32.4123191833496 32.3966064453125 32.5349273681641 32.7284088134766 32.8799629211426 32.976146697998 33.0140151977539 32.987621307373 32.9327812194824 32.8859558105469 32.8286170959473 32.7311553955078 32.6493263244629 32.654712677002 32.7388687133789 32.8162803649902 33.0085105895996 33.2837142944336 33.5480499267578 33.7656669616699 34.2281646728516 34.7350692749023 35.1893196105957 35.5206489562988 35.7186470031738 35.8227844238281 35.825366973877 35.764762878418 35.5917625427246 35.2814102172852 34.9763526916504 34.5224800109863
-9999 -9999 -9999 -9999 -9999 -9999 -9999 -9999 -9999 -9999 -9999 -9999 -9999 -9999 -9999 -9999 -9999 -9999 -9999 -9999 -9999 -9999 -9999 -9999 -9999 32.0792643229167 32.3498166402181 32.5723813374837 32.7159729003906 32.6321792602539 32.675651550293 32.7154350280762 32.8159675598145 32.9241981506348 32.9801177978516 32.9734649658203 32.9023628234863 32.8145179748535 32.7327423095703 32.709587097168 32.7724266052246 32.865047454834 32.9500427246094 33.0216789245605 33.0404739379883 32.9958839416504 32.9285926818848 32.8918151855469 32.8568077087402 32.8231010437012 32.8191452026367 32.9018440246582 33.041576385498 33.1809158325195 33.5146446228027 33.8902168273926 34.131950378418 34.287654876709 34.7979202270508 35.2667045593262 35.6307945251465 35.8806228637695 35.9843330383301 36.0315437316895 35.9889183044434 35.8927612304688 35.8097839355469 35.5001602172852 35.0660514831543 34.5942268371582
-9999 -9999 -9999 -9999 -9999 -9999 -9999 -9999 -9999 -9999 -9999 -9999 -9999 -9999 -9999 -9999 -9999 -9999 -9999 -9999 -9999 -9999 -9999 -9999 31.7707939147949 32.0947074890137 32.3722915649414 32.5824508666992 32.7624015808105 32.8868598937988 32.9715194702148 33.0759353637695 33.2022438049316 33.3274269104004 33.4426193237305 33.4715881347656 33.3712615966797 33.2141609191895 33.0738525390625 33.0179862976074 33.0309295654297 33.0543975830078 33.0894927978516 33.1351203918457 33.1448783874512 33.1332893371582 33.1291313171387 33.1700210571289 33.2096252441406 33.240894317627 33.2791137695312 33.4070816040039 33.5790977478027 33.7640533447266 34.0623893737793 34.4910507202148 34.8637428283691 35.1380157470703 35.4504203796387 35.6577262878418 35.8984260559082 36.0814514160156 36.1039695739746 36.1249580383301 36.0991477966309 35.9820213317871 35.9266357421875 35.7103843688965 35.2329292297363 34.7207260131836
-9999 -9999 -9999 -9999 -9999 -9999 -9999 -9999 -9999 -9999 -9999 -9999 -9999 -9999 -9999 -9999 -9999 -9999 -9999 -9999 -9999 -9999 -9999 -9999 32.1481132507324 32.5628318786621 32.8312225341797 32.9707794189453 33.084400177002 33.18505859375 33.3043098449707 33.4918098449707 33.7127952575684 33.8806266784668 33.9874649047852 33.9999771118164 33.884952545166 33.689395904541 33.4702224731445 33.348014831543 33.3236656188965 33.3339767456055 33.4236526489258 33.540958404541 33.5951766967773 33.6364479064941 33.696346282959 33.7534828186035 33.8015174865723 33.8919830322266 34.0292167663574 34.2405166625977 34.4178733825684 34.6065254211426 34.8008460998535 35.0942573547363 35.4136543273926 35.6969871520996 35.8652954101562 35.9223098754883 36.0442237854004 36.1390342712402 36.1251602172852 36.1351280212402 36.1455001831055 36.0550193786621 36.0140075683594 35.9345436096191 35.5311126708984 34.954719543457
-9999 -9999 -9999 -9999 -9999 -9999 -9999 -9999 -9999 -9999 -9999 -9999 -9999 -9999 -9999 -9999 -9999 -9999 -9999 -9999 -9999 -9999 -9999 32.2796773910522 32.305606842041 32.7460632324219 33.0175247192383 33.1660499572754 33.3229637145996 33.4815216064453 33.6240730285645 33.8553123474121 34.1739845275879 34.3845634460449 34.4170570373535 34.3858833312988 34.3976287841797 34.4110260009766 34.3768005371094 34.3851089477539 34.3613891601562 34.3621292114258 34.5858879089355 34.8564147949219 34.9551773071289 34.9340057373047 34.8552780151367 34.7819480895996 34.8333892822266 35.025936126709 35.2356452941895 35.4341850280762 35.5603904724121 35.6589851379395 35.7292213439941 35.810417175293 35.8991317749023 36.0025787353516 36.0574073791504 36.0662612915039 36.1046180725098 36.1367607116699 36.1344718933105 36.1459159851074 36.1653251647949 36.1047439575195 36.121036529541 36.1486167907715 35.925350189209 35.3894309997559
-9999 -9999 -9999 -9999 -9999 -9999 -9999 -9999 -9999 -9999 -9999 -9999 -9999 -9999 -9999 -9999 -9999 -9999 -9999 -9999 -9999 -9999 -9999 32.1582374572754 32.5067520141602 32.9023971557617 33.1285438537598 33.2938041687012 33.5342712402344 33.7806816101074 33.8896179199219 34.0219650268555 34.3122291564941 34.5768508911133 34.6564788818359 34.6935157775879 34.8900833129883 35.1565399169922 35.3961296081543 35.6006202697754 35.6601066589355 35.6878852844238 35.860050201416 36.0477561950684 36.1098289489746 36.0062789916992 35.7962951660156 35.7184371948242 35.8728637695312 36.0663795471191 36.1834487915039 36.2425231933594 36.2797508239746 36.2962684631348 36.300235748291 36.2808837890625 36.2456817626953 36.2165946960449 36.2007713317871 36.1850166320801 36.1748924255371 36.1784515380859 36.1809387207031 36.1856575012207 36.1803588867188 36.1519393920898 36.1884689331055 36.2500534057617 36.2104682922363 35.9737930297852
-9999 -9999 -9999 -9999 -9999 -9999 -9999 -9999 -9999 -9999 -9999 -9999 -9999 -9999 -9999 -9999 -9999 -9999 -9999 -9999 -9999 -9999 32.443717956543 32.5465927124023 32.8497161865234 33.1361389160156 33.3234901428223 33.5265922546387 33.8474540710449 34.1757164001465 34.2960319519043 34.350399017334 34.5311050415039 34.7858848571777 34.9922981262207 35.1869659423828 35.432201385498 35.6458511352539 35.8212432861328 35.9811630249023 36.1137619018555 36.1994323730469 36.2349166870117 36.2474174499512 36.2348251342773 36.1260147094727 36.0171089172363 36.0841522216797 36.2391548156738 36.3361701965332 36.3776435852051 36.4046974182129 36.421760559082 36.4273529052734 36.421802520752 36.4099273681641 36.372875213623 36.3008308410645 36.2492752075195 36.2261161804199 36.2118759155273 36.2184295654297 36.2260894775391 36.2326431274414 36.2446174621582 36.2549438476562 36.2759437561035 36.3151054382324 36.3449974060059 36.3288192749023
-9999 -9999 -9999 -9999 -9999 -9999 -9999 -9999 -9999 -9999 -9999 -9999 -9999 -9999 20.512195110321 -9999 -9999 -9999 -9999 32.352653503418 -9999 32.6297264099121 32.6993865966797 32.9331016540527 33.1986961364746 33.4313278198242 33.6903877258301 34.0398559570312 34.4458427429199 34.8069877624512 35.0236320495605 35.1376190185547 35.2236442565918 35.3860015869141 35.6231269836426 35.8481750488281 35.9998397827148 36.0479850769043 36.0643310546875 36.1194038391113 36.2073059082031 36.2661819458008 36.2689590454102 36.2553329467773 36.2340469360352 36.1653289794922 36.1547622680664 36.2481384277344 36.3397102355957 36.3933715820312 36.4264297485352 36.4520034790039 36.464916229248 36.4695930480957 36.4682350158691 36.4602546691895 36.4478569030762 36.3882484436035 36.2999114990234 36.2404708862305 36.2242164611816 36.2396812438965 36.2644462585449 36.3035774230957 36.3439331054688 36.3455963134766 36.3285522460938 36.3267974853516 36.3433876037598 36.3535614013672
-9999 -9999 -9999 -9999 -9999 -9999 -9999 -9999 -9999 -9999 -9999 -9999 -9999 -9999 20.522171497345 -9999 -9999 -9999 -9999 32.4257774353027 32.7406394958496 32.9276504516602 33.1413536071777 33.371711730957 33.6054267883301 33.8652877807617 34.2176666259766 34.6477279663086 35.0791091918945 35.4704666137695 35.7681121826172 35.9344024658203 35.975830078125 36.01416015625 36.1154556274414 36.2020149230957 36.2337036132812 36.2255439758301 36.2261238098145 36.2552833557129 36.2818336486816 36.2934074401855 36.285888671875 36.271785736084 36.2626953125 36.2486610412598 36.274356842041 36.3412666320801 36.3937835693359 36.4281959533691 36.456729888916 36.4751739501953 36.4811477661133 36.4786109924316 36.4789237976074 36.4791793823242 36.4748916625977 36.4390068054199 36.358642578125 36.2862091064453 36.2605628967285 36.2723960876465 36.3047027587891 36.3482666015625 36.3695983886719 36.3383827209473 36.2940902709961 36.281566619873 36.2928771972656 36.3048362731934
-9999 -9999 -9999 -9999 -9999 -9999 -9999 -9999 -9999 -9999 -9999 -9999 -9999 -9999 20.4772777557373 -9999 -9999 -9999 -9999 -9999 33.2671918869019 33.2942657470703 33.5609436035156 33.8083915710449 34.0553207397461 34.3523826599121 34.7542686462402 35.1381645202637 35.419864654541 35.7305793762207 36.0285034179688 36.1883659362793 36.2267227172852 36.2257919311523 36.2383804321289 36.2494354248047 36.257022857666 36.2760581970215 36.3120536804199 36.3458290100098 36.3573684692383 36.3566055297852 36.3509750366211 36.3413124084473 36.3301658630371 36.3312377929688 36.3542671203613 36.3822860717773 36.4082107543945 36.4381828308105 36.4671936035156 36.4806442260742 36.4775085449219 36.4673309326172 36.4632530212402 36.4656257629395 36.4640350341797 36.4457778930664 36.4013938903809 36.3536758422852 36.3208045959473 36.3035697937012 36.3048057556152 36.3166885375977 36.315055847168 36.2868957519531 36.2604217529297 36.2594184875488 36.277229309082 36.2967185974121
-9999 -9999 -9999 -9999 -9999 -9999 -9999 -9999 -9999 -9999 -9999 -9999 -9999 -9999 20.5598754882812 -9999 20.656852722168 -9999 -9999 -9999 33.3240699768066 33.5227813720703 33.8436431884766 34.1158790588379 34.3764572143555 34.6869125366211 35.108585357666 35.42578125 35.5277633666992 35.7251052856445 36.0025177001953 36.1429443359375 36.1758079528809 36.1945190429688 36.2183113098145 36.2374839782715 36.2580718994141 36.2884864807129 36.3268623352051 36.3514556884766 36.3597183227539 36.3660316467285 36.3744735717773 36.3782501220703 36.3709030151367 36.363094329834 36.367992401123 36.382080078125 36.4047164916992 36.4368705749512 36.4688262939453 36.4824638366699 36.4742851257324 36.4609527587891 36.4533805847168 36.4505462646484 36.4464874267578 36.4380073547363 36.4228210449219 36.4051933288574 36.3771018981934 36.3390769958496 36.3079147338867 36.2892456054688 36.2738876342773 36.256404876709 36.253978729248 36.2678527832031 36.2942352294922 36.3183097839355
-9999 -9999 -9999 -9999 -9999 -9999 -9999 -9999 -9999 -9999 -9999 -9999 -9999 -9999 20.5598754882812 20.6424732208252 20.9046745300293 -9999 -9999 33.3976402282715 33.4079284667969 33.704402923584 34.0345611572266 34.3365631103516 34.6816329956055 35.021053314209 35.3133010864258 35.5183143615723 35.5975952148438 35.7347679138184 35.9466209411621 36.0933570861816 36.1741905212402 36.2288551330566 36.2681427001953 36.2954559326172 36.3193740844727 36.3442192077637 36.3667945861816 36.3745651245117 36.3692474365234 36.3664054870605 36.3719024658203 36.377872467041 36.3775253295898 36.3695220947266 36.364574432373 36.3714637756348 36.3913269042969 36.4250946044922 36.4641914367676 36.4876747131348 36.4849052429199 36.4748420715332 36.4682273864746 36.4607543945312 36.456127166748 36.4532585144043 36.443115234375 36.4356689453125 36.4208908081055 36.3862113952637 36.3478584289551 36.3193054199219 36.2947540283203 36.2783164978027 36.284553527832 36.3057022094727 36.3395233154297 36.366096496582
-9999 -9999 -9999 -9999 -9999 -9999 -9999 -9999 -9999 -9999 -9999 -9999 -9999 -9999 -9999 22.1632102966309 21.3428039550781 -9999 30.0828604698181 33.2902336120605 33.5683288574219 33.9242858886719 34.2610092163086 34.6122245788574 35.0603561401367 35.4183044433594 35.5878791809082 35.7109298706055 35.8054618835449 35.8950500488281 36.0208168029785 36.1551933288574 36.2480087280273 36.304500579834 36.3493919372559 36.3903465270996 36.4234466552734 36.4458465576172 36.4551734924316 36.4546241760254 36.4487152099609 36.4390830993652 36.4286460876465 36.4152565002441 36.3985900878906 36.3798141479492 36.3608779907227 36.3513603210449 36.3614349365234 36.3941612243652 36.4410095214844 36.4802169799805 36.4919242858887 36.489917755127 36.4872131347656 36.4802017211914 36.4763526916504 36.4786491394043 36.4687194824219 36.4592437744141 36.4462814331055 36.4153938293457 36.378734588623 36.3453102111816 36.3176231384277 36.303768157959 36.3114891052246 36.3357429504395 36.3744583129883 36.4061393737793
-9999 -9999 -9999 -9999 -9999 -9999 -9999 -9999 -9999 -9999 -9999 -9999 -9999 -9999 -9999 23.6036567687988 24.3224430084229 -9999 32.6814613342285 33.2905235290527 33.770694732666 34.2047348022461 34.631965637207 35.1610908508301 35.6661796569824 35.8959693908691 35.9861526489258 36.0647468566895 36.121997833252 36.1592979431152 36.1977195739746 36.2537574768066 36.3135719299316 36.3658714294434 36.414249420166 36.4543418884277 36.4792366027832 36.4907760620117 36.4944877624512 36.4958076477051 36.496280670166 36.493522644043 36.4853706359863 36.4676475524902 36.4380912780762 36.4029579162598 36.366512298584 36.335075378418 36.3248329162598 36.3473930358887 36.397289276123 36.452953338623 36.4839172363281 36.4938545227051 36.4961318969727 36.4906806945801 36.4823532104492 36.4797973632812 36.4774856567383 36.4730415344238 36.4599571228027 36.4282035827637 36.3887329101562 36.3500938415527 36.3228645324707 36.3146095275879 36.3273963928223 36.3620910644531 36.4103698730469 36.4463996887207
-9999 -9999 -9999 -9999 -9999 -9999 -9999 -9999 -9999 -9999 -9999 -9999 -9999 -9999 -9999 24.6580410003662 -9999 29.6937005179269 32.6152229309082 33.5068969726562 34.1297454833984 34.6693916320801 35.2460975646973 35.8103065490723 36.1245803833008 36.198657989502 36.2261085510254 36.2634506225586 36.295783996582 36.3096237182617 36.3206024169922 36.3455047607422 36.3893661499023 36.4343032836914 36.468936920166 36.4889869689941 36.4980163574219 36.5021095275879 36.5047264099121 36.5071830749512 36.5093650817871 36.5106582641602 36.5101318359375 36.5011711120605 36.4741134643555 36.4292144775391 36.3789978027344 36.3325691223145 36.3027191162109 36.3069725036621 36.3528060913086 36.4220275878906 36.4706153869629 36.4932441711426 36.5021667480469 36.4947738647461 36.4806709289551 36.475025177002 36.4733009338379 36.4739112854004 36.4699630737305 36.440788269043 36.4008560180664 36.3629188537598 36.335994720459 36.3349342346191 36.3595314025879 36.4045295715332 36.4502334594727 36.4776306152344
-9999 -9999 -9999 -9999 -9999 -9999 -9999 -9999 -9999 -9999 -9999 -9999 -9999 -9999 24.6580410003662 26.2109438578288 27.7734813690186 31.3337631225586 32.92822265625 33.9048538208008 34.5082015991211 35.1083488464355 35.7305717468262 36.1212387084961 36.2401657104492 36.2840881347656 36.3183555603027 36.3461685180664 36.3716583251953 36.3910064697266 36.414436340332 36.4423637390137 36.4692840576172 36.4882278442383 36.4959869384766 36.4988555908203 36.5032691955566 36.5080032348633 36.5112800598145 36.512752532959 36.5143852233887 36.5162620544434 36.5197296142578 36.519359588623 36.5016937255859 36.4579734802246 36.4006881713867 36.3465881347656 36.3077507019043 36.298454284668 36.3353614807129 36.4082336425781 36.4650573730469 36.4924125671387 36.5077362060547 36.5052757263184 36.4850845336914 36.4732246398926 36.4762496948242 36.4788970947266 36.480770111084 36.4621963500977 36.4347877502441 36.4081344604492 36.3853645324707 36.3875617980957 36.4132995605469 36.4516258239746 36.4809341430664 36.494873046875
-9999 -9999 -9999 -9999 -9999 -9999 -9999 -9999 -9999 -9999 -9999 -9999 -9999 -9999 -9999 -9999 30.988908290863 32.0397033691406 33.6187896728516 34.2911682128906 34.7808456420898 35.4116630554199 35.996223449707 36.2045974731445 36.2774353027344 36.3369674682617 36.3794174194336 36.4092979431152 36.4341049194336 36.456729888916 36.4757995605469 36.4877815246582 36.4937629699707 36.4946250915527 36.4948387145996 36.4986953735352 36.5054054260254 36.5109062194824 36.5124130249023 36.507869720459 36.5042419433594 36.5053901672363 36.5138473510742 36.5247116088867 36.5214347839355 36.4903450012207 36.4369506835938 36.3813705444336 36.3411598205566 36.3287811279297 36.3587989807129 36.4250144958496 36.475154876709 36.4963684082031 36.5123100280762 36.5171508789062 36.4994239807129 36.4757766723633 36.4747428894043 36.4804840087891 36.4871673583984 36.4779777526855 36.4638175964355 36.4517021179199 36.4388198852539 36.4426231384277 36.4596328735352 36.4832534790039 36.4985466003418 36.5022926330566
-9999 -9999 -9999 -9999 -9999 -9999 -9999 -9999 -9999 -9999 -9999 -9999 -9999 -9999 -9999 -9999 32.4241943359375 32.8086853027344 34.056713104248 34.572925567627 35.0339851379395 35.6911087036133 36.1544532775879 36.2697372436523 36.3332939147949 36.37646484375 36.4062843322754 36.4320640563965 36.453914642334 36.4720115661621 36.4823989868164 36.4868698120117 36.4896392822266 36.4921188354492 36.4964561462402 36.50244140625 36.5071182250977 36.5083084106445 36.5060348510742 36.4982643127441 36.4886283874512 36.4845275878906 36.4930000305176 36.5134811401367 36.5285568237305 36.519905090332 36.4860153198242 36.4424438476562 36.4065780639648 36.3968658447266 36.4218406677246 36.4692077636719 36.4950218200684 36.503101348877 36.5176773071289 36.5245666503906 36.5169715881348 36.4990234375 36.4783668518066 36.4804878234863 36.4889526367188 36.4828262329102 36.475284576416 36.4699287414551 36.4635200500488 36.4678153991699 36.4820976257324 36.4986152648926 36.5055618286133 36.5094261169434
-9999 -9999 -9999 -9999 -9999 -9999 -9999 -9999 -9999 -9999 -9999 -9999 -9999 -9999 -9999 -9999 -9999 33.6717433929443 33.9732933044434 34.7223014831543 35.2753486633301 35.9190216064453 36.2425003051758 36.3057708740234 36.3539695739746 36.387996673584 36.4141502380371 36.4410781860352 36.469409942627 36.4889755249023 36.4889793395996 36.4891319274902 36.4962921142578 36.5032920837402 36.509651184082 36.5150756835938 36.515796661377 36.5117301940918 36.5058517456055 36.4974822998047 36.4838943481445 36.475830078125 36.4802093505859 36.4973220825195 36.5204124450684 36.5323753356934 36.524974822998 36.5052146911621 36.4861297607422 36.4795532226562 36.4904022216797 36.5031852722168 36.5014839172363 36.5051536560059 36.5262298583984 36.5310516357422 36.5277442932129 36.5219383239746 36.494758605957 36.485782623291 36.4894561767578 36.4853401184082 36.4824905395508 36.4788703918457 36.471752166748 36.4767417907715 36.4925537109375 36.5030975341797 36.5123558044434 36.5293998718262
-9999 -9999 -9999 -9999 -9999 -9999 -9999 -9999 -9999 -9999 -9999 -9999 -9999 -9999 32.7125625610352 32.8086853027344 33.5598745346069 33.9107875823975 33.8482818603516 34.6944313049316 35.496265411377 36.0666618347168 36.2719535827637 36.3185768127441 36.3665962219238 36.3930358886719 36.4174575805664 36.4503555297852 36.4798851013184 36.4928741455078 36.4951248168945 36.506763458252 36.5210380554199 36.526554107666 36.5285148620605 36.5300750732422 36.5269012451172 36.5200500488281 36.5112724304199 36.4987678527832 36.4847831726074 36.4763641357422 36.4784736633301 36.4910697937012 36.5072479248047 36.5223007202148 36.5309906005859 36.5301284790039 36.5234680175781 36.5181465148926 36.5147018432617 36.5048561096191 36.4984245300293 36.5155487060547 36.5398292541504 36.5388832092285 36.5324211120605 36.5283393859863 36.507381439209 36.4899940490723 36.4869842529297 36.4838638305664 36.4843826293945 36.4810028076172 36.4736595153809 36.4808349609375 36.4964752197266 36.5075302124023 36.5260124206543 36.5475845336914
-9999 -9999 -9999 -9999 -9999 -9999 -9999 -9999 -9999 -9999 -9999 -9999 -9999 -9999 -9999 -9999 -9999 -9999 34.5868787765503 34.7645568847656 35.6063346862793 36.1202163696289 36.2806091308594 36.3420524597168 36.3804054260254 36.3993949890137 36.4234580993652 36.4557762145996 36.4798049926758 36.4895973205566 36.5059967041016 36.531322479248 36.5475883483887 36.5515899658203 36.546516418457 36.537712097168 36.5302925109863 36.5238647460938 36.5170516967773 36.5086402893066 36.5022468566895 36.4946708679199 36.487232208252 36.4917526245117 36.500301361084 36.5096054077148 36.5198936462402 36.5266799926758 36.5247383117676 36.5162620544434 36.5044593811035 36.4983520507812 36.5099945068359 36.5384292602539 36.550106048584 36.5442543029785 36.5368194580078 36.5321426391602 36.5220222473145 36.5027923583984 36.4928359985352 36.4858169555664 36.4837112426758 36.4806747436523 36.4758949279785 36.484016418457 36.5024070739746 36.5244331359863 36.5443992614746 36.5495567321777
-9999 -9999 -9999 -9999 -9999 -9999 -9999 -9999 -9999 -9999 -9999 -9999 -9999 -9999 -9999 -9999 -9999 35.2546577453613 35.1691026687622 35.0402450561523 35.7816123962402 36.2280616760254 36.3364219665527 36.3769111633301 36.3924446105957 36.4029159545898 36.4283790588379 36.4605102539062 36.4798927307129 36.4865531921387 36.508960723877 36.5340423583984 36.5480003356934 36.5547256469727 36.5493011474609 36.5390815734863 36.5346450805664 36.532470703125 36.5294151306152 36.5268287658691 36.5224151611328 36.5158500671387 36.507942199707 36.504768371582 36.507137298584 36.5119018554688 36.5161209106445 36.5168380737305 36.510856628418 36.5015640258789 36.4991836547852 36.5112991333008 36.5342979431152 36.5498962402344 36.5565147399902 36.5524024963379 36.5465698242188 36.5417785644531 36.534854888916 36.5193710327148 36.5050048828125 36.4947319030762 36.4893341064453 36.4867172241211 36.4884262084961 36.5030899047852 36.5297431945801 36.5458602905273 36.5517692565918 36.5429153442383
-9999 -9999 -9999 -9999 -9999 -9999 -9999 -9999 -9999 -9999 -9999 -9999 -9999 36.0263175964355 36.0152609083388 -9999 35.9139251708984 35.7450141906738 35.2546577453613 35.6169509887695 36.1970977783203 36.3591804504395 36.3684349060059 36.3742065429688 36.3830833435059 36.4002571105957 36.4323692321777 36.4608993530273 36.4754638671875 36.4825592041016 36.5058670043945 36.5284309387207 36.5396919250488 36.5502166748047 36.5528831481934 36.5496788024902 36.5500984191895 36.5501937866211 36.5450057983398 36.5384635925293 36.5336570739746 36.5287246704102 36.5227317810059 36.5175743103027 36.5162124633789 36.5154762268066 36.5137023925781 36.5102081298828 36.5035972595215 36.4992828369141 36.5067863464355 36.5237770080566 36.5377807617188 36.5454025268555 36.5532455444336 36.554615020752 36.5528411865234 36.5502548217773 36.5410652160645 36.526195526123 36.5120811462402 36.5032997131348 36.4997596740723 36.5013046264648 36.5112495422363 36.5282859802246 36.5404243469238 36.5413398742676 36.5461349487305 36.5363540649414
-9999 -9999 -9999 -9999 -9999 -9999 -9999 -9999 -9999 -9999 -9999 -9999 -9999 -9999 36.0263175964355 36.0651652018229 35.9542999267578 35.8735504150391 35.8975486755371 36.2465896606445 36.3705825805664 36.3634338378906 36.366039276123 36.3841857910156 36.4003868103027 36.4163284301758 36.4399147033691 36.4596748352051 36.466968536377 36.4735717773438 36.4973335266113 36.5224266052246 36.5352172851562 36.5492858886719 36.5588607788086 36.561450958252 36.5642356872559 36.5645523071289 36.5586471557617 36.5511093139648 36.544563293457 36.5383071899414 36.532901763916 36.5292129516602 36.5273666381836 36.5247421264648 36.5209655761719 36.5149116516113 36.5077133178711 36.5031623840332 36.507007598877 36.5192527770996 36.5392723083496 36.5473594665527 36.5501937866211 36.5540046691895 36.5540161132812 36.5525588989258 36.5479850769043 36.538330078125 36.528076171875 36.5192184448242 36.5150566101074 36.517749786377 36.5265235900879 36.5366859436035 36.5331001281738 36.5300216674805 36.5426826477051 36.5362663269043
-9999 -9999 -9999 -9999 -9999 -9999 -9999 -9999 -9999 -9999 -9999 -9999 -9999 -9999 36.0920181274414 36.0263175964355 36.2148780822754 36.2627601623535 36.3451728820801 36.3826675415039 36.3526573181152 36.3485870361328 36.3764953613281 36.3992729187012 36.4112663269043 36.4242515563965 36.4403419494629 36.455493927002 36.4578552246094 36.4588165283203 36.4754981994629 36.504768371582 36.528491973877 36.543701171875 36.5555648803711 36.5650901794434 36.5702285766602 36.571102142334 36.567928314209 36.5615501403809 36.5552406311035 36.5498962402344 36.5446548461914 36.5396499633789 36.5361480712891 36.531925201416 36.5266723632812 36.5203247070312 36.5130577087402 36.5066757202148 36.5049629211426 36.5178565979004 36.5532836914062 36.567455291748 36.5666885375977 36.5716171264648 36.5734024047852 36.5697746276855 36.5653877258301 36.5599746704102 36.5544395446777 36.5478744506836 36.5428504943848 36.5401954650879 36.5452728271484 36.5488166809082 36.5346946716309 36.5251922607422 36.5374641418457 36.5398941040039
-9999 -9999 -9999 -9999 -9999 -9999 -9999 -9999 -9999 -9999 -9999 35.670295715332 35.8684844970703 36.0622444152832 36.0193405151367 36.2601699829102 36.4018020629883 36.4091339111328 36.3766632080078 36.3343811035156 36.3298988342285 36.3677253723145 36.4103126525879 36.419376373291 36.4236030578613 36.4287223815918 36.4322509765625 36.4436492919922 36.4422798156738 36.4342651367188 36.444221496582 36.4836502075195 36.5232048034668 36.5387878417969 36.5476112365723 36.5623054504395 36.5753860473633 36.5778923034668 36.574821472168 36.5703086853027 36.5655899047852 36.5602531433105 36.552619934082 36.5448722839355 36.5383796691895 36.5321884155273 36.5286712646484 36.5283050537109 36.5230140686035 36.5139083862305 36.5126037597656 36.5283813476562 36.561939239502 36.5789947509766 36.578784942627 36.5860214233398 36.5926895141602 36.5938720703125 36.5981063842773 36.6013450622559 36.6028747558594 36.5989532470703 36.5950660705566 36.5903053283691 36.5856056213379 36.5830001831055 36.5674629211426 36.5392646789551 36.5383224487305 36.5440864562988
-9999 -9999 -9999 -9999 -9999 -9999 -9999 -9999 -9999 35.5192489624023 35.8322830200195 36.0467338562012 36.2513008117676 36.3241004943848 36.2879257202148 36.3890037536621 36.4201545715332 36.3846473693848 36.3394241333008 36.3142929077148 36.3344383239746 36.3822021484375 36.4169998168945 36.4157295227051 36.4215049743652 36.4276008605957 36.4232788085938 36.4273223876953 36.4265174865723 36.4182052612305 36.42919921875 36.4695510864258 36.5135803222656 36.5388679504395 36.5486869812012 36.5612983703613 36.5811767578125 36.5928382873535 36.5952796936035 36.5912628173828 36.5838394165039 36.5746192932129 36.5652351379395 36.5527610778809 36.5444679260254 36.5440483093262 36.552906036377 36.5639877319336 36.5644569396973 36.5549087524414 36.5500755310059 36.5560569763184 36.5670738220215 36.5778312683105 36.5826416015625 36.5888938903809 36.5946083068848 36.5946235656738 36.5972747802734 36.5981140136719 36.5968322753906 36.5910491943359 36.5879020690918 36.5753936767578 36.5655097961426 36.567928314209 36.5648956298828 36.547233581543 36.5405883789062 36.5475997924805
-9999 -9999 -9999 -9999 -9999 -9999 -9999 -9999 -9999 35.8373527526855 36.1468544006348 36.3120803833008 36.380916595459 36.4018516540527 36.3994636535645 36.4191055297852 36.3931121826172 36.3540420532227 36.3176307678223 36.3135414123535 36.3603057861328 36.4103736877441 36.42431640625 36.4158401489258 36.4176635742188 36.4190788269043 36.4173049926758 36.4164619445801 36.4177360534668 36.4174003601074 36.4329109191895 36.4717292785645 36.5040092468262 36.5278129577637 36.5499992370605 36.5626411437988 36.5771713256836 36.5893974304199 36.5986099243164 36.6033210754395 36.6001777648926 36.5929412841797 36.5848159790039 36.5694694519043 36.5572776794434 36.5577850341797 36.5728340148926 36.5899658203125 36.6001281738281 36.6012001037598 36.6000938415527 36.5959358215332 36.5901641845703 36.586181640625 36.5883636474609 36.5969276428223 36.6011543273926 36.6000480651855 36.6048164367676 36.606990814209 36.5953254699707 36.577709197998 36.5684204101562 36.5485343933105 36.5355453491211 36.5449447631836 36.5446624755859 36.5356559753418 36.5371131896973 36.5481262207031
-9999 -9999 -9999 -9999 -9999 35.778434753418 35.8045921325684 35.9032135009766 35.8981437683105 35.9768218994141 36.1991500854492 36.3605842590332 36.4263801574707 36.4328498840332 36.4204864501953 36.3913764953613 36.3552742004395 36.3225593566895 36.3058395385742 36.3271713256836 36.3865509033203 36.4261169433594 36.4221038818359 36.4161415100098 36.4157409667969 36.4147071838379 36.4177284240723 36.4168319702148 36.4178581237793 36.4222450256348 36.4502029418945 36.492488861084 36.5113906860352 36.5276565551758 36.5550575256348 36.571834564209 36.5841979980469 36.5931434631348 36.6015739440918 36.6044807434082 36.6034240722656 36.6038513183594 36.5963973999023 36.5797538757324 36.5727272033691 36.5894889831543 36.6078872680664 36.6188354492188 36.6213111877441 36.6192283630371 36.6175880432129 36.6121101379395 36.605598449707 36.5960159301758 36.5905265808105 36.5939292907715 36.5914421081543 36.5912933349609 36.6053314208984 36.6189193725586 36.6089820861816 36.5776901245117 36.5649223327637 36.544548034668 36.5281143188477 36.5377578735352 36.5414237976074 36.5329666137695 36.5391502380371 36.5487365722656
-9999 -9999 -9999 -9999 35.4972648620605 35.741828918457 36.0700531005859 36.2061767578125 36.2370376586914 36.243278503418 36.3362464904785 36.417179107666 36.4343223571777 36.4057273864746 36.3773651123047 36.3484077453613 36.3262176513672 36.3087348937988 36.3076324462891 36.34375 36.4091682434082 36.4407234191895 36.4312324523926 36.4250373840332 36.4224967956543 36.4211235046387 36.419677734375 36.415168762207 36.4203758239746 36.4405899047852 36.4874572753906 36.5252304077148 36.5340919494629 36.5474967956543 36.5663223266602 36.5819892883301 36.5918998718262 36.5968055725098 36.599723815918 36.5997886657715 36.6009826660156 36.6012573242188 36.5924453735352 36.5855941772461 36.6029815673828 36.6310539245605 36.636344909668 36.6310768127441 36.6239166259766 36.6174583435059 36.6142959594727 36.6099319458008 36.6031379699707 36.5924110412598 36.58447265625 36.5839309692383 36.5790176391602 36.5790519714355 36.5990409851074 36.6254692077637 36.6258010864258 36.5933532714844 36.5746917724609 36.5567283630371 36.5322036743164 36.5324363708496 36.5378456115723 36.5318222045898 36.5434799194336 36.5569763183594
-9999 -9999 -9999 35.6916551589966 35.7271118164062 36.0404586791992 36.2355003356934 36.3350143432617 36.3689613342285 36.4007797241211 36.4144172668457 36.4332046508789 36.4031295776367 36.375431060791 36.3554534912109 36.3368911743164 36.3195877075195 36.3055000305176 36.3125762939453 36.3582534790039 36.4256057739258 36.4525489807129 36.4429206848145 36.4368743896484 36.4338607788086 36.4337425231934 36.4317817687988 36.4367561340332 36.4604988098145 36.4992256164551 36.5362968444824 36.5531997680664 36.5629920959473 36.5707778930664 36.5801086425781 36.5895690917969 36.5942230224609 36.5963745117188 36.595588684082 36.5940399169922 36.5970344543457 36.6012077331543 36.6023979187012 36.6123580932617 36.6408805847168 36.6580543518066 36.6572914123535 36.6442604064941 36.6267929077148 36.6161346435547 36.6120758056641 36.6072006225586 36.5957260131836 36.5831069946289 36.5775604248047 36.5764541625977 36.5722999572754 36.5748672485352 36.5944976806641 36.6251182556152 36.6361618041992 36.6134262084961 36.5869178771973 36.5700073242188 36.5473518371582 36.5351753234863 36.5359191894531 36.5384635925293 36.5514450073242 36.5637054443359
-9999 -9999 -9999 35.653938293457 35.8883056640625 36.1642417907715 36.3446006774902 36.408805847168 36.4305610656738 36.4376945495605 36.413990020752 36.3820495605469 36.3655052185059 36.3505821228027 36.332160949707 36.3153228759766 36.3128700256348 36.3162002563477 36.3308067321777 36.3664512634277 36.4254493713379 36.4516525268555 36.4518013000488 36.4573707580566 36.4640045166016 36.4755821228027 36.4845237731934 36.4939575195312 36.5156402587891 36.5385818481445 36.5557823181152 36.5710105895996 36.5812187194824 36.585132598877 36.5868644714355 36.5882186889648 36.5902214050293 36.5895462036133 36.5884704589844 36.5936851501465 36.603816986084 36.6119155883789 36.6175117492676 36.6317024230957 36.6530723571777 36.6699371337891 36.6731414794922 36.6614723205566 36.6410331726074 36.6250915527344 36.6169281005859 36.607982635498 36.5923461914062 36.5802307128906 36.5752296447754 36.572883605957 36.5743370056152 36.5850715637207 36.6034736633301 36.6273918151855 36.6377906799316 36.6253776550293 36.6053581237793 36.5871429443359 36.5667190551758 36.5535049438477 36.5469284057617 36.5453834533691 36.5534629821777 36.5597229003906
