NCOLS 70 
NROWS 52 
XLLCORNER -80 
YLLCORNER 33 
CELLSIZE 0.25 
NODATA_value -9999 
-9999.000000000000000 -9999 -9999 -9999 -9999 -9999 -9999 -9999 -9999 -9999 -9999 -9999 -9999 -9999 -9999 -9999 -9999 -9999 -9999 -9999 -9999 -9999 -9999 -9999 -9999 -9999 -9999 -9999 -9999 -9999 -9999 -9999 -9999 -9999 -9999 -9999 -9999 -9999 -9999 -9999 -9999 -9999 -9999 -9999 -9999 -9999 -9999 -9999 -9999 -9999 -9999 -9999 -9999 -9999 -9999 -9999 -9999 -9999 -9999 -9999 -9999 -9999 -9999 -9999 -9999 -9999 -9999 -9999 -9999 -9999
-9999 -9999 -9999 -9999 -9999 -9999 -9999 -9999 -9999 -9999 -9999 -9999 -9999 -9999 -9999 -9999 -9999 -9999 -9999 -9999 -9999 -9999 -9999 -9999 -9999 -9999 -9999 -9999 -9999 -9999 -9999 -9999 -9999 -9999 -9999 -9999 -9999 -9999 -9999 -9999 -9999 -9999 -9999 -9999 -9999 -9999 -9999 -9999 -9999 -9999 -9999 -9999 -9999 -9999 -9999 -9999 -9999 -9999 -9999 -9999 -9999 -9999 -9999 -9999 -9999 -9999 -9999 -9999 -9999 -9999
-9999 -9999 -9999 -9999 -9999 -9999 -9999 -9999 -9999 -9999 -9999 -9999 -9999 -9999 -9999 -9999 -9999 -9999 -9999 -9999 -9999 -9999 -9999 -9999 -9999 -9999 -9999 -9999 -9999 -9999 -9999 -9999 -9999 -9999 -9999 -9999 -9999 -9999 -9999 -9999 -9999 -9999 -9999 -9999 -9999 -9999 -9999 -9999 -9999 -9999 -9999 -9999 -9999 -9999 -9999 -9999 -9999 -9999 -9999 28.4592876434326 -9999 -9999 -9999 -9999 -9999 -9999 -9999 -9999 -9999 -9999
-9999 -9999 -9999 -9999 -9999 -9999 -9999 -9999 -9999 -9999 -9999 -9999 -9999 -9999 -9999 -9999 -9999 -9999 -9999 -9999 -9999 -9999 -9999 -9999 -9999 -9999 -9999 -9999 -9999 -9999 -9999 -9999 -9999 -9999 -9999 -9999 -9999 -9999 -9999 -9999 -9999 -9999 -9999 -9999 -9999 -9999 -9999 -9999 -9999 -9999 -9999 -9999 -9999 -9999 -9999 31.014669418335 30.7537689208984 30.3921546936035 29.859525680542 29.2515640258789 -9999 -9999 -9999 -9999 -9999 -9999 -9999 -9999 -9999 -9999
-9999 -9999 -9999 -9999 -9999 -9999 -9999 -9999 -9999 -9999 -9999 -9999 -9999 -9999 -9999 -9999 -9999 -9999 -9999 -9999 -9999 -9999 -9999 -9999 -9999 -9999 -9999 -9999 -9999 -9999 -9999 -9999 -9999 -9999 -9999 -9999 -9999 -9999 -9999 -9999 -9999 -9999 -9999 -9999 -9999 -9999 -9999 -9999 -9999 -9999 -9999 -9999 31.9814033508301 31.9130420684814 31.6915760040283 31.3058910369873 30.8724765777588 30.4540176391602 -9999 -9999 -9999 -9999 -9999 -9999 -9999 -9999 -9999 -9999 -9999 -9999
-9999 -9999 -9999 -9999 -9999 -9999 -9999 -9999 -9999 -9999 -9999 -9999 -9999 -9999 -9999 -9999 -9999 -9999 -9999 -9999 -9999 -9999 -9999 -9999 -9999 -9999 -9999 -9999 -9999 -9999 -9999 -9999 -9999 -9999 -9999 -9999 -9999 -9999 -9999 -9999 -9999 -9999 -9999 -9999 -9999 -9999 -9999 -9999 -9999 -9999 32.215625 32.2033767700195 32.2688636779785 32.2471046447754 31.9374561309814 31.3217830657959 -9999 -9999 -9999 -9999 -9999 -9999 -9999 -9999 -9999 -9999 -9999 29.9420541127523 29.7125215530396 29.7731666564941
-9999 -9999 -9999 -9999 -9999 -9999 -9999 -9999 -9999 -9999 -9999 -9999 -9999 -9999 -9999 -9999 -9999 -9999 -9999 -9999 -9999 -9999 -9999 -9999 -9999 -9999 -9999 -9999 -9999 -9999 -9999 -9999 -9999 -9999 -9999 -9999 -9999 -9999 -9999 -9999 -9999 -9999 -9999 -9999 31.7343495686849 -9999 -9999 32.0563201904297 32.1622352600098 32.2146987915039 32.2815170288086 32.3180198669434 32.3630180358887 32.3050994873047 32.0322074890137 -9999 -9999 -9999 -9999 -9999 -9999 -9999 -9999 30.5334625244141 30.4729881286621 30.3861484527588 30.2241764068604 29.9346523284912 29.6673336029053 29.4749336242676
-9999 -9999 -9999 -9999 -9999 -9999 -9999 -9999 -9999 -9999 -9999 -9999 -9999 -9999 -9999 -9999 -9999 -9999 -9999 -9999 -9999 -9999 -9999 -9999 -9999 -9999 -9999 -9999 -9999 -9999 -9999 -9999 -9999 -9999 -9999 -9999 -9999 -9999 -9999 -9999 -9999 -9999 -9999 -9999 31.7298908233643 31.7230701446533 31.8388938903809 32.025260925293 32.1988906860352 32.3132553100586 32.385555267334 32.4419021606445 32.4628257751465 32.4202842712402 32.2924737930298 -9999 -9999 -9999 -9999 -9999 -9999 -9999 30.6515579223633 30.5445804595947 30.3827857971191 30.1750297546387 29.8789749145508 29.6205348968506 29.5260276794434 29.5307312011719
-9999 -9999 -9999 -9999 -9999 -9999 -9999 -9999 -9999 -9999 -9999 -9999 -9999 -9999 -9999 -9999 -9999 -9999 -9999 -9999 -9999 -9999 -9999 -9999 -9999 -9999 -9999 -9999 -9999 -9999 -9999 -9999 -9999 -9999 -9999 -9999 -9999 -9999 -9999 -9999 31.6744937896729 31.7940864562988 31.9311347961426 32.0336074829102 32.0881881713867 32.1752853393555 32.2476081848145 32.3007736206055 32.3409805297852 32.3762054443359 32.4066429138184 32.4413185119629 32.4606246948242 32.4123039245605 32.3191627502441 -9999 -9999 -9999 -9999 -9999 30.7483876546224 30.7333755493164 30.5024948120117 30.2683715820312 30.0993022918701 29.9260120391846 29.7561569213867 29.6900939941406 29.7386951446533 29.842113494873
-9999 -9999 -9999 -9999 -9999 -9999 -9999 -9999 -9999 -9999 -9999 -9999 -9999 -9999 -9999 -9999 -9999 -9999 -9999 -9999 -9999 -9999 -9999 -9999 -9999 -9999 -9999 -9999 -9999 -9999 -9999 -9999 -9999 -9999 -9999 -9999 -9999 -9999 -9999 31.6184120178223 31.6402359008789 31.7648334503174 31.9771900177002 32.129955291748 32.2147064208984 32.2604827880859 32.2821083068848 32.3085746765137 32.3455848693848 32.3865242004395 32.4215240478516 32.4486999511719 32.4502105712891 32.378231048584 32.2596015930176 32.1253929138184 -9999 -9999 -9999 31.037663936615 30.8992500305176 30.6125373840332 30.2699356079102 30.0591468811035 29.9441967010498 29.837776184082 29.7554302215576 29.7501564025879 29.7920818328857 29.8760509490967
-9999 -9999 -9999 -9999 -9999 -9999 -9999 -9999 -9999 -9999 -9999 -9999 -9999 -9999 -9999 -9999 -9999 -9999 -9999 -9999 -9999 -9999 -9999 -9999 -9999 -9999 -9999 -9999 -9999 -9999 -9999 -9999 -9999 -9999 -9999 -9999 -9999 -9999 31.8879592895508 31.9785137176514 32.0355567932129 32.0834846496582 32.0975456237793 32.1285285949707 32.1727638244629 32.2227096557617 32.277286529541 32.3327484130859 32.3798408508301 32.4155693054199 32.4416313171387 32.4552268981934 32.4354476928711 32.3468475341797 32.2154159545898 32.0717010498047 31.9131145477295 31.6500282287598 31.3418598175049 31.1185169219971 30.7910289764404 30.3929195404053 30.0604991912842 29.8939723968506 29.8311347961426 29.7761363983154 29.768533706665 29.860969543457 29.9625511169434 30.064661026001
-9999 -9999 -9999 -9999 -9999 -9999 -9999 -9999 -9999 -9999 -9999 -9999 -9999 -9999 -9999 -9999 -9999 -9999 -9999 -9999 -9999 -9999 -9999 -9999 -9999 -9999 -9999 -9999 -9999 -9999 -9999 -9999 -9999 -9999 -9999 -9999 -9999 31.8559341430664 31.9430751800537 32.0438613891602 32.078800201416 32.1004600524902 32.1277351379395 32.1657371520996 32.2149085998535 32.2758827209473 32.3425636291504 32.397575378418 32.429859161377 32.4430694580078 32.4377593994141 32.3996353149414 32.3275756835938 32.2265968322754 32.089672088623 31.9360771179199 31.7781276702881 31.5700492858887 31.2862796783447 30.9718379974365 30.620943069458 30.2572917938232 29.9557666778564 29.80149269104 29.7728061676025 29.7972545623779 29.9401741027832 30.2193183898926 30.4343681335449 30.5751514434814
-9999 -9999 -9999 -9999 -9999 -9999 -9999 -9999 -9999 -9999 -9999 -9999 -9999 -9999 -9999 -9999 -9999 -9999 -9999 -9999 -9999 -9999 -9999 -9999 -9999 -9999 -9999 -9999 -9999 -9999 -9999 -9999 -9999 -9999 -9999 -9999 -9999 31.9691772460938 32.0191497802734 32.0832481384277 32.1110000610352 32.130859375 32.1550788879395 32.1934013366699 32.247974395752 32.3133850097656 32.3802032470703 32.4273452758789 32.4396591186523 32.4187965393066 32.3599281311035 32.2538871765137 32.1300506591797 32.0161247253418 31.905481338501 31.7617454528809 31.579719543457 31.3667907714844 31.1229343414307 30.8602180480957 30.5822887420654 30.2877998352051 30.0230407714844 29.8899765014648 29.8986339569092 29.9986057281494 30.2660388946533 30.6870346069336 31.0117359161377 31.1966342926025
-9999 -9999 -9999 -9999 -9999 -9999 -9999 -9999 -9999 -9999 -9999 -9999 -9999 -9999 -9999 -9999 -9999 -9999 -9999 -9999 -9999 -9999 -9999 -9999 -9999 -9999 -9999 -9999 -9999 -9999 -9999 -9999 -9999 -9999 -9999 -9999 -9999 31.8449802398682 32.0032501220703 32.0875778198242 32.1215362548828 32.1526794433594 32.1775169372559 32.2138404846191 32.2719078063965 32.3405227661133 32.4023208618164 32.434253692627 32.4214782714844 32.3696479797363 32.2828102111816 32.1778678894043 32.0694770812988 31.920726776123 31.7517509460449 31.5819435119629 31.3974494934082 31.2211742401123 31.008451461792 30.8089847564697 30.5916652679443 30.3454132080078 30.1293621063232 30.0777835845947 30.2043380737305 30.4150466918945 30.6740760803223 30.9809265136719 31.3551464080811 31.6498527526855
-9999 -9999 -9999 -9999 -9999 -9999 -9999 -9999 -9999 -9999 -9999 -9999 -9999 -9999 -9999 -9999 -9999 -9999 -9999 -9999 -9999 -9999 -9999 -9999 -9999 -9999 -9999 -9999 -9999 -9999 -9999 -9999 -9999 -9999 -9999 -9999 31.484899520874 31.7601470947266 32.0022354125977 32.0588226318359 32.0993995666504 32.1644401550293 32.2030830383301 32.2381286621094 32.2949028015137 32.3645477294922 32.4253082275391 32.4506301879883 32.4281387329102 32.3747253417969 32.3063621520996 32.254337310791 32.1826667785645 31.9884166717529 31.710563659668 31.484790802002 31.3182258605957 31.1872806549072 30.9803447723389 30.8319988250732 30.6397361755371 30.4381523132324 30.3070411682129 30.4305152893066 30.8102149963379 31.2347240447998 31.5079536437988 31.4469623565674 31.4981689453125 31.7740249633789
-9999 -9999 -9999 -9999 -9999 -9999 -9999 -9999 -9999 -9999 -9999 -9999 -9999 -9999 -9999 -9999 -9999 -9999 -9999 -9999 -9999 -9999 -9999 -9999 -9999 -9999 -9999 -9999 -9999 -9999 -9999 -9999 -9999 -9999 -9999 -9999 -9999 31.8608856201172 31.9035358428955 31.9374485015869 32.0184555053711 32.1494102478027 32.2298393249512 32.2721672058105 32.321460723877 32.3866004943848 32.4439315795898 32.4673614501953 32.4512252807617 32.429386138916 32.4062652587891 32.3999061584473 32.3579025268555 32.1873359680176 31.8703269958496 31.5799827575684 31.3934326171875 31.3335933685303 31.2299423217773 31.1364994049072 30.9997959136963 30.8742065429688 30.7070045471191 30.8521556854248 31.3291969299316 31.7910499572754 32.3634796142578 32.4957618713379 32.1276702880859 31.9709281921387
-9999 -9999 -9999 -9999 -9999 -9999 -9999 -9999 -9999 -9999 -9999 -9999 -9999 -9999 -9999 -9999 -9999 -9999 -9999 -9999 -9999 -9999 -9999 -9999 -9999 -9999 -9999 -9999 -9999 -9999 -9999 -9999 -9999 -9999 -9999 -9999 -9999 -9999 31.6708126068115 -9999 31.9240188598633 32.0898971557617 32.2244682312012 32.3027954101562 32.3566703796387 32.4065361022949 32.4337577819824 32.4282722473145 32.4051780700684 32.3972816467285 32.3957099914551 32.4012451171875 32.3879508972168 32.325496673584 32.1295280456543 31.8809719085693 31.68235206604 31.7032928466797 31.793098449707 31.8429679870605 31.7617683410645 31.7156372070312 31.4855976104736 31.4244155883789 31.7214050292969 32.0676231384277 32.5739517211914 33.0861473083496 33.1885871887207 32.8226280212402
-9999 -9999 -9999 -9999 -9999 -9999 -9999 -9999 -9999 -9999 -9999 -9999 -9999 -9999 -9999 -9999 -9999 -9999 -9999 -9999 -9999 -9999 -9999 -9999 -9999 -9999 -9999 -9999 -9999 -9999 -9999 -9999 -9999 -9999 -9999 -9999 -9999 -9999 -9999 -9999 31.6609878540039 31.9257202148438 32.1204948425293 32.2682914733887 32.3461685180664 32.3618087768555 32.3362503051758 32.2984390258789 32.2833442687988 32.2977600097656 32.3090896606445 32.3114891052246 32.3017311096191 32.2758293151855 32.2326240539551 32.0916328430176 31.9979362487793 32.118839263916 32.4105262756348 32.5621337890625 32.578441619873 32.606258392334 32.5038833618164 32.3570137023926 32.4659576416016 32.6944160461426 33.0093994140625 33.2482795715332 33.478084564209 33.4361915588379
-9999 -9999 -9999 -9999 -9999 -9999 -9999 -9999 -9999 -9999 -9999 -9999 -9999 -9999 -9999 -9999 -9999 -9999 -9999 -9999 -9999 -9999 -9999 -9999 -9999 -9999 -9999 -9999 -9999 -9999 -9999 -9999 -9999 -9999 31.3802599906921 31.0373821258545 31.0460720062256 -9999 31.0152912139893 31.0540733337402 31.3171329498291 31.6615314483643 31.9528198242188 32.1747703552246 32.2805976867676 32.2676887512207 32.1986503601074 32.1508369445801 32.1533889770508 32.1927680969238 32.2266693115234 32.2332649230957 32.2284393310547 32.2128753662109 32.2204666137695 32.1521148681641 32.2387809753418 32.5692825317383 33.0260124206543 33.1980972290039 33.2160415649414 33.1986198425293 33.2458534240723 33.2168197631836 33.3166427612305 33.4950752258301 33.7132568359375 33.9422645568848 34.0593147277832 34.0691680908203
-9999 -9999 -9999 -9999 -9999 -9999 -9999 -9999 -9999 -9999 -9999 -9999 -9999 -9999 -9999 -9999 -9999 -9999 -9999 -9999 -9999 -9999 -9999 -9999 -9999 -9999 -9999 25.5445976257324 25.5445976257324 26.4859828948975 27.9708824157715 29.9972553253174 31.2559223175049 31.46044921875 31.4616088867188 31.5615997314453 31.6581935882568 31.6111183166504 31.445442199707 31.2873249053955 31.3503341674805 31.5836277008057 31.874547958374 32.129077911377 32.2628746032715 32.249267578125 32.1613349914551 32.1067848205566 32.1102294921875 32.1420288085938 32.159481048584 32.1519927978516 32.152172088623 32.1614875793457 32.2505874633789 32.4362754821777 32.7489891052246 33.1636352539062 33.544548034668 33.6547889709473 33.6459922790527 33.6720771789551 33.9388732910156 34.1025352478027 34.2366142272949 34.4159812927246 34.6505508422852 34.8649253845215 34.942813873291 34.9207344055176
-9999 -9999 -9999 -9999 -9999 -9999 -9999 -9999 -9999 -9999 -9999 -9999 -9999 -9999 -9999 -9999 -9999 -9999 -9999 -9999 -9999 -9999 -9999 -9999 -9999 -9999 -9999 -9999 -9999 -9999 29.6785335540771 31.1329193115234 32.0265350341797 32.2522659301758 32.2910575866699 32.2921371459961 32.2372627258301 32.1170425415039 31.915599822998 31.6977787017822 31.6236686706543 31.6860904693604 31.8675403594971 32.1082572937012 32.2756690979004 32.2744140625 32.1923637390137 32.1741714477539 32.172420501709 32.1480865478516 32.1312942504883 32.1704139709473 32.3302230834961 32.5533065795898 33.007942199707 33.5230598449707 33.8743324279785 34.0451889038086 34.0709533691406 34.0265083312988 34.1468238830566 34.4867744445801 34.8662567138672 35.1556625366211 35.3363456726074 35.4577369689941 35.5499114990234 35.5736503601074 35.5394630432129 35.4222373962402
-9999 -9999 -9999 -9999 -9999 -9999 -9999 -9999 -9999 -9999 -9999 -9999 -9999 -9999 -9999 -9999 -9999 -9999 -9999 -9999 -9999 -9999 -9999 -9999 -9999 31.5143184661865 31.670436223348 31.8390223185221 32.0192289352417 31.8913307189941 32.0624008178711 32.212085723877 32.3645858764648 32.4554405212402 32.4593696594238 32.4140701293945 32.346866607666 32.2548484802246 32.1227760314941 31.9824466705322 31.9009304046631 31.8655624389648 31.9219093322754 32.1225662231445 32.2965812683105 32.311695098877 32.2950401306152 32.4087715148926 32.3993072509766 32.2988815307617 32.3558464050293 32.7187461853027 33.2786712646484 33.8426475524902 34.448844909668 34.8285446166992 35.0735702514648 35.0830421447754 34.8952178955078 34.7114486694336 34.9075736999512 35.3469848632812 35.559398651123 35.6161231994629 35.6182098388672 35.5997772216797 35.588794708252 35.5705795288086 35.5305786132812 35.4558181762695
-9999 -9999 -9999 -9999 -9999 -9999 -9999 -9999 -9999 -9999 -9999 -9999 -9999 -9999 -9999 -9999 -9999 -9999 -9999 -9999 -9999 -9999 -9999 -9999 31.3292694091797 31.5447864532471 31.6688995361328 31.7976226806641 32.0505447387695 32.3374176025391 32.4938545227051 32.5561180114746 32.5815887451172 32.5743141174316 32.5379829406738 32.5140190124512 32.4943885803223 32.4200172424316 32.314697265625 32.227596282959 32.1541786193848 32.0868263244629 32.108268737793 32.3008460998535 32.4746360778809 32.5839500427246 32.8401489257812 33.2654914855957 33.3698959350586 33.3093032836914 33.5848960876465 34.243595123291 34.8543167114258 35.2447357177734 35.4263496398926 35.4657249450684 35.5613479614258 35.6626205444336 35.551643371582 35.2409782409668 35.3373947143555 35.6093292236328 35.6991233825684 35.6842918395996 35.6547966003418 35.6301078796387 35.6157646179199 35.6185836791992 35.6381492614746 35.6646423339844
-9999 -9999 -9999 -9999 -9999 -9999 -9999 -9999 -9999 -9999 -9999 -9999 -9999 -9999 -9999 -9999 -9999 -9999 -9999 -9999 -9999 -9999 -9999 -9999 31.758903503418 32.0639762878418 32.2446403503418 32.4004554748535 32.6271133422852 32.778205871582 32.7773475646973 32.7377624511719 32.7839469909668 32.8707618713379 32.9519653320312 33.0703506469727 33.1145973205566 33.0094032287598 32.856517791748 32.7165794372559 32.5482368469238 32.4396667480469 32.5373115539551 32.8249130249023 33.1468200683594 33.4778900146484 33.984375 34.5997161865234 34.9052925109863 35.0093612670898 35.2771034240723 35.6209716796875 35.7894859313965 35.8102493286133 35.7931022644043 35.7215766906738 35.6565399169922 35.7411880493164 35.7412948608398 35.4785499572754 35.5570640563965 35.755729675293 35.7941703796387 35.7718505859375 35.7566413879395 35.760814666748 35.7743148803711 35.8030014038086 35.8626861572266 35.9288902282715
-9999 -9999 -9999 -9999 -9999 -9999 -9999 -9999 -9999 -9999 -9999 -9999 -9999 -9999 -9999 -9999 -9999 -9999 -9999 -9999 -9999 -9999 -9999 31.9640293121338 31.9570159912109 32.2707633972168 32.4675827026367 32.6740455627441 32.9081764221191 32.9732398986816 32.9169845581055 32.9959716796875 33.3358383178711 33.707202911377 33.9560241699219 34.1863327026367 34.2973747253418 34.2120666503906 34.0286254882812 33.8410186767578 33.6228485107422 33.5028610229492 33.5918769836426 33.8620185852051 34.2692413330078 34.6855888366699 35.0581703186035 35.4200210571289 35.6891288757324 35.8372917175293 35.9003143310547 35.9137992858887 35.9087257385254 35.8968467712402 35.8756675720215 35.7997627258301 35.709041595459 35.7680130004883 35.7893409729004 35.6039619445801 35.6731796264648 35.8214912414551 35.844066619873 35.8374786376953 35.8529663085938 35.8789901733398 35.8796463012695 35.8595390319824 35.9025840759277 35.998836517334
-9999 -9999 -9999 -9999 -9999 -9999 -9999 -9999 -9999 -9999 -9999 -9999 -9999 -9999 -9999 -9999 -9999 -9999 -9999 -9999 -9999 -9999 -9999 31.9112358093262 32.2289619445801 32.4794616699219 32.6101036071777 32.8210487365723 33.065055847168 33.1233978271484 33.1094131469727 33.3471527099609 33.9041213989258 34.4022598266602 34.6453018188477 34.8182220458984 34.9551467895508 35.0024909973145 34.980110168457 34.9391975402832 34.8743515014648 34.8381576538086 34.8571853637695 34.9421806335449 35.1068916320801 35.3485488891602 35.5800361633301 35.738151550293 35.8572158813477 35.9270553588867 35.9550247192383 35.9668502807617 35.9627799987793 35.9446144104004 35.8929443359375 35.7972297668457 35.7381248474121 35.8135414123535 35.833927154541 35.7021446228027 35.7206535339355 35.7861633300781 35.7885322570801 35.7955589294434 35.8302383422852 35.8913307189941 35.9004669189453 35.8167610168457 35.803768157959 35.9075508117676
-9999 -9999 -9999 -9999 -9999 -9999 -9999 -9999 -9999 -9999 -9999 -9999 -9999 -9999 -9999 -9999 -9999 -9999 -9999 -9999 -9999 -9999 32.2062797546387 32.370777130127 32.6326141357422 32.8084487915039 32.9454536437988 33.1579895019531 33.36865234375 33.4419326782227 33.5283584594727 33.8342590332031 34.3099098205566 34.6859169006348 34.8490600585938 34.9108505249023 34.9905433654785 35.1252212524414 35.2927589416504 35.4380531311035 35.518196105957 35.5549011230469 35.5735321044922 35.5855255126953 35.5429916381836 35.5750503540039 35.7418937683105 35.8771171569824 35.9451637268066 35.967960357666 35.9728202819824 35.97412109375 35.9594993591309 35.9359130859375 35.8838882446289 35.7891616821289 35.7472648620605 35.8010215759277 35.8030319213867 35.7003326416016 35.6641273498535 35.6637268066406 35.6455764770508 35.6522369384766 35.684814453125 35.7487602233887 35.7988052368164 35.7583198547363 35.7628593444824 35.8847465515137
-9999 -9999 -9999 -9999 -9999 -9999 -9999 -9999 -9999 -9999 -9999 -9999 -9999 -9999 19.384920809004 -9999 -9999 -9999 -9999 31.9140338897705 -9999 32.4394798278809 32.5438995361328 32.846118927002 33.0459136962891 33.1751556396484 33.3469619750977 33.5716247558594 33.7822227478027 33.888729095459 33.9868659973145 34.2523155212402 34.6690864562988 35.0224838256836 35.1870918273926 35.2593994140625 35.372184753418 35.5374794006348 35.7181816101074 35.8626289367676 35.927375793457 35.9384002685547 35.9135704040527 35.8742027282715 35.7996368408203 35.7740440368652 35.862232208252 35.9528694152832 36.0060157775879 36.026309967041 36.0260620117188 36.0182075500488 35.9979019165039 35.9663124084473 35.9242324829102 35.845043182373 35.7950019836426 35.8234443664551 35.8356285095215 35.7989158630371 35.7765350341797 35.7663154602051 35.7504997253418 35.7367248535156 35.7309188842773 35.7446327209473 35.7861137390137 35.8220977783203 35.898078918457 36.0481185913086
-9999 -9999 -9999 -9999 -9999 -9999 -9999 -9999 -9999 -9999 -9999 -9999 -9999 -9999 19.3975520133972 -9999 -9999 -9999 -9999 32.0609540939331 32.5156543731689 32.842830657959 33.1324005126953 33.3590431213379 33.4621467590332 33.5504035949707 33.7050552368164 33.9273223876953 34.1717147827148 34.3364791870117 34.5391807556152 34.8931121826172 35.2705001831055 35.5097160339355 35.6131973266602 35.6974601745605 35.8000030517578 35.8982124328613 35.9918365478516 36.0700263977051 36.1096649169922 36.1038093566895 36.0591278076172 36.0055046081543 35.9729995727539 35.9786567687988 36.011116027832 36.0360336303711 36.0532722473145 36.0823059082031 36.1097793579102 36.117603302002 36.1120643615723 36.0834274291992 36.0424537658691 35.983039855957 35.9338798522949 35.9415435791016 35.9653358459473 35.9928398132324 36.0278091430664 36.0548782348633 36.0692405700684 36.0668983459473 36.0572776794434 36.0532455444336 36.0704231262207 36.109992980957 36.1775703430176 36.2682266235352
-9999 -9999 -9999 -9999 -9999 -9999 -9999 -9999 -9999 -9999 -9999 -9999 -9999 -9999 19.3407115936279 -9999 -9999 -9999 -9999 -9999 33.02845287323 33.1740531921387 33.5033531188965 33.7268142700195 33.8593292236328 33.9586791992188 34.130313873291 34.4084434509277 34.7268257141113 35.0379981994629 35.3706436157227 35.6501808166504 35.7885322570801 35.8158149719238 35.8332328796387 35.8889656066895 35.9595375061035 36.0223083496094 36.0772285461426 36.1393432617188 36.1856575012207 36.1737594604492 36.1394882202148 36.1398773193359 36.1713027954102 36.1968421936035 36.2071151733398 36.1974143981934 36.1705932617188 36.1602592468262 36.1697006225586 36.1835136413574 36.1925468444824 36.172534942627 36.1323165893555 36.0810165405273 36.0324783325195 36.0200386047363 36.0548782348633 36.1172409057617 36.1742515563965 36.225025177002 36.2644920349121 36.2893371582031 36.3011856079102 36.3024291992188 36.3083801269531 36.3228454589844 36.3423194885254 36.3654098510742
-9999 -9999 -9999 -9999 -9999 -9999 -9999 -9999 -9999 -9999 -9999 -9999 -9999 -9999 19.4317398071289 -9999 19.5680732727051 -9999 -9999 -9999 32.8702163696289 33.2267112731934 33.7299995422363 34.1721038818359 34.3892555236816 34.4789619445801 34.7302322387695 35.0724449157715 35.3841171264648 35.7014656066895 35.912899017334 35.9580993652344 35.9397888183594 35.9226417541504 35.9257774353027 35.9511032104492 36.0015449523926 36.070930480957 36.125114440918 36.1690330505371 36.2128486633301 36.2187194824219 36.2020492553711 36.2244491577148 36.2728118896484 36.3000144958496 36.3122978210449 36.3155403137207 36.3014221191406 36.2797050476074 36.2662048339844 36.2634391784668 36.2590065002441 36.2317962646484 36.1862945556641 36.1410865783691 36.1107749938965 36.1147422790527 36.1609191894531 36.2151222229004 36.2652702331543 36.3191452026367 36.3606147766113 36.3861351013184 36.3992652893066 36.4026412963867 36.4008674621582 36.4012336730957 36.3967094421387 36.3991661071777
-9999 -9999 -9999 -9999 -9999 -9999 -9999 -9999 -9999 -9999 -9999 -9999 -9999 -9999 19.4317398071289 19.5227680206299 19.8410415649414 -9999 -9999 32.7021713256836 32.7986755371094 33.3020095825195 34.0569686889648 34.7356300354004 34.9768562316895 35.024787902832 35.234504699707 35.4712066650391 35.7048416137695 35.9503593444824 36.0422973632812 36.013988494873 35.9979553222656 36.0157127380371 36.0469856262207 36.0755157470703 36.1116142272949 36.1546058654785 36.1855888366699 36.2105140686035 36.2373237609863 36.2468109130859 36.2342338562012 36.2442893981934 36.2841415405273 36.3147163391113 36.3329620361328 36.3497886657715 36.3631439208984 36.3676719665527 36.3635749816895 36.3551292419434 36.3432960510254 36.3180923461914 36.2743186950684 36.2308578491211 36.2079277038574 36.2149238586426 36.2496643066406 36.2884521484375 36.3429298400879 36.397518157959 36.4319114685059 36.4487953186035 36.4563903808594 36.4565315246582 36.4495429992676 36.4417419433594 36.4277076721191 36.4226722717285
-9999 -9999 -9999 -9999 -9999 -9999 -9999 -9999 -9999 -9999 -9999 -9999 -9999 -9999 -9999 21.0008701324463 20.2710037231445 -9999 28.9710812568665 32.3363647460938 32.8034286499023 33.4683990478516 34.3698043823242 35.0557479858398 35.2028350830078 35.2055854797363 35.3153381347656 35.4459953308105 35.6505661010742 35.8985023498535 35.9880905151367 35.9775924682617 35.989803314209 36.0386390686035 36.1066398620605 36.1683464050293 36.2188339233398 36.2517395019531 36.266471862793 36.2790184020996 36.291748046875 36.2956466674805 36.2810249328613 36.2775611877441 36.3006706237793 36.3239326477051 36.3413887023926 36.3612632751465 36.3861122131348 36.406177520752 36.412296295166 36.4077033996582 36.3992919921875 36.3864593505859 36.3643531799316 36.3365592956543 36.3159561157227 36.3158187866211 36.3387718200684 36.3724060058594 36.421028137207 36.4586524963379 36.4780960083008 36.48486328125 36.4896430969238 36.4899787902832 36.4758491516113 36.4557647705078 36.4354286193848 36.421688079834
-9999 -9999 -9999 -9999 -9999 -9999 -9999 -9999 -9999 -9999 -9999 -9999 -9999 -9999 -9999 22.3183498382568 23.0511875152588 -9999 31.3293571472168 32.1480941772461 32.8825454711914 33.6876335144043 34.5322875976562 35.1187362670898 35.3079261779785 35.3999900817871 35.496021270752 35.5760192871094 35.724609375 35.9047813415527 35.968620300293 35.9751586914062 36.0142364501953 36.085132598877 36.1751899719238 36.2568397521973 36.3152198791504 36.3508644104004 36.3711166381836 36.3817329406738 36.3831329345703 36.3774566650391 36.3570175170898 36.3372001647949 36.3315849304199 36.335693359375 36.3502998352051 36.3747215270996 36.4077453613281 36.4343223571777 36.443790435791 36.4410705566406 36.4344215393066 36.4280319213867 36.4217376708984 36.4148025512695 36.4086837768555 36.4124946594238 36.4261474609375 36.4454650878906 36.4699668884277 36.4861450195312 36.4944801330566 36.4948272705078 36.4985313415527 36.4967155456543 36.4750175476074 36.4504127502441 36.4288139343262 36.4104118347168
-9999 -9999 -9999 -9999 -9999 -9999 -9999 -9999 -9999 -9999 -9999 -9999 -9999 -9999 -9999 23.1728096008301 -9999 28.0394169943673 31.1054153442383 32.2925987243652 33.2408752441406 33.9920196533203 34.6603889465332 35.1197242736816 35.4055709838867 35.6387329101562 35.7414665222168 35.8116149902344 35.9337348937988 36.0343818664551 36.0214462280273 36.0007514953613 36.0557136535645 36.1638526916504 36.2833709716797 36.371753692627 36.4238052368164 36.4520225524902 36.4672927856445 36.4729690551758 36.4686508178711 36.4554710388184 36.4298515319824 36.3983154296875 36.3742828369141 36.3646240234375 36.3733062744141 36.397102355957 36.4337577819824 36.4612617492676 36.4695167541504 36.4685935974121 36.4632415771484 36.4555358886719 36.4511566162109 36.4509124755859 36.4541969299316 36.462329864502 36.4739646911621 36.4865684509277 36.4962730407715 36.5006904602051 36.4983749389648 36.493839263916 36.4961433410645 36.4890480041504 36.4661750793457 36.4427909851074 36.419376373291 36.4034957885742
-9999 -9999 -9999 -9999 -9999 -9999 -9999 -9999 -9999 -9999 -9999 -9999 -9999 -9999 23.1728096008301 24.4756050109863 25.8012733459473 29.2522277832031 31.2837257385254 32.7025299072266 33.6361083984375 34.2814483642578 34.8350830078125 35.2539901733398 35.56640625 35.7795181274414 35.8665657043457 35.9407577514648 36.0439643859863 36.1133003234863 36.0942420959473 36.102108001709 36.1964340209961 36.334098815918 36.4376907348633 36.4823799133301 36.4942169189453 36.4953536987305 36.4959449768066 36.4991340637207 36.5013847351074 36.4986953735352 36.486156463623 36.4597282409668 36.4293365478516 36.4054794311523 36.400562286377 36.4190101623535 36.4534530639648 36.477352142334 36.4823150634766 36.4793815612793 36.4760780334473 36.4729232788086 36.4724388122559 36.4746742248535 36.4818801879883 36.4929046630859 36.5026817321777 36.5098762512207 36.5109939575195 36.5072364807129 36.5004577636719 36.4943656921387 36.491268157959 36.4774971008301 36.4510688781738 36.424861907959 36.4090042114258 36.4031562805176
-9999 -9999 -9999 -9999 -9999 -9999 -9999 -9999 -9999 -9999 -9999 -9999 -9999 -9999 -9999 -9999 29.3100681304932 30.3892154693604 32.2982330322266 33.1658744812012 33.8029479980469 34.4166831970215 35.0008201599121 35.4745788574219 35.7924690246582 35.9232521057129 35.9821929931641 36.0402412414551 36.1118392944336 36.173168182373 36.201774597168 36.2700386047363 36.3825454711914 36.4725914001465 36.5015563964844 36.4931793212891 36.4804039001465 36.4735488891602 36.4753227233887 36.4842071533203 36.4935684204102 36.5014343261719 36.5048141479492 36.494945526123 36.474494934082 36.4469604492188 36.4285278320312 36.4368553161621 36.462329864502 36.4815254211426 36.4867630004883 36.4833145141602 36.4817504882812 36.4838027954102 36.486873626709 36.4917144775391 36.4991493225098 36.506534576416 36.5091781616211 36.508846282959 36.506519317627 36.5033988952637 36.4992561340332 36.4916648864746 36.4813003540039 36.4605979919434 36.433464050293 36.4142189025879 36.4094161987305 36.4011726379395
-9999 -9999 -9999 -9999 -9999 -9999 -9999 -9999 -9999 -9999 -9999 -9999 -9999 -9999 -9999 -9999 31.0933856964111 31.7975559234619 33.1487426757812 33.6443099975586 34.0172843933105 34.5843620300293 35.2280044555664 35.7305145263672 35.9809799194336 36.0661354064941 36.1075286865234 36.155517578125 36.2159576416016 36.2825088500977 36.3503074645996 36.4327278137207 36.494312286377 36.5098609924316 36.4931678771973 36.4751281738281 36.4671783447266 36.4639205932617 36.4669227600098 36.4759941101074 36.4841728210449 36.4928207397461 36.4986877441406 36.4983253479004 36.4921226501465 36.472728729248 36.4508399963379 36.4489936828613 36.4622383117676 36.4790229797363 36.4897537231445 36.4906768798828 36.4875602722168 36.4890975952148 36.4929885864258 36.4972343444824 36.500186920166 36.5015602111816 36.4990615844727 36.4953651428223 36.4949913024902 36.4955291748047 36.494140625 36.4858322143555 36.4699592590332 36.4462814331055 36.4272346496582 36.4185829162598 36.4125480651855 36.3933601379395
-9999 -9999 -9999 -9999 -9999 -9999 -9999 -9999 -9999 -9999 -9999 -9999 -9999 -9999 -9999 -9999 -9999 33.0340809822083 33.481071472168 34.0511436462402 34.2951469421387 34.8874435424805 35.6427154541016 35.9886093139648 36.1104316711426 36.1780700683594 36.2309303283691 36.2928657531738 36.3620109558105 36.4271583557129 36.4786949157715 36.5072250366211 36.5074996948242 36.4940452575684 36.4767723083496 36.4658584594727 36.465389251709 36.4676742553711 36.4717445373535 36.475887298584 36.4810600280762 36.4888801574707 36.495246887207 36.4962348937988 36.4973068237305 36.488883972168 36.4696006774902 36.4576148986816 36.4615097045898 36.4777297973633 36.492790222168 36.4981079101562 36.4964027404785 36.4937438964844 36.4900550842285 36.4881477355957 36.4893379211426 36.4887313842773 36.4877853393555 36.4879722595215 36.4908714294434 36.4927024841309 36.4905433654785 36.4805793762207 36.462574005127 36.4421997070312 36.430347442627 36.420711517334 36.4067993164062 36.3864898681641
-9999 -9999 -9999 -9999 -9999 -9999 -9999 -9999 -9999 -9999 -9999 -9999 -9999 -9999 31.6215133666992 31.7975559234619 33.0339008569717 33.5950126647949 33.7089538574219 34.3062744140625 34.7873954772949 35.4449272155762 35.9564056396484 36.0973701477051 36.1993598937988 36.2849540710449 36.3616790771484 36.4306831359863 36.4814376831055 36.5077476501465 36.5115013122559 36.5023231506348 36.4932861328125 36.4811897277832 36.4642143249512 36.4570045471191 36.4606590270996 36.4684715270996 36.4762878417969 36.4821624755859 36.4856224060059 36.4911003112793 36.4983940124512 36.499340057373 36.5006637573242 36.4995155334473 36.4841156005859 36.4687995910645 36.4703750610352 36.4849090576172 36.4973640441895 36.5010833740234 36.4978904724121 36.4913597106934 36.4847183227539 36.4809303283691 36.4809341430664 36.4818267822266 36.4825325012207 36.4841346740723 36.4874114990234 36.4880905151367 36.4839553833008 36.4741592407227 36.4585227966309 36.4425201416016 36.4314804077148 36.4167327880859 36.3974075317383 36.3836822509766
-9999 -9999 -9999 -9999 -9999 -9999 -9999 -9999 -9999 -9999 -9999 -9999 -9999 -9999 -9999 -9999 -9999 -9999 34.4254398345947 34.6006393432617 35.115306854248 35.7045440673828 36.0828399658203 36.2334213256836 36.3274612426758 36.3901863098145 36.4389190673828 36.4773902893066 36.4980278015137 36.5021133422852 36.4984855651855 36.4946441650391 36.4877586364746 36.469352722168 36.4606857299805 36.4672317504883 36.4746017456055 36.4812278747559 36.4859237670898 36.4902572631836 36.4933700561523 36.4977798461914 36.5010833740234 36.4994812011719 36.4982872009277 36.4973106384277 36.4904251098633 36.4834671020508 36.4872703552246 36.4974212646484 36.5025749206543 36.5006446838379 36.4953727722168 36.4883918762207 36.4820213317871 36.4778900146484 36.4759407043457 36.4770736694336 36.4793701171875 36.4794692993164 36.4819412231445 36.4854431152344 36.4830017089844 36.4726867675781 36.458251953125 36.4423561096191 36.4279823303223 36.4115943908691 36.3936920166016 36.3875732421875
-9999 -9999 -9999 -9999 -9999 -9999 -9999 -9999 -9999 -9999 -9999 -9999 -9999 -9999 -9999 -9999 -9999 35.2117347717285 35.138876914978 35.0858917236328 35.5853080749512 36.0489807128906 36.2500610351562 36.3354949951172 36.3846740722656 36.4249000549316 36.4575729370117 36.4831314086914 36.5020713806152 36.514965057373 36.5136833190918 36.5021476745605 36.4892349243164 36.4780654907227 36.4812240600586 36.4913101196289 36.4963417053223 36.4973030090332 36.4962692260742 36.4962310791016 36.4962501525879 36.5014457702637 36.5064544677734 36.504695892334 36.4984817504883 36.4942588806152 36.4935531616211 36.494499206543 36.4985656738281 36.503101348877 36.5017127990723 36.4964561462402 36.4913063049316 36.4850463867188 36.4795265197754 36.4764862060547 36.4746131896973 36.4747657775879 36.478687286377 36.4808578491211 36.478588104248 36.4808807373047 36.486083984375 36.4794464111328 36.4624519348145 36.4477081298828 36.4327087402344 36.4184074401855 36.4064826965332 36.4101791381836
-9999 -9999 -9999 -9999 -9999 -9999 -9999 -9999 -9999 -9999 -9999 -9999 -9999 35.7456283569336 35.8117887708876 -9999 35.8206176757812 35.6668529510498 35.2117347717285 35.6572418212891 36.0863342285156 36.24853515625 36.3189888000488 36.3736419677734 36.4154930114746 36.4426879882812 36.4651069641113 36.4953155517578 36.5198020935059 36.5235137939453 36.5134658813477 36.4992027282715 36.4931945800781 36.4921531677246 36.4971542358398 36.502571105957 36.5041389465332 36.5035858154297 36.5037498474121 36.5045204162598 36.5019111633301 36.5015640258789 36.506649017334 36.5089836120605 36.5050964355469 36.5015335083008 36.5015983581543 36.5039825439453 36.5065460205078 36.5066032409668 36.5012741088867 36.4944839477539 36.4889335632324 36.4834594726562 36.479133605957 36.477180480957 36.4764862060547 36.4757461547852 36.4777030944824 36.482593536377 36.4828834533691 36.4831771850586 36.4902191162109 36.4900093078613 36.4738273620605 36.4579772949219 36.4433135986328 36.4296607971191 36.4222984313965 36.4304466247559
-9999 -9999 -9999 -9999 -9999 -9999 -9999 -9999 -9999 -9999 -9999 -9999 -9999 -9999 35.7456283569336 35.8533312479655 35.8364067077637 35.8048286437988 35.8144416809082 36.1489219665527 36.281421661377 36.3479232788086 36.4015579223633 36.4365768432617 36.4581146240234 36.4695701599121 36.4816589355469 36.5034980773926 36.5209655761719 36.5255889892578 36.5208206176758 36.5057792663574 36.4960594177246 36.4964218139648 36.500659942627 36.5046501159668 36.5077972412109 36.5100288391113 36.5135879516602 36.5178527832031 36.5156631469727 36.506664276123 36.5029182434082 36.5059013366699 36.5083160400391 36.5090103149414 36.509162902832 36.50927734375 36.509334564209 36.5070495605469 36.4999237060547 36.4920692443848 36.4864540100098 36.481746673584 36.479133605957 36.4792404174805 36.4796981811523 36.47900390625 36.4775123596191 36.4786376953125 36.4818420410156 36.4859962463379 36.4962387084961 36.5027046203613 36.492992401123 36.4747886657715 36.4543304443359 36.4390754699707 36.4303512573242 36.4260139465332
-9999 -9999 -9999 -9999 -9999 -9999 -9999 -9999 -9999 -9999 -9999 -9999 -9999 -9999 35.8126468658447 35.7456283569336 35.9779586791992 36.0610466003418 36.1789741516113 36.3066825866699 36.3535079956055 36.3836822509766 36.4108200073242 36.434024810791 36.4504852294922 36.4665222167969 36.4885368347168 36.5089111328125 36.5154113769531 36.5200119018555 36.5231781005859 36.5143737792969 36.5016670227051 36.496150970459 36.499153137207 36.5074882507324 36.5174751281738 36.5238265991211 36.5293464660645 36.5352897644043 36.535041809082 36.5226783752441 36.5086822509766 36.5047416687012 36.5072174072266 36.5087585449219 36.508918762207 36.5071144104004 36.5051193237305 36.5021324157715 36.4963989257812 36.4903297424316 36.4853172302246 36.4826393127441 36.4835433959961 36.4846305847168 36.4840202331543 36.4822044372559 36.4783210754395 36.4759941101074 36.4813537597656 36.4919586181641 36.5031318664551 36.507682800293 36.4978256225586 36.4779663085938 36.4573822021484 36.4360580444336 36.4061813354492 36.3810882568359
-9999 -9999 -9999 -9999 -9999 -9999 -9999 -9999 -9999 -9999 -9999 35.3628730773926 35.5447883605957 35.7908782958984 35.7306327819824 35.9834480285645 36.1959915161133 36.2581520080566 36.3028907775879 36.3347549438477 36.3742752075195 36.4157409667969 36.4433937072754 36.4561805725098 36.4672012329102 36.4821853637695 36.4997596740723 36.5118827819824 36.5125160217285 36.5193977355957 36.5270957946777 36.5233688354492 36.51123046875 36.5006675720215 36.4994354248047 36.509651184082 36.525821685791 36.5378952026367 36.5404243469238 36.5389175415039 36.5370292663574 36.5294418334961 36.518138885498 36.514533996582 36.5181579589844 36.5166320800781 36.5118026733398 36.5070152282715 36.5014381408691 36.496826171875 36.4915351867676 36.4854125976562 36.4832191467285 36.4875679016113 36.4904365539551 36.488826751709 36.4868965148926 36.4849319458008 36.4833335876465 36.4836921691895 36.489185333252 36.4978904724121 36.5016899108887 36.4976997375488 36.4811363220215 36.4563217163086 36.4380683898926 36.4183197021484 36.3836250305176 36.356575012207
-9999 -9999 -9999 -9999 -9999 -9999 -9999 -9999 -9999 35.1923522949219 35.5068092346191 35.7299041748047 35.9671745300293 36.0702209472656 36.0359039306641 36.1359443664551 36.2367477416992 36.2871208190918 36.3178749084473 36.3721046447754 36.4266967773438 36.4468383789062 36.4604721069336 36.4814186096191 36.4971656799316 36.5007095336914 36.5138282775879 36.5233764648438 36.5242538452148 36.5321922302246 36.5400619506836 36.5371856689453 36.5246620178223 36.5102310180664 36.5058784484863 36.5163459777832 36.5357475280762 36.5504188537598 36.5531921386719 36.5537605285645 36.5511512756348 36.5408134460449 36.5338554382324 36.5367050170898 36.5420951843262 36.5367240905762 36.5228233337402 36.5101280212402 36.4989433288574 36.4902153015137 36.4853324890137 36.4862022399902 36.4932250976562 36.4996337890625 36.4985008239746 36.4952507019043 36.4939994812012 36.4941024780273 36.4940795898438 36.4939918518066 36.4949493408203 36.4946708679199 36.4928703308105 36.4866180419922 36.4703178405762 36.4450149536133 36.4294586181641 36.4194183349609 36.408748626709 36.3968925476074
-9999 -9999 -9999 -9999 -9999 -9999 -9999 -9999 -9999 35.5455856323242 35.8226737976074 36.0354614257812 36.1315383911133 36.183910369873 36.1823043823242 36.2350654602051 36.2792549133301 36.314510345459 36.3618812561035 36.4176940917969 36.4471626281738 36.4611587524414 36.4813766479492 36.5157127380371 36.5311584472656 36.5219802856445 36.5317153930664 36.5463829040527 36.5538482666016 36.5594177246094 36.5622406005859 36.5579566955566 36.5445861816406 36.528751373291 36.5226135253906 36.5328788757324 36.5542106628418 36.5722465515137 36.582706451416 36.5923805236816 36.5931510925293 36.583984375 36.5717735290527 36.5648193359375 36.5624122619629 36.5510139465332 36.5301322937012 36.5121536254883 36.499927520752 36.4935035705566 36.4953651428223 36.5028419494629 36.5083045959473 36.5085029602051 36.5054817199707 36.5016784667969 36.4990158081055 36.4980888366699 36.4974632263184 36.4951782226562 36.4926528930664 36.4903602600098 36.4885444641113 36.4850120544434 36.4766502380371 36.4607582092285 36.452205657959 36.4476051330566 36.4477424621582 36.4306602478027
-9999 -9999 -9999 -9999 -9999 35.4294176101685 35.4852066040039 35.5886039733887 35.6096687316895 35.6676712036133 35.8961143493652 36.1092338562012 36.2009162902832 36.2315711975098 36.2494888305664 36.2821922302246 36.3072280883789 36.3381500244141 36.3901138305664 36.4389762878418 36.4662628173828 36.4864768981934 36.513355255127 36.5489158630371 36.5640411376953 36.5589599609375 36.5645294189453 36.58056640625 36.5908317565918 36.5953636169434 36.5955696105957 36.5882377624512 36.5736312866211 36.5573387145996 36.5518341064453 36.5635032653809 36.5838966369629 36.5985298156738 36.603931427002 36.6048431396484 36.6056594848633 36.6083145141602 36.6038436889648 36.5958290100098 36.5867462158203 36.5678520202637 36.5410003662109 36.5196342468262 36.5093650817871 36.5080604553223 36.5128593444824 36.5149154663086 36.5110511779785 36.5065536499023 36.5027809143066 36.4982299804688 36.4945220947266 36.4928894042969 36.492244720459 36.4896621704102 36.4874496459961 36.4863204956055 36.4835891723633 36.4805641174316 36.4769744873047 36.472412109375 36.4705810546875 36.4667320251465 36.4635734558105 36.4441719055176
-9999 -9999 -9999 -9999 35.1079711914062 35.378044128418 35.7464485168457 35.910758972168 35.971004486084 35.9818572998047 36.0924682617188 36.1957244873047 36.2291679382324 36.2441825866699 36.2706336975098 36.2966003417969 36.3207130432129 36.3682250976562 36.4280700683594 36.4599227905273 36.4833755493164 36.5294761657715 36.5684471130371 36.593822479248 36.6131286621094 36.6218643188477 36.6300735473633 36.6425170898438 36.6497116088867 36.6513290405273 36.6456298828125 36.6325531005859 36.6146507263184 36.5969848632812 36.5875129699707 36.5924224853516 36.605640411377 36.611759185791 36.6044273376465 36.5924644470215 36.5907554626465 36.6031074523926 36.6131172180176 36.6151924133301 36.6078567504883 36.5844841003418 36.5543785095215 36.5298500061035 36.5169448852539 36.5143623352051 36.5143089294434 36.5104179382324 36.5037307739258 36.4988136291504 36.4946746826172 36.4903450012207 36.4869613647461 36.4822883605957 36.4781379699707 36.4765853881836 36.4787750244141 36.4786148071289 36.4778785705566 36.4802322387695 36.485782623291 36.4892158508301 36.4860496520996 36.4802627563477 36.4684562683105 36.443733215332
-9999 -9999 -9999 35.3365488052368 35.3778343200684 35.7324714660645 35.962947845459 36.0914344787598 36.1337585449219 36.1650047302246 36.1858901977539 36.228816986084 36.2333297729492 36.2557373046875 36.2906341552734 36.3181114196777 36.348217010498 36.3981056213379 36.4423065185547 36.4676208496094 36.5073356628418 36.5678100585938 36.5954513549805 36.616096496582 36.6360855102539 36.6500930786133 36.661808013916 36.6715049743652 36.6759147644043 36.6735801696777 36.6626739501953 36.6473045349121 36.6312255859375 36.6179733276367 36.6051750183105 36.5986557006836 36.5991859436035 36.5947494506836 36.5838890075684 36.5747299194336 36.5739860534668 36.5824127197266 36.5874633789062 36.5799140930176 36.5618095397949 36.5402870178223 36.5228157043457 36.509593963623 36.5018043518066 36.499137878418 36.4983291625977 36.4977989196777 36.496410369873 36.4941177368164 36.4915657043457 36.488597869873 36.4814109802246 36.4769439697266 36.4772033691406 36.4791679382324 36.479377746582 36.4773902893066 36.4757232666016 36.4817123413086 36.4932708740234 36.4982604980469 36.4899101257324 36.487606048584 36.4686508178711 36.4380912780762
-9999 -9999 -9999 35.2929840087891 35.5674057006836 35.9032974243164 36.1178550720215 36.2011871337891 36.2216987609863 36.2347030639648 36.2245063781738 36.2236251831055 36.243709564209 36.2843208312988 36.3168525695801 36.3355903625488 36.3666725158691 36.4261779785156 36.4593887329102 36.479679107666 36.5220947265625 36.5742263793945 36.590404510498 36.602912902832 36.6105422973633 36.6209716796875 36.6376838684082 36.6575889587402 36.6709403991699 36.6696434020996 36.6575202941895 36.6408462524414 36.621280670166 36.6068000793457 36.5961799621582 36.5885353088379 36.5850982666016 36.5808219909668 36.573486328125 36.563232421875 36.5540771484375 36.5486602783203 36.539192199707 36.5252418518066 36.5137825012207 36.5065727233887 36.5015182495117 36.4981231689453 36.4968490600586 36.4967918395996 36.496265411377 36.4948120117188 36.4923133850098 36.4900512695312 36.487174987793 36.4821472167969 36.475456237793 36.4744262695312 36.4729042053223 36.4693565368652 36.464241027832 36.4589004516602 36.4585723876953 36.4674758911133 36.4855995178223 36.4983863830566 36.4863891601562 36.4873046875 36.4697532653809 36.4442901611328
