NCOLS 70 
NROWS 52 
XLLCORNER -80 
YLLCORNER 33 
CELLSIZE 0.25 
NODATA_value -9999 
-9999.000000000000000 -9999 -9999 -9999 -9999 -9999 -9999 -9999 -9999 -9999 -9999 -9999 -9999 -9999 -9999 -9999 -9999 -9999 -9999 -9999 -9999 -9999 -9999 -9999 -9999 -9999 -9999 -9999 -9999 -9999 -9999 -9999 -9999 -9999 -9999 -9999 -9999 -9999 -9999 -9999 -9999 -9999 -9999 -9999 -9999 -9999 -9999 -9999 -9999 -9999 -9999 -9999 -9999 -9999 -9999 -9999 -9999 -9999 -9999 -9999 -9999 -9999 -9999 -9999 -9999 -9999 -9999 -9999 -9999 -9999
-9999 -9999 -9999 -9999 -9999 -9999 -9999 -9999 -9999 -9999 -9999 -9999 -9999 -9999 -9999 -9999 -9999 -9999 -9999 -9999 -9999 -9999 -9999 -9999 -9999 -9999 -9999 -9999 -9999 -9999 -9999 -9999 -9999 -9999 -9999 -9999 -9999 -9999 -9999 -9999 -9999 -9999 -9999 -9999 -9999 -9999 -9999 -9999 -9999 -9999 -9999 -9999 -9999 -9999 -9999 -9999 -9999 -9999 -9999 -9999 -9999 -9999 -9999 -9999 -9999 -9999 -9999 -9999 -9999 -9999
-9999 -9999 -9999 -9999 -9999 -9999 -9999 -9999 -9999 -9999 -9999 -9999 -9999 -9999 -9999 -9999 -9999 -9999 -9999 -9999 -9999 -9999 -9999 -9999 -9999 -9999 -9999 -9999 -9999 -9999 -9999 -9999 -9999 -9999 -9999 -9999 -9999 -9999 -9999 -9999 -9999 -9999 -9999 -9999 -9999 -9999 -9999 -9999 -9999 -9999 -9999 -9999 -9999 -9999 -9999 -9999 -9999 -9999 -9999 26.345235824585 -9999 -9999 -9999 -9999 -9999 -9999 -9999 -9999 -9999 -9999
-9999 -9999 -9999 -9999 -9999 -9999 -9999 -9999 -9999 -9999 -9999 -9999 -9999 -9999 -9999 -9999 -9999 -9999 -9999 -9999 -9999 -9999 -9999 -9999 -9999 -9999 -9999 -9999 -9999 -9999 -9999 -9999 -9999 -9999 -9999 -9999 -9999 -9999 -9999 -9999 -9999 -9999 -9999 -9999 -9999 -9999 -9999 -9999 -9999 -9999 -9999 -9999 -9999 -9999 -9999 23.9017505645752 24.5851306915283 26.4582061767578 27.8010787963867 28.144458770752 -9999 -9999 -9999 -9999 -9999 -9999 -9999 -9999 -9999 -9999
-9999 -9999 -9999 -9999 -9999 -9999 -9999 -9999 -9999 -9999 -9999 -9999 -9999 -9999 -9999 -9999 -9999 -9999 -9999 -9999 -9999 -9999 -9999 -9999 -9999 -9999 -9999 -9999 -9999 -9999 -9999 -9999 -9999 -9999 -9999 -9999 -9999 -9999 -9999 -9999 -9999 -9999 -9999 -9999 -9999 -9999 -9999 -9999 -9999 -9999 -9999 -9999 25.2091236114502 25.32395362854 25.5781993865967 26.3696880340576 26.9502716064453 27.647518157959 -9999 -9999 -9999 -9999 -9999 -9999 -9999 -9999 -9999 -9999 -9999 -9999
-9999 -9999 -9999 -9999 -9999 -9999 -9999 -9999 -9999 -9999 -9999 -9999 -9999 -9999 -9999 -9999 -9999 -9999 -9999 -9999 -9999 -9999 -9999 -9999 -9999 -9999 -9999 -9999 -9999 -9999 -9999 -9999 -9999 -9999 -9999 -9999 -9999 -9999 -9999 -9999 -9999 -9999 -9999 -9999 -9999 -9999 -9999 -9999 -9999 -9999 27.9190052032471 26.9856224060059 27.6259117126465 28.1347236633301 27.8459033966064 26.4753322601318 -9999 -9999 -9999 -9999 -9999 -9999 -9999 -9999 -9999 -9999 -9999 30.0867481231689 30.0468635559082 29.7246227264404
-9999 -9999 -9999 -9999 -9999 -9999 -9999 -9999 -9999 -9999 -9999 -9999 -9999 -9999 -9999 -9999 -9999 -9999 -9999 -9999 -9999 -9999 -9999 -9999 -9999 -9999 -9999 -9999 -9999 -9999 -9999 -9999 -9999 -9999 -9999 -9999 -9999 -9999 -9999 -9999 -9999 -9999 -9999 -9999 29.134817759196 -9999 -9999 29.8273191452026 29.5073642730713 29.337911605835 29.0120296478271 29.12184715271 29.1984634399414 29.1725845336914 27.8923759460449 -9999 -9999 -9999 -9999 -9999 -9999 -9999 -9999 29.8526439666748 29.9311923980713 29.9762401580811 29.9938774108887 30.1274166107178 30.1389503479004 30.1964645385742
-9999 -9999 -9999 -9999 -9999 -9999 -9999 -9999 -9999 -9999 -9999 -9999 -9999 -9999 -9999 -9999 -9999 -9999 -9999 -9999 -9999 -9999 -9999 -9999 -9999 -9999 -9999 -9999 -9999 -9999 -9999 -9999 -9999 -9999 -9999 -9999 -9999 -9999 -9999 -9999 -9999 -9999 -9999 -9999 29.0472354888916 29.4580478668213 29.8061809539795 29.9564628601074 30.0392684936523 30.0928783416748 30.0491333007812 30.035120010376 30.102367401123 30.1315593719482 29.400032043457 -9999 -9999 -9999 -9999 -9999 -9999 -9999 29.9053230285645 30.0651626586914 30.2592735290527 30.4150886535645 30.4932670593262 30.48610496521 30.4041423797607 30.4285354614258
-9999 -9999 -9999 -9999 -9999 -9999 -9999 -9999 -9999 -9999 -9999 -9999 -9999 -9999 -9999 -9999 -9999 -9999 -9999 -9999 -9999 -9999 -9999 -9999 -9999 -9999 -9999 -9999 -9999 -9999 -9999 -9999 -9999 -9999 -9999 -9999 -9999 -9999 -9999 -9999 25.5955155690511 27.2898305257161 29.1353797912598 29.8003025054932 29.8818244934082 30.1805305480957 30.384937286377 30.5077495574951 30.5771789550781 30.5714702606201 30.4987163543701 30.4236221313477 30.4144725799561 30.4036083221436 30.3016586303711 -9999 -9999 -9999 -9999 -9999 30.2212778727214 30.134838104248 30.2029209136963 30.4285163879395 30.6704578399658 30.8688049316406 30.9465847015381 30.8870010375977 30.7065830230713 30.6258010864258
-9999 -9999 -9999 -9999 -9999 -9999 -9999 -9999 -9999 -9999 -9999 -9999 -9999 -9999 -9999 -9999 -9999 -9999 -9999 -9999 -9999 -9999 -9999 -9999 -9999 -9999 -9999 -9999 -9999 -9999 -9999 -9999 -9999 -9999 -9999 -9999 -9999 -9999 -9999 24.3259525299072 25.2203922271729 27.2402019500732 29.4088973999023 30.3283271789551 30.4574222564697 30.5463676452637 30.6128368377686 30.674503326416 30.700065612793 30.6721115112305 30.5940341949463 30.5045375823975 30.4597358703613 30.4303092956543 30.3344669342041 30.2083492279053 -9999 -9999 -9999 30.2005906105042 30.2298698425293 30.2991256713867 30.4231300354004 30.6012763977051 30.7926864624023 30.9825744628906 31.1547260284424 31.280611038208 31.2009391784668 31.0378952026367
-9999 -9999 -9999 -9999 -9999 -9999 -9999 -9999 -9999 -9999 -9999 -9999 -9999 -9999 -9999 -9999 -9999 -9999 -9999 -9999 -9999 -9999 -9999 -9999 -9999 -9999 -9999 -9999 -9999 -9999 -9999 -9999 -9999 -9999 -9999 -9999 -9999 -9999 27.1463798522949 26.5062808990479 27.6823997497559 29.3623542785645 30.2349681854248 30.5332298278809 30.5553722381592 30.579044342041 30.6075592041016 30.6398468017578 30.6870994567871 30.7214469909668 30.6861820220947 30.5930004119873 30.5083923339844 30.4656219482422 30.3716373443604 30.2115745544434 30.1375732421875 30.182731628418 30.1450576782227 30.1853046417236 30.242130279541 30.3106269836426 30.3922805786133 30.5156707763672 30.6599674224854 30.8261795043945 31.0905818939209 31.4673042297363 31.6224479675293 31.4916248321533
-9999 -9999 -9999 -9999 -9999 -9999 -9999 -9999 -9999 -9999 -9999 -9999 -9999 -9999 -9999 -9999 -9999 -9999 -9999 -9999 -9999 -9999 -9999 -9999 -9999 -9999 -9999 -9999 -9999 -9999 -9999 -9999 -9999 -9999 -9999 -9999 -9999 28.3080959320068 28.2057800292969 28.3857898712158 29.3242149353027 30.1988353729248 30.5915832519531 30.6887722015381 30.6485500335693 30.6063766479492 30.6005439758301 30.6381893157959 30.7125873565674 30.7596473693848 30.7251415252686 30.6379795074463 30.5573539733887 30.5545387268066 30.5362758636475 30.3769264221191 30.2422370910645 30.211332321167 30.2083950042725 30.2404804229736 30.2812480926514 30.3225708007812 30.3793449401855 30.476095199585 30.6218891143799 30.847017288208 31.2611694335938 31.8201808929443 31.9737606048584 31.803731918335
-9999 -9999 -9999 -9999 -9999 -9999 -9999 -9999 -9999 -9999 -9999 -9999 -9999 -9999 -9999 -9999 -9999 -9999 -9999 -9999 -9999 -9999 -9999 -9999 -9999 -9999 -9999 -9999 -9999 -9999 -9999 -9999 -9999 -9999 -9999 -9999 -9999 28.9131450653076 28.9892692565918 29.3485145568848 30.0833492279053 30.641487121582 30.831335067749 30.8526859283447 30.7805767059326 30.7116088867188 30.7362842559814 30.8449535369873 30.9198913574219 30.8549900054932 30.7381362915039 30.649320602417 30.6106395721436 30.6891765594482 30.820613861084 30.7793464660645 30.6313705444336 30.5063934326172 30.4287490844727 30.4294872283936 30.4361324310303 30.4842720031738 30.5920238494873 30.7329521179199 30.9110050201416 31.2287769317627 31.7424945831299 32.2317504882812 32.2880249023438 32.2244911193848
-9999 -9999 -9999 -9999 -9999 -9999 -9999 -9999 -9999 -9999 -9999 -9999 -9999 -9999 -9999 -9999 -9999 -9999 -9999 -9999 -9999 -9999 -9999 -9999 -9999 -9999 -9999 -9999 -9999 -9999 -9999 -9999 -9999 -9999 -9999 -9999 -9999 29.481315612793 29.6487159729004 30.0280456542969 30.4957237243652 30.8503837585449 31.0450916290283 31.1347484588623 31.0899658203125 31.0292110443115 31.0911064147949 31.1987686157227 31.1775226593018 31.0193119049072 30.8203086853027 30.6595935821533 30.6115570068359 30.7223567962646 30.9300937652588 31.1082611083984 31.2138633728027 31.0840930938721 30.8203601837158 30.7192878723145 30.6659832000732 30.7435283660889 30.9439468383789 31.1711387634277 31.3878631591797 31.6439819335938 31.9611015319824 32.203010559082 32.4382133483887 32.6629600524902
-9999 -9999 -9999 -9999 -9999 -9999 -9999 -9999 -9999 -9999 -9999 -9999 -9999 -9999 -9999 -9999 -9999 -9999 -9999 -9999 -9999 -9999 -9999 -9999 -9999 -9999 -9999 -9999 -9999 -9999 -9999 -9999 -9999 -9999 -9999 -9999 29.565788269043 29.7332000732422 30.043478012085 30.379545211792 30.6975231170654 30.9704647064209 31.2081050872803 31.4027900695801 31.4732112884521 31.458984375 31.4765701293945 31.5209770202637 31.5000915527344 31.3874855041504 31.1657657623291 30.8841876983643 30.6945781707764 30.6826572418213 30.7648658752441 30.9850788116455 31.4163665771484 31.5399284362793 31.2257080078125 31.0077285766602 30.8956432342529 30.9745235443115 31.1872425079346 31.4353828430176 31.6562595367432 31.8429012298584 32.0449714660645 32.2542304992676 32.4517593383789 32.8526763916016
-9999 -9999 -9999 -9999 -9999 -9999 -9999 -9999 -9999 -9999 -9999 -9999 -9999 -9999 -9999 -9999 -9999 -9999 -9999 -9999 -9999 -9999 -9999 -9999 -9999 -9999 -9999 -9999 -9999 -9999 -9999 -9999 -9999 -9999 -9999 -9999 -9999 29.7707195281982 29.9937343597412 30.3189220428467 30.6369361877441 30.9418125152588 31.1865329742432 31.3823375701904 31.5110874176025 31.598482131958 31.6553649902344 31.7143154144287 31.7831802368164 31.8155422210693 31.7244644165039 31.497049331665 31.2318344116211 31.0711269378662 30.9385814666748 31.0487957000732 31.480884552002 31.6664867401123 31.547534942627 31.3478679656982 31.2115631103516 31.2678375244141 31.4577598571777 31.7190837860107 31.9756317138672 32.2047882080078 32.4544067382812 32.7249526977539 32.7896385192871 33.039134979248
-9999 -9999 -9999 -9999 -9999 -9999 -9999 -9999 -9999 -9999 -9999 -9999 -9999 -9999 -9999 -9999 -9999 -9999 -9999 -9999 -9999 -9999 -9999 -9999 -9999 -9999 -9999 -9999 -9999 -9999 -9999 -9999 -9999 -9999 -9999 -9999 -9999 -9999 29.838996887207 -9999 30.5028991699219 30.8115253448486 31.058521270752 31.2061882019043 31.2961101531982 31.4219551086426 31.5990581512451 31.8266735076904 32.0378608703613 32.1403427124023 32.1327972412109 32.0552139282227 31.9221019744873 31.707820892334 31.3659534454346 31.364933013916 31.6772079467773 31.8178291320801 31.8896198272705 31.8150882720947 31.6169357299805 31.613109588623 31.7486572265625 31.9368743896484 32.1745834350586 32.4690170288086 32.8570899963379 33.1859931945801 33.2641716003418 33.3448600769043
-9999 -9999 -9999 -9999 -9999 -9999 -9999 -9999 -9999 -9999 -9999 -9999 -9999 -9999 -9999 -9999 -9999 -9999 -9999 -9999 -9999 -9999 -9999 -9999 -9999 -9999 -9999 -9999 -9999 -9999 -9999 -9999 -9999 -9999 -9999 -9999 -9999 -9999 -9999 -9999 30.7885417938232 30.8428916931152 30.9930210113525 31.1116542816162 31.2572860717773 31.5131034851074 31.859411239624 32.1976699829102 32.388053894043 32.4111747741699 32.3474388122559 32.2813529968262 32.1930046081543 31.9962787628174 31.6895351409912 31.6164093017578 31.7867183685303 31.9510040283203 32.1349678039551 32.1276588439941 32.0038681030273 32.0120582580566 32.1533889770508 32.368278503418 32.6668815612793 33.0345687866211 33.482608795166 33.7225875854492 33.7380294799805 33.8575668334961
-9999 -9999 -9999 -9999 -9999 -9999 -9999 -9999 -9999 -9999 -9999 -9999 -9999 -9999 -9999 -9999 -9999 -9999 -9999 -9999 -9999 -9999 -9999 -9999 -9999 -9999 -9999 -9999 -9999 -9999 -9999 -9999 -9999 -9999 30.9284029006958 31.0673732757568 31.1566352844238 -9999 31.1939182281494 31.0551280975342 30.9231472015381 30.9224090576172 31.0306968688965 31.1905002593994 31.461275100708 31.8874034881592 32.3071403503418 32.5331077575684 32.5748863220215 32.5170364379883 32.4371948242188 32.3622093200684 32.2790832519531 32.127254486084 31.8936614990234 31.8117446899414 32.0229415893555 32.3990173339844 32.4955940246582 32.4235649108887 32.393196105957 32.4685745239258 32.6444969177246 32.9702186584473 33.4148406982422 33.8367118835449 34.2094917297363 34.4635467529297 34.3540382385254 34.3351631164551
-9999 -9999 -9999 -9999 -9999 -9999 -9999 -9999 -9999 -9999 -9999 -9999 -9999 -9999 -9999 -9999 -9999 -9999 -9999 -9999 -9999 -9999 -9999 -9999 -9999 -9999 -9999 22.3908367156982 22.3908367156982 23.0013160705566 23.6693954467773 25.808162689209 28.9023056030273 30.4810905456543 30.9226856231689 31.2424621582031 31.4480476379395 31.4564819335938 31.3347244262695 31.1893825531006 31.0847053527832 31.0926113128662 31.2052268981934 31.418327331543 31.795503616333 32.2644538879395 32.5700645446777 32.6564102172852 32.6271514892578 32.5444679260254 32.4597320556641 32.3764305114746 32.3045616149902 32.2042274475098 32.1186599731445 32.2503814697266 32.7028312683105 33.1143951416016 33.0374870300293 32.8682441711426 32.8449020385742 32.8853645324707 33.0308151245117 33.4367713928223 34.044116973877 34.4722938537598 34.7869148254395 35.0155372619629 34.9502868652344 34.8479385375977
-9999 -9999 -9999 -9999 -9999 -9999 -9999 -9999 -9999 -9999 -9999 -9999 -9999 -9999 -9999 -9999 -9999 -9999 -9999 -9999 -9999 -9999 -9999 -9999 -9999 -9999 -9999 -9999 -9999 -9999 25.697566986084 26.981143951416 29.6027755737305 31.226432800293 31.656623840332 31.8429298400879 31.8891620635986 31.8263053894043 31.6564273834229 31.494499206543 31.3909454345703 31.3873195648193 31.4801464080811 31.7468109130859 32.2150764465332 32.5981216430664 32.7452735900879 32.7569694519043 32.7000312805176 32.6067962646484 32.5366821289062 32.504825592041 32.5276870727539 32.6228294372559 32.7425155639648 33.0393562316895 33.4545135498047 33.6681594848633 33.5617370605469 33.3062553405762 33.2083435058594 33.1896667480469 33.2475128173828 33.6910018920898 34.3271293640137 34.7857551574707 35.1482810974121 35.2671203613281 35.2497749328613 35.2902145385742
-9999 -9999 -9999 -9999 -9999 -9999 -9999 -9999 -9999 -9999 -9999 -9999 -9999 -9999 -9999 -9999 -9999 -9999 -9999 -9999 -9999 -9999 -9999 -9999 -9999 30.1843916575114 30.5703716278076 30.8027935028076 30.8511590957642 30.5079574584961 30.5897445678711 30.5268821716309 31.0559349060059 31.9238166809082 32.2790832519531 32.4396018981934 32.4752044677734 32.4374160766602 32.2781982421875 32.1198692321777 32.0155296325684 31.9733562469482 32.0654525756836 32.4190368652344 32.8290367126465 32.9997940063477 33.0573997497559 33.1133270263672 33.0925979614258 33.0189895629883 32.9701194763184 32.9546585083008 33.0807228088379 33.4842567443848 33.6733894348145 33.7275543212891 33.8685111999512 33.9357872009277 33.8079643249512 33.5442924499512 33.4543533325195 33.4384765625 33.4693374633789 33.8566360473633 34.4510040283203 34.9632911682129 35.3812713623047 35.5316047668457 35.5681610107422 35.6412887573242
-9999 -9999 -9999 -9999 -9999 -9999 -9999 -9999 -9999 -9999 -9999 -9999 -9999 -9999 -9999 -9999 -9999 -9999 -9999 -9999 -9999 -9999 -9999 -9999 29.661262512207 30.2387504577637 30.6531620025635 30.8192024230957 30.9360160827637 31.1414604187012 31.3935260772705 31.4837131500244 31.8459377288818 32.4202117919922 32.785099029541 33.0077247619629 33.1314697265625 33.2059364318848 33.1655693054199 33.0937042236328 33.0322265625 33.0069885253906 33.1423873901367 33.4956207275391 33.759464263916 33.8306350708008 33.9321975708008 34.0920524597168 34.1499443054199 34.111988067627 34.0442504882812 33.9276733398438 34.0498886108398 34.4860229492188 34.4365425109863 34.0876388549805 34.0238151550293 34.0003662109375 33.8176956176758 33.6436424255371 33.6652030944824 33.7489929199219 33.8967208862305 34.2067718505859 34.6927261352539 35.1730918884277 35.5353698730469 35.6939315795898 35.725944519043 35.7600402832031
-9999 -9999 -9999 -9999 -9999 -9999 -9999 -9999 -9999 -9999 -9999 -9999 -9999 -9999 -9999 -9999 -9999 -9999 -9999 -9999 -9999 -9999 -9999 -9999 29.7258796691895 30.4573059082031 30.9468841552734 31.1449375152588 31.3056907653809 31.5477752685547 31.8402042388916 32.0878524780273 32.4261436462402 32.8625831604004 33.2374038696289 33.5071411132812 33.6765480041504 33.8079376220703 33.904972076416 33.9717330932617 33.992317199707 34.0438079833984 34.2322578430176 34.524040222168 34.7819023132324 34.9570159912109 35.130126953125 35.2802276611328 35.3637771606445 35.3490829467773 35.3036766052246 35.1591033935547 35.1543884277344 35.2504119873047 34.8456497192383 34.2878646850586 34.1594009399414 34.1918983459473 34.129264831543 34.0489273071289 34.0832138061523 34.2067527770996 34.4802932739258 34.7391815185547 35.1047821044922 35.4468955993652 35.6689987182617 35.8001556396484 35.8379974365234 35.8486022949219
-9999 -9999 -9999 -9999 -9999 -9999 -9999 -9999 -9999 -9999 -9999 -9999 -9999 -9999 -9999 -9999 -9999 -9999 -9999 -9999 -9999 -9999 -9999 30.0416502952576 29.9040985107422 30.5919952392578 31.0800800323486 31.2928524017334 31.501745223999 31.8350276947021 32.2488136291504 32.661548614502 33.1161308288574 33.5866775512695 33.9692001342773 34.2258911132812 34.3603248596191 34.4342155456543 34.5635795593262 34.7386131286621 34.8402252197266 34.960620880127 35.154109954834 35.3460960388184 35.522159576416 35.682373046875 35.8216819763184 35.8991317749023 35.9467697143555 35.9397125244141 35.9184036254883 35.8201637268066 35.7036666870117 35.5944976806641 35.1579246520996 34.6855888366699 34.6538963317871 34.8212394714355 34.8925361633301 34.9024963378906 34.8978004455566 34.8495788574219 34.9673347473145 35.1833000183105 35.4641609191895 35.7108535766602 35.8386611938477 35.9191284179688 35.9516639709473 35.9469985961914
-9999 -9999 -9999 -9999 -9999 -9999 -9999 -9999 -9999 -9999 -9999 -9999 -9999 -9999 -9999 -9999 -9999 -9999 -9999 -9999 -9999 -9999 -9999 30.1531200408936 30.3835029602051 30.9114799499512 31.2694225311279 31.45237159729 31.7382125854492 32.2217063903809 32.8063697814941 33.4050712585449 33.9855499267578 34.4218902587891 34.6582565307617 34.7959213256836 34.905460357666 34.9708976745605 35.117057800293 35.3544921875 35.5172004699707 35.6327972412109 35.7401313781738 35.8356781005859 35.9268951416016 35.9972076416016 36.0459251403809 36.0724334716797 36.1027526855469 36.1101875305176 36.0944671630859 36.0348281860352 35.9551467895508 35.8379859924316 35.4724388122559 35.1349182128906 35.1985359191895 35.4385032653809 35.5714912414551 35.6385917663574 35.6498069763184 35.5657501220703 35.4970474243164 35.5524826049805 35.6933822631836 35.8444442749023 35.942253112793 36.0066413879395 36.0324630737305 36.031551361084
-9999 -9999 -9999 -9999 -9999 -9999 -9999 -9999 -9999 -9999 -9999 -9999 -9999 -9999 -9999 -9999 -9999 -9999 -9999 -9999 -9999 -9999 30.8283519744873 30.7537860870361 30.9657382965088 31.3426284790039 31.5839672088623 31.78857421875 32.1574363708496 32.7179908752441 33.3861312866211 34.0472755432129 34.5793762207031 34.8830375671387 34.9826622009277 35.0173797607422 35.0742034912109 35.1283187866211 35.2962837219238 35.5698661804199 35.7572021484375 35.8457832336426 35.907829284668 35.9673728942871 36.0194358825684 36.0630073547363 36.0929641723633 36.1185531616211 36.1658515930176 36.1963386535645 36.1974563598633 36.1509780883789 36.0740737915039 36.0161056518555 35.8166084289551 35.5536346435547 35.4839744567871 35.6125450134277 35.7841758728027 35.9172248840332 35.9920616149902 35.9933929443359 35.9477767944336 35.9038238525391 35.913932800293 35.9628257751465 36.0185203552246 36.0650253295898 36.0985488891602 36.1288261413574
-9999 -9999 -9999 -9999 -9999 -9999 -9999 -9999 -9999 -9999 -9999 -9999 -9999 -9999 17.4333493974474 -9999 -9999 -9999 -9999 31.1064701080322 -9999 31.0935745239258 31.0601978302002 31.1639461517334 31.4257316589355 31.7120876312256 31.9336948394775 32.2163314819336 32.6894836425781 33.4070816040039 34.1818885803223 34.729907989502 35.0521278381348 35.2395896911621 35.3128051757812 35.3145713806152 35.2741813659668 35.2502861022949 35.3961715698242 35.646354675293 35.8078956604004 35.9043846130371 35.9868125915527 36.0372123718262 36.0674171447754 36.095760345459 36.1144332885742 36.1335258483887 36.1810493469238 36.2334823608398 36.2549362182617 36.2167167663574 36.1355285644531 36.0896797180176 36.0624771118164 35.9355850219727 35.7572975158691 35.7043075561523 35.8028602600098 35.9511451721191 36.0599632263184 36.1029434204102 36.1107864379883 36.092960357666 36.0710182189941 36.0851974487305 36.1277122497559 36.1695404052734 36.2188148498535 36.2771835327148
-9999 -9999 -9999 -9999 -9999 -9999 -9999 -9999 -9999 -9999 -9999 -9999 -9999 -9999 17.4536647796631 -9999 -9999 -9999 -9999 31.1139116287231 31.2003231048584 31.2487926483154 31.3262577056885 31.5024566650391 31.7640323638916 32.0369415283203 32.3794021606445 32.9149360656738 33.6798400878906 34.5631713867188 35.209056854248 35.4512596130371 35.5046081542969 35.5129776000977 35.4932289123535 35.4605598449707 35.406379699707 35.3840827941895 35.5118598937988 35.7192993164062 35.8509216308594 35.9357528686523 36.006763458252 36.0454216003418 36.0735893249512 36.1011695861816 36.1182594299316 36.1298141479492 36.1629676818848 36.2166481018066 36.2518653869629 36.2289009094238 36.1584663391113 36.1162338256836 36.1487655639648 36.0956764221191 35.9161109924316 35.7742614746094 35.7872276306152 35.9409637451172 36.0740928649902 36.1241455078125 36.1379051208496 36.135425567627 36.1254577636719 36.1329383850098 36.1644859313965 36.2097702026367 36.2728233337402 36.3413124084473
-9999 -9999 -9999 -9999 -9999 -9999 -9999 -9999 -9999 -9999 -9999 -9999 -9999 -9999 17.3622455596924 -9999 -9999 -9999 -9999 -9999 31.4543972015381 31.4314250946045 31.5908031463623 31.8771076202393 32.2461395263672 32.6672859191895 33.2582321166992 34.0175666809082 34.7681503295898 35.3701019287109 35.6631355285645 35.6998825073242 35.6826667785645 35.6514892578125 35.6104736328125 35.568904876709 35.5576095581055 35.6093139648438 35.7163467407227 35.8257713317871 35.8918571472168 35.9534492492676 36.0113334655762 36.0398063659668 36.0639305114746 36.0917663574219 36.1127014160156 36.1231689453125 36.1376495361328 36.1655578613281 36.1859169006348 36.1818542480469 36.151424407959 36.138370513916 36.1651916503906 36.0802688598633 35.8878898620605 35.7715644836426 35.8188629150391 35.9733505249023 36.0661468505859 36.0799789428711 36.0739364624023 36.0677947998047 36.0684432983398 36.0903816223145 36.1406669616699 36.2115707397461 36.2910842895508 36.3587837219238
-9999 -9999 -9999 -9999 -9999 -9999 -9999 -9999 -9999 -9999 -9999 -9999 -9999 -9999 17.4416484832764 -9999 17.7279224395752 -9999 -9999 -9999 31.5547485351562 31.5826225280762 31.8252544403076 32.2562217712402 32.8298606872559 33.4960021972656 34.1970748901367 34.7931823730469 35.2089080810547 35.4819641113281 35.620964050293 35.6699256896973 35.7045097351074 35.7319869995117 35.7530822753906 35.7448120117188 35.7308464050293 35.7686729431152 35.8440589904785 35.8957977294922 35.9133949279785 35.9540786743164 36.0077095031738 36.0375175476074 36.0586967468262 36.0766258239746 36.0920677185059 36.1061935424805 36.1123657226562 36.1194686889648 36.1249008178711 36.1311569213867 36.1329879760742 36.1359710693359 36.1435012817383 36.035530090332 35.8598899841309 35.8252029418945 35.912727355957 35.9961547851562 36.0215682983398 36.0086517333984 35.9929008483887 35.9935989379883 36.0162582397461 36.0829734802246 36.1764984130859 36.2727470397949 36.3520011901855 36.405200958252
-9999 -9999 -9999 -9999 -9999 -9999 -9999 -9999 -9999 -9999 -9999 -9999 -9999 -9999 17.4416484832764 17.5210514068604 18.0850391387939 -9999 -9999 31.7001662254333 31.6518497467041 31.779224395752 32.1230964660645 32.6856498718262 33.416576385498 34.1431159973145 34.6430358886719 34.9269409179688 35.1979293823242 35.4489479064941 35.591983795166 35.6635551452637 35.7052841186523 35.7568435668945 35.8284225463867 35.8754920959473 35.8873100280762 35.896053314209 35.9267807006836 35.9629707336426 35.9856147766113 36.0190086364746 36.0603141784668 36.0868225097656 36.1049880981445 36.1152687072754 36.1206092834473 36.1276206970215 36.1203956604004 36.0982131958008 36.078239440918 36.0735244750977 36.0802307128906 36.0844421386719 36.0848541259766 36.0170402526855 35.8993034362793 35.894115447998 35.9622764587402 35.9736213684082 35.9672164916992 35.959300994873 35.9658164978027 36.005542755127 36.0691871643066 36.158763885498 36.2532958984375 36.338809967041 36.4055976867676 36.446460723877
-9999 -9999 -9999 -9999 -9999 -9999 -9999 -9999 -9999 -9999 -9999 -9999 -9999 -9999 -9999 19.240567779541 18.5939407348633 -9999 28.4047789573669 31.7869491577148 31.8071174621582 32.0277099609375 32.4584426879883 33.083251953125 33.7958068847656 34.3230628967285 34.5621604919434 34.7281341552734 35.0276527404785 35.3886299133301 35.6213417053223 35.7235717773438 35.765007019043 35.8290710449219 35.9115982055664 35.9771728515625 36.0231552124023 36.0551071166992 36.0797004699707 36.1026840209961 36.1239700317383 36.146656036377 36.1669311523438 36.1759376525879 36.1790580749512 36.1812171936035 36.1890449523926 36.1948127746582 36.1668357849121 36.1036605834961 36.040885925293 35.9969024658203 35.9837646484375 35.9882774353027 36.0004005432129 36.0050048828125 35.9608573913574 35.9705772399902 36.0271911621094 36.0283699035645 36.0168266296387 36.0211791992188 36.0543327331543 36.1234588623047 36.2017250061035 36.267391204834 36.3314399719238 36.3962898254395 36.4447364807129 36.4627685546875
-9999 -9999 -9999 -9999 -9999 -9999 -9999 -9999 -9999 -9999 -9999 -9999 -9999 -9999 -9999 20.3738708496094 21.6289367675781 -9999 31.4354991912842 31.8228931427002 31.9745941162109 32.283016204834 32.7501678466797 33.3351364135742 33.9193878173828 34.2475090026855 34.3964424133301 34.6907005310059 35.1794853210449 35.6043548583984 35.7781715393066 35.8357391357422 35.871280670166 35.9383125305176 36.0115623474121 36.0754699707031 36.1314926147461 36.1804962158203 36.2190437316895 36.2475662231445 36.2696647644043 36.2844276428223 36.2882118225098 36.2789268493652 36.2586936950684 36.2360649108887 36.2326812744141 36.239143371582 36.1963691711426 36.1112594604492 36.0338745117188 35.9817314147949 35.9664192199707 35.9613456726074 35.967830657959 36.0291786193848 36.0584335327148 36.0765953063965 36.1184043884277 36.1331443786621 36.1294479370117 36.1386833190918 36.1842842102051 36.2569847106934 36.3135070800781 36.3409843444824 36.3754234313965 36.4287185668945 36.4599838256836 36.4587211608887
-9999 -9999 -9999 -9999 -9999 -9999 -9999 -9999 -9999 -9999 -9999 -9999 -9999 -9999 -9999 21.0742301940918 -9999 26.6508677346366 31.1451454162598 31.8524780273438 32.0793609619141 32.3451194763184 32.7702865600586 33.3629875183105 33.9907493591309 34.5503959655762 34.9393730163574 35.2367782592773 35.5770683288574 35.8084983825684 35.8714370727539 35.9032936096191 35.9617500305176 36.052490234375 36.1453666687012 36.217586517334 36.2685890197754 36.3035697937012 36.3279762268066 36.342529296875 36.3503532409668 36.3522529602051 36.3480567932129 36.3373107910156 36.3146667480469 36.2795639038086 36.2608871459961 36.2607879638672 36.2206573486328 36.1474189758301 36.0650062561035 36.0163116455078 36.0126571655273 36.0143051147461 36.0235786437988 36.0900650024414 36.1626586914062 36.1997909545898 36.2282600402832 36.2394523620605 36.2369728088379 36.2462158203125 36.2915573120117 36.3465003967285 36.3800010681152 36.3885040283203 36.4120407104492 36.4424057006836 36.4600372314453 36.4664535522461
-9999 -9999 -9999 -9999 -9999 -9999 -9999 -9999 -9999 -9999 -9999 -9999 -9999 -9999 21.0742301940918 22.2478478749593 23.0476398468018 26.7375659942627 29.9396133422852 31.578218460083 32.1304397583008 32.478946685791 33.019905090332 33.7482109069824 34.5155220031738 35.2154388427734 35.557544708252 35.7069396972656 35.8223915100098 35.9060020446777 35.9783172607422 36.0788040161133 36.1996574401855 36.2975692749023 36.3488121032715 36.3704299926758 36.3782005310059 36.3762893676758 36.368034362793 36.362133026123 36.3585777282715 36.3550491333008 36.349781036377 36.3458023071289 36.3334999084473 36.3014945983887 36.2770614624023 36.2706642150879 36.2399978637695 36.1850166320801 36.1063079833984 36.0583190917969 36.0593910217285 36.0694580078125 36.0964889526367 36.1643218994141 36.2455253601074 36.3009414672852 36.3292236328125 36.3341178894043 36.3232345581055 36.3247337341309 36.3488960266113 36.3836860656738 36.4175567626953 36.4252586364746 36.4373931884766 36.4432563781738 36.4589805603027 36.4767951965332
-9999 -9999 -9999 -9999 -9999 -9999 -9999 -9999 -9999 -9999 -9999 -9999 -9999 -9999 -9999 -9999 26.3506679534912 27.1451435089111 29.8812713623047 31.5612983703613 32.2973785400391 32.969352722168 33.7942390441895 34.5162315368652 35.1293525695801 35.5648803710938 35.7892608642578 35.9379730224609 36.051700592041 36.1536636352539 36.2549591064453 36.3469657897949 36.4045600891113 36.4210815429688 36.4083518981934 36.3830833435059 36.3580436706543 36.3416709899902 36.3408508300781 36.3498229980469 36.352123260498 36.3527793884277 36.3470230102539 36.3378562927246 36.3283424377441 36.3008155822754 36.2739715576172 36.2642097473145 36.2363510131836 36.1889801025391 36.1253433227539 36.0844192504883 36.0833473205566 36.0977821350098 36.1400718688965 36.2219200134277 36.3107223510742 36.3750038146973 36.4030647277832 36.4013862609863 36.3791618347168 36.367015838623 36.3745994567871 36.400318145752 36.4289588928223 36.4425048828125 36.4530868530273 36.4460258483887 36.4610862731934 36.4766731262207
-9999 -9999 -9999 -9999 -9999 -9999 -9999 -9999 -9999 -9999 -9999 -9999 -9999 -9999 -9999 -9999 27.8087329864502 28.4723224639893 30.6597137451172 32.0050811767578 32.7147216796875 33.5601272583008 34.4813957214355 35.0727691650391 35.5145950317383 35.8034591674805 35.9915924072266 36.1211624145508 36.226318359375 36.3210945129395 36.3960762023926 36.4371376037598 36.4435005187988 36.4339904785156 36.4126968383789 36.3825874328613 36.3550148010254 36.3396453857422 36.3445320129395 36.3560981750488 36.3568572998047 36.3614921569824 36.3549880981445 36.3329582214355 36.3195304870605 36.29443359375 36.2631072998047 36.249942779541 36.226619720459 36.1876945495605 36.1412811279297 36.1111030578613 36.107551574707 36.1237258911133 36.177921295166 36.2776985168457 36.3826637268066 36.4404602050781 36.4585990905762 36.4505615234375 36.427303314209 36.4140396118164 36.4118766784668 36.4264221191406 36.4386291503906 36.4506645202637 36.4667816162109 36.4590950012207 36.4665222167969 36.4734115600586
-9999 -9999 -9999 -9999 -9999 -9999 -9999 -9999 -9999 -9999 -9999 -9999 -9999 -9999 -9999 -9999 -9999 30.0245599746704 30.6307182312012 32.0900802612305 32.9626617431641 33.8022766113281 34.6513214111328 35.3251190185547 35.7442665100098 36.0042953491211 36.148006439209 36.2407341003418 36.3308944702148 36.4015846252441 36.4447555541992 36.4689445495605 36.4706077575684 36.456901550293 36.4307289123535 36.3994789123535 36.3748474121094 36.3613395690918 36.3620185852051 36.373477935791 36.3738098144531 36.3745040893555 36.3623313903809 36.3292121887207 36.3087882995605 36.2806777954102 36.2441596984863 36.2348670959473 36.2261543273926 36.1966972351074 36.1640281677246 36.1423835754395 36.1379203796387 36.1659202575684 36.23876953125 36.3583755493164 36.4516716003418 36.480884552002 36.4821166992188 36.4698638916016 36.449951171875 36.4418487548828 36.4388313293457 36.4428939819336 36.4480781555176 36.463493347168 36.4775619506836 36.4695663452148 36.4757957458496 36.4786796569824
-9999 -9999 -9999 -9999 -9999 -9999 -9999 -9999 -9999 -9999 -9999 -9999 -9999 -9999 28.3064250946045 28.4723224639893 29.8288674354553 30.4831018447876 30.335485458374 31.5644607543945 32.7274742126465 33.6234817504883 34.5655746459961 35.4426536560059 35.9133911132812 36.1335487365723 36.2361106872559 36.3162574768066 36.3917770385742 36.4318962097168 36.4635391235352 36.4757652282715 36.4612121582031 36.4444236755371 36.4237670898438 36.3925247192383 36.3694725036621 36.3610916137695 36.3600273132324 36.3654632568359 36.3693504333496 36.3738708496094 36.3566398620605 36.3199996948242 36.3021087646484 36.2789154052734 36.240665435791 36.2303352355957 36.2330513000488 36.215690612793 36.1925659179688 36.172737121582 36.1718902587891 36.2237854003906 36.321361541748 36.441349029541 36.4898414611816 36.4889373779297 36.4779205322266 36.4676208496094 36.4553642272949 36.4469757080078 36.4422149658203 36.4447250366211 36.4497261047363 36.4712371826172 36.4811935424805 36.4732322692871 36.4838943481445 36.4907836914062
-9999 -9999 -9999 -9999 -9999 -9999 -9999 -9999 -9999 -9999 -9999 -9999 -9999 -9999 -9999 -9999 -9999 -9999 31.2017002105713 31.4303169250488 32.4990844726562 33.5542602539062 34.9427642822266 35.7782859802246 36.1270866394043 36.2600021362305 36.33203125 36.396053314209 36.4357643127441 36.4548149108887 36.4878540039062 36.4970169067383 36.4704666137695 36.4476165771484 36.4247360229492 36.3928070068359 36.3715438842773 36.3602676391602 36.3550796508789 36.3556022644043 36.3594970703125 36.3601913452148 36.3393287658691 36.3139457702637 36.3136253356934 36.3082389831543 36.2716827392578 36.2547187805176 36.2546615600586 36.2417640686035 36.2262725830078 36.2100219726562 36.2200508117676 36.3063812255859 36.427619934082 36.4955368041992 36.5028533935547 36.4881210327148 36.4724960327148 36.4634437561035 36.4636726379395 36.4569664001465 36.4495811462402 36.4470748901367 36.4471855163574 36.4648704528809 36.4762802124023 36.473949432373 36.482608795166 36.497688293457
-9999 -9999 -9999 -9999 -9999 -9999 -9999 -9999 -9999 -9999 -9999 -9999 -9999 -9999 -9999 -9999 -9999 32.1935691833496 32.0179181098938 31.4765377044678 32.7084541320801 34.4580268859863 35.7219657897949 36.1391563415527 36.2650718688965 36.3268890380859 36.3825149536133 36.4285583496094 36.4545440673828 36.4721755981445 36.5077514648438 36.5191688537598 36.492115020752 36.4632186889648 36.4425964355469 36.419303894043 36.3953323364258 36.3777542114258 36.364803314209 36.3571739196777 36.353931427002 36.348575592041 36.3366584777832 36.3263320922852 36.3264465332031 36.3276176452637 36.301082611084 36.2830390930176 36.2746887207031 36.2673721313477 36.2635612487793 36.2541809082031 36.2908210754395 36.4112892150879 36.5071487426758 36.5197601318359 36.5111923217773 36.4944496154785 36.4785194396973 36.4693374633789 36.469841003418 36.4600563049316 36.4503288269043 36.4430847167969 36.4366226196289 36.4532203674316 36.4750938415527 36.4778709411621 36.4816513061523 36.4970016479492
-9999 -9999 -9999 -9999 -9999 -9999 -9999 -9999 -9999 -9999 -9999 -9999 -9999 35.4146003723145 34.670585208469 -9999 33.5978622436523 33.3467683792114 32.1935691833496 32.971248626709 34.782844543457 35.8537330627441 36.1950187683105 36.2721252441406 36.3129234313965 36.3589515686035 36.4097137451172 36.4520606994629 36.4747543334961 36.4870681762695 36.5116233825684 36.5157203674316 36.4909858703613 36.4652214050293 36.4474792480469 36.438289642334 36.4243812561035 36.4080924987793 36.3903503417969 36.3778038024902 36.3756065368652 36.3774528503418 36.3776016235352 36.3730316162109 36.3655014038086 36.3644409179688 36.3538589477539 36.3429374694824 36.3294334411621 36.3218460083008 36.3080062866211 36.3021354675293 36.3878555297852 36.5093994140625 36.5372314453125 36.5301170349121 36.5274353027344 36.5173606872559 36.5075035095215 36.4999542236328 36.4901962280273 36.4686584472656 36.4541931152344 36.4500045776367 36.4394264221191 36.4404945373535 36.4624137878418 36.4741630554199 36.4789619445801 36.4906845092773
-9999 -9999 -9999 -9999 -9999 -9999 -9999 -9999 -9999 -9999 -9999 -9999 -9999 -9999 35.4146003723145 34.8278109232585 33.769344329834 33.4263801574707 33.9977798461914 35.6075859069824 36.0714569091797 36.2145500183105 36.2517204284668 36.2898826599121 36.3519744873047 36.4048881530762 36.4411201477051 36.4685707092285 36.4874153137207 36.5002059936523 36.5196151733398 36.5210266113281 36.4949150085449 36.4680709838867 36.4460639953613 36.4375076293945 36.429443359375 36.4176902770996 36.4027366638184 36.3937301635742 36.3986701965332 36.4062614440918 36.4085121154785 36.4129409790039 36.4104881286621 36.3962554931641 36.3867416381836 36.3808517456055 36.368408203125 36.3531532287598 36.3398361206055 36.3652153015137 36.4537696838379 36.5462646484375 36.5471153259277 36.5325469970703 36.532169342041 36.532657623291 36.5321388244629 36.5322952270508 36.5242729187012 36.4995193481445 36.4703483581543 36.4638900756836 36.454532623291 36.444091796875 36.4565696716309 36.4679298400879 36.4762954711914 36.4855766296387
-9999 -9999 -9999 -9999 -9999 -9999 -9999 -9999 -9999 -9999 -9999 -9999 -9999 -9999 35.84397315979 35.4146003723145 35.299488067627 35.2828025817871 35.7291641235352 36.1647567749023 36.2309494018555 36.2703819274902 36.3093566894531 36.365852355957 36.4245758056641 36.433780670166 36.4308891296387 36.4603042602539 36.4890365600586 36.5073890686035 36.5277366638184 36.5308723449707 36.5109024047852 36.4836769104004 36.4572296142578 36.4466171264648 36.4393310546875 36.4281158447266 36.411003112793 36.4024314880371 36.4127731323242 36.4223480224609 36.4209861755371 36.4206199645996 36.4156265258789 36.399959564209 36.3919639587402 36.3938217163086 36.3876724243164 36.3760375976562 36.3788108825684 36.4144058227539 36.477165222168 36.5663261413574 36.566764831543 36.5408515930176 36.5305099487305 36.5336723327637 36.540283203125 36.5387344360352 36.5397453308105 36.5290222167969 36.5000534057617 36.4814682006836 36.4725761413574 36.4580421447754 36.4617042541504 36.4714317321777 36.4777374267578 36.4866409301758
-9999 -9999 -9999 -9999 -9999 -9999 -9999 -9999 -9999 -9999 -9999 35.7247009277344 35.8517799377441 35.9723510742188 35.9605255126953 36.0284156799316 36.1434059143066 36.1638946533203 36.2126693725586 36.2387924194336 36.2546653747559 36.2965965270996 36.3603248596191 36.4277191162109 36.4700508117676 36.4546890258789 36.4217185974121 36.4377899169922 36.470874786377 36.5020446777344 36.5305213928223 36.5365791320801 36.5212020874023 36.4981307983398 36.4763336181641 36.4667778015137 36.4616394042969 36.4558410644531 36.4456825256348 36.4367027282715 36.4349746704102 36.4333534240723 36.4325675964355 36.4357414245605 36.429988861084 36.4168853759766 36.4117317199707 36.4131965637207 36.4102363586426 36.4122200012207 36.4292755126953 36.4472846984863 36.4990882873535 36.5858001708984 36.5906562805176 36.5542526245117 36.5344390869141 36.5287017822266 36.5406150817871 36.5391082763672 36.540397644043 36.5384979248047 36.5217323303223 36.5011901855469 36.4906730651855 36.4777526855469 36.4761581420898 36.4818840026855 36.4836082458496 36.4905319213867
-9999 -9999 -9999 -9999 -9999 -9999 -9999 -9999 -9999 35.6079292297363 35.8009567260742 35.9293746948242 36.0673751831055 36.1458435058594 36.1196022033691 36.2106819152832 36.2313461303711 36.2364273071289 36.2462692260742 36.2613525390625 36.295783996582 36.3485069274902 36.4107551574707 36.4625701904297 36.4807815551758 36.4672088623047 36.4457626342773 36.441951751709 36.4673042297363 36.5016975402832 36.5285911560059 36.532527923584 36.5252647399902 36.511157989502 36.493293762207 36.4862022399902 36.4876403808594 36.4890975952148 36.4868850708008 36.483024597168 36.4747085571289 36.461368560791 36.4523506164551 36.4573135375977 36.4566993713379 36.4479217529297 36.4446716308594 36.4512329101562 36.4564208984375 36.4579963684082 36.4561157226562 36.4602584838867 36.512149810791 36.5988502502441 36.6154327392578 36.5787239074707 36.5505027770996 36.5231437683105 36.525463104248 36.5396270751953 36.5444755554199 36.5412826538086 36.5301666259766 36.5169563293457 36.5073471069336 36.4958114624023 36.4915924072266 36.4948043823242 36.4947052001953 36.4956703186035
-9999 -9999 -9999 -9999 -9999 -9999 -9999 -9999 -9999 35.7770042419434 36.0088348388672 36.1674118041992 36.2449989318848 36.2563095092773 36.2367134094238 36.2438163757324 36.2301864624023 36.236515045166 36.2509422302246 36.2769813537598 36.3270454406738 36.3857803344727 36.439582824707 36.4753913879395 36.4688262939453 36.4451141357422 36.4367332458496 36.4506683349609 36.4719314575195 36.4929733276367 36.5032424926758 36.5034408569336 36.5162048339844 36.5228004455566 36.515453338623 36.5065727233887 36.505989074707 36.5144233703613 36.5300140380859 36.5430946350098 36.5406112670898 36.5203552246094 36.4850196838379 36.4727897644043 36.4748229980469 36.4747123718262 36.4792404174805 36.4882278442383 36.4922752380371 36.4834442138672 36.4582595825195 36.4533920288086 36.5049285888672 36.5908088684082 36.6242752075195 36.6029205322266 36.5789451599121 36.530086517334 36.5036277770996 36.5219802856445 36.5411643981934 36.5408668518066 36.5324363708496 36.524585723877 36.5211753845215 36.5109977722168 36.5038414001465 36.5034141540527 36.5023384094238 36.5019874572754
-9999 -9999 -9999 -9999 -9999 35.795919418335 35.8020477294922 35.8640670776367 35.8618316650391 35.940185546875 36.120719909668 36.2504539489746 36.2706871032715 36.2569122314453 36.2394638061523 36.2253189086914 36.2305107116699 36.254077911377 36.2832489013672 36.3323516845703 36.3954811096191 36.4419555664062 36.4644393920898 36.4795761108398 36.4689483642578 36.4475517272949 36.4370155334473 36.4558029174805 36.4816474914551 36.4956932067871 36.4993553161621 36.5126647949219 36.5314140319824 36.5275230407715 36.5174751281738 36.5093536376953 36.5089492797852 36.5220184326172 36.5480308532715 36.568042755127 36.569896697998 36.5450210571289 36.5012817382812 36.482967376709 36.4852409362793 36.4876098632812 36.4962692260742 36.5106506347656 36.5174293518066 36.5016860961914 36.4688873291016 36.4626884460449 36.5127944946289 36.5973739624023 36.6273040771484 36.6162376403809 36.6015586853027 36.5500068664551 36.4935607910156 36.4904403686523 36.5165481567383 36.5161933898926 36.5141258239746 36.5115623474121 36.5102920532227 36.506950378418 36.5030097961426 36.5058517456055 36.5056343078613 36.5069923400879
-9999 -9999 -9999 -9999 35.5519943237305 35.7920875549316 36.0375480651855 36.1227912902832 36.1535835266113 36.1632804870605 36.2325744628906 36.2734451293945 36.2608222961426 36.2331771850586 36.2216148376465 36.2301063537598 36.2493743896484 36.2769660949707 36.3192710876465 36.392650604248 36.4544105529785 36.4824447631836 36.4858055114746 36.4870109558105 36.4810600280762 36.4624099731445 36.4483261108398 36.4647636413574 36.4968643188477 36.521598815918 36.5476264953613 36.5754318237305 36.5748252868652 36.5510902404785 36.5231704711914 36.5060997009277 36.5072441101074 36.5286521911621 36.5620422363281 36.5699501037598 36.5606460571289 36.5512542724609 36.5244064331055 36.4937553405762 36.4864845275879 36.4879341125488 36.4921112060547 36.5072860717773 36.5191078186035 36.510066986084 36.484001159668 36.4839477539062 36.5372085571289 36.6069831848145 36.6186790466309 36.6073417663574 36.6074409484863 36.5742874145508 36.5041236877441 36.4681510925293 36.4749298095703 36.4826240539551 36.4826889038086 36.4929885864258 36.4990425109863 36.5042991638184 36.5075149536133 36.5129699707031 36.5113334655762 36.5122108459473
-9999 -9999 -9999 35.8057422637939 35.8138389587402 36.0714797973633 36.1957511901855 36.2551040649414 36.2819900512695 36.2830009460449 36.2824516296387 36.2586402893066 36.2332038879395 36.2247161865234 36.2269020080566 36.2455024719238 36.2648315429688 36.3015251159668 36.3640327453613 36.4486770629883 36.4945335388184 36.497184753418 36.4927635192871 36.493968963623 36.5069580078125 36.5036506652832 36.47607421875 36.483829498291 36.5160026550293 36.5540618896484 36.6003227233887 36.6394958496094 36.6545295715332 36.6394844055176 36.595516204834 36.5433616638184 36.5213356018066 36.5435791015625 36.5765228271484 36.5832786560059 36.5777931213379 36.5720024108887 36.5536193847656 36.5182685852051 36.4960823059082 36.4917106628418 36.4908218383789 36.495677947998 36.5099296569824 36.5173187255859 36.5151405334473 36.5265884399414 36.5591049194336 36.5935897827148 36.591796875 36.5806503295898 36.5929222106934 36.5885696411133 36.5420761108398 36.4760513305664 36.450813293457 36.4586868286133 36.4584617614746 36.4671249389648 36.4786376953125 36.4942359924316 36.5081176757812 36.5168571472168 36.5162506103516 36.5122489929199
-9999 -9999 -9999 35.8309097290039 36.0262260437012 36.1782302856445 36.2594261169434 36.2919120788574 36.2870864868164 36.2607345581055 36.2354888916016 36.224666595459 36.2214813232422 36.2188987731934 36.2366943359375 36.2641525268555 36.2857551574707 36.3401336669922 36.408447265625 36.4783782958984 36.5162048339844 36.503101348877 36.4857215881348 36.4794540405273 36.4997863769531 36.5250701904297 36.5107955932617 36.5050582885742 36.5378646850586 36.5825042724609 36.6282424926758 36.6595611572266 36.6722221374512 36.6678581237793 36.6463317871094 36.6018943786621 36.559268951416 36.5622406005859 36.5898628234863 36.5984535217285 36.5907173156738 36.5783386230469 36.5683746337891 36.5517921447754 36.5248184204102 36.513313293457 36.5139312744141 36.5101661682129 36.5126838684082 36.5181121826172 36.5164260864258 36.527530670166 36.5478706359863 36.567081451416 36.5653228759766 36.5610008239746 36.5796890258789 36.5974082946777 36.5799560546875 36.5273933410645 36.4457817077637 36.4247093200684 36.4301872253418 36.4334754943848 36.4423789978027 36.4555053710938 36.4698944091797 36.4695892333984 36.4623908996582 36.4495468139648
