NCOLS 70 
NROWS 52 
XLLCORNER -80 
YLLCORNER 33 
CELLSIZE 0.25 
NODATA_value -9999 
-9999.000000000000000 -9999 -9999 -9999 -9999 -9999 -9999 -9999 -9999 -9999 -9999 -9999 -9999 -9999 -9999 -9999 -9999 -9999 -9999 -9999 -9999 -9999 -9999 -9999 -9999 -9999 -9999 -9999 -9999 -9999 -9999 -9999 -9999 -9999 -9999 -9999 -9999 -9999 -9999 -9999 -9999 -9999 -9999 -9999 -9999 -9999 -9999 -9999 -9999 -9999 -9999 -9999 -9999 -9999 -9999 -9999 -9999 -9999 -9999 -9999 -9999 -9999 -9999 -9999 -9999 -9999 -9999 -9999 -9999 -9999
-9999 -9999 -9999 -9999 -9999 -9999 -9999 -9999 -9999 -9999 -9999 -9999 -9999 -9999 -9999 -9999 -9999 -9999 -9999 -9999 -9999 -9999 -9999 -9999 -9999 -9999 -9999 -9999 -9999 -9999 -9999 -9999 -9999 -9999 -9999 -9999 -9999 -9999 -9999 -9999 -9999 -9999 -9999 -9999 -9999 -9999 -9999 -9999 -9999 -9999 -9999 -9999 -9999 -9999 -9999 -9999 -9999 -9999 -9999 -9999 -9999 -9999 -9999 -9999 -9999 -9999 -9999 -9999 -9999 -9999
-9999 -9999 -9999 -9999 -9999 -9999 -9999 -9999 -9999 -9999 -9999 -9999 -9999 -9999 -9999 -9999 -9999 -9999 -9999 -9999 -9999 -9999 -9999 -9999 -9999 -9999 -9999 -9999 -9999 -9999 -9999 -9999 -9999 -9999 -9999 -9999 -9999 -9999 -9999 -9999 -9999 -9999 -9999 -9999 -9999 -9999 -9999 -9999 -9999 -9999 -9999 -9999 -9999 -9999 -9999 -9999 -9999 -9999 -9999 29.933012008667 -9999 -9999 -9999 -9999 -9999 -9999 -9999 -9999 -9999 -9999
-9999 -9999 -9999 -9999 -9999 -9999 -9999 -9999 -9999 -9999 -9999 -9999 -9999 -9999 -9999 -9999 -9999 -9999 -9999 -9999 -9999 -9999 -9999 -9999 -9999 -9999 -9999 -9999 -9999 -9999 -9999 -9999 -9999 -9999 -9999 -9999 -9999 -9999 -9999 -9999 -9999 -9999 -9999 -9999 -9999 -9999 -9999 -9999 -9999 -9999 -9999 -9999 -9999 -9999 -9999 30.4435844421387 30.3769187927246 30.3724956512451 30.2436447143555 30.0002288818359 -9999 -9999 -9999 -9999 -9999 -9999 -9999 -9999 -9999 -9999
-9999 -9999 -9999 -9999 -9999 -9999 -9999 -9999 -9999 -9999 -9999 -9999 -9999 -9999 -9999 -9999 -9999 -9999 -9999 -9999 -9999 -9999 -9999 -9999 -9999 -9999 -9999 -9999 -9999 -9999 -9999 -9999 -9999 -9999 -9999 -9999 -9999 -9999 -9999 -9999 -9999 -9999 -9999 -9999 -9999 -9999 -9999 -9999 -9999 -9999 -9999 -9999 31.1942462921143 31.0797252655029 30.9713344573975 30.8733215332031 30.6609420776367 30.5903377532959 -9999 -9999 -9999 -9999 -9999 -9999 -9999 -9999 -9999 -9999 -9999 -9999
-9999 -9999 -9999 -9999 -9999 -9999 -9999 -9999 -9999 -9999 -9999 -9999 -9999 -9999 -9999 -9999 -9999 -9999 -9999 -9999 -9999 -9999 -9999 -9999 -9999 -9999 -9999 -9999 -9999 -9999 -9999 -9999 -9999 -9999 -9999 -9999 -9999 -9999 -9999 -9999 -9999 -9999 -9999 -9999 -9999 -9999 -9999 -9999 -9999 -9999 32.0474716186523 31.8822727203369 31.9103298187256 31.8383026123047 31.6055374145508 31.0001411437988 -9999 -9999 -9999 -9999 -9999 -9999 -9999 -9999 -9999 -9999 -9999 30.0564594268799 30.0368556976318 29.8878536224365
-9999 -9999 -9999 -9999 -9999 -9999 -9999 -9999 -9999 -9999 -9999 -9999 -9999 -9999 -9999 -9999 -9999 -9999 -9999 -9999 -9999 -9999 -9999 -9999 -9999 -9999 -9999 -9999 -9999 -9999 -9999 -9999 -9999 -9999 -9999 -9999 -9999 -9999 -9999 -9999 -9999 -9999 -9999 -9999 32.0155404408773 -9999 -9999 32.5118350982666 32.4769554138184 32.4469223022461 32.3458290100098 32.3082427978516 32.2744674682617 32.0289726257324 31.6775531768799 -9999 -9999 -9999 -9999 -9999 -9999 -9999 -9999 30.1498279571533 30.1022243499756 30.0582942962646 30.047737121582 30.0540027618408 30.0676383972168 30.1379280090332
-9999 -9999 -9999 -9999 -9999 -9999 -9999 -9999 -9999 -9999 -9999 -9999 -9999 -9999 -9999 -9999 -9999 -9999 -9999 -9999 -9999 -9999 -9999 -9999 -9999 -9999 -9999 -9999 -9999 -9999 -9999 -9999 -9999 -9999 -9999 -9999 -9999 -9999 -9999 -9999 -9999 -9999 -9999 -9999 31.9445629119873 32.2868576049805 32.5537223815918 32.5569000244141 32.4597625732422 32.3328056335449 32.1575660705566 31.9744262695312 31.7876415252686 31.617359161377 31.6810116767883 -9999 -9999 -9999 -9999 -9999 -9999 -9999 30.2259559631348 30.2170925140381 30.1771125793457 30.1442756652832 30.1572647094727 30.2143249511719 30.2686309814453 30.3316440582275
-9999 -9999 -9999 -9999 -9999 -9999 -9999 -9999 -9999 -9999 -9999 -9999 -9999 -9999 -9999 -9999 -9999 -9999 -9999 -9999 -9999 -9999 -9999 -9999 -9999 -9999 -9999 -9999 -9999 -9999 -9999 -9999 -9999 -9999 -9999 -9999 -9999 -9999 -9999 -9999 31.5943984985352 31.9648373921712 32.2506099700928 32.3778762817383 32.4681129455566 32.6364669799805 32.6417274475098 32.5129585266113 32.3467445373535 32.1784477233887 32.0224418640137 31.8033294677734 31.5431709289551 31.4001617431641 31.4026546478271 -9999 -9999 -9999 -9999 -9999 30.3790613810221 30.3265724182129 30.2836627960205 30.2791633605957 30.2840595245361 30.3349018096924 30.46315574646 30.6359577178955 30.7526969909668 30.8119087219238
-9999 -9999 -9999 -9999 -9999 -9999 -9999 -9999 -9999 -9999 -9999 -9999 -9999 -9999 -9999 -9999 -9999 -9999 -9999 -9999 -9999 -9999 -9999 -9999 -9999 -9999 -9999 -9999 -9999 -9999 -9999 -9999 -9999 -9999 -9999 -9999 -9999 -9999 -9999 31.3312492370605 31.5131282806396 31.9388179779053 32.4425659179688 32.6785888671875 32.7309074401855 32.7457275390625 32.7067794799805 32.6595230102539 32.6032524108887 32.5447578430176 32.4507827758789 32.1410751342773 31.6665458679199 31.3477153778076 31.2958087921143 31.3522281646729 -9999 -9999 -9999 30.5162405967712 30.4324474334717 30.3781642913818 30.3704013824463 30.3921642303467 30.4155406951904 30.4960651397705 30.6584873199463 30.8559665679932 31.0294876098633 31.1618041992188
-9999 -9999 -9999 -9999 -9999 -9999 -9999 -9999 -9999 -9999 -9999 -9999 -9999 -9999 -9999 -9999 -9999 -9999 -9999 -9999 -9999 -9999 -9999 -9999 -9999 -9999 -9999 -9999 -9999 -9999 -9999 -9999 -9999 -9999 -9999 -9999 -9999 -9999 32.084774017334 32.0193290710449 32.2820625305176 32.6347236633301 32.8279151916504 32.9287338256836 32.9511795043945 32.9579658508301 32.9713935852051 33.0067176818848 33.0253715515137 33.0040588378906 32.8346328735352 32.33447265625 31.7206077575684 31.3179931640625 31.1566848754883 31.1232376098633 30.9823360443115 30.8658399581909 30.6198234558105 30.5382804870605 30.4744110107422 30.4552707672119 30.4883003234863 30.5279483795166 30.5351657867432 30.5770072937012 30.6964378356934 30.8912372589111 31.1457080841064 31.3743190765381
-9999 -9999 -9999 -9999 -9999 -9999 -9999 -9999 -9999 -9999 -9999 -9999 -9999 -9999 -9999 -9999 -9999 -9999 -9999 -9999 -9999 -9999 -9999 -9999 -9999 -9999 -9999 -9999 -9999 -9999 -9999 -9999 -9999 -9999 -9999 -9999 -9999 32.2409858703613 32.3397750854492 32.4925308227539 32.7159652709961 32.909122467041 33.0066719055176 33.0677490234375 33.0992889404297 33.1224632263184 33.1634140014648 33.2248382568359 33.2642860412598 33.2071418762207 32.9042472839355 32.315128326416 31.774751663208 31.4389038085938 31.1437664031982 30.9656982421875 30.8598461151123 30.7448291778564 30.6472339630127 30.5751724243164 30.5371208190918 30.5381622314453 30.5852222442627 30.6460723876953 30.696662902832 30.7947101593018 30.9408054351807 31.1631183624268 31.4613800048828 31.7202377319336
-9999 -9999 -9999 -9999 -9999 -9999 -9999 -9999 -9999 -9999 -9999 -9999 -9999 -9999 -9999 -9999 -9999 -9999 -9999 -9999 -9999 -9999 -9999 -9999 -9999 -9999 -9999 -9999 -9999 -9999 -9999 -9999 -9999 -9999 -9999 -9999 -9999 32.4128074645996 32.5542907714844 32.7454566955566 32.8996543884277 33.0160865783691 33.0827789306641 33.1342658996582 33.1796226501465 33.2289657592773 33.2920722961426 33.3524017333984 33.3656463623047 33.2583503723145 32.9398155212402 32.4757347106934 32.1530609130859 31.9044418334961 31.433910369873 31.0296993255615 30.8854293823242 30.7874202728271 30.686372756958 30.6291732788086 30.6295680999756 30.6995067596436 30.8316078186035 30.9305973052979 30.9863567352295 31.1655292510986 31.3767604827881 31.5907363891602 31.8064193725586 32.068172454834
-9999 -9999 -9999 -9999 -9999 -9999 -9999 -9999 -9999 -9999 -9999 -9999 -9999 -9999 -9999 -9999 -9999 -9999 -9999 -9999 -9999 -9999 -9999 -9999 -9999 -9999 -9999 -9999 -9999 -9999 -9999 -9999 -9999 -9999 -9999 -9999 -9999 32.3911743164062 32.6140174865723 32.8070335388184 32.9250297546387 33.018741607666 33.0989837646484 33.1661834716797 33.2294731140137 33.2952117919922 33.3543281555176 33.3939018249512 33.409740447998 33.3635787963867 33.2004699707031 32.9963569641113 32.8750953674316 32.666259765625 32.0999412536621 31.4546165466309 31.109712600708 31.0058746337891 30.8976039886475 30.8682765960693 30.9883136749268 31.2867298126221 31.6339836120605 31.800802230835 31.8586292266846 32.1003684997559 32.3379364013672 32.4284858703613 32.3965034484863 32.4531059265137
-9999 -9999 -9999 -9999 -9999 -9999 -9999 -9999 -9999 -9999 -9999 -9999 -9999 -9999 -9999 -9999 -9999 -9999 -9999 -9999 -9999 -9999 -9999 -9999 -9999 -9999 -9999 -9999 -9999 -9999 -9999 -9999 -9999 -9999 -9999 -9999 32.0416259765625 32.3041305541992 32.5863037109375 32.7556991577148 32.8743591308594 32.9830322265625 33.084774017334 33.1665954589844 33.2355117797852 33.2939796447754 33.3291091918945 33.3491477966309 33.3754959106445 33.4009704589844 33.3847122192383 33.3407859802246 33.2924690246582 33.1255760192871 32.6417922973633 31.9397659301758 31.4673194885254 31.4596214294434 31.5179977416992 31.5531101226807 31.6795902252197 32.0908737182617 32.5372009277344 32.9734687805176 33.3501129150391 33.678466796875 33.9114265441895 33.9011116027832 33.7392158508301 33.400333404541
-9999 -9999 -9999 -9999 -9999 -9999 -9999 -9999 -9999 -9999 -9999 -9999 -9999 -9999 -9999 -9999 -9999 -9999 -9999 -9999 -9999 -9999 -9999 -9999 -9999 -9999 -9999 -9999 -9999 -9999 -9999 -9999 -9999 -9999 -9999 -9999 -9999 32.2878875732422 32.4176902770996 32.614501953125 32.773998260498 32.9114418029785 33.0255393981934 33.1124725341797 33.1770973205566 33.2252769470215 33.2502784729004 33.2724647521973 33.3023796081543 33.3371162414551 33.3457832336426 33.3317947387695 33.2532234191895 33.1200752258301 32.7900695800781 32.1983184814453 31.7974891662598 32.0951271057129 32.638313293457 32.7676467895508 32.7248382568359 32.7848968505859 32.9658889770508 33.358268737793 33.7254753112793 34.2277641296387 34.5718040466309 34.6036987304688 34.4532203674316 34.1152763366699
-9999 -9999 -9999 -9999 -9999 -9999 -9999 -9999 -9999 -9999 -9999 -9999 -9999 -9999 -9999 -9999 -9999 -9999 -9999 -9999 -9999 -9999 -9999 -9999 -9999 -9999 -9999 -9999 -9999 -9999 -9999 -9999 -9999 -9999 -9999 -9999 -9999 -9999 32.1770820617676 -9999 32.6565589904785 32.8004570007324 32.9243850708008 33.0264892578125 33.1017074584961 33.1626777648926 33.1954574584961 33.2194557189941 33.2295761108398 33.2276916503906 33.1918716430664 33.1275405883789 33.0103225708008 32.8916702270508 32.6387252807617 32.2836723327637 32.0619964599609 32.6527328491211 33.5044288635254 33.7278366088867 33.707103729248 33.5654602050781 33.6371879577637 33.9131774902344 34.2675361633301 34.7551116943359 34.9335632324219 34.7985572814941 34.4796485900879 34.2123260498047
-9999 -9999 -9999 -9999 -9999 -9999 -9999 -9999 -9999 -9999 -9999 -9999 -9999 -9999 -9999 -9999 -9999 -9999 -9999 -9999 -9999 -9999 -9999 -9999 -9999 -9999 -9999 -9999 -9999 -9999 -9999 -9999 -9999 -9999 -9999 -9999 -9999 -9999 -9999 -9999 32.7171974182129 32.788143157959 32.8815002441406 32.9936714172363 33.0915870666504 33.15966796875 33.1694068908691 33.1510963439941 33.1073989868164 33.0517387390137 32.9811668395996 32.9085960388184 32.8514022827148 32.7910232543945 32.5886459350586 32.3630790710449 32.3638801574707 33.2542610168457 33.9827995300293 34.2077178955078 34.2827072143555 34.3454093933105 34.5512466430664 34.8036308288574 35.0637168884277 35.2083587646484 35.1421928405762 34.9315185546875 34.5586624145508 34.3354797363281
-9999 -9999 -9999 -9999 -9999 -9999 -9999 -9999 -9999 -9999 -9999 -9999 -9999 -9999 -9999 -9999 -9999 -9999 -9999 -9999 -9999 -9999 -9999 -9999 -9999 -9999 -9999 -9999 -9999 -9999 -9999 -9999 -9999 -9999 31.3920960426331 31.2707939147949 31.4762268066406 -9999 32.1281623840332 32.4484825134277 32.6994819641113 32.8212776184082 32.9097557067871 33.0209770202637 33.1134643554688 33.1384963989258 33.1025657653809 33.0476303100586 32.9853210449219 32.9120216369629 32.8318824768066 32.7837753295898 32.7747573852539 32.7741813659668 32.673713684082 32.5674209594727 32.8128356933594 33.8352470397949 34.4705772399902 34.7203598022461 34.8625564575195 34.9823951721191 35.1562538146973 35.277904510498 35.3095741271973 35.2798004150391 35.1681022644043 35.0176773071289 34.7732048034668 34.6676940917969
-9999 -9999 -9999 -9999 -9999 -9999 -9999 -9999 -9999 -9999 -9999 -9999 -9999 -9999 -9999 -9999 -9999 -9999 -9999 -9999 -9999 -9999 -9999 -9999 -9999 -9999 -9999 25.358715057373 25.358715057373 26.0393505096436 27.0166625976562 28.9889984130859 30.7680339813232 31.2497310638428 31.4097461700439 31.6381130218506 31.9206314086914 32.1457481384277 32.3314094543457 32.524787902832 32.7241363525391 32.849250793457 32.9426116943359 33.0429382324219 33.1016502380371 33.0775718688965 33.0241851806641 32.9820899963379 32.9367294311523 32.8739471435547 32.821403503418 32.8035202026367 32.8027839660645 32.8188591003418 32.900707244873 33.0175018310547 33.4599342346191 34.3118667602539 34.772045135498 34.9243202209473 35.0885047912598 35.2117080688477 35.3142852783203 35.3474197387695 35.3261108398438 35.2721519470215 35.1810569763184 35.1010513305664 34.9933776855469 35.0555534362793
-9999 -9999 -9999 -9999 -9999 -9999 -9999 -9999 -9999 -9999 -9999 -9999 -9999 -9999 -9999 -9999 -9999 -9999 -9999 -9999 -9999 -9999 -9999 -9999 -9999 -9999 -9999 -9999 -9999 -9999 28.870943069458 30.2984580993652 31.9175682067871 32.3386421203613 32.4270858764648 32.5125617980957 32.5798606872559 32.632740020752 32.6578254699707 32.7078971862793 32.8154640197754 32.9072189331055 32.9848098754883 33.0501480102539 33.0604286193848 32.9982376098633 32.9387969970703 32.9539642333984 32.9973602294922 33.0099678039551 33.0443458557129 33.1314697265625 33.2034225463867 33.2251052856445 33.5553398132324 33.778450012207 33.9455223083496 34.4738082885742 34.8738822937012 35.1090698242188 35.3366088867188 35.4171981811523 35.4472808837891 35.4358367919922 35.4093818664551 35.3597831726074 35.3038215637207 35.2667236328125 35.2862319946289 35.4601249694824
-9999 -9999 -9999 -9999 -9999 -9999 -9999 -9999 -9999 -9999 -9999 -9999 -9999 -9999 -9999 -9999 -9999 -9999 -9999 -9999 -9999 -9999 -9999 -9999 -9999 32.1389605204264 32.5769488016764 32.8720321655273 32.919867515564 32.7256736755371 32.6308441162109 32.4922561645508 32.4956359863281 32.6731224060059 32.8175086975098 32.9110908508301 32.9534950256348 32.9691848754883 32.9447135925293 32.9326210021973 32.9714050292969 33.0122375488281 33.0409355163574 33.0674743652344 33.0809707641602 33.0629386901855 33.0289649963379 33.1360778808594 33.3433570861816 33.4561347961426 33.5115013122559 33.6911163330078 33.9134979248047 33.9939002990723 34.3554992675781 34.4661140441895 34.4126396179199 34.7949562072754 35.1381797790527 35.4014625549316 35.5929756164551 35.6018371582031 35.5614280700684 35.5345344543457 35.5016136169434 35.4744644165039 35.4638175964355 35.4707641601562 35.5328979492188 35.6411399841309
-9999 -9999 -9999 -9999 -9999 -9999 -9999 -9999 -9999 -9999 -9999 -9999 -9999 -9999 -9999 -9999 -9999 -9999 -9999 -9999 -9999 -9999 -9999 -9999 31.627124786377 32.1401596069336 32.6495971679688 32.941089630127 33.0254096984863 32.9872970581055 32.9028511047363 32.7970275878906 32.8023872375488 32.9669036865234 33.1590118408203 33.2774505615234 33.3162040710449 33.3100318908691 33.2588539123535 33.2282180786133 33.2193832397461 33.1991653442383 33.1965370178223 33.2758331298828 33.4225578308105 33.5378913879395 33.5976181030273 33.8015022277832 34.1078987121582 34.2406539916992 34.2194366455078 34.3705062866211 34.6366958618164 34.7734565734863 34.9729995727539 35.0366287231445 35.094123840332 35.3809852600098 35.5813751220703 35.7380981445312 35.8255729675293 35.8154182434082 35.7494430541992 35.67822265625 35.6247978210449 35.5806083679199 35.5603446960449 35.5549430847168 35.5995635986328 35.6528015136719
-9999 -9999 -9999 -9999 -9999 -9999 -9999 -9999 -9999 -9999 -9999 -9999 -9999 -9999 -9999 -9999 -9999 -9999 -9999 -9999 -9999 -9999 -9999 -9999 31.9091796875 32.5308685302734 33.0276565551758 33.2513046264648 33.2546119689941 33.1780471801758 33.1426696777344 33.1570358276367 33.2099990844727 33.3489837646484 33.5684089660645 33.747875213623 33.8736572265625 33.9448471069336 33.9623413085938 33.9848022460938 33.9498062133789 33.8488235473633 33.7817802429199 33.9071464538574 34.1701965332031 34.3862342834473 34.5372123718262 34.7572059631348 34.969123840332 35.028507232666 34.9518547058105 35.0187530517578 35.21728515625 35.2946510314941 35.389232635498 35.4887962341309 35.6028594970703 35.7359428405762 35.8290786743164 35.9247245788574 35.9797554016113 35.993221282959 35.9826583862305 35.9443664550781 35.8975448608398 35.8398361206055 35.784366607666 35.707576751709 35.6746063232422 35.6701850891113
-9999 -9999 -9999 -9999 -9999 -9999 -9999 -9999 -9999 -9999 -9999 -9999 -9999 -9999 -9999 -9999 -9999 -9999 -9999 -9999 -9999 -9999 -9999 32.2821769714355 32.2020416259766 32.8163032531738 33.2763938903809 33.4532623291016 33.4668655395508 33.5087509155273 33.6665649414062 33.8250389099121 33.8235282897949 33.8444137573242 34.0843238830566 34.4067687988281 34.7161331176758 34.9214859008789 35.0281639099121 35.0973052978516 35.0816040039062 34.9908103942871 34.9040451049805 34.9211921691895 35.0438385009766 35.1998901367188 35.3451385498047 35.4700469970703 35.5129318237305 35.4935722351074 35.3929824829102 35.3708992004395 35.5088806152344 35.5714530944824 35.6116065979004 35.6738052368164 35.7398872375488 35.8390769958496 35.9311828613281 36.0156173706055 36.0840339660645 36.1319351196289 36.1665687561035 36.1819877624512 36.1654968261719 36.1372756958008 36.1070518493652 36.0487327575684 35.9878005981445 35.920238494873
-9999 -9999 -9999 -9999 -9999 -9999 -9999 -9999 -9999 -9999 -9999 -9999 -9999 -9999 -9999 -9999 -9999 -9999 -9999 -9999 -9999 -9999 -9999 32.3569526672363 32.6605339050293 33.186939239502 33.5346603393555 33.6674499511719 33.7626495361328 33.9917945861816 34.3102798461914 34.487476348877 34.3826141357422 34.2561302185059 34.4466667175293 34.854362487793 35.2538719177246 35.5052261352539 35.6226463317871 35.6563453674316 35.6386642456055 35.6216087341309 35.6172180175781 35.5881576538086 35.5894165039062 35.6686973571777 35.7597351074219 35.7818641662598 35.7474975585938 35.7138481140137 35.6343116760254 35.5723266601562 35.6100387573242 35.6287574768066 35.6482467651367 35.7037696838379 35.7630271911621 35.8509178161621 35.9664115905762 36.0861473083496 36.1766090393066 36.2287139892578 36.2624168395996 36.2870140075684 36.3018608093262 36.3062973022461 36.2962608337402 36.2811126708984 36.2736587524414 36.2436027526855
-9999 -9999 -9999 -9999 -9999 -9999 -9999 -9999 -9999 -9999 -9999 -9999 -9999 -9999 -9999 -9999 -9999 -9999 -9999 -9999 -9999 -9999 32.9226264953613 32.9341812133789 33.2209587097168 33.6138801574707 33.8346672058105 33.9453201293945 34.1385841369629 34.4923248291016 34.7871398925781 34.8529014587402 34.7264785766602 34.5665893554688 34.636962890625 34.9126930236816 35.2054328918457 35.4455757141113 35.6140670776367 35.6762886047363 35.6752166748047 35.6803245544434 35.6957740783691 35.7236213684082 35.7784004211426 35.8409461975098 35.8689651489258 35.8432388305664 35.7995452880859 35.7672348022461 35.7075233459473 35.6496543884277 35.6390991210938 35.632568359375 35.6583099365234 35.7315979003906 35.8096771240234 35.8851127624512 36.0003967285156 36.1451301574707 36.2385101318359 36.2792549133301 36.3144493103027 36.3519821166992 36.3860359191895 36.4119338989258 36.4197120666504 36.4098892211914 36.399715423584 36.3937797546387
-9999 -9999 -9999 -9999 -9999 -9999 -9999 -9999 -9999 -9999 -9999 -9999 -9999 -9999 18.7704431215922 -9999 -9999 -9999 -9999 32.7733001708984 -9999 33.071849822998 33.1641616821289 33.372257232666 33.7017517089844 33.9813652038574 34.1501121520996 34.3635139465332 34.7122192382812 35.0874519348145 35.2777633666992 35.2924156188965 35.2051582336426 35.1091537475586 35.1457366943359 35.251049041748 35.3173446655273 35.403621673584 35.5565643310547 35.6938133239746 35.7847595214844 35.8511695861816 35.87939453125 35.9067001342773 35.9355087280273 35.9303779602051 35.9011306762695 35.8678932189941 35.8299140930176 35.7839584350586 35.7218360900879 35.6748046875 35.6591186523438 35.6580123901367 35.7143478393555 35.8229103088379 35.9180755615234 35.9866218566895 36.0819358825684 36.2025260925293 36.2854232788086 36.3296089172363 36.3741493225098 36.426025390625 36.4743614196777 36.5077056884766 36.5235939025879 36.5247039794922 36.5157470703125 36.5052223205566
-9999 -9999 -9999 -9999 -9999 -9999 -9999 -9999 -9999 -9999 -9999 -9999 -9999 -9999 18.782576084137 -9999 -9999 -9999 -9999 32.8333015441895 33.1103561401367 33.2616691589355 33.5101852416992 33.8130760192871 34.1516647338867 34.3884887695312 34.603214263916 34.933895111084 35.3113975524902 35.5820274353027 35.7040596008301 35.7434539794922 35.713306427002 35.6638031005859 35.6775245666504 35.6957511901855 35.6365585327148 35.5679359436035 35.597770690918 35.7099304199219 35.8614921569824 36.0103988647461 36.080680847168 36.094425201416 36.0911712646484 36.0622024536133 36.0072021484375 35.9551620483398 35.9114532470703 35.8443641662598 35.7561454772949 35.6989784240723 35.687141418457 35.7000885009766 35.7662963867188 35.8760528564453 35.9632453918457 36.0339088439941 36.1315803527832 36.2394638061523 36.3234252929688 36.3810501098633 36.4398422241211 36.5032081604004 36.5538482666016 36.5807495117188 36.5885810852051 36.5897102355957 36.5863227844238 36.5801963806152
-9999 -9999 -9999 -9999 -9999 -9999 -9999 -9999 -9999 -9999 -9999 -9999 -9999 -9999 18.7279777526855 -9999 -9999 -9999 -9999 -9999 33.5817108154297 33.5516586303711 33.883472442627 34.2775039672852 34.6434059143066 34.8822937011719 35.1200141906738 35.4060325622559 35.6389312744141 35.790412902832 35.8907051086426 35.9451751708984 35.9454650878906 35.9193878173828 35.9134712219238 35.9148254394531 35.8797607421875 35.8201179504395 35.7977142333984 35.8426551818848 35.9425277709961 36.0694198608398 36.1614761352539 36.196159362793 36.1962547302246 36.1783409118652 36.1456985473633 36.1049537658691 36.0452880859375 35.9488143920898 35.8453025817871 35.7869834899902 35.7814826965332 35.7990074157715 35.8487167358398 35.9283294677734 36.0005493164062 36.0847206115723 36.1956329345703 36.3021583557129 36.3890342712402 36.4536666870117 36.511547088623 36.5638732910156 36.5987434387207 36.6125640869141 36.6121673583984 36.6108894348145 36.6111106872559 36.6102905273438
-9999 -9999 -9999 -9999 -9999 -9999 -9999 -9999 -9999 -9999 -9999 -9999 -9999 -9999 18.7917327880859 -9999 18.9463710784912 -9999 -9999 -9999 33.6969566345215 33.8165588378906 34.2333869934082 34.723690032959 35.1188468933105 35.3217468261719 35.4765357971191 35.6459350585938 35.787841796875 35.9034652709961 35.990608215332 36.0338706970215 36.0456275939941 36.059024810791 36.0757865905762 36.0867118835449 36.0848083496094 36.0711631774902 36.0733871459961 36.1043853759766 36.1372604370117 36.1719665527344 36.2129821777344 36.2390670776367 36.2418098449707 36.2388534545898 36.2403678894043 36.2360420227051 36.2062873840332 36.1455726623535 36.080509185791 36.037670135498 36.0282135009766 36.0376319885254 36.0708656311035 36.1217651367188 36.1778564453125 36.2569313049316 36.3435478210449 36.4188499450684 36.4783058166504 36.5225448608398 36.5610885620117 36.5932579040527 36.6090316772461 36.6141357421875 36.6151275634766 36.6203269958496 36.6239967346191 36.6217803955078
-9999 -9999 -9999 -9999 -9999 -9999 -9999 -9999 -9999 -9999 -9999 -9999 -9999 -9999 18.7917327880859 18.8554878234863 19.2567806243896 -9999 -9999 33.9359264373779 33.8699417114258 34.164608001709 34.6618843078613 35.1282272338867 35.4108390808105 35.5032043457031 35.5475807189941 35.6265869140625 35.7414665222168 35.8803329467773 35.9968147277832 36.066822052002 36.1056861877441 36.1321105957031 36.1466484069824 36.158275604248 36.1728630065918 36.1880760192871 36.2123718261719 36.2448120117188 36.26806640625 36.2796401977539 36.287467956543 36.2891616821289 36.2850379943848 36.2871627807617 36.2959175109863 36.3064155578613 36.3150405883789 36.315673828125 36.3098258972168 36.3017044067383 36.2997550964355 36.3049125671387 36.3228950500488 36.3501396179199 36.3888664245605 36.4356880187988 36.4743309020996 36.508472442627 36.5381317138672 36.5601539611816 36.5791320800781 36.5946426391602 36.6040420532227 36.6122245788574 36.6169204711914 36.6232719421387 36.6225280761719 36.616771697998
-9999 -9999 -9999 -9999 -9999 -9999 -9999 -9999 -9999 -9999 -9999 -9999 -9999 -9999 -9999 20.5382286071777 19.7557239532471 -9999 30.3205142021179 34.0232620239258 34.1535453796387 34.5423393249512 35.0291557312012 35.3834342956543 35.5464286804199 35.6046714782715 35.6397552490234 35.6968078613281 35.776798248291 35.8731880187988 35.9744415283203 36.0558013916016 36.1113052368164 36.1425361633301 36.1657295227051 36.1944122314453 36.2279968261719 36.263427734375 36.3014106750488 36.3382186889648 36.3683319091797 36.3883056640625 36.3947944641113 36.3885154724121 36.3766136169434 36.3694000244141 36.3712921142578 36.3807525634766 36.3956069946289 36.4118957519531 36.4276084899902 36.4409446716309 36.4516525268555 36.4613952636719 36.4743041992188 36.4896087646484 36.5095825195312 36.5262641906738 36.5366401672363 36.5514793395996 36.568286895752 36.5777244567871 36.5857810974121 36.5944366455078 36.6014251708984 36.610034942627 36.6112670898438 36.6132736206055 36.6114463806152 36.609001159668
-9999 -9999 -9999 -9999 -9999 -9999 -9999 -9999 -9999 -9999 -9999 -9999 -9999 -9999 -9999 21.7527484893799 23.0704021453857 -9999 33.6163558959961 34.1006126403809 34.384708404541 34.8241577148438 35.3194160461426 35.642276763916 35.7934761047363 35.9189224243164 35.9903335571289 36.042537689209 36.0850868225098 36.1202278137207 36.1599388122559 36.1995697021484 36.2366714477539 36.2700538635254 36.3033790588379 36.3383750915527 36.372688293457 36.4064407348633 36.4386901855469 36.4665184020996 36.4878997802734 36.502311706543 36.5076446533203 36.5029602050781 36.4915199279785 36.4783592224121 36.4723358154297 36.4747161865234 36.4839477539062 36.4967498779297 36.5099716186523 36.5211334228516 36.5302963256836 36.5381202697754 36.5424537658691 36.5434532165527 36.5484161376953 36.551155090332 36.5500144958496 36.5613441467285 36.5740852355957 36.5774269104004 36.5816421508789 36.5916633605957 36.6022491455078 36.609806060791 36.6066207885742 36.6069984436035 36.6069374084473 36.6073989868164
-9999 -9999 -9999 -9999 -9999 -9999 -9999 -9999 -9999 -9999 -9999 -9999 -9999 -9999 -9999 22.7675952911377 -9999 29.036842073713 33.4669952392578 34.2094764709473 34.6055717468262 35.1075630187988 35.5994567871094 35.8822364807129 36.0213088989258 36.1294021606445 36.1864433288574 36.2327995300293 36.2740669250488 36.3095359802246 36.3398056030273 36.3661804199219 36.3911781311035 36.416618347168 36.4407234191895 36.4631614685059 36.4841613769531 36.5038108825684 36.5204048156738 36.5336608886719 36.544506072998 36.5539245605469 36.560188293457 36.5593299865723 36.5526885986328 36.5441856384277 36.5407752990723 36.5454559326172 36.5541496276855 36.564094543457 36.5717391967773 36.5743026733398 36.574089050293 36.57470703125 36.5702133178711 36.5585632324219 36.5536003112793 36.5474510192871 36.5436363220215 36.5534858703613 36.5642471313477 36.5646667480469 36.5714416503906 36.5865325927734 36.6032485961914 36.6129302978516 36.6081619262695 36.6090316772461 36.6106376647949 36.6133308410645
-9999 -9999 -9999 -9999 -9999 -9999 -9999 -9999 -9999 -9999 -9999 -9999 -9999 -9999 22.7675952911377 24.3725516001383 25.6093158721924 29.9288749694824 32.8252067565918 34.186164855957 34.8524589538574 35.4274482727051 35.8335075378418 36.0062255859375 36.1084098815918 36.1897773742676 36.2550506591797 36.3138694763184 36.3661155700684 36.4086532592773 36.4425811767578 36.4701957702637 36.4926223754883 36.510627746582 36.525218963623 36.537052154541 36.5458717346191 36.5514602661133 36.5541801452637 36.5567169189453 36.5614891052246 36.5686302185059 36.5762519836426 36.5813217163086 36.5820922851562 36.5837326049805 36.5894241333008 36.5948905944824 36.6002082824707 36.6075897216797 36.6056594848633 36.5943717956543 36.5830612182617 36.5789947509766 36.577564239502 36.5653381347656 36.5539665222168 36.5467147827148 36.5459251403809 36.5504150390625 36.5632743835449 36.570873260498 36.5746078491211 36.5854377746582 36.6027488708496 36.6151237487793 36.6132545471191 36.6156578063965 36.6187362670898 36.6212730407715
-9999 -9999 -9999 -9999 -9999 -9999 -9999 -9999 -9999 -9999 -9999 -9999 -9999 -9999 -9999 -9999 29.1907339096069 30.1480293273926 32.8794059753418 34.3173408508301 35.0303153991699 35.5874328613281 35.9473190307617 36.0755004882812 36.184440612793 36.2718162536621 36.3348503112793 36.3881378173828 36.4342498779297 36.4746475219727 36.5117530822754 36.5416145324707 36.5618705749512 36.5734634399414 36.5793342590332 36.5812911987305 36.5789794921875 36.573844909668 36.5698204040527 36.5706748962402 36.5763664245605 36.5875930786133 36.601692199707 36.6142311096191 36.6240921020508 36.6304702758789 36.6295127868652 36.6293106079102 36.6354942321777 36.6375045776367 36.6211967468262 36.5977172851562 36.5831871032715 36.578441619873 36.581428527832 36.581916809082 36.5761947631836 36.5699729919434 36.5657730102539 36.5632019042969 36.5725364685059 36.5843811035156 36.583667755127 36.5860748291016 36.5974349975586 36.6067504882812 36.608715057373 36.613151550293 36.6187744140625 36.6215133666992
-9999 -9999 -9999 -9999 -9999 -9999 -9999 -9999 -9999 -9999 -9999 -9999 -9999 -9999 -9999 -9999 30.6123723983765 31.0767154693604 33.3269729614258 34.5745124816895 35.203987121582 35.6849479675293 35.9984130859375 36.1435890197754 36.2583923339844 36.3312377929688 36.389476776123 36.4463081359863 36.5007743835449 36.5494956970215 36.5832443237305 36.6007308959961 36.6067428588867 36.6054077148438 36.6004066467285 36.591724395752 36.5797538757324 36.5716743469238 36.5737609863281 36.5849761962891 36.598503112793 36.6161994934082 36.6327018737793 36.6432189941406 36.6492195129395 36.6446113586426 36.6346893310547 36.6375122070312 36.643985748291 36.6363487243652 36.6144752502441 36.598030090332 36.5967674255371 36.6067199707031 36.6110534667969 36.6126022338867 36.6091003417969 36.5985221862793 36.5870399475098 36.5813827514648 36.5885238647461 36.5999298095703 36.5961685180664 36.5819816589355 36.5850028991699 36.5903701782227 36.5936698913574 36.5997123718262 36.6079902648926 36.6159210205078
-9999 -9999 -9999 -9999 -9999 -9999 -9999 -9999 -9999 -9999 -9999 -9999 -9999 -9999 -9999 -9999 -9999 32.70197057724 33.334888458252 34.7929763793945 35.3677749633789 35.7195892333984 36.0364456176758 36.2177429199219 36.3170394897461 36.3790321350098 36.4421157836914 36.511531829834 36.5703926086426 36.6040573120117 36.6190376281738 36.6219520568848 36.6193351745605 36.6147727966309 36.6091461181641 36.5989112854004 36.5873184204102 36.5851020812988 36.5944786071777 36.6087646484375 36.6219215393066 36.6379127502441 36.648078918457 36.651252746582 36.6471138000488 36.6321983337402 36.6209030151367 36.6271514892578 36.6309280395508 36.621524810791 36.6088981628418 36.607048034668 36.6210060119629 36.6405563354492 36.6377487182617 36.6279525756836 36.6221923828125 36.6153106689453 36.6069526672363 36.6039619445801 36.6125144958496 36.6250801086426 36.6275177001953 36.6132469177246 36.6039581298828 36.6029930114746 36.6045379638672 36.6087188720703 36.6144523620605 36.6223602294922
-9999 -9999 -9999 -9999 -9999 -9999 -9999 -9999 -9999 -9999 -9999 -9999 -9999 -9999 30.9606297016144 31.0767154693604 32.5125221014023 33.2020969390869 33.0693054199219 34.3875122070312 35.2766418457031 35.7783889770508 36.1488761901855 36.2932472229004 36.3567771911621 36.4162826538086 36.4937286376953 36.5651817321777 36.6048240661621 36.6246948242188 36.6323165893555 36.6344223022461 36.6319541931152 36.6276817321777 36.6233673095703 36.6156120300293 36.6080741882324 36.6103477478027 36.621410369873 36.6303863525391 36.6366729736328 36.6454200744629 36.6489334106445 36.6471900939941 36.637336730957 36.619686126709 36.6091079711914 36.6151504516602 36.6194534301758 36.6163482666016 36.6142768859863 36.6221351623535 36.6402893066406 36.6547546386719 36.6494674682617 36.6348838806152 36.626407623291 36.6254463195801 36.6238136291504 36.6237602233887 36.6272811889648 36.6394119262695 36.6499786376953 36.6466102600098 36.6369323730469 36.6315956115723 36.6260566711426 36.6264038085938 36.6323928833008 36.644947052002
-9999 -9999 -9999 -9999 -9999 -9999 -9999 -9999 -9999 -9999 -9999 -9999 -9999 -9999 -9999 -9999 -9999 -9999 34.0972213745117 34.2324371337891 35.203052520752 35.9594573974609 36.244743347168 36.3347015380859 36.3935737609863 36.4683570861816 36.5431632995605 36.5925636291504 36.6174926757812 36.6361885070801 36.6442680358887 36.6487312316895 36.6479148864746 36.6437492370605 36.6384086608887 36.6311569213867 36.6253318786621 36.6281127929688 36.6385383605957 36.6424789428711 36.6432189941406 36.6468048095703 36.6466178894043 36.6422271728516 36.6310195922852 36.6149635314941 36.6063079833984 36.6110000610352 36.6163063049316 36.6178550720215 36.6219482421875 36.6348915100098 36.6515769958496 36.6605453491211 36.6569175720215 36.6417198181152 36.6292610168457 36.6267852783203 36.6287727355957 36.6350479125977 36.6392631530762 36.6479606628418 36.6542434692383 36.6484718322754 36.6380577087402 36.6330223083496 36.637336730957 36.6433639526367 36.6515197753906 36.6699295043945
-9999 -9999 -9999 -9999 -9999 -9999 -9999 -9999 -9999 -9999 -9999 -9999 -9999 -9999 -9999 -9999 -9999 35.1649475097656 34.8987274169922 34.6996307373047 35.5369262695312 36.1847534179688 36.3175888061523 36.3672523498535 36.4279556274414 36.5095405578613 36.5734939575195 36.6082572937012 36.6300582885742 36.6461639404297 36.6532173156738 36.6572799682617 36.6569786071777 36.6533203125 36.6482429504395 36.6416511535645 36.6363906860352 36.6387100219727 36.6473922729492 36.6478805541992 36.6459503173828 36.6478042602539 36.6463012695312 36.640998840332 36.6314888000488 36.6178550720215 36.6096458435059 36.6158027648926 36.6244430541992 36.6272163391113 36.6320495605469 36.6454696655273 36.6615295410156 36.6698760986328 36.6683540344238 36.6547393798828 36.6403045654297 36.6339111328125 36.6340675354004 36.639476776123 36.6463165283203 36.6542282104492 36.6538314819336 36.6448516845703 36.6323432922363 36.6241874694824 36.6269378662109 36.6416282653809 36.6553802490234 36.6660575866699
-9999 -9999 -9999 -9999 -9999 -9999 -9999 -9999 -9999 -9999 -9999 -9999 -9999 35.9898796081543 35.9957105848524 -9999 35.949405670166 35.7468347549438 35.1649475097656 35.4978942871094 36.0753517150879 36.3038711547852 36.3552017211914 36.3972396850586 36.4675140380859 36.5421981811523 36.5910911560059 36.6160202026367 36.6377639770508 36.6516380310059 36.658748626709 36.6615753173828 36.6611328125 36.6576766967773 36.653003692627 36.6482620239258 36.6442756652832 36.6460990905762 36.652416229248 36.6503067016602 36.6458625793457 36.6474609375 36.6482772827148 36.6450996398926 36.6393928527832 36.6306648254395 36.6235008239746 36.6314659118652 36.6418533325195 36.6434135437012 36.6487007141113 36.6621055603027 36.6740760803223 36.6796951293945 36.6772613525391 36.6658058166504 36.6518669128418 36.6438293457031 36.6435508728027 36.6476974487305 36.6493644714355 36.6509475708008 36.6484031677246 36.6438140869141 36.6348609924316 36.6234970092773 36.6175384521484 36.629222869873 36.6502265930176 36.6632804870605
-9999 -9999 -9999 -9999 -9999 -9999 -9999 -9999 -9999 -9999 -9999 -9999 -9999 -9999 35.9898796081543 36.0294405619303 35.9678115844727 35.9309997558594 35.9235801696777 36.1932182312012 36.312858581543 36.3536911010742 36.3748970031738 36.4229774475098 36.4962959289551 36.5647163391113 36.5988578796387 36.6185684204102 36.6399421691895 36.6536407470703 36.6609344482422 36.6635246276855 36.6640586853027 36.6631889343262 36.6607666015625 36.6571731567383 36.6537284851074 36.6536560058594 36.6575202941895 36.655143737793 36.6495094299316 36.6491241455078 36.6506538391113 36.6496810913086 36.645923614502 36.6412048339844 36.6407318115234 36.6475028991699 36.6504325866699 36.654541015625 36.6700401306152 36.6865921020508 36.6938552856445 36.6935539245605 36.6880683898926 36.6771965026855 36.6663246154785 36.6613006591797 36.660457611084 36.6590919494629 36.6540184020996 36.6509284973145 36.645450592041 36.6477355957031 36.6464309692383 36.633659362793 36.6166915893555 36.6137657165527 36.6335258483887 36.651782989502
-9999 -9999 -9999 -9999 -9999 -9999 -9999 -9999 -9999 -9999 -9999 -9999 -9999 -9999 36.0456285476685 35.9898796081543 36.1306304931641 36.176944732666 36.2544364929199 36.3292655944824 36.3430595397949 36.3555526733398 36.3839263916016 36.4374122619629 36.5148849487305 36.5781364440918 36.5987014770508 36.6158027648926 36.6358833312988 36.6508140563965 36.659481048584 36.6639633178711 36.6670074462891 36.6685066223145 36.6679649353027 36.6653594970703 36.6615333557129 36.6591796875 36.6610679626465 36.6613502502441 36.6577072143555 36.6552429199219 36.6551628112793 36.6549530029297 36.6530418395996 36.652229309082 36.6537094116211 36.6534271240234 36.6517105102539 36.6650352478027 36.6878318786621 36.7066383361816 36.7128486633301 36.7093849182129 36.701774597168 36.6910820007324 36.6841011047363 36.6824645996094 36.679256439209 36.6714897155762 36.6616401672363 36.6570434570312 36.6471405029297 36.6494636535645 36.6515846252441 36.6434745788574 36.624584197998 36.6025733947754 36.6094741821289 36.6289443969727
-9999 -9999 -9999 -9999 -9999 -9999 -9999 -9999 -9999 -9999 -9999 35.6373291015625 35.8234596252441 36.0249671936035 35.9965362548828 36.1711311340332 36.2757339477539 36.2953720092773 36.3143005371094 36.3331031799316 36.3468971252441 36.3676261901855 36.3990707397461 36.4512176513672 36.5318031311035 36.5841407775879 36.5948486328125 36.6104736328125 36.6287307739258 36.6440086364746 36.6531372070312 36.6584968566895 36.6623878479004 36.6648788452148 36.6663284301758 36.6666717529297 36.6655426025391 36.6635856628418 36.6637687683105 36.6646499633789 36.6637840270996 36.6621208190918 36.6605949401855 36.6589508056641 36.6570663452148 36.6557235717773 36.6535606384277 36.6499061584473 36.6582641601562 36.6791572570801 36.7000846862793 36.7148132324219 36.7203559875488 36.7185440063477 36.7141456604004 36.7074127197266 36.7009048461914 36.6964874267578 36.6887130737305 36.6770477294922 36.6674118041992 36.663761138916 36.6517524719238 36.6494445800781 36.6480522155762 36.6423530578613 36.628719329834 36.6031265258789 36.5880088806152 36.5954551696777
-9999 -9999 -9999 -9999 -9999 -9999 -9999 -9999 -9999 35.4377212524414 35.758171081543 35.9788246154785 36.163272857666 36.2272911071777 36.2040748596191 36.2620429992676 36.2896308898926 36.3051223754883 36.3218994140625 36.343448638916 36.3578643798828 36.3807525634766 36.4224662780762 36.4767608642578 36.5481033325195 36.582763671875 36.5843620300293 36.5997161865234 36.6187744140625 36.6319351196289 36.6402778625488 36.6454544067383 36.6484565734863 36.650764465332 36.652904510498 36.654483795166 36.6553535461426 36.6557960510254 36.6563186645508 36.6570281982422 36.6567497253418 36.6560592651367 36.6550369262695 36.6536178588867 36.6526298522949 36.6520462036133 36.6520538330078 36.6578521728516 36.6732788085938 36.689151763916 36.7021903991699 36.7107620239258 36.7139511108398 36.7132987976074 36.7120628356934 36.7094421386719 36.7048530578613 36.6985893249512 36.6887130737305 36.6768341064453 36.6690521240234 36.6677436828613 36.6584434509277 36.6524085998535 36.648120880127 36.6427040100098 36.632453918457 36.6091537475586 36.5838928222656 36.5786933898926
-9999 -9999 -9999 -9999 -9999 -9999 -9999 -9999 -9999 35.7077713012695 36.0427284240723 36.2096672058105 36.2546043395996 36.2749938964844 36.2709846496582 36.2804832458496 36.2945671081543 36.3101844787598 36.3368530273438 36.3569412231445 36.3686790466309 36.3943710327148 36.4419593811035 36.4965057373047 36.5524864196777 36.5815658569336 36.5835304260254 36.5891304016113 36.6023254394531 36.6173934936523 36.6272735595703 36.6336097717285 36.6377449035645 36.6407356262207 36.6433029174805 36.6457710266113 36.6478691101074 36.6495399475098 36.650764465332 36.6520195007324 36.6530113220215 36.6537094116211 36.6546516418457 36.6551513671875 36.6565284729004 36.6592979431152 36.6637344360352 36.6723442077637 36.6806259155273 36.6872596740723 36.6933097839355 36.6963729858398 36.6958312988281 36.6937980651855 36.6931419372559 36.6926612854004 36.6902618408203 36.6859970092773 36.6778907775879 36.6696357727051 36.6662063598633 36.6680603027344 36.6638107299805 36.658275604248 36.6527252197266 36.6481781005859 36.6364860534668 36.6122283935547 36.5785598754883 36.5585327148438
-9999 -9999 -9999 -9999 -9999 35.605936050415 35.6504707336426 35.7610969543457 35.7801818847656 35.8640441894531 36.1115493774414 36.2480964660645 36.2792587280273 36.2816734313965 36.2744598388672 36.2868270874023 36.3062591552734 36.3290977478027 36.355655670166 36.3670501708984 36.383113861084 36.4004936218262 36.445442199707 36.4954490661621 36.5373153686523 36.574104309082 36.5968017578125 36.5973701477051 36.5939865112305 36.6007843017578 36.6127052307129 36.6234855651855 36.6304321289062 36.6345329284668 36.6380500793457 36.642204284668 36.6469345092773 36.6506958007812 36.6535415649414 36.6551971435547 36.6553649902344 36.6555252075195 36.6567573547363 36.657772064209 36.6593246459961 36.6635131835938 36.6697311401367 36.6758766174316 36.678638458252 36.6803359985352 36.6826553344727 36.6835975646973 36.6826400756836 36.6799850463867 36.6783447265625 36.677978515625 36.6766510009766 36.6745872497559 36.6707344055176 36.6658210754395 36.6641960144043 36.6660385131836 36.6646919250488 36.6610832214355 36.6563911437988 36.6519393920898 36.6381950378418 36.6118812561035 36.5752944946289 36.5400161743164
-9999 -9999 -9999 -9999 35.2312393188477 35.5799446105957 35.9620895385742 36.0991363525391 36.1382637023926 36.1646957397461 36.2518501281738 36.2830848693848 36.2741279602051 36.2647857666016 36.2749404907227 36.3023376464844 36.3196449279785 36.3499374389648 36.3740348815918 36.3911323547363 36.406665802002 36.4126663208008 36.4464683532715 36.4878883361816 36.5128173828125 36.5382537841797 36.5709457397461 36.599666595459 36.6020622253418 36.5943717956543 36.599006652832 36.6110954284668 36.6224327087402 36.6290321350098 36.6318435668945 36.6340065002441 36.6372146606445 36.6421241760254 36.6486396789551 36.6539421081543 36.6542091369629 36.6530075073242 36.6553153991699 36.6592254638672 36.6618576049805 36.6646423339844 36.670295715332 36.6751594543457 36.6762199401855 36.6766510009766 36.6778335571289 36.6788291931152 36.6786689758301 36.6761131286621 36.6732978820801 36.6710548400879 36.6698989868164 36.6691703796387 36.6667289733887 36.6625709533691 36.6621322631836 36.6635284423828 36.6632843017578 36.660816192627 36.6584854125977 36.6562347412109 36.6446495056152 36.621997833252 36.5905494689941 36.547721862793
-9999 -9999 -9999 35.5113010406494 35.5270004272461 35.9468612670898 36.1519584655762 36.2299995422363 36.2569694519043 36.2774124145508 36.2834434509277 36.2751426696777 36.2569160461426 36.2649040222168 36.2967720031738 36.3202896118164 36.3404541015625 36.3679389953613 36.3954391479492 36.4292984008789 36.4402694702148 36.4297676086426 36.4501647949219 36.4795722961426 36.4944534301758 36.5119552612305 36.5420913696289 36.5900764465332 36.6183242797852 36.6131858825684 36.6050338745117 36.6088829040527 36.6176300048828 36.627140045166 36.6338577270508 36.6379051208496 36.6423149108887 36.6485290527344 36.655330657959 36.6597290039062 36.6578216552734 36.6520957946777 36.6506233215332 36.6552429199219 36.6603469848633 36.6629028320312 36.6669616699219 36.6716804504395 36.6740036010742 36.6746673583984 36.675350189209 36.6766548156738 36.677074432373 36.6747856140137 36.6717948913574 36.668529510498 36.6650238037109 36.6620025634766 36.6583366394043 36.6546325683594 36.6530456542969 36.6514854431152 36.6496963500977 36.6494293212891 36.6491889953613 36.6531105041504 36.6501998901367 36.6360206604004 36.6135330200195 36.5768089294434
-9999 -9999 -9999 35.4738655090332 35.8130989074707 36.1242179870605 36.2572975158691 36.2939987182617 36.2942581176758 36.2842140197754 36.2635231018066 36.2499847412109 36.2558403015137 36.2859420776367 36.3184852600098 36.3332824707031 36.3425559997559 36.3708267211914 36.4130058288574 36.4546394348145 36.4619407653809 36.4461212158203 36.4601593017578 36.4787101745605 36.4912872314453 36.5030899047852 36.5380973815918 36.5953559875488 36.6304473876953 36.6303825378418 36.622745513916 36.624080657959 36.6319999694824 36.6409072875977 36.6502799987793 36.6575927734375 36.661937713623 36.6664543151855 36.6708488464355 36.6725845336914 36.6680335998535 36.6579322814941 36.652400970459 36.6539649963379 36.6576614379883 36.6588516235352 36.6599998474121 36.663688659668 36.6675720214844 36.6700248718262 36.6716537475586 36.6733665466309 36.6745185852051 36.6743507385254 36.674747467041 36.6750946044922 36.6718597412109 36.6652717590332 36.6587677001953 36.6532974243164 36.6472396850586 36.6380081176758 36.6291580200195 36.6278190612793 36.6321029663086 36.6399993896484 36.6494674682617 36.6492767333984 36.6402015686035 36.6233749389648
