NCOLS 70 
NROWS 52 
XLLCORNER -80 
YLLCORNER 33 
CELLSIZE 0.25 
NODATA_value -9999 
-9999.000000000000000 -9999 -9999 -9999 -9999 -9999 -9999 -9999 -9999 -9999 -9999 -9999 -9999 -9999 -9999 -9999 -9999 -9999 -9999 -9999 -9999 -9999 -9999 -9999 -9999 -9999 -9999 -9999 -9999 -9999 -9999 -9999 -9999 -9999 -9999 -9999 -9999 -9999 -9999 -9999 -9999 -9999 -9999 -9999 -9999 -9999 -9999 -9999 -9999 -9999 -9999 -9999 -9999 -9999 -9999 -9999 -9999 -9999 -9999 -9999 -9999 -9999 -9999 -9999 -9999 -9999 -9999 -9999 -9999 -9999
-9999 -9999 -9999 -9999 -9999 -9999 -9999 -9999 -9999 -9999 -9999 -9999 -9999 -9999 -9999 -9999 -9999 -9999 -9999 -9999 -9999 -9999 -9999 -9999 -9999 -9999 -9999 -9999 -9999 -9999 -9999 -9999 -9999 -9999 -9999 -9999 -9999 -9999 -9999 -9999 -9999 -9999 -9999 -9999 -9999 -9999 -9999 -9999 -9999 -9999 -9999 -9999 -9999 -9999 -9999 -9999 -9999 -9999 -9999 -9999 -9999 -9999 -9999 -9999 -9999 -9999 -9999 -9999 -9999 -9999
-9999 -9999 -9999 -9999 -9999 -9999 -9999 -9999 -9999 -9999 -9999 -9999 -9999 -9999 -9999 -9999 -9999 -9999 -9999 -9999 -9999 -9999 -9999 -9999 -9999 -9999 -9999 -9999 -9999 -9999 -9999 -9999 -9999 -9999 -9999 -9999 -9999 -9999 -9999 -9999 -9999 -9999 -9999 -9999 -9999 -9999 -9999 -9999 -9999 -9999 -9999 -9999 -9999 -9999 -9999 -9999 -9999 -9999 -9999 29.5936279296875 -9999 -9999 -9999 -9999 -9999 -9999 -9999 -9999 -9999 -9999
-9999 -9999 -9999 -9999 -9999 -9999 -9999 -9999 -9999 -9999 -9999 -9999 -9999 -9999 -9999 -9999 -9999 -9999 -9999 -9999 -9999 -9999 -9999 -9999 -9999 -9999 -9999 -9999 -9999 -9999 -9999 -9999 -9999 -9999 -9999 -9999 -9999 -9999 -9999 -9999 -9999 -9999 -9999 -9999 -9999 -9999 -9999 -9999 -9999 -9999 -9999 -9999 -9999 -9999 -9999 30.3624057769775 30.3491458892822 30.3934936523438 30.2537422180176 29.9428939819336 -9999 -9999 -9999 -9999 -9999 -9999 -9999 -9999 -9999 -9999
-9999 -9999 -9999 -9999 -9999 -9999 -9999 -9999 -9999 -9999 -9999 -9999 -9999 -9999 -9999 -9999 -9999 -9999 -9999 -9999 -9999 -9999 -9999 -9999 -9999 -9999 -9999 -9999 -9999 -9999 -9999 -9999 -9999 -9999 -9999 -9999 -9999 -9999 -9999 -9999 -9999 -9999 -9999 -9999 -9999 -9999 -9999 -9999 -9999 -9999 -9999 -9999 30.988862991333 30.9285221099854 30.8006000518799 30.7089614868164 30.5356864929199 30.3811054229736 -9999 -9999 -9999 -9999 -9999 -9999 -9999 -9999 -9999 -9999 -9999 -9999
-9999 -9999 -9999 -9999 -9999 -9999 -9999 -9999 -9999 -9999 -9999 -9999 -9999 -9999 -9999 -9999 -9999 -9999 -9999 -9999 -9999 -9999 -9999 -9999 -9999 -9999 -9999 -9999 -9999 -9999 -9999 -9999 -9999 -9999 -9999 -9999 -9999 -9999 -9999 -9999 -9999 -9999 -9999 -9999 -9999 -9999 -9999 -9999 -9999 -9999 31.7367733001709 31.5918102264404 31.6280841827393 31.5611000061035 31.2352333068848 30.4934749603271 -9999 -9999 -9999 -9999 -9999 -9999 -9999 -9999 -9999 -9999 -9999 29.6111303965251 29.5604662895203 29.5340385437012
-9999 -9999 -9999 -9999 -9999 -9999 -9999 -9999 -9999 -9999 -9999 -9999 -9999 -9999 -9999 -9999 -9999 -9999 -9999 -9999 -9999 -9999 -9999 -9999 -9999 -9999 -9999 -9999 -9999 -9999 -9999 -9999 -9999 -9999 -9999 -9999 -9999 -9999 -9999 -9999 -9999 -9999 -9999 -9999 31.2999769846598 -9999 -9999 31.9877872467041 31.9773941040039 32.016284942627 32.0296173095703 32.0335006713867 32.0099411010742 31.9159736633301 31.4807224273682 -9999 -9999 -9999 -9999 -9999 -9999 -9999 -9999 29.7599296569824 29.7421188354492 29.699499130249 29.6675701141357 29.6119785308838 29.5538425445557 29.5420055389404
-9999 -9999 -9999 -9999 -9999 -9999 -9999 -9999 -9999 -9999 -9999 -9999 -9999 -9999 -9999 -9999 -9999 -9999 -9999 -9999 -9999 -9999 -9999 -9999 -9999 -9999 -9999 -9999 -9999 -9999 -9999 -9999 -9999 -9999 -9999 -9999 -9999 -9999 -9999 -9999 -9999 -9999 -9999 -9999 31.2455310821533 31.4710292816162 31.7835578918457 32.0230140686035 32.1671829223633 32.248363494873 32.2596206665039 32.2061805725098 32.0991859436035 31.9392757415771 31.7894554138184 -9999 -9999 -9999 -9999 -9999 -9999 -9999 29.872371673584 29.8215503692627 29.7277297973633 29.6398887634277 29.5817527770996 29.555477142334 29.5566673278809 29.5889797210693
-9999 -9999 -9999 -9999 -9999 -9999 -9999 -9999 -9999 -9999 -9999 -9999 -9999 -9999 -9999 -9999 -9999 -9999 -9999 -9999 -9999 -9999 -9999 -9999 -9999 -9999 -9999 -9999 -9999 -9999 -9999 -9999 -9999 -9999 -9999 -9999 -9999 -9999 -9999 -9999 31.0655949910482 31.4407596588135 31.714888381958 31.8914623260498 31.9475059509277 32.1078643798828 32.2503890991211 32.3842239379883 32.4782905578613 32.4909934997559 32.4280662536621 32.2839126586914 32.0689888000488 31.821849822998 31.6516895294189 -9999 -9999 -9999 -9999 -9999 29.9554169972738 29.9552993774414 29.8516368865967 29.7281036376953 29.6243324279785 29.5855598449707 29.5913505554199 29.5986881256104 29.608715057373 29.6588726043701
-9999 -9999 -9999 -9999 -9999 -9999 -9999 -9999 -9999 -9999 -9999 -9999 -9999 -9999 -9999 -9999 -9999 -9999 -9999 -9999 -9999 -9999 -9999 -9999 -9999 -9999 -9999 -9999 -9999 -9999 -9999 -9999 -9999 -9999 -9999 -9999 -9999 -9999 -9999 30.7770385742188 30.9997863769531 31.4199600219727 31.9025325775146 32.177116394043 32.2935485839844 32.4142265319824 32.5267639160156 32.6345748901367 32.6941757202148 32.6708946228027 32.5587272644043 32.336009979248 32.0002899169922 31.6574211120605 31.4632968902588 31.3766040802002 -9999 -9999 -9999 30.0692043304443 30.0139827728271 29.8969688415527 29.7746982574463 29.6625423431396 29.6078128814697 29.6433124542236 29.7097873687744 29.7225532531738 29.6986331939697 29.7154483795166
-9999 -9999 -9999 -9999 -9999 -9999 -9999 -9999 -9999 -9999 -9999 -9999 -9999 -9999 -9999 -9999 -9999 -9999 -9999 -9999 -9999 -9999 -9999 -9999 -9999 -9999 -9999 -9999 -9999 -9999 -9999 -9999 -9999 -9999 -9999 -9999 -9999 -9999 31.6946468353271 31.6839904785156 31.9453182220459 32.2023010253906 32.2737083435059 32.3549842834473 32.4524917602539 32.5918922424316 32.721809387207 32.7893600463867 32.7944107055664 32.7470397949219 32.6156692504883 32.3532600402832 31.9526958465576 31.5206527709961 31.2263107299805 31.0887565612793 30.9335403442383 30.6035369237264 30.3145065307617 30.0897445678711 29.8585834503174 29.715784072876 29.6563262939453 29.6225261688232 29.6249198913574 29.6748809814453 29.7342872619629 29.745002746582 29.7343044281006 29.7683334350586
-9999 -9999 -9999 -9999 -9999 -9999 -9999 -9999 -9999 -9999 -9999 -9999 -9999 -9999 -9999 -9999 -9999 -9999 -9999 -9999 -9999 -9999 -9999 -9999 -9999 -9999 -9999 -9999 -9999 -9999 -9999 -9999 -9999 -9999 -9999 -9999 -9999 31.8420734405518 31.9887504577637 32.1813812255859 32.3411598205566 32.4259147644043 32.4498138427734 32.5007781982422 32.604850769043 32.737232208252 32.8097343444824 32.80810546875 32.7827987670898 32.7420883178711 32.6322631835938 32.3844299316406 31.9626197814941 31.4386310577393 30.9952373504639 30.7379283905029 30.5818672180176 30.3796443939209 30.1194629669189 29.8637542724609 29.7013092041016 29.6257286071777 29.6060161590576 29.6097621917725 29.6230163574219 29.6699657440186 29.7526512145996 29.7722282409668 29.7514400482178 29.8188323974609
-9999 -9999 -9999 -9999 -9999 -9999 -9999 -9999 -9999 -9999 -9999 -9999 -9999 -9999 -9999 -9999 -9999 -9999 -9999 -9999 -9999 -9999 -9999 -9999 -9999 -9999 -9999 -9999 -9999 -9999 -9999 -9999 -9999 -9999 -9999 -9999 -9999 31.9887466430664 32.1612663269043 32.3644142150879 32.4639625549316 32.5176048278809 32.550235748291 32.6140213012695 32.715763092041 32.7941741943359 32.7985343933105 32.7607116699219 32.7198486328125 32.6808471679688 32.601676940918 32.4014739990234 32.011962890625 31.4803829193115 30.9889488220215 30.6417713165283 30.4073448181152 30.2038249969482 30.0072269439697 29.8664150238037 29.7776966094971 29.7061214447021 29.6462383270264 29.6278343200684 29.6595649719238 29.7731304168701 29.9363842010498 29.9190444946289 29.8214130401611 29.8716583251953
-9999 -9999 -9999 -9999 -9999 -9999 -9999 -9999 -9999 -9999 -9999 -9999 -9999 -9999 -9999 -9999 -9999 -9999 -9999 -9999 -9999 -9999 -9999 -9999 -9999 -9999 -9999 -9999 -9999 -9999 -9999 -9999 -9999 -9999 -9999 -9999 -9999 31.9869270324707 32.2316627502441 32.417163848877 32.4978332519531 32.5631828308105 32.6185302734375 32.693000793457 32.7735290527344 32.8000526428223 32.7775535583496 32.7342109680176 32.661979675293 32.5726203918457 32.4649276733398 32.282886505127 31.9610443115234 31.5917491912842 31.2984943389893 31.0580940246582 30.8146324157715 30.5722141265869 30.3165836334229 30.178897857666 30.0726680755615 29.9951343536377 29.9453449249268 29.8883228302002 29.9472236633301 30.1686325073242 30.3557929992676 30.2290935516357 30.0747165679932 30.0618915557861
-9999 -9999 -9999 -9999 -9999 -9999 -9999 -9999 -9999 -9999 -9999 -9999 -9999 -9999 -9999 -9999 -9999 -9999 -9999 -9999 -9999 -9999 -9999 -9999 -9999 -9999 -9999 -9999 -9999 -9999 -9999 -9999 -9999 -9999 -9999 -9999 31.6405220031738 31.9348163604736 32.2427711486816 32.3802871704102 32.467155456543 32.5679512023926 32.649097442627 32.7217254638672 32.7739486694336 32.7814674377441 32.7689933776855 32.7412643432617 32.6478881835938 32.4960708618164 32.3309631347656 32.170482635498 31.9793014526367 31.8129901885986 31.6779727935791 31.4502696990967 31.1561050415039 30.8834285736084 30.6158657073975 30.5506267547607 30.4676380157471 30.541540145874 30.763126373291 30.6122417449951 30.5947284698486 30.7815856933594 30.8662071228027 30.7366123199463 30.6699695587158 30.6095428466797
-9999 -9999 -9999 -9999 -9999 -9999 -9999 -9999 -9999 -9999 -9999 -9999 -9999 -9999 -9999 -9999 -9999 -9999 -9999 -9999 -9999 -9999 -9999 -9999 -9999 -9999 -9999 -9999 -9999 -9999 -9999 -9999 -9999 -9999 -9999 -9999 -9999 31.9160232543945 32.0644493103027 32.2386131286621 32.3721160888672 32.5144577026367 32.6187934875488 32.6925468444824 32.7349891662598 32.7482643127441 32.7545204162598 32.7607765197754 32.7106628417969 32.5953063964844 32.4581642150879 32.3428573608398 32.2249603271484 32.1244354248047 31.9309749603271 31.469856262207 30.9576759338379 30.7287502288818 30.7304058074951 31.0926113128662 31.2057094573975 31.5524997711182 31.9689674377441 31.6304035186768 31.4704322814941 31.4727344512939 31.5282173156738 31.5006237030029 31.6105709075928 31.6237525939941
-9999 -9999 -9999 -9999 -9999 -9999 -9999 -9999 -9999 -9999 -9999 -9999 -9999 -9999 -9999 -9999 -9999 -9999 -9999 -9999 -9999 -9999 -9999 -9999 -9999 -9999 -9999 -9999 -9999 -9999 -9999 -9999 -9999 -9999 -9999 -9999 -9999 -9999 31.8219776153564 -9999 32.2957191467285 32.4602088928223 32.5747718811035 32.6479301452637 32.6946754455566 32.7316131591797 32.756103515625 32.7766075134277 32.7761726379395 32.7498435974121 32.7147979736328 32.6719245910645 32.5846481323242 32.4696884155273 32.175651550293 31.5531768798828 30.9403743743896 30.8829116821289 31.3509845733643 32.2768630981445 32.5621719360352 32.9915084838867 33.2837295532227 33.0023155212402 32.6678428649902 32.3774719238281 32.3599853515625 32.3586502075195 32.550537109375 32.7371368408203
-9999 -9999 -9999 -9999 -9999 -9999 -9999 -9999 -9999 -9999 -9999 -9999 -9999 -9999 -9999 -9999 -9999 -9999 -9999 -9999 -9999 -9999 -9999 -9999 -9999 -9999 -9999 -9999 -9999 -9999 -9999 -9999 -9999 -9999 -9999 -9999 -9999 -9999 -9999 -9999 32.3550987243652 32.483268737793 32.5822105407715 32.652759552002 32.7062187194824 32.743896484375 32.7494163513184 32.7419586181641 32.7488288879395 32.7646331787109 32.7658157348633 32.746337890625 32.6881713867188 32.5321884155273 32.1780853271484 31.5590953826904 31.1547775268555 31.3774662017822 32.2529220581055 33.1530799865723 33.6620635986328 34.1089477539062 34.3638725280762 34.3938865661621 33.9738006591797 33.4026145935059 33.2325668334961 33.0972557067871 33.2422981262207 33.4852180480957
-9999 -9999 -9999 -9999 -9999 -9999 -9999 -9999 -9999 -9999 -9999 -9999 -9999 -9999 -9999 -9999 -9999 -9999 -9999 -9999 -9999 -9999 -9999 -9999 -9999 -9999 -9999 -9999 -9999 -9999 -9999 -9999 -9999 -9999 31.4606990814209 31.2803688049316 31.3461894989014 -9999 31.6738433837891 31.9574165344238 32.278980255127 32.4840698242188 32.5933876037598 32.6727447509766 32.7183837890625 32.7093048095703 32.6721153259277 32.6451034545898 32.6455726623535 32.653148651123 32.6349220275879 32.6003265380859 32.5605430603027 32.4115905761719 32.031421661377 31.52268409729 31.415843963623 31.8217697143555 32.4805870056152 33.3565063476562 34.2190246582031 34.7153549194336 34.8577461242676 35.0674934387207 34.9404411315918 34.3923187255859 33.9962387084961 33.701847076416 33.8917846679688 34.2308692932129
-9999 -9999 -9999 -9999 -9999 -9999 -9999 -9999 -9999 -9999 -9999 -9999 -9999 -9999 -9999 -9999 -9999 -9999 -9999 -9999 -9999 -9999 -9999 -9999 -9999 -9999 -9999 24.4570045471191 24.4570045471191 25.3925457000732 26.658935546875 28.8019580841064 30.7209281921387 31.3902397155762 31.5141410827637 31.6580467224121 31.8191184997559 31.8563919067383 31.8723983764648 31.9995536804199 32.2605133056641 32.4780540466309 32.602970123291 32.6773834228516 32.6877021789551 32.6363372802734 32.5758666992188 32.5265274047852 32.4962959289551 32.4712371826172 32.4371719360352 32.4029312133789 32.3562202453613 32.1808090209961 31.8615264892578 31.6094226837158 31.7087898254395 32.022777557373 32.4170608520508 33.3121032714844 34.3390426635742 34.7536239624023 34.9621620178223 35.4728965759277 35.7121162414551 35.4745063781738 34.904167175293 34.4076843261719 34.4319686889648 34.6760635375977
-9999 -9999 -9999 -9999 -9999 -9999 -9999 -9999 -9999 -9999 -9999 -9999 -9999 -9999 -9999 -9999 -9999 -9999 -9999 -9999 -9999 -9999 -9999 -9999 -9999 -9999 -9999 -9999 -9999 -9999 28.8341655731201 30.3195304870605 31.8683452606201 32.3519401550293 32.3444633483887 32.2937469482422 32.2434730529785 32.1808891296387 32.1155281066895 32.1436500549316 32.3256645202637 32.5058326721191 32.6121368408203 32.6602821350098 32.6455001831055 32.5944061279297 32.5244750976562 32.4626998901367 32.430908203125 32.4176177978516 32.4656867980957 32.5752105712891 32.6148147583008 32.4747352600098 32.2599143981934 32.0681762695312 32.1350593566895 32.3998031616211 32.7901344299316 33.586498260498 34.4195556640625 34.8074722290039 35.0944290161133 35.5007667541504 35.7965087890625 35.8273124694824 35.5248374938965 35.0800399780273 34.8782196044922 35.0973739624023
-9999 -9999 -9999 -9999 -9999 -9999 -9999 -9999 -9999 -9999 -9999 -9999 -9999 -9999 -9999 -9999 -9999 -9999 -9999 -9999 -9999 -9999 -9999 -9999 -9999 31.9918835957845 32.5013554890951 32.797248840332 32.8597946166992 32.7141799926758 32.6748504638672 32.5473213195801 32.4977836608887 32.5111236572266 32.4710083007812 32.4729881286621 32.4990158081055 32.4897575378418 32.4320755004883 32.4298286437988 32.5077209472656 32.5737838745117 32.6157302856445 32.6393165588379 32.6494255065918 32.6575241088867 32.6745491027832 32.7356834411621 32.8435134887695 32.9174766540527 33.1262245178223 33.5417976379395 33.8326568603516 33.8969993591309 33.7124176025391 33.4022331237793 33.1705436706543 33.2448501586914 33.5264358520508 34.1098365783691 34.7231101989746 35.1790962219238 35.4700126647949 35.608814239502 35.7597923278809 35.8210792541504 35.7337417602539 35.4698944091797 35.2180824279785 35.5082359313965
-9999 -9999 -9999 -9999 -9999 -9999 -9999 -9999 -9999 -9999 -9999 -9999 -9999 -9999 -9999 -9999 -9999 -9999 -9999 -9999 -9999 -9999 -9999 -9999 31.311408996582 32.0553932189941 32.6088485717773 32.8398246765137 32.9430732727051 32.9421005249023 32.8468818664551 32.6913299560547 32.577693939209 32.5698051452637 32.6815567016602 32.8342132568359 32.9722290039062 33.0247650146484 32.9690475463867 32.9288330078125 32.8656196594238 32.768196105957 32.7523803710938 32.833065032959 32.9787139892578 33.2127494812012 33.5455055236816 33.8933715820312 34.1706962585449 34.2548561096191 34.499568939209 34.9657211303711 35.2740936279297 35.392276763916 35.2870445251465 35.0932884216309 34.8503761291504 34.6679191589355 34.7098274230957 34.977466583252 35.3835411071777 35.7592849731445 35.9289474487305 35.9450874328613 35.9460601806641 35.9763069152832 35.9862098693848 35.7763748168945 35.5288887023926 35.7492408752441
-9999 -9999 -9999 -9999 -9999 -9999 -9999 -9999 -9999 -9999 -9999 -9999 -9999 -9999 -9999 -9999 -9999 -9999 -9999 -9999 -9999 -9999 -9999 -9999 31.8045082092285 32.6583366394043 33.1093521118164 33.1660194396973 33.0879821777344 32.9421424865723 32.7879409790039 32.7023391723633 32.7780380249023 33.0029640197754 33.2640113830566 33.4709548950195 33.6910743713379 33.8725395202637 33.8686332702637 33.791576385498 33.6493988037109 33.4365043640137 33.3675689697266 33.5511054992676 33.8889427185059 34.3414688110352 34.817008972168 35.1925621032715 35.4522438049316 35.5364456176758 35.6959266662598 35.8857383728027 35.9632606506348 35.9637985229492 35.9328689575195 35.9351806640625 35.9116706848145 35.8027229309082 35.7657775878906 35.8578796386719 36.0265693664551 36.1699028015137 36.2239761352539 36.2205619812012 36.1735763549805 36.1575546264648 36.1841926574707 36.1043243408203 35.9349174499512 35.9937629699707
-9999 -9999 -9999 -9999 -9999 -9999 -9999 -9999 -9999 -9999 -9999 -9999 -9999 -9999 -9999 -9999 -9999 -9999 -9999 -9999 -9999 -9999 -9999 32.2255277633667 32.1798439025879 32.9444923400879 33.2915191650391 33.2298316955566 33.0401878356934 32.8657875061035 32.826732635498 32.9856452941895 33.302360534668 33.5853805541992 33.7208137512207 33.858341217041 34.2333908081055 34.7192153930664 34.9297256469727 34.8763656616211 34.743595123291 34.571891784668 34.4688034057617 34.518138885498 34.7417297363281 35.0599632263184 35.2535743713379 35.3371696472168 35.5339660644531 35.7556762695312 35.932918548584 36.0510101318359 36.1010398864746 36.1181640625 36.1337013244629 36.1664772033691 36.1836967468262 36.1589889526367 36.1488265991211 36.2163200378418 36.3037910461426 36.3582534790039 36.3810234069824 36.3856201171875 36.3682708740234 36.3266792297363 36.3102073669434 36.2683448791504 36.1760940551758 36.178539276123
-9999 -9999 -9999 -9999 -9999 -9999 -9999 -9999 -9999 -9999 -9999 -9999 -9999 -9999 -9999 -9999 -9999 -9999 -9999 -9999 -9999 -9999 -9999 32.2696838378906 32.6480751037598 33.1874504089355 33.3604469299316 33.2476043701172 33.0727615356445 32.9819793701172 33.0886573791504 33.3983001708984 33.7846374511719 34.0293121337891 34.0748138427734 34.1751670837402 34.6251258850098 35.2490005493164 35.6094589233398 35.6093101501465 35.5102500915527 35.4648399353027 35.4337730407715 35.3506469726562 35.351634979248 35.4770240783691 35.5474472045898 35.5628051757812 35.6711654663086 35.8148956298828 35.9343032836914 36.0195960998535 36.0742645263672 36.1377334594727 36.1945571899414 36.2351875305176 36.2640228271484 36.2789916992188 36.2975234985352 36.3372116088867 36.3810424804688 36.4215393066406 36.4491233825684 36.4718971252441 36.4782257080078 36.460807800293 36.4252052307129 36.3830757141113 36.2887496948242 36.237434387207
-9999 -9999 -9999 -9999 -9999 -9999 -9999 -9999 -9999 -9999 -9999 -9999 -9999 -9999 -9999 -9999 -9999 -9999 -9999 -9999 -9999 -9999 32.7743453979492 32.8189926147461 33.1268997192383 33.3867149353027 33.3822784423828 33.2591705322266 33.1403732299805 33.1328086853027 33.3749923706055 33.890251159668 34.5041313171387 34.9451751708984 35.0744247436523 35.1087532043457 35.3271827697754 35.6431884765625 35.8590965270996 35.9153175354004 35.9231452941895 35.9551887512207 35.9724578857422 35.9524002075195 35.9399528503418 35.9901847839355 36.0724220275879 36.1290283203125 36.145336151123 36.1289939880371 36.105842590332 36.079273223877 36.0877571105957 36.1673278808594 36.2440567016602 36.28955078125 36.3218383789062 36.342716217041 36.372932434082 36.4175987243652 36.4651870727539 36.5088806152344 36.5330390930176 36.5492668151855 36.5517692565918 36.552619934082 36.536247253418 36.4986152648926 36.3978996276855 36.3050003051758
-9999 -9999 -9999 -9999 -9999 -9999 -9999 -9999 -9999 -9999 -9999 -9999 -9999 -9999 18.7681629392836 -9999 -9999 -9999 -9999 32.3350257873535 -9999 32.8923759460449 33.0200042724609 33.2034225463867 33.411304473877 33.4398307800293 33.3021583557129 33.1737823486328 33.1837921142578 33.5074806213379 34.1601295471191 34.8877906799316 35.4474639892578 35.7580986022949 35.8540687561035 35.8622665405273 35.8955497741699 35.9327201843262 35.9810829162598 36.0657577514648 36.1447982788086 36.1822891235352 36.1846351623535 36.1774787902832 36.1761131286621 36.2038803100586 36.241268157959 36.2601585388184 36.2680320739746 36.2478637695312 36.202278137207 36.1547737121582 36.1792793273926 36.2646255493164 36.3314476013184 36.3793411254883 36.4126510620117 36.4406089782715 36.4829750061035 36.5301513671875 36.5647811889648 36.5823059082031 36.5861320495605 36.5849075317383 36.5817985534668 36.58154296875 36.5761108398438 36.5656242370605 36.5027656555176 36.3982849121094
-9999 -9999 -9999 -9999 -9999 -9999 -9999 -9999 -9999 -9999 -9999 -9999 -9999 -9999 18.7876405715942 -9999 -9999 -9999 -9999 32.4502334594727 32.8591468811035 33.0969581604004 33.3493537902832 33.4804458618164 33.5092391967773 33.415283203125 33.3317489624023 33.4268531799316 33.8000144958496 34.4331398010254 35.1041831970215 35.5654678344727 35.7915382385254 35.8953971862793 35.957592010498 36.0214080810547 36.0682067871094 36.0551567077637 36.0485801696777 36.1073608398438 36.1760444641113 36.2074394226074 36.2179222106934 36.2232093811035 36.2288398742676 36.245174407959 36.2610511779785 36.2760238647461 36.300708770752 36.2982902526855 36.251838684082 36.2317581176758 36.2817764282227 36.356502532959 36.4158477783203 36.4565734863281 36.491268157959 36.5267066955566 36.5629043579102 36.5874061584473 36.595272064209 36.5928153991699 36.5870323181152 36.5774307250977 36.5708122253418 36.5691719055176 36.5653762817383 36.5677070617676 36.5526084899902 36.4814758300781
-9999 -9999 -9999 -9999 -9999 -9999 -9999 -9999 -9999 -9999 -9999 -9999 -9999 -9999 18.6999912261963 -9999 -9999 -9999 -9999 -9999 33.4123468399048 33.405933380127 33.6366004943848 33.6926612854004 33.6719703674316 33.6844596862793 33.846305847168 34.1829948425293 34.6368980407715 35.0706939697266 35.373420715332 35.5601119995117 35.7170257568359 35.859977722168 35.9501037597656 36.0225982666016 36.0887489318848 36.1085243225098 36.1130752563477 36.1503601074219 36.2052230834961 36.2450370788574 36.2631645202637 36.2720108032227 36.2836418151855 36.2960510253906 36.3055534362793 36.3193740844727 36.3417091369629 36.3530044555664 36.3177604675293 36.2938423156738 36.346492767334 36.4197540283203 36.4642181396484 36.4904289245605 36.5217361450195 36.5547065734863 36.5807991027832 36.5928344726562 36.5947914123535 36.5935592651367 36.5922317504883 36.5836219787598 36.5742378234863 36.5654182434082 36.5559272766113 36.5581512451172 36.5618133544922 36.527042388916
-9999 -9999 -9999 -9999 -9999 -9999 -9999 -9999 -9999 -9999 -9999 -9999 -9999 -9999 18.7861967086792 -9999 19.0505886077881 -9999 -9999 -9999 33.5186309814453 33.6278648376465 33.8521575927734 33.9460868835449 34.057243347168 34.2325782775879 34.4610137939453 34.7268905639648 34.9760971069336 35.1937255859375 35.3982200622559 35.5700149536133 35.7624664306641 35.9519653320312 36.0398864746094 36.0655670166016 36.0859909057617 36.118293762207 36.1710548400879 36.2246437072754 36.268856048584 36.2999801635742 36.3186187744141 36.3353385925293 36.3555107116699 36.3724136352539 36.3844528198242 36.3943634033203 36.4050369262695 36.4127006530762 36.3806915283203 36.3337707519531 36.3684616088867 36.4366836547852 36.4651222229004 36.4820556640625 36.5101661682129 36.5409622192383 36.5680618286133 36.582332611084 36.5892715454102 36.5909156799316 36.5911254882812 36.5887222290039 36.580867767334 36.5647392272949 36.5500297546387 36.5515480041504 36.557502746582 36.542839050293
-9999 -9999 -9999 -9999 -9999 -9999 -9999 -9999 -9999 -9999 -9999 -9999 -9999 -9999 18.7861967086792 18.8724021911621 19.4223976135254 -9999 -9999 33.7349786758423 33.6659965515137 33.801643371582 33.9781494140625 34.1681594848633 34.4727210998535 34.7268295288086 34.843147277832 34.969409942627 35.1208801269531 35.2517509460449 35.4361381530762 35.6330299377441 35.8274993896484 36.0168762207031 36.103702545166 36.1096229553223 36.1075820922852 36.1407890319824 36.2156143188477 36.2791748046875 36.3163299560547 36.3437614440918 36.370288848877 36.3981132507324 36.4259185791016 36.4495162963867 36.4621772766113 36.4654312133789 36.4679718017578 36.4631881713867 36.4246025085449 36.3651084899902 36.3723754882812 36.418270111084 36.4361991882324 36.4470977783203 36.4718017578125 36.5034103393555 36.5402984619141 36.563289642334 36.5762596130371 36.5819931030273 36.5827598571777 36.5824851989746 36.5788688659668 36.5661239624023 36.5492401123047 36.5503578186035 36.5557250976562 36.5457611083984
-9999 -9999 -9999 -9999 -9999 -9999 -9999 -9999 -9999 -9999 -9999 -9999 -9999 -9999 -9999 20.7995903015137 20.0297718048096 -9999 30.3039083480835 33.8451805114746 33.9101066589355 34.0950355529785 34.361930847168 34.7363624572754 35.1437110900879 35.3743324279785 35.4201927185059 35.46630859375 35.5508155822754 35.6245574951172 35.7285385131836 35.8043441772461 35.9037170410156 36.0624847412109 36.1352233886719 36.1267166137695 36.1422080993652 36.1941947937012 36.2554817199707 36.3041076660156 36.3395080566406 36.3699798583984 36.4022789001465 36.4361152648926 36.470531463623 36.4994583129883 36.514217376709 36.5131072998047 36.5044250488281 36.4905128479004 36.4506874084473 36.3846855163574 36.3627777099609 36.3760948181152 36.3795700073242 36.3837013244629 36.4040069580078 36.4360427856445 36.481746673584 36.520393371582 36.5458869934082 36.5622787475586 36.5693740844727 36.5732917785645 36.5761566162109 36.5749130249023 36.5610885620117 36.5567245483398 36.556583404541 36.5439224243164
-9999 -9999 -9999 -9999 -9999 -9999 -9999 -9999 -9999 -9999 -9999 -9999 -9999 -9999 -9999 22.2116069793701 23.4617729187012 -9999 33.5734786987305 33.9803085327148 34.1818046569824 34.4872245788574 34.9649620056152 35.453067779541 35.7225914001465 35.8670806884766 35.9344749450684 35.9525909423828 35.9852523803711 35.9976768493652 35.9845581054688 35.9507293701172 35.9873428344727 36.1110153198242 36.1699295043945 36.1489295959473 36.1566848754883 36.2064208984375 36.2615051269531 36.3068656921387 36.3462524414062 36.3834037780762 36.4220085144043 36.4611854553223 36.5012397766113 36.5347671508789 36.554069519043 36.5510368347168 36.531909942627 36.5110511779785 36.4708099365234 36.4051055908203 36.3631553649902 36.3426208496094 36.3213195800781 36.310230255127 36.318977355957 36.3475494384766 36.3987579345703 36.4541473388672 36.4974632263184 36.5273323059082 36.5436363220215 36.5550804138184 36.5638732910156 36.5709609985352 36.5683403015137 36.559154510498 36.554313659668 36.5430679321289
-9999 -9999 -9999 -9999 -9999 -9999 -9999 -9999 -9999 -9999 -9999 -9999 -9999 -9999 -9999 23.207857131958 -9999 29.4352130889893 33.5230865478516 34.2075614929199 34.5148239135742 34.9406204223633 35.4805603027344 35.8847198486328 36.0535469055176 36.1273918151855 36.1468734741211 36.1552581787109 36.1530113220215 36.1234092712402 36.0959091186523 36.0889930725098 36.1285095214844 36.2109909057617 36.243293762207 36.2162628173828 36.1976890563965 36.2177391052246 36.2613220214844 36.3052253723145 36.3455772399902 36.3883514404297 36.4340286254883 36.4773902893066 36.5216522216797 36.5601959228516 36.586051940918 36.5870971679688 36.5652770996094 36.5385704040527 36.4980010986328 36.4393157958984 36.3905754089355 36.3494071960449 36.3005142211914 36.2685012817383 36.2610855102539 36.2747192382812 36.3158073425293 36.3765563964844 36.4347152709961 36.4839019775391 36.5110130310059 36.529483795166 36.5470848083496 36.5698661804199 36.584846496582 36.578914642334 36.5753173828125 36.5707893371582
-9999 -9999 -9999 -9999 -9999 -9999 -9999 -9999 -9999 -9999 -9999 -9999 -9999 -9999 23.207857131958 24.9278411865234 26.2052383422852 30.6782188415527 33.2342681884766 34.316967010498 34.7367134094238 35.2392768859863 35.8135948181152 36.1235580444336 36.2483749389648 36.2660446166992 36.2364044189453 36.2405014038086 36.2397918701172 36.2280540466309 36.2274284362793 36.237003326416 36.2606773376465 36.300651550293 36.309196472168 36.279411315918 36.2551498413086 36.2562217712402 36.2756423950195 36.3047981262207 36.3424339294434 36.3919296264648 36.4450263977051 36.4926795959473 36.5388259887695 36.5792045593262 36.6091766357422 36.617359161377 36.5976142883301 36.5662536621094 36.5275382995605 36.472957611084 36.4258460998535 36.3855209350586 36.334789276123 36.2920875549316 36.2712898254395 36.2738227844238 36.300594329834 36.3498039245605 36.4034423828125 36.4567718505859 36.4902496337891 36.5066070556641 36.5184555053711 36.5451965332031 36.5788421630859 36.591438293457 36.5952568054199 36.5992202758789
-9999 -9999 -9999 -9999 -9999 -9999 -9999 -9999 -9999 -9999 -9999 -9999 -9999 -9999 -9999 -9999 29.8522987365723 30.9239101409912 33.5170822143555 34.433235168457 34.843147277832 35.4921417236328 36.1326522827148 36.2914733886719 36.3325233459473 36.3322448730469 36.3212776184082 36.3334083557129 36.3465957641602 36.3537712097168 36.3574752807617 36.3560943603516 36.3539810180664 36.358097076416 36.3567924499512 36.340576171875 36.3222732543945 36.3165626525879 36.3260459899902 36.3472900390625 36.379638671875 36.4253540039062 36.4742126464844 36.5173492431641 36.5594367980957 36.5946273803711 36.6205596923828 36.6331100463867 36.6199989318848 36.5913162231445 36.5571403503418 36.5055541992188 36.4608840942383 36.4301834106445 36.3943710327148 36.3596878051758 36.3401870727539 36.3409309387207 36.3635482788086 36.4017066955566 36.4405059814453 36.4775924682617 36.5048751831055 36.5159301757812 36.5123062133789 36.5196266174316 36.5500793457031 36.5745429992676 36.5859107971191 36.5940856933594
-9999 -9999 -9999 -9999 -9999 -9999 -9999 -9999 -9999 -9999 -9999 -9999 -9999 -9999 -9999 -9999 31.2628688812256 31.60182762146 33.8304138183594 34.6323585510254 35.1156578063965 35.7924880981445 36.213695526123 36.3033103942871 36.3155822753906 36.3249778747559 36.3435096740723 36.3686714172363 36.3901863098145 36.4065551757812 36.4165725708008 36.4190940856934 36.4179420471191 36.4150772094727 36.412670135498 36.4085884094238 36.399772644043 36.3961944580078 36.4049072265625 36.4223098754883 36.4499244689941 36.4867858886719 36.5221824645996 36.5516738891602 36.5822792053223 36.6078758239746 36.6251945495605 36.6362762451172 36.6324844360352 36.6132926940918 36.5884399414062 36.5436325073242 36.5012016296387 36.4769287109375 36.456169128418 36.4366302490234 36.4297828674316 36.4362182617188 36.4576759338379 36.4873809814453 36.5105133056641 36.5300254821777 36.5491523742676 36.5588340759277 36.5451469421387 36.5246391296387 36.5323104858398 36.5487060546875 36.5613441467285 36.5724601745605
-9999 -9999 -9999 -9999 -9999 -9999 -9999 -9999 -9999 -9999 -9999 -9999 -9999 -9999 -9999 -9999 -9999 32.9702200889587 33.4842910766602 34.6192626953125 35.1867332458496 35.9057922363281 36.210563659668 36.2673110961914 36.2839164733887 36.3143997192383 36.3562812805176 36.3964614868164 36.4250793457031 36.4463157653809 36.4635238647461 36.4778518676758 36.4891166687012 36.4936790466309 36.4924278259277 36.4883880615234 36.4830932617188 36.4824523925781 36.4904823303223 36.5032806396484 36.525463104248 36.5532073974609 36.5739250183105 36.5910835266113 36.6075057983398 36.6189956665039 36.6296691894531 36.6367301940918 36.6374206542969 36.6282119750977 36.6148376464844 36.5836181640625 36.5439987182617 36.5206031799316 36.507152557373 36.4980926513672 36.4985771179199 36.5085372924805 36.5278663635254 36.5478591918945 36.5630874633789 36.5728759765625 36.5855293273926 36.5946502685547 36.5856437683105 36.5523262023926 36.5305519104004 36.5255889892578 36.5298652648926 36.5428657531738
-9999 -9999 -9999 -9999 -9999 -9999 -9999 -9999 -9999 -9999 -9999 -9999 -9999 -9999 31.5170879364014 31.60182762146 32.6901787519455 33.2243194580078 32.9643478393555 34.1055107116699 35.190071105957 36.0042877197266 36.2013969421387 36.2532920837402 36.2903633117676 36.3411903381348 36.3912353515625 36.4272155761719 36.4527626037598 36.4779663085938 36.5050659179688 36.5248527526855 36.5378646850586 36.5448684692383 36.5454978942871 36.543628692627 36.5419654846191 36.5452537536621 36.5550575256348 36.5690841674805 36.5849761962891 36.5993309020996 36.6071357727051 36.6119613647461 36.6153144836426 36.624641418457 36.6360549926758 36.6400451660156 36.6432609558105 36.6416244506836 36.6353187561035 36.6169013977051 36.5841293334961 36.5603294372559 36.5484199523926 36.5438804626465 36.5456161499023 36.5543479919434 36.5693244934082 36.584831237793 36.5960693359375 36.6001319885254 36.6052055358887 36.6089668273926 36.6093635559082 36.58447265625 36.5457344055176 36.51953125 36.5131187438965 36.5272178649902
-9999 -9999 -9999 -9999 -9999 -9999 -9999 -9999 -9999 -9999 -9999 -9999 -9999 -9999 -9999 -9999 -9999 -9999 33.9821090698242 34.2665672302246 35.4740333557129 36.0808029174805 36.2010765075684 36.266284942627 36.3229675292969 36.378734588623 36.4268951416016 36.4587745666504 36.4823951721191 36.504467010498 36.5277557373047 36.5456619262695 36.55712890625 36.5648155212402 36.5694732666016 36.5734214782715 36.5786895751953 36.5867233276367 36.5951614379883 36.6021995544434 36.6073341369629 36.6116333007812 36.6131706237793 36.6143989562988 36.6166114807129 36.6266098022461 36.6347465515137 36.6395111083984 36.6450004577637 36.6478652954102 36.6454391479492 36.6353607177734 36.613655090332 36.593994140625 36.584098815918 36.5797996520996 36.5830688476562 36.5917587280273 36.6065330505371 36.6177177429199 36.6232261657715 36.6236267089844 36.622127532959 36.6214981079102 36.6195411682129 36.6046409606934 36.5670852661133 36.5310935974121 36.5203056335449 36.5312232971191
-9999 -9999 -9999 -9999 -9999 -9999 -9999 -9999 -9999 -9999 -9999 -9999 -9999 -9999 -9999 -9999 -9999 34.4683532714844 34.6122379302979 34.5920104980469 35.604190826416 36.1286125183105 36.239559173584 36.3198165893555 36.3883476257324 36.4380264282227 36.4696159362793 36.4859008789062 36.497875213623 36.5105934143066 36.5326538085938 36.5573272705078 36.5753631591797 36.5861129760742 36.5932998657227 36.5976142883301 36.6023406982422 36.6071128845215 36.6082077026367 36.6078300476074 36.6075668334961 36.6092147827148 36.6107635498047 36.614086151123 36.6217384338379 36.627082824707 36.6302947998047 36.6366806030273 36.6432151794434 36.6479721069336 36.6473655700684 36.6423759460449 36.6314849853516 36.6199111938477 36.6147766113281 36.6161727905273 36.6218414306641 36.6249198913574 36.6273384094238 36.6289253234863 36.6366996765137 36.6396331787109 36.6323356628418 36.6249885559082 36.6233215332031 36.611873626709 36.5831108093262 36.5508995056152 36.5393257141113 36.5441284179688
-9999 -9999 -9999 -9999 -9999 -9999 -9999 -9999 -9999 -9999 -9999 -9999 -9999 36.1373481750488 36.0684407552083 -9999 35.8041572570801 35.3902559280396 34.4683532714844 35.1220207214355 36.0362434387207 36.2748908996582 36.3559188842773 36.4239311218262 36.4615516662598 36.4807624816895 36.4846954345703 36.4843978881836 36.497013092041 36.5251426696777 36.5564270019531 36.5794982910156 36.5914039611816 36.5984001159668 36.603099822998 36.6045722961426 36.6067733764648 36.6090202331543 36.6081809997559 36.6055107116699 36.6041069030762 36.6057052612305 36.6077766418457 36.6123847961426 36.6203880310059 36.6231079101562 36.6249542236328 36.6308174133301 36.6371459960938 36.6418266296387 36.6427536010742 36.6384887695312 36.6314582824707 36.6254959106445 36.6234245300293 36.6231994628906 36.6266937255859 36.6321182250977 36.6373405456543 36.6439056396484 36.6529769897461 36.6571731567383 36.6483688354492 36.6343193054199 36.6285438537598 36.6149406433105 36.5903129577637 36.5676956176758 36.556339263916 36.5561332702637
-9999 -9999 -9999 -9999 -9999 -9999 -9999 -9999 -9999 -9999 -9999 -9999 -9999 -9999 36.1373481750488 36.1009826660156 35.9669914245605 35.6413230895996 35.4843559265137 36.0812950134277 36.3250999450684 36.3877792358398 36.4286079406738 36.4540557861328 36.4760322570801 36.4927520751953 36.4933166503906 36.5031585693359 36.5319976806641 36.563892364502 36.5794334411621 36.5857543945312 36.5869140625 36.5876998901367 36.5922317504883 36.5995788574219 36.6059799194336 36.608226776123 36.6071395874023 36.6055603027344 36.604907989502 36.604866027832 36.6070976257324 36.6130752563477 36.6182632446289 36.6200637817383 36.620475769043 36.6235580444336 36.6289367675781 36.632022857666 36.6315803527832 36.6285247802734 36.6233749389648 36.6181755065918 36.6159019470215 36.6178245544434 36.6259765625 36.6382522583008 36.648509979248 36.652458190918 36.6555061340332 36.6575088500977 36.6522750854492 36.6409873962402 36.6340370178223 36.6197242736816 36.5968933105469 36.5796546936035 36.5672798156738 36.5651359558105
-9999 -9999 -9999 -9999 -9999 -9999 -9999 -9999 -9999 -9999 -9999 -9999 -9999 -9999 36.1371965408325 36.1373481750488 36.1986083984375 36.1833076477051 36.2462310791016 36.3478317260742 36.3753967285156 36.4062042236328 36.4469833374023 36.4845085144043 36.5146675109863 36.5182151794434 36.5232200622559 36.5457344055176 36.5704956054688 36.5793838500977 36.5816230773926 36.5853233337402 36.5865058898926 36.5867805480957 36.5918617248535 36.6003150939941 36.6053848266602 36.6048164367676 36.6002464294434 36.5945434570312 36.5916213989258 36.5935134887695 36.6015968322754 36.6091918945312 36.6143951416016 36.6188697814941 36.619701385498 36.6193923950195 36.6218948364258 36.6235275268555 36.6214561462402 36.6177291870117 36.6138916015625 36.6117286682129 36.6151275634766 36.6198501586914 36.6251335144043 36.6336059570312 36.6423492431641 36.6446838378906 36.6457405090332 36.6437950134277 36.640552520752 36.6365394592285 36.632984161377 36.6238861083984 36.6076049804688 36.5884132385254 36.5724563598633 36.5729598999023
-9999 -9999 -9999 -9999 -9999 -9999 -9999 -9999 -9999 -9999 -9999 35.6955833435059 35.9177474975586 36.0586547851562 36.0971412658691 36.2556419372559 36.2984275817871 36.3070907592773 36.3279418945312 36.3622550964355 36.4138259887695 36.4590797424316 36.4967651367188 36.534740447998 36.5518531799316 36.5493965148926 36.5623512268066 36.579231262207 36.5897026062012 36.5877113342285 36.5864562988281 36.5873947143555 36.5882339477539 36.5862655639648 36.5849533081055 36.5861701965332 36.586051940918 36.582202911377 36.5753974914551 36.5679206848145 36.5667114257812 36.5737113952637 36.587718963623 36.6001052856445 36.6068153381348 36.613597869873 36.6194915771484 36.6190795898438 36.616584777832 36.6149253845215 36.6130065917969 36.6110763549805 36.6100196838379 36.6101531982422 36.6114387512207 36.6129264831543 36.6165924072266 36.6222152709961 36.6300849914551 36.638988494873 36.6433906555176 36.6431541442871 36.6406860351562 36.6367378234863 36.6316070556641 36.6184196472168 36.5992393493652 36.5805473327637 36.5765266418457 36.5840225219727
-9999 -9999 -9999 -9999 -9999 -9999 -9999 -9999 -9999 35.4740905761719 35.8498229980469 36.0577621459961 36.221248626709 36.2603721618652 36.2464981079102 36.3038635253906 36.3035163879395 36.3188705444336 36.3478317260742 36.3871917724609 36.4303970336914 36.4750022888184 36.532829284668 36.566707611084 36.5671157836914 36.5706901550293 36.5859451293945 36.5977096557617 36.6022071838379 36.6012153625488 36.5976829528809 36.5970916748047 36.59912109375 36.5983695983887 36.5932159423828 36.5872192382812 36.5818138122559 36.5749053955078 36.5670433044434 36.5605812072754 36.5623245239258 36.5775833129883 36.5946769714355 36.6030082702637 36.6062393188477 36.6103477478027 36.6168479919434 36.6208038330078 36.6193313598633 36.6162033081055 36.6134071350098 36.6104393005371 36.6077766418457 36.6061782836914 36.6057052612305 36.6059608459473 36.606143951416 36.6057624816895 36.6075668334961 36.6130142211914 36.6191864013672 36.6227264404297 36.6226997375488 36.619083404541 36.6118431091309 36.6007270812988 36.5903053283691 36.5888366699219 36.5973320007324 36.6060485839844
-9999 -9999 -9999 -9999 -9999 -9999 -9999 -9999 -9999 35.766429901123 36.1566352844238 36.2929763793945 36.3274993896484 36.3287467956543 36.3173980712891 36.3114128112793 36.3102340698242 36.3323593139648 36.3778877258301 36.4357147216797 36.4854164123535 36.5238761901855 36.5700950622559 36.5861396789551 36.5904121398926 36.5965118408203 36.6049690246582 36.6108589172363 36.6120452880859 36.6099014282227 36.6062393188477 36.6053695678711 36.6068420410156 36.6080703735352 36.6071624755859 36.6046524047852 36.6018829345703 36.5974044799805 36.5913581848145 36.5853309631348 36.5829963684082 36.5919609069824 36.6051063537598 36.6113662719727 36.6130752563477 36.6148872375488 36.6183738708496 36.6223640441895 36.6225852966309 36.6196365356445 36.6159744262695 36.6115455627441 36.6071090698242 36.6040420532227 36.6021499633789 36.6005439758301 36.5986328125 36.5947456359863 36.5910034179688 36.5907249450684 36.5920600891113 36.5938186645508 36.5954666137695 36.5964431762695 36.5948905944824 36.5943946838379 36.6000900268555 36.6074485778809 36.6167640686035 36.6198425292969
-9999 -9999 -9999 -9999 -9999 35.792163848877 35.7989044189453 35.8931121826172 35.8799781799316 36.0153350830078 36.2448692321777 36.3221206665039 36.322639465332 36.3112869262695 36.3044357299805 36.3021087646484 36.3259391784668 36.3736190795898 36.4292640686035 36.473072052002 36.5052185058594 36.5505256652832 36.5910339355469 36.5972862243652 36.6042518615723 36.6084251403809 36.6116142272949 36.6157531738281 36.6178703308105 36.6165237426758 36.6131973266602 36.6116027832031 36.6111373901367 36.611629486084 36.6112480163574 36.6108512878418 36.6111717224121 36.6116409301758 36.6128120422363 36.6128807067871 36.608226776123 36.606559753418 36.6122665405273 36.6175842285156 36.6196022033691 36.6199722290039 36.620792388916 36.6234016418457 36.6247825622559 36.6233787536621 36.619556427002 36.6145477294922 36.6099548339844 36.605785369873 36.602123260498 36.5992202758789 36.5963821411133 36.5911483764648 36.5850486755371 36.5802230834961 36.5752067565918 36.5720672607422 36.5693855285645 36.5698509216309 36.5737724304199 36.5829238891602 36.5989227294922 36.6125679016113 36.6197891235352 36.6213111877441
-9999 -9999 -9999 -9999 35.4284477233887 35.7948760986328 36.146427154541 36.2259140014648 36.2285079956055 36.2586212158203 36.3225250244141 36.3285522460938 36.3103103637695 36.2978134155273 36.2992630004883 36.3204307556152 36.364429473877 36.4180450439453 36.4646911621094 36.4983215332031 36.5313568115234 36.5763244628906 36.6035995483398 36.6049499511719 36.6091232299805 36.6095314025879 36.6112632751465 36.6144790649414 36.6139869689941 36.6135177612305 36.6127700805664 36.613639831543 36.6141357421875 36.6149482727051 36.6146507263184 36.6144180297852 36.6158866882324 36.618106842041 36.6227378845215 36.6290969848633 36.6304397583008 36.6261749267578 36.624755859375 36.626033782959 36.6260299682617 36.6240272521973 36.621883392334 36.6233520507812 36.6259918212891 36.6255569458008 36.6225624084473 36.6200065612793 36.6181182861328 36.6131782531738 36.6065216064453 36.6026229858398 36.5997581481934 36.5949859619141 36.587890625 36.580436706543 36.5729370117188 36.5706672668457 36.5711402893066 36.5738525390625 36.5791282653809 36.5899314880371 36.5984916687012 36.604362487793 36.6148719787598 36.6194267272949
-9999 -9999 -9999 35.7391405105591 35.7313613891602 36.1689758300781 36.2857513427734 36.3109893798828 36.3222007751465 36.3230972290039 36.3213424682617 36.3067245483398 36.2945251464844 36.2954139709473 36.3145370483398 36.3597450256348 36.4221343994141 36.4726066589355 36.5026817321777 36.5315971374512 36.5574760437012 36.5914154052734 36.6060523986816 36.6050682067871 36.6069717407227 36.6057891845703 36.6098289489746 36.6161346435547 36.6159553527832 36.6136322021484 36.610912322998 36.6115303039551 36.6129417419434 36.6156921386719 36.6167182922363 36.6157150268555 36.6178588867188 36.6225509643555 36.6289749145508 36.6365013122559 36.6404342651367 36.6384201049805 36.6349945068359 36.6334266662598 36.6324615478516 36.6296768188477 36.6261520385742 36.6254196166992 36.6252136230469 36.6244888305664 36.625862121582 36.6290130615234 36.629695892334 36.6249008178711 36.619499206543 36.6156806945801 36.6131820678711 36.6095695495605 36.6045112609863 36.5989265441895 36.5913391113281 36.5836296081543 36.5777206420898 36.5782089233398 36.5850257873535 36.5984992980957 36.6044883728027 36.6051559448242 36.6123085021973 36.6206398010254
-9999 -9999 -9999 35.6924591064453 36.1042938232422 36.2839317321777 36.3202285766602 36.3205337524414 36.3164672851562 36.3029479980469 36.2948455810547 36.2887763977051 36.2930107116699 36.3146667480469 36.3606071472168 36.429874420166 36.483642578125 36.5015487670898 36.5197257995605 36.544075012207 36.5690116882324 36.5989761352539 36.6055488586426 36.6012992858887 36.6000442504883 36.5956001281738 36.5968170166016 36.6066665649414 36.6179504394531 36.6180877685547 36.6117401123047 36.6113166809082 36.6139602661133 36.6165008544922 36.6160850524902 36.6146469116211 36.6194038391113 36.6275939941406 36.6360054016113 36.6423568725586 36.6457405090332 36.6441307067871 36.6389122009277 36.6351280212402 36.6329727172852 36.6297340393066 36.626766204834 36.6251678466797 36.623462677002 36.6243438720703 36.6297492980957 36.6358833312988 36.635555267334 36.6287956237793 36.6233711242676 36.621654510498 36.6216278076172 36.6208076477051 36.6214141845703 36.6214942932129 36.616886138916 36.6053199768066 36.5939598083496 36.5898933410645 36.5942649841309 36.6034240722656 36.6077117919922 36.6061859130859 36.6102867126465 36.6182708740234
