NCOLS 70 
NROWS 52 
XLLCORNER -80 
YLLCORNER 33 
CELLSIZE 0.25 
NODATA_value -9999 
-9999.000000000000000 -9999 -9999 -9999 -9999 -9999 -9999 -9999 -9999 -9999 -9999 -9999 -9999 -9999 -9999 -9999 -9999 -9999 -9999 -9999 -9999 -9999 -9999 -9999 -9999 -9999 -9999 -9999 -9999 -9999 -9999 -9999 -9999 -9999 -9999 -9999 -9999 -9999 -9999 -9999 -9999 -9999 -9999 -9999 -9999 -9999 -9999 -9999 -9999 -9999 -9999 -9999 -9999 -9999 -9999 -9999 -9999 -9999 -9999 -9999 -9999 -9999 -9999 -9999 -9999 -9999 -9999 -9999 -9999 -9999
-9999 -9999 -9999 -9999 -9999 -9999 -9999 -9999 -9999 -9999 -9999 -9999 -9999 -9999 -9999 -9999 -9999 -9999 -9999 -9999 -9999 -9999 -9999 -9999 -9999 -9999 -9999 -9999 -9999 -9999 -9999 -9999 -9999 -9999 -9999 -9999 -9999 -9999 -9999 -9999 -9999 -9999 -9999 -9999 -9999 -9999 -9999 -9999 -9999 -9999 -9999 -9999 -9999 -9999 -9999 -9999 -9999 -9999 -9999 -9999 -9999 -9999 -9999 -9999 -9999 -9999 -9999 -9999 -9999 -9999
-9999 -9999 -9999 -9999 -9999 -9999 -9999 -9999 -9999 -9999 -9999 -9999 -9999 -9999 -9999 -9999 -9999 -9999 -9999 -9999 -9999 -9999 -9999 -9999 -9999 -9999 -9999 -9999 -9999 -9999 -9999 -9999 -9999 -9999 -9999 -9999 -9999 -9999 -9999 -9999 -9999 -9999 -9999 -9999 -9999 -9999 -9999 -9999 -9999 -9999 -9999 -9999 -9999 -9999 -9999 -9999 -9999 -9999 -9999 28.5461387634277 -9999 -9999 -9999 -9999 -9999 -9999 -9999 -9999 -9999 -9999
-9999 -9999 -9999 -9999 -9999 -9999 -9999 -9999 -9999 -9999 -9999 -9999 -9999 -9999 -9999 -9999 -9999 -9999 -9999 -9999 -9999 -9999 -9999 -9999 -9999 -9999 -9999 -9999 -9999 -9999 -9999 -9999 -9999 -9999 -9999 -9999 -9999 -9999 -9999 -9999 -9999 -9999 -9999 -9999 -9999 -9999 -9999 -9999 -9999 -9999 -9999 -9999 -9999 -9999 -9999 29.7028388977051 29.5749053955078 29.3644771575928 29.0575866699219 28.6573333740234 -9999 -9999 -9999 -9999 -9999 -9999 -9999 -9999 -9999 -9999
-9999 -9999 -9999 -9999 -9999 -9999 -9999 -9999 -9999 -9999 -9999 -9999 -9999 -9999 -9999 -9999 -9999 -9999 -9999 -9999 -9999 -9999 -9999 -9999 -9999 -9999 -9999 -9999 -9999 -9999 -9999 -9999 -9999 -9999 -9999 -9999 -9999 -9999 -9999 -9999 -9999 -9999 -9999 -9999 -9999 -9999 -9999 -9999 -9999 -9999 -9999 -9999 30.2268371582031 30.1661224365234 30.0492191314697 29.9078578948975 29.6481513977051 29.3462543487549 -9999 -9999 -9999 -9999 -9999 -9999 -9999 -9999 -9999 -9999 -9999 -9999
-9999 -9999 -9999 -9999 -9999 -9999 -9999 -9999 -9999 -9999 -9999 -9999 -9999 -9999 -9999 -9999 -9999 -9999 -9999 -9999 -9999 -9999 -9999 -9999 -9999 -9999 -9999 -9999 -9999 -9999 -9999 -9999 -9999 -9999 -9999 -9999 -9999 -9999 -9999 -9999 -9999 -9999 -9999 -9999 -9999 -9999 -9999 -9999 -9999 -9999 30.9820014953613 30.8062705993652 30.7915096282959 30.760570526123 30.5488796234131 29.9928207397461 -9999 -9999 -9999 -9999 -9999 -9999 -9999 -9999 -9999 -9999 -9999 29.7104002634684 29.6401281356812 29.4045372009277
-9999 -9999 -9999 -9999 -9999 -9999 -9999 -9999 -9999 -9999 -9999 -9999 -9999 -9999 -9999 -9999 -9999 -9999 -9999 -9999 -9999 -9999 -9999 -9999 -9999 -9999 -9999 -9999 -9999 -9999 -9999 -9999 -9999 -9999 -9999 -9999 -9999 -9999 -9999 -9999 -9999 -9999 -9999 -9999 30.9544684092204 -9999 -9999 31.315815448761 31.2573928833008 31.2703838348389 31.2546691894531 31.34547996521 31.3921661376953 31.3909168243408 31.0860996246338 -9999 -9999 -9999 -9999 -9999 -9999 -9999 -9999 29.8629627227783 29.7990798950195 29.7569351196289 29.7260475158691 29.7182998657227 29.6868534088135 29.7508220672607
-9999 -9999 -9999 -9999 -9999 -9999 -9999 -9999 -9999 -9999 -9999 -9999 -9999 -9999 -9999 -9999 -9999 -9999 -9999 -9999 -9999 -9999 -9999 -9999 -9999 -9999 -9999 -9999 -9999 -9999 -9999 -9999 -9999 -9999 -9999 -9999 -9999 -9999 -9999 -9999 -9999 -9999 -9999 -9999 30.9228973388672 31.0747756958008 31.2420063018799 31.3476715087891 31.4161911010742 31.5016193389893 31.5628623962402 31.5917377471924 31.5548915863037 31.4700889587402 31.3111877441406 -9999 -9999 -9999 -9999 -9999 -9999 -9999 30.0089530944824 29.9352436065674 29.8933200836182 29.8937530517578 29.9294490814209 29.9784870147705 30.0312805175781 30.1686744689941
-9999 -9999 -9999 -9999 -9999 -9999 -9999 -9999 -9999 -9999 -9999 -9999 -9999 -9999 -9999 -9999 -9999 -9999 -9999 -9999 -9999 -9999 -9999 -9999 -9999 -9999 -9999 -9999 -9999 -9999 -9999 -9999 -9999 -9999 -9999 -9999 -9999 -9999 -9999 -9999 30.6629568735758 30.8422342936198 31.0378231048584 31.1775989532471 31.253604888916 31.3738117218018 31.452127456665 31.4997653961182 31.5393123626709 31.5754299163818 31.5860157012939 31.5238628387451 31.4017944335938 31.2976455688477 31.2306655883789 -9999 -9999 -9999 -9999 -9999 30.1521549224854 30.11572265625 30.0459480285645 30.0156116485596 30.0504322052002 30.1162662506104 30.1926803588867 30.3090133666992 30.4676837921143 30.6668300628662
-9999 -9999 -9999 -9999 -9999 -9999 -9999 -9999 -9999 -9999 -9999 -9999 -9999 -9999 -9999 -9999 -9999 -9999 -9999 -9999 -9999 -9999 -9999 -9999 -9999 -9999 -9999 -9999 -9999 -9999 -9999 -9999 -9999 -9999 -9999 -9999 -9999 -9999 -9999 30.5469913482666 30.6247634887695 30.8171157836914 31.0848236083984 31.2438449859619 31.3275356292725 31.3971557617188 31.4360828399658 31.4683780670166 31.5050411224365 31.5506324768066 31.5724906921387 31.4822807312012 31.2932357788086 31.1469631195068 31.1083011627197 31.1303291320801 -9999 -9999 -9999 30.3238534927368 30.2036666870117 30.1370754241943 30.1157417297363 30.156665802002 30.22900390625 30.3333072662354 30.5199527740479 30.7838687896729 31.0069675445557 31.1535549163818
-9999 -9999 -9999 -9999 -9999 -9999 -9999 -9999 -9999 -9999 -9999 -9999 -9999 -9999 -9999 -9999 -9999 -9999 -9999 -9999 -9999 -9999 -9999 -9999 -9999 -9999 -9999 -9999 -9999 -9999 -9999 -9999 -9999 -9999 -9999 -9999 -9999 -9999 31.0785327911377 31.0459041595459 31.2296409606934 31.4167251586914 31.4553604125977 31.4576072692871 31.4570178985596 31.4651203155518 31.4643650054932 31.464599609375 31.4809055328369 31.5206203460693 31.5469074249268 31.4394397735596 31.2060565948486 31.0250225067139 30.9560871124268 30.9604778289795 30.9001636505127 30.7333653767904 30.4922924041748 30.3398761749268 30.259578704834 30.2555160522461 30.2934722900391 30.3341865539551 30.3721981048584 30.4991569519043 30.8269844055176 31.285213470459 31.5823440551758 31.6673145294189
-9999 -9999 -9999 -9999 -9999 -9999 -9999 -9999 -9999 -9999 -9999 -9999 -9999 -9999 -9999 -9999 -9999 -9999 -9999 -9999 -9999 -9999 -9999 -9999 -9999 -9999 -9999 -9999 -9999 -9999 -9999 -9999 -9999 -9999 -9999 -9999 -9999 31.2024421691895 31.2502346038818 31.3470916748047 31.4892234802246 31.5862236022949 31.5985260009766 31.5747852325439 31.5589561462402 31.5589351654053 31.5463237762451 31.5224514007568 31.5113315582275 31.5260791778564 31.5174903869629 31.3688735961914 31.1330547332764 30.9590511322021 30.8554553985596 30.8004951477051 30.7467613220215 30.6336479187012 30.4974327087402 30.4301490783691 30.4706916809082 30.5191383361816 30.5503845214844 30.5534744262695 30.5818061828613 30.7865753173828 31.2661819458008 31.8412342071533 32.1400260925293 32.2269325256348
-9999 -9999 -9999 -9999 -9999 -9999 -9999 -9999 -9999 -9999 -9999 -9999 -9999 -9999 -9999 -9999 -9999 -9999 -9999 -9999 -9999 -9999 -9999 -9999 -9999 -9999 -9999 -9999 -9999 -9999 -9999 -9999 -9999 -9999 -9999 -9999 -9999 31.3872947692871 31.4341087341309 31.5217304229736 31.620304107666 31.6816749572754 31.6881637573242 31.6775035858154 31.6814498901367 31.6893062591553 31.6659908294678 31.6129169464111 31.5623207092285 31.5396137237549 31.4979572296143 31.3581066131592 31.1819934844971 31.0475616455078 30.9511833190918 30.8741207122803 30.8108062744141 30.7411727905273 30.7051467895508 30.7579364776611 30.8516330718994 30.9274883270264 30.9714870452881 30.9729442596436 31.0083560943604 31.2100830078125 31.6007347106934 32.0535049438477 32.3978652954102 32.6216316223145
-9999 -9999 -9999 -9999 -9999 -9999 -9999 -9999 -9999 -9999 -9999 -9999 -9999 -9999 -9999 -9999 -9999 -9999 -9999 -9999 -9999 -9999 -9999 -9999 -9999 -9999 -9999 -9999 -9999 -9999 -9999 -9999 -9999 -9999 -9999 -9999 -9999 31.3310852050781 31.4626617431641 31.572172164917 31.6554183959961 31.7154884338379 31.7448425292969 31.7575016021729 31.776611328125 31.7951526641846 31.7848377227783 31.7328186035156 31.6549453735352 31.5933227539062 31.5394477844238 31.4483222961426 31.3316745758057 31.2527904510498 31.2325401306152 31.2187156677246 31.1894016265869 31.1540279388428 31.1457386016846 31.2187213897705 31.3073043823242 31.4431438446045 31.5451736450195 31.5626068115234 31.5145797729492 31.5300540924072 31.6567096710205 31.9498119354248 32.3444786071777 32.6597023010254
-9999 -9999 -9999 -9999 -9999 -9999 -9999 -9999 -9999 -9999 -9999 -9999 -9999 -9999 -9999 -9999 -9999 -9999 -9999 -9999 -9999 -9999 -9999 -9999 -9999 -9999 -9999 -9999 -9999 -9999 -9999 -9999 -9999 -9999 -9999 -9999 31.072509765625 31.2529067993164 31.4386825561523 31.5345764160156 31.6195697784424 31.7003784179688 31.7584648132324 31.7969055175781 31.8244743347168 31.8489551544189 31.8564186096191 31.830114364624 31.7634620666504 31.6903820037842 31.6348896026611 31.5810070037842 31.4896488189697 31.4286022186279 31.4485034942627 31.5129928588867 31.569034576416 31.5913600921631 31.6085109710693 31.6892700195312 31.743013381958 31.8622817993164 32.0518341064453 32.1952018737793 32.2327156066895 32.1917152404785 32.1986541748047 32.3283843994141 32.5118751525879 32.7148056030273
-9999 -9999 -9999 -9999 -9999 -9999 -9999 -9999 -9999 -9999 -9999 -9999 -9999 -9999 -9999 -9999 -9999 -9999 -9999 -9999 -9999 -9999 -9999 -9999 -9999 -9999 -9999 -9999 -9999 -9999 -9999 -9999 -9999 -9999 -9999 -9999 -9999 31.2119121551514 31.2694149017334 31.3710041046143 31.5107269287109 31.6468200683594 31.7430171966553 31.8143768310547 31.8558197021484 31.8807888031006 31.8924865722656 31.8922729492188 31.8655586242676 31.8121700286865 31.7689018249512 31.7419929504395 31.6756057739258 31.6050682067871 31.5728607177734 31.6103515625 31.6882934570312 31.7789516448975 31.9265327453613 32.048957824707 32.1261405944824 32.2749519348145 32.5058097839355 32.7121391296387 32.8180847167969 32.8306884765625 32.8533325195312 32.8859100341797 32.8892784118652 32.9443206787109
-9999 -9999 -9999 -9999 -9999 -9999 -9999 -9999 -9999 -9999 -9999 -9999 -9999 -9999 -9999 -9999 -9999 -9999 -9999 -9999 -9999 -9999 -9999 -9999 -9999 -9999 -9999 -9999 -9999 -9999 -9999 -9999 -9999 -9999 -9999 -9999 -9999 -9999 31.0302448272705 -9999 31.3611316680908 31.5597839355469 31.7246799468994 31.8301162719727 31.8851146697998 31.9143314361572 31.9233684539795 31.9244041442871 31.9201946258545 31.8963851928711 31.8915386199951 31.8980121612549 31.8779048919678 31.8297805786133 31.7419967651367 31.7393627166748 31.7882061004639 31.9325580596924 32.1836395263672 32.2919578552246 32.3598175048828 32.570499420166 32.8005218505859 33.0763702392578 33.1849708557129 33.1921272277832 33.2266082763672 33.2521858215332 33.3226928710938 33.4376487731934
-9999 -9999 -9999 -9999 -9999 -9999 -9999 -9999 -9999 -9999 -9999 -9999 -9999 -9999 -9999 -9999 -9999 -9999 -9999 -9999 -9999 -9999 -9999 -9999 -9999 -9999 -9999 -9999 -9999 -9999 -9999 -9999 -9999 -9999 -9999 -9999 -9999 -9999 -9999 -9999 31.3891410827637 31.544807434082 31.7117691040039 31.8368492126465 31.918119430542 31.9662914276123 31.9706401824951 31.9453258514404 31.9179725646973 31.9039669036865 31.9180908203125 31.9558544158936 31.9862823486328 31.9769020080566 31.8927001953125 31.8801689147949 31.955530166626 32.1845779418945 32.4146347045898 32.524730682373 32.6234397888184 32.8604393005371 33.1554374694824 33.4959983825684 33.5842704772949 33.6564865112305 33.8817329406738 34.0527992248535 34.1212959289551 34.0831756591797
-9999 -9999 -9999 -9999 -9999 -9999 -9999 -9999 -9999 -9999 -9999 -9999 -9999 -9999 -9999 -9999 -9999 -9999 -9999 -9999 -9999 -9999 -9999 -9999 -9999 -9999 -9999 -9999 -9999 -9999 -9999 -9999 -9999 -9999 31.1953763961792 30.9886054992676 30.9427909851074 -9999 31.003288269043 31.1569843292236 31.329475402832 31.5125579833984 31.6813220977783 31.8357429504395 31.9637851715088 32.0364112854004 32.0263481140137 31.9724731445312 31.9357814788818 31.9208240509033 31.9374313354492 31.9868202209473 32.0361061096191 32.0497894287109 31.9922752380371 31.9728660583496 32.0962142944336 32.3425750732422 32.5169677734375 32.6787605285645 32.8203010559082 33.0808219909668 33.4697875976562 33.8347358703613 34.0354042053223 34.2887916564941 34.6852378845215 34.9638175964355 35.0448951721191 35.0007247924805
-9999 -9999 -9999 -9999 -9999 -9999 -9999 -9999 -9999 -9999 -9999 -9999 -9999 -9999 -9999 -9999 -9999 -9999 -9999 -9999 -9999 -9999 -9999 -9999 -9999 -9999 -9999 26.7383804321289 26.7383804321289 27.3460903167725 28.324104309082 29.8911418914795 31.0646858215332 31.2666797637939 31.2622528076172 31.2639675140381 31.2402095794678 31.1770172119141 31.1395931243896 31.2026042938232 31.3491287231445 31.5251655578613 31.6940002441406 31.8672981262207 32.0281639099121 32.1098365783691 32.0824851989746 32.0162658691406 31.9727954864502 31.9567279815674 31.9731903076172 32.0211486816406 32.0578460693359 32.0562133789062 32.0357666015625 32.0838470458984 32.3374557495117 32.6142349243164 32.7773551940918 32.875244140625 33.0375328063965 33.4987258911133 33.9835624694824 34.3745231628418 34.7579345703125 35.0304107666016 35.2166023254395 35.3540420532227 35.4656028747559 35.6192588806152
-9999 -9999 -9999 -9999 -9999 -9999 -9999 -9999 -9999 -9999 -9999 -9999 -9999 -9999 -9999 -9999 -9999 -9999 -9999 -9999 -9999 -9999 -9999 -9999 -9999 -9999 -9999 -9999 -9999 -9999 29.8060302734375 30.8675937652588 31.6318778991699 31.7373161315918 31.6842861175537 31.6185398101807 31.5384845733643 31.4621887207031 31.3938121795654 31.4012851715088 31.5065879821777 31.6412830352783 31.7769336700439 31.9471950531006 32.1182022094727 32.164665222168 32.1070442199707 32.0491371154785 32.0206413269043 32.0156478881836 32.0432243347168 32.1087455749512 32.1751594543457 32.2705268859863 32.4575080871582 32.754524230957 33.2912101745605 33.6855659484863 33.8131256103516 33.8380851745605 34.123950958252 34.6646118164062 35.0615310668945 35.2950401306152 35.5078125 35.616756439209 35.6488761901855 35.6302528381348 35.748706817627 35.8999710083008
-9999 -9999 -9999 -9999 -9999 -9999 -9999 -9999 -9999 -9999 -9999 -9999 -9999 -9999 -9999 -9999 -9999 -9999 -9999 -9999 -9999 -9999 -9999 -9999 -9999 31.2853755950928 31.4550711313883 31.6093546549479 31.7358732223511 31.7564487457275 31.7924461364746 31.7895259857178 31.7821578979492 31.7858047485352 31.7882213592529 31.788179397583 31.7954330444336 31.7803249359131 31.7291831970215 31.7235584259033 31.7731056213379 31.8389701843262 31.9309616088867 32.096794128418 32.2498779296875 32.261100769043 32.2031021118164 32.2141952514648 32.264030456543 32.3428039550781 32.4704475402832 32.6514434814453 32.8590431213379 33.1136054992676 33.4584655761719 33.8742027282715 34.3646621704102 34.6795272827148 34.7773094177246 34.9042015075684 35.2917251586914 35.5883941650391 35.7520027160645 35.8142013549805 35.868968963623 35.9085807800293 35.9192123413086 35.8496055603027 35.9277534484863 35.981315612793
-9999 -9999 -9999 -9999 -9999 -9999 -9999 -9999 -9999 -9999 -9999 -9999 -9999 -9999 -9999 -9999 -9999 -9999 -9999 -9999 -9999 -9999 -9999 -9999 31.1124820709229 31.2859630584717 31.4576816558838 31.6215686798096 31.7488136291504 31.8166618347168 31.8312511444092 31.8242340087891 31.8519554138184 31.935209274292 32.0456085205078 32.1640357971191 32.2971115112305 32.3099899291992 32.2097816467285 32.1568641662598 32.1361083984375 32.143726348877 32.2306251525879 32.4218215942383 32.6155700683594 32.7407989501953 32.8497467041016 33.0317649841309 33.1873435974121 33.3339309692383 33.5092506408691 33.6997680664062 33.8694076538086 34.0221099853516 34.2100601196289 34.4624519348145 34.741397857666 34.9370460510254 35.0962562561035 35.3890037536621 35.6494102478027 35.7921295166016 35.9218482971191 36.0200538635254 36.0649337768555 36.0704612731934 36.0324211120605 35.9428596496582 36.0067749023438 36.026439666748
-9999 -9999 -9999 -9999 -9999 -9999 -9999 -9999 -9999 -9999 -9999 -9999 -9999 -9999 -9999 -9999 -9999 -9999 -9999 -9999 -9999 -9999 -9999 -9999 31.3823318481445 31.586950302124 31.7278213500977 31.8245639801025 31.8918056488037 31.9179992675781 31.9196968078613 31.9529991149902 32.0868988037109 32.3465614318848 32.6814308166504 33.0147972106934 33.2928428649902 33.3324584960938 33.1028213500977 32.8522605895996 32.6997871398926 32.6943016052246 32.8255882263184 33.0610847473145 33.3565101623535 33.663200378418 33.9654693603516 34.224925994873 34.3504486083984 34.3982543945312 34.430477142334 34.4539680480957 34.4719772338867 34.5743255615234 34.7754020690918 34.9722480773926 35.1752395629883 35.248592376709 35.268627166748 35.4506225585938 35.6364517211914 35.7926979064941 35.9646835327148 36.0945854187012 36.1388053894043 36.1227493286133 36.0540733337402 35.9811477661133 36.0431900024414 36.0431289672852
-9999 -9999 -9999 -9999 -9999 -9999 -9999 -9999 -9999 -9999 -9999 -9999 -9999 -9999 -9999 -9999 -9999 -9999 -9999 -9999 -9999 -9999 -9999 31.5489401817322 31.5343856811523 31.7174224853516 31.8435649871826 31.9251079559326 31.9922008514404 32.0445861816406 32.1220817565918 32.3454437255859 32.7801780700684 33.3125152587891 33.7973823547363 34.1757011413574 34.4581413269043 34.5653419494629 34.3877639770508 33.9951591491699 33.5628623962402 33.3828506469727 33.4958534240723 33.7416877746582 34.0604209899902 34.4125289916992 34.6953887939453 34.879768371582 34.9316291809082 34.8756408691406 34.8389854431152 34.8609580993652 34.9638404846191 35.183219909668 35.4061965942383 35.5328521728516 35.5962829589844 35.5768852233887 35.4765319824219 35.4923324584961 35.6198577880859 35.7979698181152 35.9675979614258 36.0763130187988 36.1196670532227 36.1097640991211 36.0403747558594 35.9901123046875 36.0270309448242 36.0241394042969
-9999 -9999 -9999 -9999 -9999 -9999 -9999 -9999 -9999 -9999 -9999 -9999 -9999 -9999 -9999 -9999 -9999 -9999 -9999 -9999 -9999 -9999 -9999 31.5844383239746 31.6946048736572 31.8374881744385 31.9267921447754 31.9956207275391 32.0911178588867 32.2389831542969 32.5505752563477 33.1910095214844 33.9668769836426 34.4810752868652 34.7040328979492 34.8152160644531 34.9266128540039 35.0226860046387 34.994758605957 34.6846237182617 34.1718330383301 33.896068572998 33.9781188964844 34.197998046875 34.483283996582 34.7929306030273 35.0142021179199 35.1884841918945 35.2763595581055 35.225471496582 35.1694297790527 35.2372245788574 35.4432945251465 35.6603126525879 35.7858543395996 35.7811889648438 35.7158088684082 35.6700439453125 35.6130867004395 35.6227378845215 35.722526550293 35.8612823486328 35.9749031066895 36.0522422790527 36.0964088439941 36.083309173584 36.0132751464844 35.9892921447754 36.0133628845215 36.0120582580566
-9999 -9999 -9999 -9999 -9999 -9999 -9999 -9999 -9999 -9999 -9999 -9999 -9999 -9999 -9999 -9999 -9999 -9999 -9999 -9999 -9999 -9999 31.8151340484619 31.796106338501 31.8753318786621 31.9692878723145 32.0397605895996 32.1211242675781 32.2950668334961 32.6569938659668 33.3186683654785 34.1702499389648 34.7486915588379 34.8924827575684 34.8677406311035 34.8419990539551 34.8508491516113 34.8758354187012 34.8592987060547 34.7118377685547 34.4444694519043 34.3030242919922 34.386589050293 34.5596542358398 34.7754364013672 34.9776916503906 35.1314849853516 35.3144721984863 35.4968872070312 35.5660057067871 35.5248985290527 35.5561141967773 35.7052955627441 35.8114624023438 35.8544158935547 35.8267784118652 35.7790756225586 35.770938873291 35.7600326538086 35.7853317260742 35.8548355102539 35.9229469299316 35.9800415039062 36.0397033691406 36.0856704711914 36.068675994873 36.0076141357422 36.0012512207031 36.0138320922852 36.0121459960938
-9999 -9999 -9999 -9999 -9999 -9999 -9999 -9999 -9999 -9999 -9999 -9999 -9999 -9999 20.8168742921617 -9999 -9999 -9999 -9999 31.8979225158691 -9999 31.944393157959 31.9278392791748 31.957763671875 32.0206527709961 32.1011428833008 32.2072525024414 32.3774299621582 32.7338180541992 33.3652763366699 34.1411514282227 34.6865921020508 34.8129653930664 34.7638816833496 34.7249488830566 34.7198638916016 34.8086242675781 34.9386100769043 35.0097618103027 35.0016632080078 34.8951454162598 34.7836494445801 34.7947654724121 34.9101486206055 35.0699806213379 35.1948699951172 35.2898139953613 35.4457817077637 35.642391204834 35.739631652832 35.7025032043457 35.7006454467773 35.7721977233887 35.8075675964355 35.8153915405273 35.8124885559082 35.8233184814453 35.857494354248 35.8738975524902 35.9009780883789 35.9405364990234 35.9684219360352 35.9874649047852 36.0181617736816 36.0645599365234 36.0652694702148 36.0265884399414 36.0156898498535 36.015079498291 36.0167236328125
-9999 -9999 -9999 -9999 -9999 -9999 -9999 -9999 -9999 -9999 -9999 -9999 -9999 -9999 20.8303556442261 -9999 -9999 -9999 -9999 31.9156980514526 31.9977451324463 32.0471115112305 32.0793266296387 32.1054382324219 32.1504325866699 32.2683715820312 32.5043563842773 32.8502922058105 33.3636360168457 34.0184860229492 34.5396041870117 34.7368049621582 34.7457695007324 34.7614364624023 34.7848739624023 34.8030395507812 34.9273338317871 35.1313018798828 35.2662620544434 35.3025588989258 35.2646598815918 35.1843338012695 35.1499710083008 35.2073059082031 35.3180923461914 35.4151573181152 35.4900245666504 35.5867500305176 35.7035369873047 35.7668113708496 35.7509498596191 35.7544555664062 35.7843399047852 35.7841949462891 35.7847175598145 35.7928161621094 35.8151893615723 35.8689308166504 35.9273376464844 35.9798545837402 36.0183982849121 36.0386009216309 36.0405006408691 36.0397720336914 36.0641326904297 36.0734596252441 36.0488586425781 36.0303802490234 36.0261993408203 36.0279960632324
-9999 -9999 -9999 -9999 -9999 -9999 -9999 -9999 -9999 -9999 -9999 -9999 -9999 -9999 20.7696895599365 -9999 -9999 -9999 -9999 -9999 32.1787204742432 32.1658248901367 32.2273025512695 32.2764434814453 32.3694038391113 32.6134262084961 33.0228233337402 33.4592437744141 33.8926162719727 34.303768157959 34.5624809265137 34.6937103271484 34.8061790466309 34.9373970031738 35.0568046569824 35.1410675048828 35.2346878051758 35.3467407226562 35.4287910461426 35.4538230895996 35.4388122558594 35.3994293212891 35.3689384460449 35.4038391113281 35.5034980773926 35.5969543457031 35.644458770752 35.6675834655762 35.6847496032715 35.7191352844238 35.7486953735352 35.7662620544434 35.7785797119141 35.7587890625 35.7409362792969 35.7340126037598 35.7535171508789 35.8190155029297 35.8996772766113 35.9691314697266 36.0188179016113 36.0503349304199 36.0661697387695 36.0647621154785 36.077091217041 36.0924873352051 36.0774841308594 36.0537948608398 36.0447425842285 36.0409851074219
-9999 -9999 -9999 -9999 -9999 -9999 -9999 -9999 -9999 -9999 -9999 -9999 -9999 -9999 20.871771812439 -9999 21.0123538970947 -9999 -9999 -9999 32.2269592285156 32.2749862670898 32.397144317627 32.5408897399902 32.7675933837891 33.1491584777832 33.5910453796387 33.9265327453613 34.1968803405762 34.4686660766602 34.6946411132812 34.8858032226562 35.062801361084 35.2015686035156 35.2886734008789 35.3427772521973 35.4160232543945 35.5080757141113 35.5881881713867 35.6405906677246 35.6612663269043 35.6581192016602 35.6438674926758 35.6446304321289 35.703498840332 35.7940864562988 35.8413009643555 35.8259048461914 35.7673263549805 35.7206611633301 35.7227821350098 35.7500495910645 35.7637939453125 35.7339859008789 35.6856307983398 35.650577545166 35.6709976196289 35.7490463256836 35.843635559082 35.9300918579102 35.9950790405273 36.0398902893066 36.0676498413086 36.0701446533203 36.0736198425293 36.0964660644531 36.1014556884766 36.0853538513184 36.0734329223633 36.062686920166
-9999 -9999 -9999 -9999 -9999 -9999 -9999 -9999 -9999 -9999 -9999 -9999 -9999 -9999 20.871771812439 20.9738540649414 21.3007068634033 -9999 -9999 32.2674055099487 32.2692222595215 32.3945922851562 32.592113494873 32.8501815795898 33.1900291442871 33.5910682678223 33.9347190856934 34.1690711975098 34.394702911377 34.6472282409668 34.867847442627 35.0249366760254 35.1419258117676 35.2328338623047 35.2864303588867 35.3223609924316 35.429027557373 35.6042709350586 35.7746467590332 35.9094657897949 35.993350982666 36.0361251831055 36.0509834289551 36.0329742431641 36.0071754455566 36.0239410400391 36.057975769043 36.047420501709 35.9827461242676 35.870361328125 35.7432708740234 35.6777267456055 35.663948059082 35.6417694091797 35.6020202636719 35.5883598327637 35.6304054260254 35.714672088623 35.8130683898926 35.9040718078613 35.9861526489258 36.0558700561523 36.1056709289551 36.1237640380859 36.1152420043945 36.1259002685547 36.1330108642578 36.1227912902832 36.1103782653809 36.0982513427734
-9999 -9999 -9999 -9999 -9999 -9999 -9999 -9999 -9999 -9999 -9999 -9999 -9999 -9999 -9999 22.6764545440674 21.8815879821777 -9999 29.4497895240784 32.2266654968262 32.3467750549316 32.5349540710449 32.7849502563477 33.1116485595703 33.4705810546875 33.7951240539551 34.0906181335449 34.3438491821289 34.5375022888184 34.7166442871094 34.9124870300293 35.0281066894531 35.071849822998 35.1413803100586 35.2202453613281 35.291561126709 35.4618873596191 35.7316131591797 35.9796180725098 36.1540832519531 36.2559051513672 36.3107986450195 36.3310585021973 36.3242988586426 36.2767715454102 36.2331886291504 36.2259063720703 36.2208824157715 36.1834678649902 36.0981979370117 35.9484901428223 35.7936820983887 35.691837310791 35.6368522644043 35.6242256164551 35.6493873596191 35.7017517089844 35.7731666564941 35.8591575622559 35.9407768249512 36.0248985290527 36.1084365844727 36.1766014099121 36.218376159668 36.2123489379883 36.1986770629883 36.1891784667969 36.1725120544434 36.1511268615723 36.1330833435059
-9999 -9999 -9999 -9999 -9999 -9999 -9999 -9999 -9999 -9999 -9999 -9999 -9999 -9999 -9999 24.4250431060791 24.8010807037354 -9999 31.8763885498047 32.1976699829102 32.4458312988281 32.7274208068848 33.0172424316406 33.3497657775879 33.6661720275879 33.9323425292969 34.2040672302246 34.4009246826172 34.4837837219238 34.5748596191406 34.778377532959 34.9740180969238 35.0451278686523 35.1070671081543 35.1882286071777 35.2812232971191 35.5177001953125 35.8617553710938 36.1373252868652 36.2998428344727 36.3796234130859 36.4132881164551 36.4206008911133 36.4170837402344 36.3863830566406 36.3394355773926 36.3126792907715 36.3027496337891 36.2838172912598 36.2464179992676 36.1740570068359 36.0612411499023 35.9361457824707 35.8304214477539 35.7938423156738 35.8028526306152 35.8352470397949 35.8876647949219 35.9563598632812 36.0308876037598 36.1172370910645 36.2037620544434 36.2769584655762 36.3267669677734 36.3171882629395 36.2744216918945 36.2414512634277 36.2165260314941 36.187068939209 36.1549224853516
-9999 -9999 -9999 -9999 -9999 -9999 -9999 -9999 -9999 -9999 -9999 -9999 -9999 -9999 -9999 25.517204284668 -9999 29.4059445517404 31.7790565490723 32.2567405700684 32.6312637329102 32.9987831115723 33.311580657959 33.5854835510254 33.8062553405762 33.9779853820801 34.158145904541 34.3004379272461 34.4108619689941 34.4858016967773 34.6044807434082 34.8033332824707 34.9519195556641 35.0250473022461 35.1004753112793 35.2738990783691 35.6176643371582 36.0061073303223 36.2620506286621 36.382942199707 36.4318580627441 36.4518661499023 36.4536209106445 36.441162109375 36.4176483154297 36.3811874389648 36.3535614013672 36.338680267334 36.3295097351074 36.3161201477051 36.2933692932129 36.2474594116211 36.1849822998047 36.1188774108887 36.0770797729492 36.0645446777344 36.0674667358398 36.0923309326172 36.1434135437012 36.209285736084 36.2738189697266 36.3220481872559 36.3568267822266 36.3819427490234 36.3711166381836 36.3146438598633 36.2560997009277 36.2217979431152 36.1925964355469 36.156078338623
-9999 -9999 -9999 -9999 -9999 -9999 -9999 -9999 -9999 -9999 -9999 -9999 -9999 -9999 25.517204284668 26.7884896596273 28.1004047393799 30.7266864776611 31.8101348876953 32.3962211608887 32.7900695800781 33.2035713195801 33.5484886169434 33.7260513305664 33.8116149902344 33.902214050293 34.06005859375 34.2533950805664 34.4372634887695 34.5294227600098 34.5652198791504 34.6496887207031 34.7447624206543 34.8243942260742 35.0003509521484 35.3557319641113 35.808650970459 36.1742668151855 36.3636207580566 36.4304504394531 36.4488182067871 36.4532279968262 36.4424095153809 36.4282760620117 36.42333984375 36.4089736938477 36.3913803100586 36.3761787414551 36.3663139343262 36.3610229492188 36.358097076416 36.3459892272949 36.3281326293945 36.3089904785156 36.2941398620605 36.2908592224121 36.2926368713379 36.305233001709 36.330738067627 36.3550300598145 36.3711242675781 36.3713569641113 36.3723754882812 36.3766059875488 36.3675994873047 36.3319473266602 36.2777061462402 36.233024597168 36.201244354248 36.1702194213867
-9999 -9999 -9999 -9999 -9999 -9999 -9999 -9999 -9999 -9999 -9999 -9999 -9999 -9999 -9999 -9999 30.3414769172668 31.0191440582275 32.0720138549805 32.5338935852051 32.8667449951172 33.2660446166992 33.6397285461426 33.8296928405762 33.9523582458496 34.1984558105469 34.5331878662109 34.8252754211426 35.0103645324707 35.1027641296387 35.113109588623 35.0761680603027 35.035945892334 35.0844573974609 35.308521270752 35.6983375549316 36.0852890014648 36.3285293579102 36.4200248718262 36.4395408630371 36.4406471252441 36.4340667724609 36.4220848083496 36.4167671203613 36.41748046875 36.4123649597168 36.402645111084 36.3934669494629 36.3864402770996 36.378978729248 36.3730278015137 36.3673095703125 36.3643951416016 36.3684501647949 36.3762817382812 36.3845481872559 36.385440826416 36.3851737976074 36.390007019043 36.394775390625 36.3954658508301 36.3858833312988 36.3818321228027 36.3737297058105 36.3552017211914 36.338794708252 36.3090286254883 36.2680206298828 36.2351684570312 36.2085952758789
-9999 -9999 -9999 -9999 -9999 -9999 -9999 -9999 -9999 -9999 -9999 -9999 -9999 -9999 -9999 -9999 31.2694082260132 31.5196723937988 32.3880271911621 32.7684288024902 33.0447807312012 33.3695945739746 33.7562675476074 34.180477142334 34.5935287475586 35.117504119873 35.5570068359375 35.7764892578125 35.8622169494629 35.8770446777344 35.8542098999023 35.8040008544922 35.746223449707 35.7510719299316 35.8907623291016 36.1262283325195 36.3114471435547 36.3954391479492 36.4218902587891 36.4312744140625 36.4371147155762 36.4313316345215 36.418586730957 36.4122467041016 36.4097137451172 36.4087791442871 36.4069595336914 36.4088554382324 36.4112434387207 36.4008827209473 36.384204864502 36.3774261474609 36.3819198608398 36.3939743041992 36.407299041748 36.409481048584 36.4029388427734 36.4011077880859 36.4048004150391 36.4058609008789 36.4040603637695 36.4026718139648 36.4005928039551 36.3839569091797 36.3575248718262 36.3420524597168 36.3308525085449 36.3086242675781 36.2883987426758 36.2727355957031
-9999 -9999 -9999 -9999 -9999 -9999 -9999 -9999 -9999 -9999 -9999 -9999 -9999 -9999 -9999 -9999 -9999 32.2040348052979 32.4629936218262 33.0267028808594 33.359245300293 33.7119903564453 34.284969329834 35.0025825500488 35.5346832275391 35.9322624206543 36.1443977355957 36.2238998413086 36.2486381530762 36.2477493286133 36.2369270324707 36.2230796813965 36.2066383361816 36.2005882263184 36.2430267333984 36.3120994567871 36.361888885498 36.3945274353027 36.4192886352539 36.4389724731445 36.4523315429688 36.4456062316895 36.4272346496582 36.4185600280762 36.4183807373047 36.4230422973633 36.4252510070801 36.4311103820801 36.4426155090332 36.4479064941406 36.4433174133301 36.4353523254395 36.432502746582 36.4363822937012 36.4407806396484 36.4367790222168 36.4282417297363 36.4176292419434 36.4120597839355 36.408763885498 36.409294128418 36.4119148254395 36.4106941223145 36.3978271484375 36.3812294006348 36.3696594238281 36.3643112182617 36.3576927185059 36.3561859130859 36.3610343933105
-9999 -9999 -9999 -9999 -9999 -9999 -9999 -9999 -9999 -9999 -9999 -9999 -9999 -9999 31.4571063518524 31.5196723937988 32.1558432579041 32.4542198181152 32.4454460144043 33.0614204406738 33.7206382751465 34.5683746337891 35.4188690185547 35.8740615844727 36.1108894348145 36.2419815063477 36.2955017089844 36.3178672790527 36.3299026489258 36.3339805603027 36.3321990966797 36.3295097351074 36.3315467834473 36.3319854736328 36.3390960693359 36.3597145080566 36.3870162963867 36.4179801940918 36.4417037963867 36.4520225524902 36.4511337280273 36.43701171875 36.4213371276855 36.4213562011719 36.4288177490234 36.432788848877 36.4324951171875 36.4401168823242 36.4549674987793 36.4686470031738 36.4802093505859 36.4802703857422 36.4765014648438 36.4779090881348 36.4793357849121 36.4756469726562 36.4622573852539 36.4396362304688 36.4236602783203 36.4144515991211 36.4107093811035 36.4101066589355 36.4081764221191 36.3976974487305 36.3853950500488 36.3832931518555 36.3890037536621 36.3985824584961 36.4064140319824 36.4169273376465
-9999 -9999 -9999 -9999 -9999 -9999 -9999 -9999 -9999 -9999 -9999 -9999 -9999 -9999 -9999 -9999 -9999 -9999 33.054801940918 33.2248420715332 34.1168327331543 35.1686325073242 35.888988494873 36.1442985534668 36.2545280456543 36.293586730957 36.308650970459 36.3192520141602 36.3312606811523 36.3405342102051 36.3480033874512 36.3550910949707 36.3639945983887 36.3676300048828 36.3688087463379 36.3801727294922 36.400821685791 36.4279327392578 36.4497222900391 36.4563407897949 36.4503173828125 36.4340553283691 36.4220275878906 36.4295921325684 36.4374351501465 36.4358253479004 36.435302734375 36.4454536437988 36.459716796875 36.4771881103516 36.4931869506836 36.4968872070312 36.4970512390137 36.4976921081543 36.495906829834 36.4936027526855 36.4843063354492 36.4638862609863 36.4432144165039 36.4270172119141 36.4151916503906 36.407527923584 36.4005432128906 36.3898544311523 36.3862762451172 36.3958435058594 36.4166450500488 36.4361114501953 36.4435806274414 36.4492378234863
-9999 -9999 -9999 -9999 -9999 -9999 -9999 -9999 -9999 -9999 -9999 -9999 -9999 -9999 -9999 -9999 -9999 33.4168128967285 33.5819501876831 33.4874992370605 34.4928703308105 35.6390953063965 36.1063842773438 36.2523918151855 36.2899551391602 36.2931709289551 36.2971496582031 36.3140830993652 36.3334426879883 36.3462257385254 36.354808807373 36.3601226806641 36.3660049438477 36.3735542297363 36.3835372924805 36.4021453857422 36.4256896972656 36.4440612792969 36.4536399841309 36.4546852111816 36.446647644043 36.4335670471191 36.4293823242188 36.4367637634277 36.4373817443848 36.4339447021484 36.4345855712891 36.4431076049805 36.4555740356445 36.4757957458496 36.4939346313477 36.5001945495605 36.5036163330078 36.5026550292969 36.4956741333008 36.4911308288574 36.4864730834961 36.4739990234375 36.4543418884277 36.4347496032715 36.4240989685059 36.4221611022949 36.4198188781738 36.4142723083496 36.4156227111816 36.4231033325195 36.4417381286621 36.4589920043945 36.4692039489746 36.4750709533691
-9999 -9999 -9999 -9999 -9999 -9999 -9999 -9999 -9999 -9999 -9999 -9999 -9999 35.2082901000977 34.7825287712945 -9999 34.2260227203369 34.1258573532104 33.4168128967285 34.1986465454102 35.4895896911621 36.1021461486816 36.2348823547363 36.2679824829102 36.2730445861816 36.2753524780273 36.2950477600098 36.3262252807617 36.3435211181641 36.3522834777832 36.3636283874512 36.3746528625488 36.3822364807129 36.3891906738281 36.4032974243164 36.4239654541016 36.4395942687988 36.4478034973145 36.4537124633789 36.4521522521973 36.4411010742188 36.4309577941895 36.4309425354004 36.4352111816406 36.4341125488281 36.4295463562012 36.4257202148438 36.4323463439941 36.4489822387695 36.4713935852051 36.4874725341797 36.4931144714355 36.4992866516113 36.4989242553711 36.4903373718262 36.4827079772949 36.477481842041 36.4710845947266 36.4543304443359 36.4339027404785 36.4221878051758 36.4240188598633 36.434009552002 36.4409942626953 36.4438629150391 36.4492149353027 36.46533203125 36.4790115356445 36.4935111999512 36.5021934509277
-9999 -9999 -9999 -9999 -9999 -9999 -9999 -9999 -9999 -9999 -9999 -9999 -9999 -9999 35.2082901000977 34.8883501688639 34.2509460449219 34.201099395752 34.6345710754395 35.7300071716309 36.2033386230469 36.2870864868164 36.2936744689941 36.2938499450684 36.2821388244629 36.2794151306152 36.3004417419434 36.3293342590332 36.3462982177734 36.3558235168457 36.3642539978027 36.3739700317383 36.3838958740234 36.3941612243652 36.4085578918457 36.4199523925781 36.4240760803223 36.4276695251465 36.4339866638184 36.4370346069336 36.4340057373047 36.4315032958984 36.433277130127 36.4349479675293 36.4322738647461 36.4235305786133 36.4128532409668 36.4159240722656 36.4371604919434 36.462574005127 36.477165222168 36.4817199707031 36.4878883361816 36.4898567199707 36.4837036132812 36.4767799377441 36.4681701660156 36.4586906433105 36.4454307556152 36.4317207336426 36.4233703613281 36.4250984191895 36.4356346130371 36.4508438110352 36.4664497375488 36.4773330688477 36.4816017150879 36.4846801757812 36.4979782104492 36.5070037841797
-9999 -9999 -9999 -9999 -9999 -9999 -9999 -9999 -9999 -9999 -9999 -9999 -9999 -9999 35.7528028488159 35.2082901000977 35.2058143615723 35.4736557006836 35.9435043334961 36.2376251220703 36.2704391479492 36.2621154785156 36.2627868652344 36.2649917602539 36.263256072998 36.2733612060547 36.2971878051758 36.3225059509277 36.3378105163574 36.3497505187988 36.3547172546387 36.3591957092285 36.3679161071777 36.3777198791504 36.3849830627441 36.3850555419922 36.3807182312012 36.3802108764648 36.3865203857422 36.3956108093262 36.4058647155762 36.416576385498 36.4265785217285 36.4320831298828 36.4298706054688 36.4196586608887 36.4107513427734 36.4156913757324 36.4354820251465 36.457878112793 36.4703712463379 36.4712066650391 36.4735946655273 36.4775390625 36.4776916503906 36.4751510620117 36.4690246582031 36.4610023498535 36.4513549804688 36.4411544799805 36.4348335266113 36.4333915710449 36.4398422241211 36.4563446044922 36.4774360656738 36.492317199707 36.4902725219727 36.4845886230469 36.4922218322754 36.4962501525879
-9999 -9999 -9999 -9999 -9999 -9999 -9999 -9999 -9999 -9999 -9999 35.9106407165527 35.9865608215332 36.0394554138184 35.8871154785156 35.876350402832 36.0812644958496 36.206413269043 36.264892578125 36.2611961364746 36.2484169006348 36.2517204284668 36.2598876953125 36.2602348327637 36.2604217529297 36.2707328796387 36.2916145324707 36.3142242431641 36.3313789367676 36.3491516113281 36.3590927124023 36.3618812561035 36.3636131286621 36.3643836975098 36.3611869812012 36.3522758483887 36.3419570922852 36.3391876220703 36.3428840637207 36.3466491699219 36.3530731201172 36.3677864074707 36.3899688720703 36.411506652832 36.4213905334473 36.4182624816895 36.414665222168 36.4212837219238 36.4363746643066 36.4518165588379 36.4568634033203 36.4544334411621 36.4584617614746 36.4696769714355 36.4769859313965 36.4765014648438 36.4723091125488 36.4685173034668 36.4628143310547 36.4549903869629 36.4487648010254 36.4450798034668 36.4466705322266 36.4562911987305 36.4737281799316 36.4870567321777 36.4838790893555 36.4756851196289 36.4782600402832 36.4797134399414
-9999 -9999 -9999 -9999 -9999 -9999 -9999 -9999 -9999 35.8407859802246 36.0007514953613 36.1103172302246 36.1963729858398 36.2256660461426 36.1982345581055 36.2430152893066 36.2762260437012 36.2792015075684 36.2503433227539 36.2300872802734 36.2280616760254 36.2370643615723 36.2512054443359 36.2584648132324 36.2549247741699 36.2568626403809 36.2761764526367 36.2965202331543 36.3164558410645 36.3392066955566 36.3547630310059 36.3664932250977 36.374324798584 36.3769493103027 36.3717880249023 36.3581924438477 36.344669342041 36.3391952514648 36.3411026000977 36.3422584533691 36.3430061340332 36.348690032959 36.3631477355957 36.3895263671875 36.4113578796387 36.4147262573242 36.4122047424316 36.4169387817383 36.4251251220703 36.4253273010254 36.4181289672852 36.4098739624023 36.412525177002 36.4316787719727 36.454475402832 36.4676246643066 36.4704208374023 36.4680023193359 36.4654083251953 36.4619178771973 36.4572143554688 36.4534683227539 36.4516372680664 36.4545135498047 36.4639625549316 36.4736328125 36.4751892089844 36.4699287414551 36.4655647277832 36.4678153991699
-9999 -9999 -9999 -9999 -9999 -9999 -9999 -9999 -9999 35.987548828125 36.1646385192871 36.2485694885254 36.2809181213379 36.2941246032715 36.2887001037598 36.2878494262695 36.2700080871582 36.2483901977539 36.2295036315918 36.2242431640625 36.2283172607422 36.2364730834961 36.2485046386719 36.2534942626953 36.2525596618652 36.2488822937012 36.2581481933594 36.2840538024902 36.3132247924805 36.3324165344238 36.3409385681152 36.3511619567871 36.3604545593262 36.3633766174316 36.3627471923828 36.3551483154297 36.3462219238281 36.3422470092773 36.3421669006348 36.3426284790039 36.3420829772949 36.3464202880859 36.3557815551758 36.3752326965332 36.4014434814453 36.413745880127 36.4145011901855 36.4209327697754 36.4280776977539 36.4231567382812 36.410530090332 36.3960380554199 36.3892440795898 36.4017181396484 36.4228820800781 36.437370300293 36.4518356323242 36.4639434814453 36.4669494628906 36.4645729064941 36.4602546691895 36.4601402282715 36.4579887390137 36.454158782959 36.4521675109863 36.4499893188477 36.4533195495605 36.4596710205078 36.4559555053711 36.4547080993652
-9999 -9999 -9999 -9999 -9999 35.9756107330322 35.9877662658691 36.0341606140137 36.0497703552246 36.0767555236816 36.2047309875488 36.2825164794922 36.3070907592773 36.3015441894531 36.2859268188477 36.2721099853516 36.2488288879395 36.2263717651367 36.2151565551758 36.2185363769531 36.2164649963379 36.2215309143066 36.2328300476074 36.2402153015137 36.2436332702637 36.2423477172852 36.2468032836914 36.2695732116699 36.3016777038574 36.3189849853516 36.324520111084 36.3356628417969 36.3481101989746 36.3468780517578 36.3373794555664 36.3298225402832 36.3267288208008 36.3273239135742 36.3323822021484 36.338924407959 36.3425903320312 36.3485488891602 36.357177734375 36.3719177246094 36.3988571166992 36.4187393188477 36.4211807250977 36.424732208252 36.426872253418 36.4216842651367 36.4145011901855 36.401050567627 36.3854522705078 36.3862533569336 36.4034461975098 36.4187927246094 36.4282722473145 36.4438323974609 36.4588088989258 36.4613265991211 36.4563941955566 36.4593315124512 36.4653854370117 36.4643630981445 36.4619331359863 36.4489822387695 36.4448890686035 36.4562454223633 36.4677200317383 36.4554138183594
-9999 -9999 -9999 -9999 35.8436737060547 35.9600486755371 36.110954284668 36.1729850769043 36.1994132995605 36.2147979736328 36.2655982971191 36.2945594787598 36.2945098876953 36.2718238830566 36.2605628967285 36.25048828125 36.2251319885254 36.209041595459 36.2126770019531 36.214168548584 36.2044715881348 36.2095794677734 36.2202987670898 36.2279891967773 36.230152130127 36.2326354980469 36.2408294677734 36.2607765197754 36.2819633483887 36.2957153320312 36.3063125610352 36.3211479187012 36.3341522216797 36.3269271850586 36.3123092651367 36.3070869445801 36.3086967468262 36.3183822631836 36.3335571289062 36.3452606201172 36.3500099182129 36.3544883728027 36.3629493713379 36.3767738342285 36.4053421020508 36.426399230957 36.422306060791 36.4176864624023 36.4114418029785 36.4015464782715 36.3944129943848 36.3877143859863 36.3796424865723 36.3729019165039 36.3833770751953 36.400749206543 36.4119148254395 36.4217376708984 36.4357872009277 36.4421691894531 36.4460563659668 36.4606018066406 36.4758491516113 36.4828987121582 36.4848136901855 36.4716835021973 36.4681510925293 36.4674186706543 36.4805030822754 36.4619102478027
-9999 -9999 -9999 35.9212760925293 35.9138336181641 36.1059722900391 36.2082061767578 36.2605400085449 36.2799530029297 36.2872543334961 36.2894592285156 36.2856559753418 36.2651290893555 36.254581451416 36.2524299621582 36.2337951660156 36.2029342651367 36.1922492980957 36.2018737792969 36.1956214904785 36.188419342041 36.1954689025879 36.2067985534668 36.2140350341797 36.2162322998047 36.2192993164062 36.2296867370605 36.2526893615723 36.275993347168 36.2876892089844 36.3013076782227 36.3185119628906 36.3261528015137 36.3117256164551 36.2990913391113 36.2993698120117 36.3050308227539 36.3204002380371 36.3383674621582 36.352653503418 36.3592224121094 36.3622589111328 36.371711730957 36.3894996643066 36.4202423095703 36.4297714233398 36.4139099121094 36.4029655456543 36.3868103027344 36.3732528686523 36.3690948486328 36.3732147216797 36.3747177124023 36.369873046875 36.3748054504395 36.3887405395508 36.3990592956543 36.4089965820312 36.4212074279785 36.4329643249512 36.4485054016113 36.4763946533203 36.4949493408203 36.5014762878418 36.4973907470703 36.4831123352051 36.4774742126465 36.4625358581543 36.4629096984863 36.4597129821777
-9999 -9999 -9999 35.8923149108887 36.0352821350098 36.1986427307129 36.2733421325684 36.3031959533691 36.3032112121582 36.2909889221191 36.2763328552246 36.2542037963867 36.2471733093262 36.2445831298828 36.2325859069824 36.2009620666504 36.1787185668945 36.1849365234375 36.2027244567871 36.1870994567871 36.1809501647949 36.1910781860352 36.2013702392578 36.2052955627441 36.2071533203125 36.2176055908203 36.2351531982422 36.2583312988281 36.2810859680176 36.2995834350586 36.3126831054688 36.3226203918457 36.3146629333496 36.29736328125 36.2966499328613 36.3041496276855 36.3117294311523 36.3237037658691 36.3410339355469 36.3601875305176 36.3712921142578 36.3746566772461 36.3848762512207 36.4062194824219 36.4310760498047 36.4239044189453 36.3984451293945 36.3771591186523 36.3515167236328 36.3438301086426 36.3505630493164 36.3664474487305 36.3733673095703 36.3717384338379 36.3730812072754 36.3830757141113 36.3926315307617 36.403133392334 36.4151573181152 36.42822265625 36.4484405517578 36.4792251586914 36.4950637817383 36.4972534179688 36.4832458496094 36.4758758544922 36.4788284301758 36.4577102661133 36.4504318237305 36.4595146179199
