NCOLS 70 
NROWS 52 
XLLCORNER -80 
YLLCORNER 33 
CELLSIZE 0.25 
NODATA_value -9999 
-9999.000000000000000 -9999 -9999 -9999 -9999 -9999 -9999 -9999 -9999 -9999 -9999 -9999 -9999 -9999 -9999 -9999 -9999 -9999 -9999 -9999 -9999 -9999 -9999 -9999 -9999 -9999 -9999 -9999 -9999 -9999 -9999 -9999 -9999 -9999 -9999 -9999 -9999 -9999 -9999 -9999 -9999 -9999 -9999 -9999 -9999 -9999 -9999 -9999 -9999 -9999 -9999 -9999 -9999 -9999 -9999 -9999 -9999 -9999 -9999 -9999 -9999 -9999 -9999 -9999 -9999 -9999 -9999 -9999 -9999 -9999
-9999 -9999 -9999 -9999 -9999 -9999 -9999 -9999 -9999 -9999 -9999 -9999 -9999 -9999 -9999 -9999 -9999 -9999 -9999 -9999 -9999 -9999 -9999 -9999 -9999 -9999 -9999 -9999 -9999 -9999 -9999 -9999 -9999 -9999 -9999 -9999 -9999 -9999 -9999 -9999 -9999 -9999 -9999 -9999 -9999 -9999 -9999 -9999 -9999 -9999 -9999 -9999 -9999 -9999 -9999 -9999 -9999 -9999 -9999 -9999 -9999 -9999 -9999 -9999 -9999 -9999 -9999 -9999 -9999 -9999
-9999 -9999 -9999 -9999 -9999 -9999 -9999 -9999 -9999 -9999 -9999 -9999 -9999 -9999 -9999 -9999 -9999 -9999 -9999 -9999 -9999 -9999 -9999 -9999 -9999 -9999 -9999 -9999 -9999 -9999 -9999 -9999 -9999 -9999 -9999 -9999 -9999 -9999 -9999 -9999 -9999 -9999 -9999 -9999 -9999 -9999 -9999 -9999 -9999 -9999 -9999 -9999 -9999 -9999 -9999 -9999 -9999 -9999 -9999 350.895751953125 -9999 -9999 -9999 -9999 -9999 -9999 -9999 -9999 -9999 -9999
-9999 -9999 -9999 -9999 -9999 -9999 -9999 -9999 -9999 -9999 -9999 -9999 -9999 -9999 -9999 -9999 -9999 -9999 -9999 -9999 -9999 -9999 -9999 -9999 -9999 -9999 -9999 -9999 -9999 -9999 -9999 -9999 -9999 -9999 -9999 -9999 -9999 -9999 -9999 -9999 -9999 -9999 -9999 -9999 -9999 -9999 -9999 -9999 -9999 -9999 -9999 -9999 -9999 -9999 -9999 406.816009521484 315.155914306641 274.580078125 266.369415283203 300.920715332031 -9999 -9999 -9999 -9999 -9999 -9999 -9999 -9999 -9999 -9999
-9999 -9999 -9999 -9999 -9999 -9999 -9999 -9999 -9999 -9999 -9999 -9999 -9999 -9999 -9999 -9999 -9999 -9999 -9999 -9999 -9999 -9999 -9999 -9999 -9999 -9999 -9999 -9999 -9999 -9999 -9999 -9999 -9999 -9999 -9999 -9999 -9999 -9999 -9999 -9999 -9999 -9999 -9999 -9999 -9999 -9999 -9999 -9999 -9999 -9999 -9999 -9999 425.638061523438 384.183074951172 381.027130126953 294.738006591797 245.610961914062 246.184173583984 -9999 -9999 -9999 -9999 -9999 -9999 -9999 -9999 -9999 -9999 -9999 -9999
-9999 -9999 -9999 -9999 -9999 -9999 -9999 -9999 -9999 -9999 -9999 -9999 -9999 -9999 -9999 -9999 -9999 -9999 -9999 -9999 -9999 -9999 -9999 -9999 -9999 -9999 -9999 -9999 -9999 -9999 -9999 -9999 -9999 -9999 -9999 -9999 -9999 -9999 -9999 -9999 -9999 -9999 -9999 -9999 -9999 -9999 -9999 -9999 -9999 -9999 269.429736328125 359.14111328125 290.993103027344 224.962921142578 206.672271728516 193.756683349609 -9999 -9999 -9999 -9999 -9999 -9999 -9999 -9999 -9999 -9999 -9999 153.981287638346 154.787794113159 213.370956420898
-9999 -9999 -9999 -9999 -9999 -9999 -9999 -9999 -9999 -9999 -9999 -9999 -9999 -9999 -9999 -9999 -9999 -9999 -9999 -9999 -9999 -9999 -9999 -9999 -9999 -9999 -9999 -9999 -9999 -9999 -9999 -9999 -9999 -9999 -9999 -9999 -9999 -9999 -9999 -9999 -9999 -9999 -9999 -9999 385.551961263021 -9999 -9999 226.631103515625 190.102447509766 176.966842651367 172.084808349609 176.924179077148 188.533020019531 187.102172851562 165.212539672852 -9999 -9999 -9999 -9999 -9999 -9999 -9999 -9999 174.15705871582 175.119964599609 175.619476318359 172.191390991211 156.809585571289 132.942886352539 116.02774810791
-9999 -9999 -9999 -9999 -9999 -9999 -9999 -9999 -9999 -9999 -9999 -9999 -9999 -9999 -9999 -9999 -9999 -9999 -9999 -9999 -9999 -9999 -9999 -9999 -9999 -9999 -9999 -9999 -9999 -9999 -9999 -9999 -9999 -9999 -9999 -9999 -9999 -9999 -9999 -9999 -9999 -9999 -9999 -9999 392.616088867188 355.114898681641 296.680297851562 235.976287841797 183.765380859375 138.336685180664 111.997611999512 105.006271362305 105.773475646973 105.133590698242 136.183917999268 -9999 -9999 -9999 -9999 -9999 -9999 -9999 136.416732788086 125.11589050293 106.522872924805 94.5779113769531 90.6003189086914 86.4210052490234 80.3410034179688 75.67626953125
-9999 -9999 -9999 -9999 -9999 -9999 -9999 -9999 -9999 -9999 -9999 -9999 -9999 -9999 -9999 -9999 -9999 -9999 -9999 -9999 -9999 -9999 -9999 -9999 -9999 -9999 -9999 -9999 -9999 -9999 -9999 -9999 -9999 -9999 -9999 -9999 -9999 -9999 -9999 -9999 387.902659098307 370.51328531901 357.974328613281 371.52294921875 300.245971679688 212.379791259766 161.391250610352 132.209075927734 106.823829650879 87.7991638183594 80.4202651977539 81.5581741333008 81.7086791992188 87.2873687744141 106.386535644531 -9999 -9999 -9999 -9999 -9999 113.137621561686 118.236640930176 102.303985595703 83.8732299804688 70.3688125610352 62.3992004394531 58.1393699645996 57.411060333252 57.8967247009277 58.8125305175781
-9999 -9999 -9999 -9999 -9999 -9999 -9999 -9999 -9999 -9999 -9999 -9999 -9999 -9999 -9999 -9999 -9999 -9999 -9999 -9999 -9999 -9999 -9999 -9999 -9999 -9999 -9999 -9999 -9999 -9999 -9999 -9999 -9999 -9999 -9999 -9999 -9999 -9999 -9999 396.977874755859 389.926696777344 376.803405761719 344.809753417969 287.810638427734 222.989395141602 161.071319580078 115.49471282959 91.3504028320312 76.2362442016602 66.0407485961914 63.0940170288086 66.1596832275391 69.9005508422852 78.9956665039062 118.390411376953 142.125640869141 -9999 -9999 -9999 92.0642623901367 125.31600189209 95.860221862793 72.8228073120117 63.0231094360352 59.2549171447754 57.1046752929688 57.5970306396484 58.9505081176758 59.5060920715332 58.9685745239258
-9999 -9999 -9999 -9999 -9999 -9999 -9999 -9999 -9999 -9999 -9999 -9999 -9999 -9999 -9999 -9999 -9999 -9999 -9999 -9999 -9999 -9999 -9999 -9999 -9999 -9999 -9999 -9999 -9999 -9999 -9999 -9999 -9999 -9999 -9999 -9999 -9999 -9999 302.301123046875 281.44287109375 250.460372924805 209.0986328125 183.699249267578 156.503234863281 125.300094604492 95.2140197753906 75.0246124267578 64.9159164428711 59.8174285888672 58.7557792663574 61.1493492126465 63.0029563903809 63.679759979248 70.8953247070312 89.4926300048828 90.2894592285156 89.4326248168945 95.0797424316406 93.3630752563477 80.6174087524414 68.960563659668 60.484790802002 57.2278861999512 57.9256629943848 58.1214561462402 58.1847915649414 59.9963493347168 62.3094787597656 64.0379867553711 64.0128631591797
-9999 -9999 -9999 -9999 -9999 -9999 -9999 -9999 -9999 -9999 -9999 -9999 -9999 -9999 -9999 -9999 -9999 -9999 -9999 -9999 -9999 -9999 -9999 -9999 -9999 -9999 -9999 -9999 -9999 -9999 -9999 -9999 -9999 -9999 -9999 -9999 -9999 346.029937744141 287.712646484375 199.34228515625 151.738861083984 135.958480834961 120.726257324219 97.5033493041992 77.0306167602539 64.8590393066406 59.4453926086426 57.2682342529297 56.6107902526855 58.595947265625 63.2022323608398 64.5695495605469 62.6316070556641 64.6422805786133 72.2803421020508 77.4903411865234 81.5773468017578 80.0556945800781 72.3285064697266 64.9594802856445 58.8005180358887 56.2163314819336 55.8535842895508 56.7491035461426 57.7890243530273 59.752685546875 62.8960838317871 65.9503402709961 67.5675048828125 68.9028549194336
-9999 -9999 -9999 -9999 -9999 -9999 -9999 -9999 -9999 -9999 -9999 -9999 -9999 -9999 -9999 -9999 -9999 -9999 -9999 -9999 -9999 -9999 -9999 -9999 -9999 -9999 -9999 -9999 -9999 -9999 -9999 -9999 -9999 -9999 -9999 -9999 -9999 394.661468505859 308.372161865234 173.686935424805 113.336364746094 100.848739624023 86.9751510620117 70.6847305297852 61.2077674865723 57.9957847595215 56.796459197998 56.7735137939453 57.3433723449707 59.2509651184082 63.126522064209 64.8493423461914 64.4216537475586 65.0004425048828 67.8412399291992 71.0116195678711 73.9474182128906 74.7233352661133 72.4077072143555 67.3748397827148 62.1499443054199 61.8037948608398 64.4783706665039 67.8918685913086 68.4890441894531 69.7920837402344 72.4134521484375 75.2337265014648 75.9013900756836 73.6413497924805
-9999 -9999 -9999 -9999 -9999 -9999 -9999 -9999 -9999 -9999 -9999 -9999 -9999 -9999 -9999 -9999 -9999 -9999 -9999 -9999 -9999 -9999 -9999 -9999 -9999 -9999 -9999 -9999 -9999 -9999 -9999 -9999 -9999 -9999 -9999 -9999 -9999 407.773284912109 272.472961425781 146.396270751953 91.322883605957 77.5201416015625 67.7007064819336 61.2396850585938 59.9601211547852 60.5137481689453 59.6498870849609 59.2645072937012 59.5953712463379 60.359073638916 62.2065277099609 64.075065612793 66.7738647460938 70.8724822998047 75.1628341674805 79.4875030517578 85.5195083618164 89.2154312133789 85.7374877929688 76.8243713378906 71.0183944702148 73.6480026245117 89.676643371582 108.007362365723 117.524147033691 121.981430053711 126.332893371582 124.897315979004 114.442268371582 99.0049362182617
-9999 -9999 -9999 -9999 -9999 -9999 -9999 -9999 -9999 -9999 -9999 -9999 -9999 -9999 -9999 -9999 -9999 -9999 -9999 -9999 -9999 -9999 -9999 -9999 -9999 -9999 -9999 -9999 -9999 -9999 -9999 -9999 -9999 -9999 -9999 -9999 630.812438964844 416.198455810547 211.829010009766 123.737693786621 90.2957229614258 76.501350402832 67.114990234375 62.2481422424316 63.091007232666 65.2239761352539 63.5326271057129 61.4460678100586 61.0157165527344 61.2376708984375 62.0306968688965 64.2098388671875 68.5491943359375 73.238899230957 76.9944076538086 84.7415771484375 98.7537612915039 105.026824951172 100.140090942383 91.5629653930664 89.092155456543 94.3655853271484 117.820617675781 145.700469970703 178.826370239258 212.410202026367 241.316268920898 241.930541992188 214.667343139648 157.347396850586
-9999 -9999 -9999 -9999 -9999 -9999 -9999 -9999 -9999 -9999 -9999 -9999 -9999 -9999 -9999 -9999 -9999 -9999 -9999 -9999 -9999 -9999 -9999 -9999 -9999 -9999 -9999 -9999 -9999 -9999 -9999 -9999 -9999 -9999 -9999 -9999 -9999 292.716156005859 215.385864257812 130.811767578125 109.183082580566 94.1196517944336 76.0337905883789 65.4444122314453 65.6678466796875 69.7492523193359 69.1124038696289 66.2462921142578 65.0707092285156 67.7306671142578 66.7495956420898 65.4466781616211 67.3650283813477 71.5664215087891 77.582389831543 88.145751953125 102.357269287109 112.188926696777 116.643363952637 121.486305236816 125.685119628906 132.783935546875 140.478897094727 150.571426391602 181.669479370117 236.585632324219 291.743133544922 307.479187011719 304.962738037109 211.977508544922
-9999 -9999 -9999 -9999 -9999 -9999 -9999 -9999 -9999 -9999 -9999 -9999 -9999 -9999 -9999 -9999 -9999 -9999 -9999 -9999 -9999 -9999 -9999 -9999 -9999 -9999 -9999 -9999 -9999 -9999 -9999 -9999 -9999 -9999 -9999 -9999 -9999 -9999 192.002243041992 -9999 122.548027038574 104.292617797852 82.5323257446289 69.4666213989258 67.0905914306641 74.0716018676758 81.1914291381836 82.2892532348633 81.8930587768555 84.8143539428711 77.8079147338867 71.0122146606445 67.2866134643555 69.7437210083008 77.9972610473633 89.1080322265625 103.558815002441 126.780532836914 155.062942504883 183.498504638672 201.596130371094 209.931976318359 208.973175048828 208.842071533203 229.233917236328 282.356750488281 314.802124023438 332.395355224609 334.768676757812 230.737884521484
-9999 -9999 -9999 -9999 -9999 -9999 -9999 -9999 -9999 -9999 -9999 -9999 -9999 -9999 -9999 -9999 -9999 -9999 -9999 -9999 -9999 -9999 -9999 -9999 -9999 -9999 -9999 -9999 -9999 -9999 -9999 -9999 -9999 -9999 -9999 -9999 -9999 -9999 -9999 -9999 126.992797851562 104.369468688965 83.1248474121094 70.6063995361328 66.4961395263672 74.8724975585938 88.3209609985352 94.8034896850586 94.8743362426758 88.8372421264648 81.9335174560547 79.8307266235352 78.4578018188477 81.6295013427734 88.2774658203125 99.3306655883789 131.574554443359 186.970504760742 239.840240478516 287.872100830078 326.26416015625 348.37353515625 345.301666259766 336.068756103516 331.503204345703 350.684295654297 342.414825439453 336.698577880859 299.910552978516 216.008972167969
-9999 -9999 -9999 -9999 -9999 -9999 -9999 -9999 -9999 -9999 -9999 -9999 -9999 -9999 -9999 -9999 -9999 -9999 -9999 -9999 -9999 -9999 -9999 -9999 -9999 -9999 -9999 -9999 -9999 -9999 -9999 -9999 -9999 -9999 255.421928405762 300.102203369141 263.175231933594 -9999 183.277252197266 160.485443115234 129.057388305664 102.398773193359 82.8770980834961 69.6215286254883 66.0164642333984 76.4180679321289 90.7870407104492 97.5464477539062 96.8971481323242 94.9165649414062 93.7534866333008 97.3539657592773 106.855331420898 114.515823364258 123.154228210449 148.747680664062 218.089309692383 288.720611572266 328.630157470703 362.737884521484 408.967163085938 438.130004882812 424.903106689453 403.709625244141 389.669677734375 384.371246337891 342.836486816406 299.8076171875 252.218490600586 192.502471923828
-9999 -9999 -9999 -9999 -9999 -9999 -9999 -9999 -9999 -9999 -9999 -9999 -9999 -9999 -9999 -9999 -9999 -9999 -9999 -9999 -9999 -9999 -9999 -9999 -9999 -9999 -9999 804.963012695312 804.963012695312 581.894958496094 392.477996826172 304.78125 288.141571044922 263.401977539062 245.791091918945 212.392440795898 165.524566650391 143.091384887695 137.792404174805 128.36474609375 113.325241088867 95.6885757446289 80.0446014404297 69.3609924316406 69.4989242553711 81.0279083251953 91.2969512939453 94.5693893432617 94.8495101928711 96.7429275512695 101.912857055664 113.454971313477 133.850280761719 157.001129150391 185.804748535156 231.693893432617 287.997344970703 314.411743164062 348.253662109375 389.364044189453 439.907470703125 463.542999267578 453.405059814453 434.612243652344 410.670562744141 378.596160888672 308.145385742188 265.887237548828 229.503173828125 193.004760742188
-9999 -9999 -9999 -9999 -9999 -9999 -9999 -9999 -9999 -9999 -9999 -9999 -9999 -9999 -9999 -9999 -9999 -9999 -9999 -9999 -9999 -9999 -9999 -9999 -9999 -9999 -9999 -9999 -9999 -9999 263.357727050781 241.471527099609 199.57453918457 141.745346069336 125.32300567627 112.712173461914 101.834426879883 96.295051574707 94.8878860473633 91.7642440795898 95.6926651000977 86.7372741699219 75.4303207397461 72.5040054321289 79.3823165893555 88.9039001464844 93.3438339233398 94.0128479003906 92.8021621704102 97.4827117919922 115.668518066406 148.694717407227 189.419403076172 217.970703125 246.16487121582 277.687103271484 292.549621582031 292.885498046875 340.7724609375 390.696472167969 423.531860351562 436.839294433594 439.147003173828 440.069854736328 398.148590087891 351.953247070312 294.936645507812 272.288299560547 246.355926513672 231.478012084961
-9999 -9999 -9999 -9999 -9999 -9999 -9999 -9999 -9999 -9999 -9999 -9999 -9999 -9999 -9999 -9999 -9999 -9999 -9999 -9999 -9999 -9999 -9999 -9999 -9999 623.176228841146 413.876225789388 260.278981526693 169.663999557495 163.41438293457 163.619064331055 167.636047363281 146.997955322266 116.096504211426 105.32234954834 102.888145446777 97.1200103759766 91.0597915649414 85.7052383422852 82.3768081665039 85.3819351196289 84.0186920166016 81.6996841430664 86.0541687011719 96.6839065551758 107.417594909668 115.406867980957 117.899047851562 114.113700866699 112.771469116211 143.935302734375 195.87141418457 244.738464355469 255.653564453125 257.697113037109 277.522216796875 278.380920410156 271.086334228516 302.661163330078 331.401580810547 355.961395263672 362.550476074219 367.203491210938 368.755340576172 348.108673095703 331.878662109375 318.8408203125 316.477142333984 304.605621337891 286.019439697266
-9999 -9999 -9999 -9999 -9999 -9999 -9999 -9999 -9999 -9999 -9999 -9999 -9999 -9999 -9999 -9999 -9999 -9999 -9999 -9999 -9999 -9999 -9999 -9999 861.357482910156 619.086059570312 389.085144042969 233.457473754883 158.294326782227 123.489814758301 120.182228088379 125.591552734375 129.641906738281 131.218933105469 133.080444335938 135.782028198242 129.178680419922 113.456436157227 99.8109512329102 93.6015548706055 92.3531341552734 93.9812164306641 100.663818359375 110.096405029297 120.912704467773 138.233459472656 155.466613769531 167.934188842773 170.277923583984 164.701385498047 179.700469970703 203.92268371582 225.750366210938 235.187713623047 235.638870239258 252.041946411133 265.901519775391 259.894439697266 263.28955078125 270.195373535156 273.26513671875 279.292694091797 295.079193115234 312.783386230469 332.165649414062 347.476867675781 348.172546386719 350.908416748047 350.940826416016 338.193725585938
-9999 -9999 -9999 -9999 -9999 -9999 -9999 -9999 -9999 -9999 -9999 -9999 -9999 -9999 -9999 -9999 -9999 -9999 -9999 -9999 -9999 -9999 -9999 -9999 513.668518066406 307.320770263672 182.236038208008 133.957504272461 117.491775512695 120.635597229004 135.869812011719 154.154098510742 170.280685424805 181.353286743164 188.610504150391 195.023513793945 191.490783691406 173.208282470703 150.262023925781 132.874618530273 123.499320983887 121.345314025879 127.85082244873 143.916885375977 171.065383911133 207.529891967773 242.709991455078 270.330932617188 282.395904541016 277.367095947266 266.526184082031 251.568405151367 234.9755859375 223.248168945312 215.381057739258 216.742324829102 234.198471069336 233.791061401367 228.637023925781 228.216506958008 230.170974731445 241.144775390625 265.50927734375 298.524047851562 325.988983154297 335.472320556641 338.415649414062 340.958038330078 344.022583007812 345.996673583984
-9999 -9999 -9999 -9999 -9999 -9999 -9999 -9999 -9999 -9999 -9999 -9999 -9999 -9999 -9999 -9999 -9999 -9999 -9999 -9999 -9999 -9999 -9999 294.787879943848 325.430114746094 198.282165527344 135.933212280273 121.839820861816 131.134155273438 150.173217773438 179.212219238281 219.297058105469 259.438842773438 283.522369384766 292.483428955078 293.824554443359 284.439758300781 265.956787109375 239.476043701172 204.726135253906 173.407455444336 155.41731262207 157.428497314453 184.1142578125 235.016036987305 296.943572998047 346.767883300781 367.661712646484 368.288513183594 363.655029296875 352.962249755859 335.179168701172 310.474426269531 274.585571289062 237.937759399414 212.510925292969 211.539596557617 217.406188964844 217.331588745117 214.765228271484 213.145355224609 211.574188232422 231.499359130859 278.717803955078 315.096313476562 323.969207763672 322.513610839844 323.087493896484 327.662109375 337.901885986328
-9999 -9999 -9999 -9999 -9999 -9999 -9999 -9999 -9999 -9999 -9999 -9999 -9999 -9999 -9999 -9999 -9999 -9999 -9999 -9999 -9999 -9999 -9999 178.690826416016 161.362060546875 122.627113342285 124.234634399414 136.910659790039 159.699066162109 195.191177368164 253.49674987793 316.502258300781 358.467803955078 374.904327392578 377.007965087891 375.358947753906 365.349182128906 349.4853515625 337.144866943359 311.963562011719 261.039276123047 207.296981811523 187.35807800293 209.744735717773 260.558013916016 321.091705322266 358.602447509766 360.230194091797 355.183746337891 359.045257568359 352.926788330078 342.570770263672 339.487609863281 331.141845703125 303.1904296875 261.791107177734 227.376174926758 213.216720581055 214.389007568359 216.244003295898 214.614761352539 205.76838684082 221.080612182617 273.528198242188 312.689025878906 321.89453125 319.849884033203 330.195404052734 349.076019287109 364.973968505859
-9999 -9999 -9999 -9999 -9999 -9999 -9999 -9999 -9999 -9999 -9999 -9999 -9999 -9999 -9999 -9999 -9999 -9999 -9999 -9999 -9999 -9999 280.611663818359 158.200637817383 120.43872833252 125.169990539551 144.547973632812 173.956802368164 212.982757568359 272.226776123047 333.022766113281 364.786743164062 374.324127197266 374.420135498047 372.239379882812 366.615417480469 356.759918212891 350.729431152344 356.180023193359 363.530548095703 339.576721191406 278.980194091797 227.479995727539 219.635696411133 246.548767089844 281.641510009766 305.005126953125 312.195861816406 322.231475830078 337.054046630859 334.724761962891 317.088836669922 308.728942871094 315.465637207031 322.400054931641 310.478637695312 280.326995849609 249.144058227539 231.536163330078 228.04313659668 226.189514160156 211.549331665039 218.332305908203 270.801544189453 310.861114501953 320.214202880859 327.836730957031 353.002105712891 375.342041015625 376.508850097656
-9999 -9999 -9999 -9999 -9999 -9999 -9999 -9999 -9999 -9999 -9999 -9999 -9999 -9999 982.92994011773 -9999 -9999 -9999 -9999 754.581970214844 -9999 350.474456787109 271.889587402344 175.06852722168 154.165649414062 160.102401733398 187.315322875977 224.984512329102 274.710205078125 333.990539550781 352.542114257812 344.573913574219 346.885162353516 348.205078125 343.013549804688 334.547729492188 325.617095947266 321.448638916016 323.065063476562 337.4833984375 349.059112548828 325.960235595703 280.744873046875 251.388275146484 245.771362304688 253.197021484375 265.244659423828 275.874053955078 296.876892089844 327.269714355469 335.395141601562 324.091735839844 315.108367919922 309.384796142578 307.432098388672 306.92626953125 302.751037597656 291.979858398438 272.807434082031 256.070495605469 241.611053466797 216.351364135742 215.130264282227 264.832061767578 307.481597900391 319.477905273438 339.028961181641 375.573089599609 389.423553466797 388.312225341797
-9999 -9999 -9999 -9999 -9999 -9999 -9999 -9999 -9999 -9999 -9999 -9999 -9999 -9999 977.219528198242 -9999 -9999 -9999 -9999 657.465667724609 447.59541015625 317.914520263672 219.340621948242 192.08918762207 188.114074707031 193.325942993164 215.141876220703 246.403610229492 289.465698242188 328.948944091797 332.149353027344 325.634796142578 330.052337646484 329.699920654297 320.250915527344 310.714904785156 305.497253417969 303.730682373047 305.921447753906 313.955139160156 323.945220947266 324.969573974609 311.523284912109 290.397155761719 270.152008056641 259.631225585938 259.20263671875 264.535491943359 291.411437988281 328.052337646484 339.589508056641 348.074768066406 361.167816162109 354.497924804688 330.906524658203 306.614868164062 297.309936523438 300.375579833984 298.430114746094 285.492828369141 258.531677246094 220.372787475586 210.260025024414 255.889068603516 302.659423828125 316.858947753906 344.209259033203 387.446807861328 400.686004638672 412.644561767578
-9999 -9999 -9999 -9999 -9999 -9999 -9999 -9999 -9999 -9999 -9999 -9999 -9999 -9999 1002.91638183594 -9999 -9999 -9999 -9999 -9999 242.846694946289 254.65673828125 208.654510498047 206.975219726562 217.777786254883 233.070251464844 251.590972900391 273.057647705078 298.759643554688 317.281829833984 320.228637695312 315.969635009766 311.462005615234 306.657379150391 301.177612304688 295.758209228516 292.893463134766 295.392333984375 300.964477539062 305.169372558594 306.620666503906 308.990478515625 311.518676757812 308.297515869141 296.345458984375 282.947418212891 275.21533203125 277.149322509766 305.328399658203 336.864440917969 352.915710449219 379.603393554688 401.570556640625 396.500793457031 371.475067138672 336.219757080078 306.673065185547 294.699768066406 297.492919921875 298.365936279297 273.819366455078 227.904815673828 207.272018432617 244.505477905273 294.481872558594 312.059204101562 340.103942871094 388.538818359375 416.194854736328 434.380432128906
-9999 -9999 -9999 -9999 -9999 -9999 -9999 -9999 -9999 -9999 -9999 -9999 -9999 -9999 928.5869140625 -9999 900.128967285156 -9999 -9999 -9999 169.070281982422 229.745239257812 216.519638061523 231.571395874023 257.367889404297 286.475982666016 305.586151123047 311.558349609375 311.425842285156 306.468170166016 298.588806152344 288.450622558594 280.886627197266 278.184448242188 277.644012451172 277.031677246094 275.806365966797 275.476318359375 277.089111328125 280.126312255859 283.57666015625 288.434539794922 295.004089355469 300.0771484375 299.272521972656 292.381042480469 285.577606201172 294.9169921875 325.596862792969 350.152862548828 378.376098632812 415.061920166016 426.496856689453 422.180358886719 404.125793457031 368.417785644531 333.923583984375 307.091033935547 297.157684326172 300.563842773438 282.986541748047 235.269226074219 207.240020751953 235.084625244141 286.616027832031 307.771453857422 328.492156982422 380.091094970703 421.704071044922 443.626373291016
-9999 -9999 -9999 -9999 -9999 -9999 -9999 -9999 -9999 -9999 -9999 -9999 -9999 -9999 928.5869140625 854.257446289062 660.766540527344 -9999 -9999 210.259960174561 201.653060913086 243.975616455078 239.718902587891 273.870422363281 307.869964599609 326.434906005859 328.492340087891 312.111785888672 290.517303466797 272.029571533203 260.186431884766 251.255493164062 245.229858398438 242.940536499023 241.446502685547 239.182510375977 236.733840942383 234.914978027344 234.393768310547 237.161026000977 242.635726928711 250.554321289062 261.382110595703 272.830078125 280.5986328125 281.664947509766 283.605163574219 305.183166503906 337.506683349609 366.840423583984 408.369842529297 435.345062255859 438.941467285156 438.997283935547 426.378143310547 389.230285644531 354.231536865234 324.604309082031 305.402862548828 303.369171142578 288.982330322266 240.739456176758 209.964309692383 234.584136962891 288.038177490234 309.450531005859 317.120635986328 367.607849121094 419.612060546875 446.647003173828
-9999 -9999 -9999 -9999 -9999 -9999 -9999 -9999 -9999 -9999 -9999 -9999 -9999 -9999 -9999 594.392614746094 535.33251953125 -9999 302.071495056152 218.852264404297 251.464233398438 263.113220214844 290.791931152344 328.898590087891 344.287536621094 328.369384765625 304.270111083984 272.908233642578 248.86100769043 236.851776123047 233.380935668945 233.131332397461 232.287673950195 230.648788452148 227.28923034668 223.965255737305 223.347885131836 223.032089233398 220.175186157227 217.864273071289 218.10009765625 223.251846313477 233.928466796875 247.717102050781 260.860626220703 269.869201660156 284.249267578125 312.264129638672 340.848602294922 378.45166015625 426.448852539062 442.382904052734 442.604217529297 447.559173583984 436.540863037109 400.893798828125 365.641296386719 334.365539550781 312.869995117188 310.172302246094 300.336853027344 256.134124755859 226.161499023438 250.185775756836 303.605560302734 318.2509765625 309.999298095703 357.059417724609 419.264373779297 445.179443359375
-9999 -9999 -9999 -9999 -9999 -9999 -9999 -9999 -9999 -9999 -9999 -9999 -9999 -9999 -9999 469.953094482422 451.653472900391 -9999 214.443237304688 235.61865234375 261.383666992188 283.990692138672 327.125213623047 359.462738037109 356.559997558594 315.688934326172 272.357879638672 237.78076171875 222.86506652832 221.78141784668 227.725677490234 236.170059204102 239.492782592773 236.403427124023 228.218444824219 220.402206420898 220.555938720703 224.726608276367 223.470428466797 217.585220336914 211.931930541992 210.803695678711 216.078109741211 227.550094604492 244.398773193359 265.504364013672 297.634399414062 328.914825439453 363.192596435547 407.228576660156 440.794921875 440.537933349609 436.621429443359 442.336212158203 426.606201171875 394.415710449219 360.517395019531 328.575958251953 313.714385986328 318.645324707031 319.50390625 287.951416015625 263.410919189453 287.859802246094 330.323883056641 326.457458496094 305.326110839844 356.647125244141 425.315551757812 432.303527832031
-9999 -9999 -9999 -9999 -9999 -9999 -9999 -9999 -9999 -9999 -9999 -9999 -9999 -9999 -9999 422.026397705078 -9999 306.891422816685 260.943634033203 253.461120605469 277.2314453125 317.911651611328 353.868865966797 367.771850585938 349.057464599609 294.432769775391 245.40690612793 216.957763671875 211.040176391602 217.556365966797 225.196334838867 232.523864746094 234.815841674805 230.694427490234 221.151504516602 212.282409667969 211.06169128418 214.350845336914 217.362411499023 218.408096313477 212.984909057617 206.174163818359 206.819580078125 217.561645507812 240.448028564453 279.830474853516 324.851898193359 359.709869384766 399.061828613281 435.156616210938 447.844635009766 424.330902099609 407.062652587891 405.640655517578 390.701812744141 366.218109130859 338.762054443359 314.969207763672 313.814697265625 328.301177978516 338.798034667969 323.335021972656 313.098846435547 334.887512207031 348.726318359375 324.385375976562 295.663818359375 355.286682128906 426.673095703125 414.305450439453
-9999 -9999 -9999 -9999 -9999 -9999 -9999 -9999 -9999 -9999 -9999 -9999 -9999 -9999 422.026397705078 359.876068115234 298.335693359375 278.160095214844 285.437713623047 279.673553466797 308.937255859375 348.664245605469 377.422790527344 371.555786132812 336.212524414062 271.721343994141 222.632247924805 204.229309082031 210.510314941406 221.518402099609 222.300674438477 225.479339599609 228.032852172852 225.088577270508 215.427841186523 208.117477416992 208.906723022461 214.209289550781 217.343826293945 214.751190185547 207.716812133789 203.789413452148 210.159820556641 232.75016784668 268.988494873047 310.885894775391 351.608367919922 389.363800048828 423.733856201172 445.889587402344 441.951263427734 405.139282226562 379.898529052734 376.172454833984 370.605926513672 352.963562011719 332.410064697266 317.247283935547 323.374481201172 340.057159423828 352.099578857422 343.537170410156 341.1376953125 347.996063232422 336.887512207031 302.014373779297 288.068328857422 349.566589355469 414.434478759766 393.680877685547
-9999 -9999 -9999 -9999 -9999 -9999 -9999 -9999 -9999 -9999 -9999 -9999 -9999 -9999 -9999 -9999 293.075706481934 294.163269042969 269.262908935547 311.493438720703 345.060211181641 362.654449462891 390.13427734375 376.310363769531 327.231414794922 255.572250366211 205.524475097656 196.153594970703 214.135635375977 227.582336425781 226.374053955078 230.631469726562 233.527740478516 234.713500976562 226.521743774414 211.917053222656 204.101287841797 204.693023681641 206.456588745117 207.217971801758 210.099273681641 221.390182495117 243.794097900391 274.453674316406 310.727081298828 345.493469238281 377.121429443359 397.530609130859 411.852447509766 422.238739013672 417.523345947266 391.862670898438 368.976196289062 354.580352783203 347.139617919922 337.910919189453 326.378509521484 318.907531738281 323.907745361328 332.480590820312 340.983551025391 337.269622802734 328.712036132812 325.270965576172 305.162200927734 303.013092041016 312.477081298828 360.838134765625 400.087127685547 369.557067871094
-9999 -9999 -9999 -9999 -9999 -9999 -9999 -9999 -9999 -9999 -9999 -9999 -9999 -9999 -9999 -9999 297.903518676758 301.643768310547 326.674194335938 368.953552246094 370.660858154297 384.330993652344 411.216766357422 386.092834472656 320.85498046875 240.532470703125 190.651016235352 189.853378295898 218.349517822266 234.230987548828 229.877243041992 230.382858276367 234.728210449219 245.699493408203 252.904846191406 248.153549194336 237.802734375 231.296829223633 230.413375854492 235.981918334961 248.692626953125 269.442962646484 297.118865966797 324.569915771484 343.010559082031 347.079193115234 343.171295166016 334.122009277344 332.597686767578 344.017028808594 355.57421875 354.812072753906 344.829071044922 330.298065185547 319.604095458984 310.491729736328 301.691284179688 294.896484375 292.342041015625 288.497283935547 298.609344482422 299.078979492188 312.200225830078 336.010375976562 319.705200195312 337.446594238281 336.176025390625 374.951812744141 393.902099609375 356.436706542969
-9999 -9999 -9999 -9999 -9999 -9999 -9999 -9999 -9999 -9999 -9999 -9999 -9999 -9999 -9999 -9999 -9999 334.437278747559 358.95263671875 386.348846435547 384.367645263672 414.039642333984 435.81982421875 385.553314208984 301.625030517578 217.266159057617 176.809707641602 186.849700927734 220.303604125977 231.017333984375 218.908508300781 213.147933959961 212.794662475586 224.293258666992 246.204467773438 263.431610107422 269.239990234375 270.810577392578 275.946350097656 283.272430419922 292.547576904297 305.080291748047 317.26171875 324.465423583984 315.890716552734 294.926971435547 271.56103515625 256.576202392578 253.734771728516 261.371948242188 278.044158935547 297.689727783203 308.003631591797 304.089874267578 292.767669677734 282.186981201172 275.989807128906 269.185546875 263.614044189453 262.934326171875 278.396392822266 300.391479492188 328.11474609375 343.050415039062 342.792785644531 348.465270996094 340.140869140625 371.312194824219 391.573455810547 363.027679443359
-9999 -9999 -9999 -9999 -9999 -9999 -9999 -9999 -9999 -9999 -9999 -9999 -9999 -9999 300.7087059021 301.643768310547 335.318784713745 354.715576171875 350.478515625 384.046508789062 390.095245361328 417.134674072266 431.171691894531 371.713012695312 271.310485839844 192.101776123047 168.923446655273 189.755950927734 221.942031860352 225.066665649414 209.187759399414 200.768081665039 195.697341918945 201.414810180664 220.651840209961 245.075805664062 261.958099365234 267.972961425781 272.178100585938 277.607574462891 282.024810791016 283.865112304688 280.754455566406 270.140411376953 249.004379272461 228.679779052734 218.856628417969 217.29606628418 222.475982666016 232.704696655273 240.85090637207 244.988647460938 254.226959228516 262.002716064453 256.5654296875 244.733947753906 239.887069702148 235.065155029297 228.597412109375 228.894378662109 237.252105712891 257.775268554688 280.261962890625 290.789367675781 304.01171875 314.282806396484 335.067321777344 359.071411132812 372.687103271484 360.022094726562
-9999 -9999 -9999 -9999 -9999 -9999 -9999 -9999 -9999 -9999 -9999 -9999 -9999 -9999 -9999 -9999 -9999 -9999 368.352912902832 368.2041015625 422.636077880859 471.000579833984 430.109893798828 332.204986572266 225.233123779297 171.5068359375 171.999572753906 199.948532104492 224.874252319336 217.198303222656 201.152465820312 194.266204833984 188.907623291016 189.374877929688 196.532241821289 212.042556762695 232.189666748047 245.818374633789 252.177230834961 256.314453125 259.125213623047 254.505294799805 242.417922973633 227.381851196289 212.02409362793 202.20085144043 200.423736572266 201.93408203125 204.268417358398 207.998458862305 217.918685913086 230.090087890625 223.835159301758 213.893493652344 210.086990356445 203.775573730469 199.918685913086 197.443206787109 196.266693115234 200.896835327148 210.127731323242 224.484786987305 241.208602905273 261.592681884766 268.141876220703 274.497100830078 289.630615234375 305.081268310547 308.556701660156 296.014709472656
-9999 -9999 -9999 -9999 -9999 -9999 -9999 -9999 -9999 -9999 -9999 -9999 -9999 -9999 -9999 -9999 -9999 305.508819580078 370.88720703125 370.682525634766 472.311157226562 491.003295898438 371.911346435547 251.330337524414 178.34602355957 164.967147827148 183.714981079102 213.964462280273 227.619689941406 210.638244628906 197.993362426758 191.640365600586 187.633010864258 184.482009887695 181.624755859375 182.519027709961 189.680892944336 201.882080078125 213.940292358398 222.003051757812 226.103424072266 222.007202148438 211.738342285156 201.780563354492 194.244735717773 190.231994628906 189.204864501953 189.313735961914 193.513198852539 196.213134765625 194.838272094727 197.791580200195 210.767059326172 208.986312866211 192.8095703125 177.241806030273 169.221481323242 164.667434692383 164.399322509766 170.647323608398 182.526596069336 199.019485473633 216.6083984375 231.204040527344 244.212203979492 266.588195800781 278.17529296875 286.881622314453 284.294647216797 286.518707275391
-9999 -9999 -9999 -9999 -9999 -9999 -9999 -9999 -9999 -9999 -9999 -9999 -9999 299.264739990234 305.10646226671 -9999 332.420211791992 355.507316589355 305.508819580078 439.153381347656 405.332946777344 342.2890625 246.721176147461 178.892105102539 159.064666748047 171.100372314453 194.987838745117 222.741424560547 226.349212646484 202.673950195312 195.936676025391 196.891235351562 189.637451171875 181.503631591797 176.060180664062 170.707382202148 169.022186279297 172.355438232422 182.331649780273 193.746719360352 200.181900024414 201.099044799805 196.68537902832 190.632232666016 185.898544311523 183.688522338867 183.304595947266 184.245880126953 186.507461547852 190.042037963867 192.076614379883 188.748229980469 185.887893676758 188.946350097656 176.860305786133 154.686187744141 143.374771118164 139.546752929688 141.280059814453 148.242538452148 160.929016113281 175.774673461914 190.048080444336 194.742950439453 201.176788330078 214.197174072266 236.503265380859 252.602737426758 269.024780273438 285.739837646484
-9999 -9999 -9999 -9999 -9999 -9999 -9999 -9999 -9999 -9999 -9999 -9999 -9999 -9999 299.264739990234 328.172658284505 287.881988525391 376.958435058594 451.680023193359 410.225799560547 313.337921142578 255.974044799805 183.296417236328 153.433364868164 158.13981628418 178.587829589844 202.673065185547 219.467956542969 211.508605957031 192.411956787109 187.848327636719 185.255996704102 178.352447509766 172.910202026367 166.056884765625 158.964950561523 152.719665527344 149.29638671875 151.762969970703 158.941955566406 166.889541625977 173.933883666992 177.586883544922 177.641876220703 175.895217895508 174.854919433594 174.450378417969 175.361740112305 179.930725097656 185.298431396484 202.393661499023 210.479385375977 198.216003417969 182.322448730469 164.222152709961 144.413208007812 131.792221069336 126.749526977539 127.22575378418 133.654388427734 146.54850769043 162.923645019531 180.036483764648 187.074401855469 186.090316772461 185.910552978516 203.140182495117 219.247512817383 258.436065673828 286.532684326172
-9999 -9999 -9999 -9999 -9999 -9999 -9999 -9999 -9999 -9999 -9999 -9999 -9999 -9999 284.527671813965 299.264739990234 397.371246337891 425.506469726562 370.204467773438 277.162445068359 212.113662719727 171.239883422852 147.486801147461 144.982299804688 163.380630493164 188.302108764648 207.495788574219 206.796997070312 188.764205932617 176.584457397461 171.314666748047 167.02668762207 167.601669311523 166.759429931641 159.913482666016 149.207565307617 137.629302978516 130.4208984375 129.467330932617 134.921981811523 140.499862670898 143.768081665039 146.697647094727 148.812240600586 150.474960327148 154.011566162109 157.764129638672 159.496810913086 159.070343017578 158.626754760742 170.360336303711 199.096420288086 209.739456176758 194.309448242188 171.423263549805 147.96044921875 130.190063476562 120.956550598145 117.289482116699 123.736228942871 137.393920898438 154.881607055664 173.865173339844 187.550201416016 181.741455078125 177.201187133789 191.913940429688 201.744583129883 255.349868774414 292.106079101562
-9999 -9999 -9999 -9999 -9999 -9999 -9999 -9999 -9999 -9999 -9999 266.021026611328 277.406585693359 276.995452880859 261.943572998047 299.906921386719 362.227355957031 310.324157714844 248.847961425781 195.317337036133 159.419387817383 138.301605224609 134.491714477539 146.612991333008 173.082275390625 198.202041625977 204.637969970703 187.162780761719 165.297332763672 154.897079467773 152.284255981445 150.814102172852 154.138671875 155.698822021484 151.718490600586 140.778167724609 128.806274414062 122.82258605957 126.018646240234 129.448333740234 129.931625366211 132.064605712891 136.06201171875 142.341094970703 151.388366699219 163.914215087891 176.830139160156 185.018402099609 185.224014282227 178.83740234375 169.108444213867 172.435165405273 201.501968383789 200.286529541016 182.862106323242 160.130813598633 139.764709472656 124.024894714355 116.048385620117 120.067962646484 134.382019042969 152.860992431641 172.19026184082 189.006454467773 177.780456542969 163.414703369141 180.968673706055 186.102005004883 232.986343383789 288.328430175781
-9999 -9999 -9999 -9999 -9999 -9999 -9999 -9999 -9999 386.500854492188 287.322448730469 257.946533203125 280.620880126953 274.317016601562 283.499298095703 311.779205322266 279.605285644531 238.111618041992 187.557144165039 156.749496459961 135.023941040039 128.179626464844 131.077758789062 151.710662841797 182.691009521484 203.722137451172 195.962142944336 168.194595336914 145.508834838867 131.732925415039 125.379890441895 130.450790405273 143.414413452148 151.915267944336 150.774154663086 139.440292358398 126.684623718262 122.385627746582 128.358169555664 135.473068237305 132.921051025391 131.390533447266 137.15071105957 150.892379760742 165.714050292969 182.571685791016 196.904220581055 207.689590454102 214.084823608398 211.416595458984 195.689575195312 177.876281738281 183.57160949707 195.510192871094 188.735229492188 171.345169067383 152.962310791016 137.085800170898 125.619163513184 127.025817871094 139.024566650391 156.521545410156 175.850631713867 189.349700927734 172.056838989258 151.772613525391 154.080322265625 182.018920898438 200.644683837891 260.158203125
-9999 -9999 -9999 -9999 -9999 -9999 -9999 -9999 -9999 381.154754638672 287.059936523438 272.037536621094 288.1767578125 294.021087646484 294.646270751953 247.858352661133 221.380599975586 178.660842895508 148.649337768555 132.236938476562 125.507736206055 125.733283996582 133.899185180664 158.953338623047 191.019195556641 203.961029052734 183.527420043945 150.295211791992 127.087059020996 114.239181518555 111.231132507324 121.603889465332 139.987579345703 152.415939331055 152.320175170898 140.103881835938 125.345352172852 118.380683898926 121.459808349609 129.098358154297 130.949813842773 137.894592285156 148.028091430664 163.875106811523 189.551849365234 219.538024902344 244.418975830078 255.1455078125 250.107376098633 243.475357055664 231.356460571289 203.568206787109 184.763427734375 190.779663085938 190.54866027832 179.534439086914 166.714477539062 154.698181152344 144.688858032227 143.850845336914 151.474746704102 164.777297973633 182.117263793945 188.620254516602 161.808609008789 137.005172729492 126.132759094238 144.753860473633 171.018218994141 210.781875610352
-9999 -9999 -9999 -9999 -9999 293.099769592285 351.960327148438 328.006469726562 325.809448242188 283.201965332031 278.286499023438 285.247619628906 279.565277099609 263.137084960938 225.869293212891 195.541641235352 167.934463500977 145.957473754883 132.48649597168 124.644218444824 120.86360168457 123.702590942383 139.166473388672 167.088027954102 194.751342773438 197.542709350586 169.853958129883 134.981842041016 115.226783752441 106.079971313477 105.995986938477 119.829330444336 140.825073242188 154.385894775391 153.582412719727 140.385375976562 124.094299316406 115.772247314453 118.752548217773 127.189224243164 132.12434387207 134.841339111328 142.970809936523 161.065124511719 188.138320922852 218.237823486328 245.83073425293 257.029907226562 257.718505859375 256.383880615234 254.888397216797 227.495101928711 199.255310058594 192.347274780273 188.929229736328 181.841949462891 173.148773193359 166.057327270508 161.047225952148 160.806945800781 164.853240966797 174.164138793945 188.923538208008 181.03840637207 147.970748901367 122.320877075195 111.655326843262 117.101409912109 131.334716796875 166.401077270508
-9999 -9999 -9999 -9999 282.748657226562 270.579803466797 267.110290527344 259.804718017578 275.957336425781 274.061676025391 267.752349853516 286.042358398438 242.729019165039 207.857635498047 183.423355102539 158.392715454102 141.005874633789 130.389389038086 123.823440551758 117.867286682129 115.137786865234 124.149078369141 145.150115966797 172.429122924805 192.416198730469 187.593765258789 157.92887878418 126.159591674805 112.210250854492 107.178642272949 112.024475097656 127.983360290527 147.600082397461 157.275283813477 153.005950927734 138.062454223633 121.43741607666 113.261215209961 116.481536865234 125.259475708008 129.100296020508 128.968566894531 134.277633666992 147.180557250977 168.117248535156 195.091903686523 225.592712402344 242.585693359375 252.972396850586 257.703033447266 260.9580078125 242.968765258789 214.568740844727 201.931854248047 194.741439819336 185.444152832031 176.840530395508 172.383880615234 169.792465209961 172.112167358398 174.178421020508 180.066284179688 190.839996337891 166.792953491211 134.728927612305 111.887466430664 105.002212524414 108.609855651855 113.655006408691 127.522895812988
-9999 -9999 -9999 259.315059661865 262.724700927734 239.769653320312 283.097930908203 301.791839599609 312.002502441406 287.603210449219 307.008392333984 232.78125 188.005355834961 163.559326171875 146.514144897461 134.923538208008 126.99291229248 120.691452026367 115.463104248047 111.418487548828 112.645919799805 125.386093139648 148.923568725586 174.670043945312 188.599822998047 180.224273681641 151.822128295898 124.889228820801 113.882484436035 112.706466674805 124.975463867188 143.208740234375 157.025909423828 158.902755737305 149.637664794922 132.575225830078 117.04271697998 111.441207885742 116.807487487793 128.142288208008 132.498413085938 130.030731201172 131.684448242188 138.488967895508 150.863433837891 169.885498046875 192.954360961914 214.439971923828 234.44612121582 245.779632568359 250.49462890625 242.372268676758 225.38362121582 212.63200378418 202.742111206055 191.36686706543 180.377807617188 173.885894775391 171.31135559082 173.374359130859 177.397048950195 183.576248168945 179.537094116211 148.416549682617 120.783760070801 101.332702636719 93.7004547119141 99.1789016723633 106.208625793457 110.904998779297
-9999 -9999 -9999 258.638031005859 233.148849487305 269.312133789062 333.961822509766 299.928070068359 296.202209472656 238.700378417969 200.569244384766 176.029632568359 159.300048828125 144.951995849609 135.606506347656 127.504974365234 118.375129699707 110.223403930664 107.147674560547 106.92066192627 112.134902954102 127.772567749023 152.205810546875 175.539596557617 185.357498168945 175.57096862793 152.486450195312 133.866821289062 127.730926513672 135.630020141602 150.486282348633 160.699966430664 162.176849365234 154.145690917969 139.366882324219 122.592216491699 111.01335144043 108.803047180176 117.690605163574 133.52033996582 141.735458374023 139.758712768555 138.71337890625 138.997177124023 141.409652709961 150.432479858398 164.950637817383 182.193252563477 200.448211669922 215.648406982422 225.092254638672 224.384872436523 217.375534057617 211.435348510742 203.78564453125 193.487045288086 183.85856628418 177.524230957031 173.861679077148 174.900924682617 179.305328369141 181.528549194336 156.145370483398 126.051940917969 103.140228271484 89.4339141845703 85.5144805908203 85.6655883789062 90.8107986450195 96.8060073852539
