NCOLS 70 
NROWS 52 
XLLCORNER -80 
YLLCORNER 33 
CELLSIZE 0.25 
NODATA_value -9999 
-9999.000000000000000 -9999 -9999 -9999 -9999 -9999 -9999 -9999 -9999 -9999 -9999 -9999 -9999 -9999 -9999 -9999 -9999 -9999 -9999 -9999 -9999 -9999 -9999 -9999 -9999 -9999 -9999 -9999 -9999 -9999 -9999 -9999 -9999 -9999 -9999 -9999 -9999 -9999 -9999 -9999 -9999 -9999 -9999 -9999 -9999 -9999 -9999 -9999 -9999 -9999 -9999 -9999 -9999 -9999 -9999 -9999 -9999 -9999 -9999 -9999 -9999 -9999 -9999 -9999 -9999 -9999 -9999 -9999 -9999 -9999
-9999 -9999 -9999 -9999 -9999 -9999 -9999 -9999 -9999 -9999 -9999 -9999 -9999 -9999 -9999 -9999 -9999 -9999 -9999 -9999 -9999 -9999 -9999 -9999 -9999 -9999 -9999 -9999 -9999 -9999 -9999 -9999 -9999 -9999 -9999 -9999 -9999 -9999 -9999 -9999 -9999 -9999 -9999 -9999 -9999 -9999 -9999 -9999 -9999 -9999 -9999 -9999 -9999 -9999 -9999 -9999 -9999 -9999 -9999 -9999 -9999 -9999 -9999 -9999 -9999 -9999 -9999 -9999 -9999 -9999
-9999 -9999 -9999 -9999 -9999 -9999 -9999 -9999 -9999 -9999 -9999 -9999 -9999 -9999 -9999 -9999 -9999 -9999 -9999 -9999 -9999 -9999 -9999 -9999 -9999 -9999 -9999 -9999 -9999 -9999 -9999 -9999 -9999 -9999 -9999 -9999 -9999 -9999 -9999 -9999 -9999 -9999 -9999 -9999 -9999 -9999 -9999 -9999 -9999 -9999 -9999 -9999 -9999 -9999 -9999 -9999 -9999 -9999 -9999 512.491088867188 -9999 -9999 -9999 -9999 -9999 -9999 -9999 -9999 -9999 -9999
-9999 -9999 -9999 -9999 -9999 -9999 -9999 -9999 -9999 -9999 -9999 -9999 -9999 -9999 -9999 -9999 -9999 -9999 -9999 -9999 -9999 -9999 -9999 -9999 -9999 -9999 -9999 -9999 -9999 -9999 -9999 -9999 -9999 -9999 -9999 -9999 -9999 -9999 -9999 -9999 -9999 -9999 -9999 -9999 -9999 -9999 -9999 -9999 -9999 -9999 -9999 -9999 -9999 -9999 -9999 365.490142822266 373.759643554688 380.609222412109 404.949249267578 460.859649658203 -9999 -9999 -9999 -9999 -9999 -9999 -9999 -9999 -9999 -9999
-9999 -9999 -9999 -9999 -9999 -9999 -9999 -9999 -9999 -9999 -9999 -9999 -9999 -9999 -9999 -9999 -9999 -9999 -9999 -9999 -9999 -9999 -9999 -9999 -9999 -9999 -9999 -9999 -9999 -9999 -9999 -9999 -9999 -9999 -9999 -9999 -9999 -9999 -9999 -9999 -9999 -9999 -9999 -9999 -9999 -9999 -9999 -9999 -9999 -9999 -9999 -9999 350.940185546875 320.752746582031 317.961669921875 359.882720947266 350.406219482422 332.669708251953 -9999 -9999 -9999 -9999 -9999 -9999 -9999 -9999 -9999 -9999 -9999 -9999
-9999 -9999 -9999 -9999 -9999 -9999 -9999 -9999 -9999 -9999 -9999 -9999 -9999 -9999 -9999 -9999 -9999 -9999 -9999 -9999 -9999 -9999 -9999 -9999 -9999 -9999 -9999 -9999 -9999 -9999 -9999 -9999 -9999 -9999 -9999 -9999 -9999 -9999 -9999 -9999 -9999 -9999 -9999 -9999 -9999 -9999 -9999 -9999 -9999 -9999 345.609899902344 376.602844238281 336.039154052734 258.890106201172 201.364318847656 189.319839477539 -9999 -9999 -9999 -9999 -9999 -9999 -9999 -9999 -9999 -9999 -9999 181.15651957194 189.93359375 212.23469543457
-9999 -9999 -9999 -9999 -9999 -9999 -9999 -9999 -9999 -9999 -9999 -9999 -9999 -9999 -9999 -9999 -9999 -9999 -9999 -9999 -9999 -9999 -9999 -9999 -9999 -9999 -9999 -9999 -9999 -9999 -9999 -9999 -9999 -9999 -9999 -9999 -9999 -9999 -9999 -9999 -9999 -9999 -9999 -9999 385.224283854167 -9999 -9999 315.675979614258 341.394470214844 328.052032470703 325.947296142578 310.705810546875 266.895751953125 188.810821533203 133.701263427734 -9999 -9999 -9999 -9999 -9999 -9999 -9999 -9999 181.201370239258 177.39892578125 177.125793457031 180.828094482422 180.005767822266 182.635696411133 184.858215332031
-9999 -9999 -9999 -9999 -9999 -9999 -9999 -9999 -9999 -9999 -9999 -9999 -9999 -9999 -9999 -9999 -9999 -9999 -9999 -9999 -9999 -9999 -9999 -9999 -9999 -9999 -9999 -9999 -9999 -9999 -9999 -9999 -9999 -9999 -9999 -9999 -9999 -9999 -9999 -9999 -9999 -9999 -9999 -9999 385.595886230469 389.407012939453 356.241516113281 301.424438476562 263.643493652344 223.682189941406 181.785842895508 153.735260009766 127.447578430176 106.327491760254 131.776899337769 -9999 -9999 -9999 -9999 -9999 -9999 -9999 165.278472900391 167.005065917969 167.132507324219 166.298477172852 162.881927490234 160.641448974609 161.223251342773 159.71435546875
-9999 -9999 -9999 -9999 -9999 -9999 -9999 -9999 -9999 -9999 -9999 -9999 -9999 -9999 -9999 -9999 -9999 -9999 -9999 -9999 -9999 -9999 -9999 -9999 -9999 -9999 -9999 -9999 -9999 -9999 -9999 -9999 -9999 -9999 -9999 -9999 -9999 -9999 -9999 -9999 335.585296630859 322.079874674479 330.541156005859 361.634857177734 340.841735839844 301.800170898438 263.022033691406 219.22705078125 175.652786254883 146.977416992188 133.966232299805 122.075889587402 106.100921630859 98.2680206298828 109.803804016113 -9999 -9999 -9999 -9999 -9999 139.896957397461 145.370376586914 147.064178466797 147.552886962891 144.908065795898 138.301818847656 131.856384277344 128.379791259766 127.145095825195 127.668678283691
-9999 -9999 -9999 -9999 -9999 -9999 -9999 -9999 -9999 -9999 -9999 -9999 -9999 -9999 -9999 -9999 -9999 -9999 -9999 -9999 -9999 -9999 -9999 -9999 -9999 -9999 -9999 -9999 -9999 -9999 -9999 -9999 -9999 -9999 -9999 -9999 -9999 -9999 -9999 344.252990722656 339.944030761719 322.558868408203 303.736724853516 284.105377197266 255.767654418945 227.776885986328 205.268264770508 179.94889831543 161.994567871094 158.906921386719 154.296325683594 135.110153198242 114.330543518066 107.239929199219 121.565010070801 115.61856842041 -9999 -9999 -9999 128.038213729858 137.636108398438 136.684387207031 135.573883056641 134.834930419922 131.451538085938 125.96272277832 121.521171569824 116.007583618164 112.838279724121 115.515060424805
-9999 -9999 -9999 -9999 -9999 -9999 -9999 -9999 -9999 -9999 -9999 -9999 -9999 -9999 -9999 -9999 -9999 -9999 -9999 -9999 -9999 -9999 -9999 -9999 -9999 -9999 -9999 -9999 -9999 -9999 -9999 -9999 -9999 -9999 -9999 -9999 -9999 -9999 377.685858154297 352.344665527344 335.953369140625 309.692169189453 272.226928710938 233.928436279297 207.284698486328 191.473037719727 180.23828125 172.025848388672 172.499740600586 178.545700073242 167.916763305664 136.629043579102 111.129852294922 104.233459472656 112.992225646973 115.014587402344 105.253173828125 114.022773742676 131.110717773438 121.688995361328 121.71703338623 121.529121398926 120.402359008789 119.653800964355 118.835144042969 115.867713928223 109.545951843262 101.492454528809 99.9486694335938 104.444396972656
-9999 -9999 -9999 -9999 -9999 -9999 -9999 -9999 -9999 -9999 -9999 -9999 -9999 -9999 -9999 -9999 -9999 -9999 -9999 -9999 -9999 -9999 -9999 -9999 -9999 -9999 -9999 -9999 -9999 -9999 -9999 -9999 -9999 -9999 -9999 -9999 -9999 431.130065917969 405.749114990234 354.952453613281 290.678985595703 240.998489379883 218.934173583984 205.037139892578 192.642623901367 182.806381225586 173.268814086914 165.55046081543 165.876876831055 170.587677001953 159.158767700195 128.807357788086 105.240921020508 96.7926864624023 98.6208190917969 102.267875671387 106.647613525391 111.2744140625 115.959327697754 112.286964416504 107.092971801758 104.569808959961 104.957862854004 107.00537109375 107.520896911621 105.284797668457 100.6982421875 98.9119567871094 103.261177062988 108.279876708984
-9999 -9999 -9999 -9999 -9999 -9999 -9999 -9999 -9999 -9999 -9999 -9999 -9999 -9999 -9999 -9999 -9999 -9999 -9999 -9999 -9999 -9999 -9999 -9999 -9999 -9999 -9999 -9999 -9999 -9999 -9999 -9999 -9999 -9999 -9999 -9999 -9999 429.912078857422 394.20263671875 313.478820800781 214.640808105469 163.234191894531 165.74967956543 177.430145263672 181.765197753906 174.178024291992 160.46501159668 150.072189331055 149.418212890625 154.991363525391 144.902496337891 122.986755371094 105.529365539551 97.6621551513672 96.7019729614258 97.9400939941406 100.690757751465 103.211013793945 105.430274963379 101.322341918945 98.6474456787109 103.108306884766 113.226585388184 117.599044799805 110.65461730957 105.246482849121 104.787666320801 108.35587310791 111.739669799805 117.428665161133
-9999 -9999 -9999 -9999 -9999 -9999 -9999 -9999 -9999 -9999 -9999 -9999 -9999 -9999 -9999 -9999 -9999 -9999 -9999 -9999 -9999 -9999 -9999 -9999 -9999 -9999 -9999 -9999 -9999 -9999 -9999 -9999 -9999 -9999 -9999 -9999 -9999 450.969177246094 368.4638671875 263.279205322266 173.739990234375 151.751770019531 160.175354003906 163.305541992188 164.108657836914 157.813980102539 148.572311401367 146.183471679688 150.386993408203 150.914840698242 141.332809448242 127.990463256836 116.356781005859 111.402366638184 109.38501739502 105.200698852539 102.573921203613 100.045783996582 98.7041854858398 97.5984878540039 102.801536560059 125.061660766602 165.334014892578 189.558334350586 171.739120483398 154.98405456543 149.521575927734 142.010620117188 136.119216918945 140.416488647461
-9999 -9999 -9999 -9999 -9999 -9999 -9999 -9999 -9999 -9999 -9999 -9999 -9999 -9999 -9999 -9999 -9999 -9999 -9999 -9999 -9999 -9999 -9999 -9999 -9999 -9999 -9999 -9999 -9999 -9999 -9999 -9999 -9999 -9999 -9999 -9999 598.722106933594 488.185150146484 374.961181640625 282.668518066406 191.721572875977 156.232437133789 160.061889648438 162.589874267578 159.130233764648 153.197418212891 150.703338623047 154.147018432617 160.646377563477 158.342254638672 150.290267944336 140.621948242188 133.180328369141 131.996307373047 130.426330566406 126.231925964355 125.604072570801 124.211845397949 118.994384765625 119.706848144531 143.907424926758 198.068161010742 254.236633300781 286.494720458984 280.500274658203 256.243347167969 240.340148925781 224.027572631836 213.852264404297 219.297409057617
-9999 -9999 -9999 -9999 -9999 -9999 -9999 -9999 -9999 -9999 -9999 -9999 -9999 -9999 -9999 -9999 -9999 -9999 -9999 -9999 -9999 -9999 -9999 -9999 -9999 -9999 -9999 -9999 -9999 -9999 -9999 -9999 -9999 -9999 -9999 -9999 -9999 462.921752929688 426.910766601562 349.459014892578 251.625442504883 180.442901611328 158.179885864258 155.044570922852 151.054962158203 147.953628540039 150.978042602539 158.950973510742 169.577972412109 173.07453918457 172.515472412109 161.374618530273 149.782424926758 146.758239746094 149.515975952148 156.66926574707 177.830718994141 204.322967529297 215.974197387695 216.621139526367 264.563873291016 306.987121582031 312.511077880859 310.726257324219 315.668792724609 295.784942626953 283.798309326172 293.352478027344 311.245452880859 322.865936279297
-9999 -9999 -9999 -9999 -9999 -9999 -9999 -9999 -9999 -9999 -9999 -9999 -9999 -9999 -9999 -9999 -9999 -9999 -9999 -9999 -9999 -9999 -9999 -9999 -9999 -9999 -9999 -9999 -9999 -9999 -9999 -9999 -9999 -9999 -9999 -9999 -9999 -9999 456.561462402344 -9999 314.400482177734 246.686752319336 198.223739624023 165.995849609375 146.973602294922 141.230239868164 149.84033203125 163.36376953125 174.364471435547 180.895156860352 192.095932006836 184.951095581055 170.65754699707 164.105804443359 168.294296264648 185.759353637695 227.303482055664 296.592620849609 344.326416015625 314.706115722656 321.381500244141 282.389617919922 245.926773071289 263.900665283203 286.768432617188 297.743560791016 299.786346435547 297.836547851562 302.202667236328 306.668426513672
-9999 -9999 -9999 -9999 -9999 -9999 -9999 -9999 -9999 -9999 -9999 -9999 -9999 -9999 -9999 -9999 -9999 -9999 -9999 -9999 -9999 -9999 -9999 -9999 -9999 -9999 -9999 -9999 -9999 -9999 -9999 -9999 -9999 -9999 -9999 -9999 -9999 -9999 -9999 -9999 295.363861083984 292.431915283203 260.282348632812 213.775482177734 173.008056640625 153.362518310547 159.541046142578 167.991424560547 172.112350463867 173.803237915039 182.717498779297 194.058151245117 193.513061523438 186.13786315918 185.76350402832 205.663146972656 251.676116943359 334.114501953125 354.931518554688 262.072967529297 205.421646118164 205.937606811523 212.18798828125 227.198516845703 257.160552978516 288.348602294922 305.067840576172 313.459503173828 293.237518310547 261.857360839844
-9999 -9999 -9999 -9999 -9999 -9999 -9999 -9999 -9999 -9999 -9999 -9999 -9999 -9999 -9999 -9999 -9999 -9999 -9999 -9999 -9999 -9999 -9999 -9999 -9999 -9999 -9999 -9999 -9999 -9999 -9999 -9999 -9999 -9999 192.83863067627 198.422439575195 182.750274658203 -9999 201.441909790039 242.811569213867 295.5390625 306.565368652344 270.614715576172 226.370727539062 186.447616577148 162.470184326172 161.300659179688 165.565338134766 177.49284362793 201.982315063477 227.655014038086 242.755020141602 242.082458496094 231.407989501953 229.190399169922 257.909210205078 303.894592285156 360.646026611328 335.151794433594 247.802200317383 191.458557128906 186.577774047852 200.144241333008 218.505432128906 262.721923828125 276.558898925781 289.691589355469 310.705261230469 315.485382080078 300.858093261719
-9999 -9999 -9999 -9999 -9999 -9999 -9999 -9999 -9999 -9999 -9999 -9999 -9999 -9999 -9999 -9999 -9999 -9999 -9999 -9999 -9999 -9999 -9999 -9999 -9999 -9999 -9999 770.418823242188 770.418823242188 595.255615234375 414.035675048828 307.940582275391 230.771133422852 200.241394042969 190.266174316406 182.424514770508 168.793197631836 167.301177978516 188.675750732422 223.56982421875 269.801208496094 289.736114501953 257.251068115234 217.820495605469 187.286636352539 169.431900024414 173.986587524414 195.822341918945 230.101928710938 264.381042480469 287.150970458984 297.216583251953 289.124053955078 295.936584472656 314.909118652344 334.696838378906 355.616973876953 379.634460449219 379.104064941406 340.505828857422 280.993469238281 250.932907104492 249.896255493164 265.374938964844 303.684387207031 308.510223388672 301.100189208984 288.305297851562 274.648162841797 287.698608398438
-9999 -9999 -9999 -9999 -9999 -9999 -9999 -9999 -9999 -9999 -9999 -9999 -9999 -9999 -9999 -9999 -9999 -9999 -9999 -9999 -9999 -9999 -9999 -9999 -9999 -9999 -9999 -9999 -9999 -9999 237.811126708984 210.054809570312 179.164443969727 165.010864257812 167.464630126953 173.959716796875 177.555297851562 184.712173461914 197.528060913086 219.605133056641 245.387298583984 252.807754516602 236.335906982422 213.169006347656 196.292861938477 196.992660522461 225.03450012207 259.971282958984 281.570739746094 294.679351806641 313.524353027344 336.420593261719 341.042266845703 369.181671142578 402.816253662109 387.453002929688 366.658905029297 358.1064453125 359.553253173828 362.540618896484 349.134582519531 337.889099121094 328.504272460938 335.315948486328 338.942810058594 329.834411621094 317.692474365234 298.285797119141 283.788604736328 273.176513671875
-9999 -9999 -9999 -9999 -9999 -9999 -9999 -9999 -9999 -9999 -9999 -9999 -9999 -9999 -9999 -9999 -9999 -9999 -9999 -9999 -9999 -9999 -9999 -9999 -9999 361.815409342448 258.386632283529 191.213923136393 162.196304321289 154.502258300781 162.155822753906 173.593551635742 185.091461181641 199.778945922852 215.559387207031 227.356475830078 231.529815673828 234.047866821289 231.146957397461 231.900039672852 239.680572509766 240.417770385742 229.780395507812 218.059036254883 221.776702880859 242.38313293457 278.402374267578 302.363006591797 307.146392822266 291.841156005859 310.819244384766 354.795867919922 400.796234130859 425.131408691406 411.895080566406 352.642730712891 307.174041748047 285.17626953125 278.127746582031 289.163665771484 287.854736328125 297.594512939453 291.188201904297 290.970123291016 293.263427734375 289.043395996094 279.741485595703 271.202728271484 256.242767333984 259.605041503906
-9999 -9999 -9999 -9999 -9999 -9999 -9999 -9999 -9999 -9999 -9999 -9999 -9999 -9999 -9999 -9999 -9999 -9999 -9999 -9999 -9999 -9999 -9999 -9999 485.475982666016 359.702362060547 240.267883300781 175.189651489258 158.184234619141 160.909072875977 173.884613037109 191.422927856445 217.676132202148 242.760070800781 260.907257080078 273.220520019531 275.743865966797 275.254364013672 270.274536132812 262.736267089844 258.665191650391 252.654647827148 245.472427368164 250.097839355469 274.811431884766 305.243316650391 334.746429443359 358.601165771484 386.772399902344 384.778259277344 394.801727294922 415.921234130859 444.367095947266 443.398742675781 378.162384033203 276.082733154297 224.579177856445 213.584045410156 213.428146362305 218.22395324707 217.747467041016 224.107299804688 223.851760864258 226.605133056641 237.207565307617 243.02473449707 238.244049072266 230.980728149414 224.614349365234 223.068969726562
-9999 -9999 -9999 -9999 -9999 -9999 -9999 -9999 -9999 -9999 -9999 -9999 -9999 -9999 -9999 -9999 -9999 -9999 -9999 -9999 -9999 -9999 -9999 -9999 424.157287597656 239.039108276367 150.278503417969 150.890213012695 169.087829589844 192.850326538086 219.84016418457 247.478546142578 281.219512939453 309.637115478516 323.788421630859 323.02783203125 319.890991210938 325.555938720703 328.440338134766 329.095733642578 323.549987792969 312.746734619141 331.853546142578 370.336059570312 403.586822509766 431.512481689453 459.933258056641 484.889404296875 516.434326171875 535.59228515625 536.324157714844 522.094177246094 491.230194091797 431.732879638672 357.452239990234 270.506652832031 219.104919433594 209.512435913086 209.95573425293 207.623565673828 203.729705810547 198.843612670898 193.756011962891 195.086654663086 211.621322631836 222.521545410156 220.786605834961 214.424957275391 210.96598815918 213.152801513672
-9999 -9999 -9999 -9999 -9999 -9999 -9999 -9999 -9999 -9999 -9999 -9999 -9999 -9999 -9999 -9999 -9999 -9999 -9999 -9999 -9999 -9999 -9999 392.220184326172 394.94287109375 222.517929077148 158.558471679688 179.325668334961 216.306045532227 258.066375732422 299.965454101562 332.484832763672 362.276275634766 384.831024169922 391.177520751953 376.389587402344 357.579833984375 344.997222900391 343.941864013672 353.051574707031 345.512664794922 339.238922119141 412.74951171875 494.999053955078 530.278198242188 541.7841796875 540.635986328125 528.955017089844 520.503051757812 517.820373535156 519.831481933594 523.808837890625 500.447052001953 446.858276367188 382.318206787109 299.017303466797 234.317733764648 217.284652709961 217.451232910156 213.481033325195 206.511825561523 198.075973510742 191.402130126953 193.927627563477 215.889266967773 214.700912475586 201.420852661133 196.786392211914 190.27507019043 203.380950927734
-9999 -9999 -9999 -9999 -9999 -9999 -9999 -9999 -9999 -9999 -9999 -9999 -9999 -9999 -9999 -9999 -9999 -9999 -9999 -9999 -9999 -9999 -9999 405.559997558594 344.220581054688 221.977966308594 180.645980834961 209.796371459961 264.631988525391 327.087646484375 380.961639404297 413.275848388672 420.773010253906 400.647003173828 373.928802490234 354.52099609375 331.544189453125 300.255157470703 287.304107666016 304.410552978516 317.834167480469 365.394104003906 456.941619873047 503.009124755859 510.566986083984 509.836730957031 500.959655761719 480.511199951172 442.442230224609 411.732574462891 396.540588378906 426.047393798828 459.850921630859 452.325988769531 400.062622070312 319.101196289062 248.997451782227 228.884063720703 231.333282470703 227.267211914062 216.826477050781 205.57780456543 203.719161987305 221.908645629883 248.148773193359 223.350326538086 192.432907104492 182.41667175293 180.494766235352 201.653884887695
-9999 -9999 -9999 -9999 -9999 -9999 -9999 -9999 -9999 -9999 -9999 -9999 -9999 -9999 -9999 -9999 -9999 -9999 -9999 -9999 -9999 -9999 370.857696533203 336.277618408203 272.830841064453 209.63703918457 207.173522949219 259.223083496094 333.757965087891 412.634002685547 470.606170654297 494.144317626953 485.227722167969 444.139526367188 384.876220703125 340.983856201172 312.375640869141 286.240295410156 278.849273681641 313.246856689453 366.148223876953 440.409301757812 488.150421142578 486.020355224609 481.508575439453 482.861175537109 483.147369384766 470.59033203125 418.769287109375 351.654174804688 314.739990234375 344.096008300781 403.907257080078 434.727569580078 403.133514404297 325.598724365234 256.127838134766 237.873199462891 245.117721557617 241.343948364258 228.486465454102 220.16178894043 228.288024902344 267.766723632812 273.211975097656 214.717910766602 175.972244262695 167.338882446289 184.056106567383 217.167282104492
-9999 -9999 -9999 -9999 -9999 -9999 -9999 -9999 -9999 -9999 -9999 -9999 -9999 -9999 1115.22793748644 -9999 -9999 -9999 -9999 894.250061035156 -9999 445.499847412109 326.828674316406 257.499664306641 218.618667602539 216.623107910156 272.995880126953 350.008911132812 433.384002685547 527.7587890625 581.377807617188 583.236938476562 565.670288085938 535.281066894531 486.070892333984 425.961730957031 367.598602294922 317.931579589844 304.101745605469 338.619293212891 400.890502929688 454.622680664062 477.078247070312 487.418914794922 499.1533203125 506.904388427734 508.961090087891 499.508636474609 463.788391113281 384.959716796875 320.8505859375 328.497802734375 385.534240722656 429.110198974609 408.381988525391 333.399963378906 264.576507568359 250.222061157227 262.797821044922 260.531982421875 250.414108276367 246.448394775391 261.021057128906 289.733489990234 262.040618896484 205.89013671875 173.560363769531 169.34001159668 201.80891418457 234.067169189453
-9999 -9999 -9999 -9999 -9999 -9999 -9999 -9999 -9999 -9999 -9999 -9999 -9999 -9999 1108.73481750488 -9999 -9999 -9999 -9999 811.700408935547 568.519854736328 423.934997558594 259.251983642578 213.373992919922 218.704040527344 267.738433837891 352.898468017578 443.159118652344 530.148376464844 607.343444824219 628.906311035156 609.829895019531 588.189147949219 568.436584472656 552.130187988281 516.690490722656 454.642608642578 385.691864013672 344.265899658203 355.256744384766 409.121185302734 456.342956542969 468.934356689453 465.726013183594 456.288940429688 450.803405761719 459.140716552734 476.512390136719 488.817596435547 458.433624267578 392.182922363281 351.251098632812 375.471130371094 419.780731201172 413.692321777344 351.299224853516 282.142883300781 262.608337402344 279.481872558594 284.232757568359 276.758575439453 274.841033935547 294.065338134766 307.541442871094 265.332855224609 222.928695678711 196.974822998047 190.249664306641 222.018692016602 245.502304077148
-9999 -9999 -9999 -9999 -9999 -9999 -9999 -9999 -9999 -9999 -9999 -9999 -9999 -9999 1137.95385742188 -9999 -9999 -9999 -9999 -9999 354.476684570312 349.763610839844 225.851715087891 237.065307617188 287.662689208984 349.321258544922 445.984954833984 561.757141113281 617.423217773438 596.830139160156 540.785034179688 497.559204101562 474.098205566406 467.66259765625 487.967956542969 510.336700439453 491.453887939453 439.901336669922 387.016632080078 365.460021972656 395.905059814453 429.449981689453 429.584686279297 406.439239501953 374.757354736328 363.874206542969 379.172821044922 401.289947509766 431.308837890625 460.943481445312 449.770111083984 407.915771484375 393.312622070312 412.01318359375 408.010314941406 357.826629638672 297.00048828125 274.148162841797 290.760650634766 304.267425537109 304.019561767578 301.573425292969 313.182067871094 327.306732177734 294.538421630859 252.564788818359 234.5849609375 221.906478881836 232.612426757812 249.449172973633
-9999 -9999 -9999 -9999 -9999 -9999 -9999 -9999 -9999 -9999 -9999 -9999 -9999 -9999 1034.29553222656 -9999 1021.07769775391 -9999 -9999 -9999 340.188110351562 304.02001953125 234.867034912109 277.259521484375 356.835418701172 471.194519042969 596.195556640625 634.898071289062 572.556884765625 493.476928710938 435.199737548828 393.604827880859 372.359619140625 373.980346679688 402.850830078125 449.003021240234 465.271667480469 441.867462158203 404.555969238281 374.511169433594 377.911376953125 388.629028320312 380.141937255859 356.640045166016 326.720489501953 314.437042236328 326.662170410156 348.795715332031 382.011474609375 421.345001220703 435.734741210938 419.456878662109 394.835632324219 403.26611328125 419.714233398438 382.176818847656 324.457458496094 292.007781982422 298.540588378906 315.601165771484 327.054840087891 327.895904541016 324.380737304688 330.958343505859 322.801208496094 281.34521484375 251.93522644043 250.115036010742 250.349426269531 251.650497436523
-9999 -9999 -9999 -9999 -9999 -9999 -9999 -9999 -9999 -9999 -9999 -9999 -9999 -9999 1034.29553222656 930.63720703125 744.108215332031 -9999 -9999 312.930625915527 322.549621582031 276.175048828125 262.741180419922 352.9736328125 479.999298095703 586.706665039062 618.240173339844 561.990844726562 490.281341552734 445.537811279297 411.60546875 376.352783203125 355.620300292969 353.069458007812 367.003570556641 400.128753662109 427.019348144531 422.264526367188 405.616821289062 393.479248046875 394.0986328125 398.351928710938 388.655181884766 368.494842529297 343.082946777344 323.861938476562 322.886108398438 345.442291259766 384.751129150391 414.306549072266 422.494171142578 413.682769775391 389.607666015625 381.113830566406 412.208343505859 438.509735107422 385.455596923828 329.312835693359 313.002319335938 325.705657958984 344.142608642578 350.447265625 330.33056640625 309.336212158203 322.451416015625 328.673706054688 288.09814453125 255.000885009766 254.602127075195 265.560638427734
-9999 -9999 -9999 -9999 -9999 -9999 -9999 -9999 -9999 -9999 -9999 -9999 -9999 -9999 -9999 632.191320800781 563.373657226562 -9999 370.697067260742 295.984771728516 293 279.146179199219 346.100067138672 466.865295410156 539.244750976562 560.95361328125 539.4052734375 504.221374511719 477.125610351562 456.717041015625 424.240173339844 391.402679443359 369.056091308594 362.125427246094 367.173828125 387.293121337891 406.588714599609 401.313446044922 405.951507568359 429.819030761719 439.636352539062 440.871551513672 430.771545410156 410.057098388672 388.768402099609 369.898590087891 365.878051757812 384.359588623047 416.049377441406 436.517974853516 439.306091308594 424.838256835938 404.799713134766 383.491088867188 391.63232421875 443.959808349609 439.036407470703 379.413116455078 333.6484375 333.457885742188 360.603118896484 381.514709472656 360.997924804688 316.084930419922 296.463348388672 310.384796142578 324.994689941406 310.736877441406 281.190490722656 273.840667724609
-9999 -9999 -9999 -9999 -9999 -9999 -9999 -9999 -9999 -9999 -9999 -9999 -9999 -9999 -9999 466.484771728516 456.352752685547 -9999 285.09375 281.847564697266 281.508422851562 343.930541992188 485.773590087891 572.567199707031 560.095458984375 527.142822265625 502.625457763672 498.52783203125 487.291229248047 475.443664550781 452.964660644531 425.855194091797 400.548797607422 386.816833496094 384.018493652344 393.133087158203 410.997283935547 424.982940673828 438.459777832031 462.474029541016 475.864532470703 474.036926269531 464.678680419922 450.264831542969 432.418762207031 415.378509521484 408.487457275391 428.690826416016 452.589385986328 455.237426757812 449.184661865234 437.811096191406 424.679840087891 414.065124511719 406.490844726562 421.778167724609 447.519927978516 440.223968505859 392.114807128906 351.018371582031 355.807830810547 399.971069335938 397.853332519531 359.024353027344 316.410583496094 287.783905029297 293.75146484375 330.121276855469 335.803741455078 324.285522460938
-9999 -9999 -9999 -9999 -9999 -9999 -9999 -9999 -9999 -9999 -9999 -9999 -9999 -9999 -9999 417.913330078125 -9999 335.103145054408 298.823577880859 268.639709472656 311.703399658203 452.100830078125 578.11376953125 564.058532714844 514.9609375 497.08544921875 495.728607177734 499.131256103516 502.045837402344 500.331207275391 493.823822021484 482.620361328125 467.357055664062 459.928039550781 465.075897216797 475.640075683594 479.544311523438 472.299743652344 467.602478027344 475.110565185547 483.888793945312 484.950073242188 480.287109375 475.394104003906 461.623321533203 450.706726074219 448.497222900391 465.887542724609 463.144134521484 446.440093994141 442.478698730469 434.657684326172 429.759033203125 424.976989746094 419.518920898438 420.870727539062 431.489044189453 458.920135498047 451.623962402344 413.643737792969 391.734985351562 407.976196289062 406.5419921875 378.035552978516 340.541564941406 305.458831787109 287.960418701172 298.541320800781 333.513458251953 344.543853759766
-9999 -9999 -9999 -9999 -9999 -9999 -9999 -9999 -9999 -9999 -9999 -9999 -9999 -9999 417.913330078125 370.032104492188 321.352172851562 317.815155029297 295.453796386719 270.746948242188 366.852844238281 521.6611328125 553.863098144531 496.974578857422 467.994659423828 477.691680908203 482.886505126953 487.345764160156 497.657958984375 505.422607421875 510.646759033203 506.8427734375 502.520599365234 504.491851806641 507.824584960938 502.557830810547 485.156982421875 470.308990478516 470.892395019531 476.240356445312 476.576354980469 474.867553710938 479.342987060547 478.762878417969 472.691650390625 464.076599121094 466.476867675781 461.723175048828 438.291595458984 424.614685058594 434.494995117188 436.018157958984 417.370086669922 387.99169921875 379.929748535156 410.7587890625 430.997619628906 449.235534667969 462.991088867188 449.326965332031 428.472717285156 418.300903320312 405.504241943359 378.322845458984 345.252380371094 317.262573242188 298.660980224609 285.882202148438 299.065856933594 315.5
-9999 -9999 -9999 -9999 -9999 -9999 -9999 -9999 -9999 -9999 -9999 -9999 -9999 -9999 -9999 -9999 301.375267028809 298.689575195312 255.816955566406 270.1650390625 409.93603515625 579.137390136719 540.714111328125 470.379943847656 444.516906738281 457.707305908203 458.380828857422 455.936614990234 458.558013916016 470.178985595703 493.927795410156 510.798065185547 517.553161621094 521.047973632812 512.275390625 492.686706542969 474.300231933594 469.020599365234 474.3017578125 477.19091796875 476.537719726562 473.609344482422 477.541076660156 472.142486572266 469.732360839844 463.906402587891 454.3505859375 428.235870361328 407.936218261719 420.501190185547 442.265167236328 419.256774902344 369.160949707031 324.827392578125 304.607666015625 332.96728515625 380.097808837891 429.060668945312 450.052093505859 441.392333984375 421.901580810547 404.559631347656 385.204254150391 361.963836669922 336.965270996094 311.087005615234 292.042297363281 278.137725830078 272.815704345703 282.457733154297
-9999 -9999 -9999 -9999 -9999 -9999 -9999 -9999 -9999 -9999 -9999 -9999 -9999 -9999 -9999 -9999 283.166870117188 267.644165039062 259.233581542969 316.395690917969 472.919952392578 599.353271484375 533.667358398438 458.978393554688 434.961273193359 444.934997558594 446.772430419922 445.833068847656 452.486175537109 463.577941894531 479.697967529297 495.018890380859 502.707244873047 499.61328125 487.382904052734 474.40087890625 465.308685302734 469.637023925781 478.988403320312 477.483337402344 477.178436279297 477.729370117188 474.602416992188 460.283233642578 461.401641845703 457.689147949219 426.785736083984 397.844055175781 412.032318115234 448.866577148438 427.327392578125 350.341583251953 297.251434326172 268.825592041016 254.856018066406 271.859802246094 301.457366943359 350.183288574219 405.929443359375 424.408386230469 414.4697265625 394.084075927734 375.116424560547 347.601531982422 321.915985107422 302.801177978516 286.027893066406 269.037353515625 264.409301757812 274.131378173828
-9999 -9999 -9999 -9999 -9999 -9999 -9999 -9999 -9999 -9999 -9999 -9999 -9999 -9999 -9999 -9999 -9999 268.24609375 271.609222412109 373.338684082031 532.010986328125 594.586975097656 553.313415527344 499.095062255859 493.262786865234 502.168426513672 493.956726074219 493.660675048828 499.148620605469 501.597290039062 504.617431640625 503.679229736328 497.916259765625 488.384246826172 482.792388916016 480.503295898438 481.275604248047 484.232635498047 481.991943359375 483.059143066406 489.575775146484 486.711090087891 471.082672119141 449.560791015625 451.872955322266 440.756713867188 409.250427246094 400.650146484375 432.4892578125 440.715545654297 355.214691162109 293.635009765625 264.103088378906 243.287826538086 250.547180175781 274.826843261719 282.588226318359 295.005340576172 359.573059082031 383.596862792969 384.430938720703 375.850860595703 352.429473876953 322.830902099609 306.959259033203 292.643310546875 275.484924316406 264.552947998047 268.942932128906 278.556671142578
-9999 -9999 -9999 -9999 -9999 -9999 -9999 -9999 -9999 -9999 -9999 -9999 -9999 -9999 271.524841308594 267.644165039062 270.860244750977 273.053314208984 274.497406005859 398.477935791016 586.834533691406 614.056457519531 576.274719238281 551.463745117188 540.699279785156 529.505981445312 521.766967773438 520.577087402344 518.509338378906 515.932312011719 514.095825195312 510.606384277344 505.381561279297 497.479797363281 490.956146240234 483.422576904297 477.189147949219 474.371215820312 475.772155761719 483.83642578125 483.419525146484 477.251525878906 451.566162109375 438.116119384766 447.649780273438 429.383972167969 412.387817382812 428.042633056641 441.14697265625 391.986907958984 305.341918945312 264.287689208984 248.01741027832 256.746887207031 276.074768066406 300.620513916016 312.419281005859 313.751312255859 328.225830078125 325.914398193359 337.495452880859 337.270477294922 323.900573730469 308.238037109375 295.618041992188 280.797912597656 267.453155517578 266.830017089844 272.937744140625 281.638977050781
-9999 -9999 -9999 -9999 -9999 -9999 -9999 -9999 -9999 -9999 -9999 -9999 -9999 -9999 -9999 -9999 -9999 -9999 380.986679077148 410.460418701172 600.700927734375 617.612609863281 572.555786132812 543.190063476562 531.594604492188 522.763854980469 518.583251953125 519.545715332031 521.606323242188 525.978454589844 528.826110839844 532.355590820312 531.960876464844 525.717651367188 513.851440429688 502.149383544922 492.505767822266 487.637237548828 481.753448486328 473.588775634766 465.454772949219 446.252716064453 413.918548583984 434.519958496094 450.377044677734 434.776672363281 446.037292480469 453.691131591797 410.584381103516 337.372528076172 275.782012939453 263.691833496094 261.968597412109 267.144683837891 276.074920654297 288.853729248047 300.864135742188 310.170806884766 316.397857666016 320.504302978516 326.765380859375 313.224853515625 302.683654785156 296.693023681641 288.367797851562 279.667602539062 273.384643554688 272.322387695312 273.053955078125 274.550872802734
-9999 -9999 -9999 -9999 -9999 -9999 -9999 -9999 -9999 -9999 -9999 -9999 -9999 -9999 -9999 -9999 -9999 335.818572998047 429.138313293457 440.510955810547 589.489135742188 582.9091796875 556.813781738281 538.511962890625 526.423950195312 521.608642578125 527.102478027344 535.922790527344 536.6279296875 515.986328125 471.205780029297 432.600769042969 409.49169921875 397.816650390625 385.584136962891 373.035522460938 366.258270263672 378.707275390625 420.156097412109 451.714782714844 447.349853515625 424.359893798828 437.882019042969 471.073120117188 489.042907714844 497.333190917969 516.823364257812 463.422088623047 375.227508544922 289.519439697266 273.548187255859 282.645111083984 281.874664306641 279.979736328125 281.963409423828 284.473937988281 294.716552734375 305.716461181641 314.850128173828 317.859680175781 309.533111572266 293.653533935547 286.361236572266 284.659484863281 290.024597167969 290.184326171875 289.157440185547 284.002593994141 276.382019042969 272.648712158203
-9999 -9999 -9999 -9999 -9999 -9999 -9999 -9999 -9999 -9999 -9999 -9999 -9999 296.469299316406 310.667494032118 -9999 343.490875244141 378.046279907227 335.818572998047 529.763305664062 557.211730957031 560.130432128906 546.095947265625 532.444091796875 526.269287109375 530.526428222656 526.487731933594 484.291778564453 411.197082519531 357.539093017578 340.757659912109 330.110778808594 327.065399169922 328.208740234375 330.651458740234 330.315338134766 329.722930908203 344.267242431641 409.102569580078 463.043762207031 473.851715087891 467.12646484375 471.160736083984 468.444000244141 466.180328369141 489.747833251953 523.370239257812 473.205078125 364.547546386719 312.695068359375 301.250762939453 292.074340820312 289.477630615234 286.513641357422 284.520233154297 283.584197998047 287.784423828125 296.433776855469 300.827117919922 299.107543945312 291.739471435547 286.86376953125 284.878082275391 283.924835205078 287.571502685547 292.905151367188 298.433380126953 296.752258300781 290.108612060547 282.670501708984
-9999 -9999 -9999 -9999 -9999 -9999 -9999 -9999 -9999 -9999 -9999 -9999 -9999 -9999 296.469299316406 338.852244059245 296.680938720703 390.300811767578 489.384796142578 514.417053222656 543.802734375 546.695678710938 532.547790527344 517.685302734375 510.692077636719 483.607208251953 419.890594482422 363.765045166016 328.850341796875 333.034332275391 337.979034423828 343.656524658203 328.239898681641 294.852905273438 270.023284912109 294.943450927734 353.113250732422 406.240295410156 457.145141601562 482.846435546875 478.297454833984 454.525421142578 441.122131347656 463.320617675781 467.752380371094 451.230224609375 481.508575439453 495.443176269531 399.258239746094 350.696990966797 332.177337646484 299.697937011719 285.675994873047 277.682312011719 275.093353271484 272.983337402344 275.747009277344 283.078735351562 286.458953857422 290.915924072266 289.617462158203 290.025756835938 292.609832763672 295.057495117188 292.736175537109 295.073883056641 299.456848144531 298.216613769531 299.298583984375 301.676177978516
-9999 -9999 -9999 -9999 -9999 -9999 -9999 -9999 -9999 -9999 -9999 -9999 -9999 -9999 303.414848327637 296.469299316406 423.406494140625 510.211608886719 518.442199707031 524.740051269531 537.472900390625 519.808349609375 500.884887695312 476.725708007812 449.054473876953 395.326599121094 364.526214599609 358.041381835938 353.991180419922 381.357269287109 379.147369384766 354.261047363281 321.553771972656 292.895782470703 291.669219970703 362.722045898438 440.434631347656 458.603637695312 467.6611328125 470.850067138672 451.680694580078 436.144073486328 431.259368896484 458.880981445312 463.093841552734 413.855010986328 422.531311035156 488.35107421875 492.678863525391 434.666564941406 361.975006103516 301.258880615234 282.111053466797 275.346893310547 274.998168945312 270.855133056641 267.893188476562 269.285186767578 272.924652099609 283.306823730469 294.821502685547 302.414642333984 301.245727539062 301.160430908203 301.282531738281 301.440093994141 303.534393310547 297.8896484375 295.280395507812 302.664184570312
-9999 -9999 -9999 -9999 -9999 -9999 -9999 -9999 -9999 -9999 -9999 276.638122558594 282.0078125 283.702514648438 268.452453613281 365.035125732422 572.087219238281 560.033386230469 531.3173828125 512.322509765625 508.110504150391 501.158874511719 481.269744873047 456.297241210938 399.531921386719 359.409484863281 355.648773193359 365.549407958984 383.344787597656 381.789215087891 345.395446777344 307.682647705078 293.360290527344 312.924133300781 368.386199951172 437.291809082031 462.478118896484 451.129241943359 450.0751953125 459.955291748047 461.611267089844 467.154296875 470.386779785156 461.88623046875 455.973663330078 427.478363037109 409.715362548828 448.773132324219 498.078521728516 491.691833496094 394.696960449219 308.172485351562 286.845733642578 283.540252685547 278.838165283203 272.973449707031 271.507843017578 270.438293457031 274.809020996094 276.351013183594 284.232666015625 297.250915527344 303.614898681641 305.272644042969 306.624694824219 306.339447021484 309.9755859375 303.562286376953 296.032531738281 305.663452148438
-9999 -9999 -9999 -9999 -9999 -9999 -9999 -9999 -9999 420.031768798828 293.677307128906 267.994537353516 291.302703857422 296.478912353516 331.263275146484 473.163696289062 498.498626708984 509.215026855469 508.292785644531 497.342437744141 492.017913818359 474.070343017578 439.516876220703 379.397033691406 346.21435546875 358.471160888672 379.808898925781 382.8134765625 409.440887451172 414.805267333984 378.446716308594 343.296325683594 339.945281982422 372.089263916016 424.419311523438 451.655212402344 454.919403076172 468.614440917969 491.511016845703 497.974243164062 492.457733154297 493.398742675781 480.005676269531 467.838226318359 459.915252685547 443.967346191406 425.745178222656 417.438629150391 471.136535644531 518.605346679688 443.377563476562 326.265899658203 290.375610351562 296.921783447266 291.109710693359 282.860900878906 279.934631347656 277.759735107422 280.598052978516 285.347808837891 290.905242919922 300.060943603516 305.191497802734 308.531158447266 313.414428710938 314.606567382812 315.282867431641 308.928253173828 304.258239746094 311.132720947266
-9999 -9999 -9999 -9999 -9999 -9999 -9999 -9999 -9999 408.72412109375 298.988189697266 313.732147216797 352.500732421875 400.806304931641 428.46923828125 474.11474609375 501.98486328125 511.755096435547 497.623504638672 488.951629638672 459.688293457031 415.555267333984 365.637298583984 326.039642333984 355.64404296875 385.286468505859 385.311248779297 380.666381835938 406.900360107422 419.435180664062 413.267303466797 400.17138671875 400.731628417969 419.804870605469 440.555725097656 450.428771972656 468.879058837891 493.772613525391 507.673889160156 500.193939208984 488.61181640625 486.124481201172 479.352813720703 479.045135498047 472.363403320312 460.014862060547 428.797668457031 381.889068603516 424.379760742188 507.786041259766 466.888610839844 344.863311767578 295.627105712891 312.575134277344 300.098052978516 289.531311035156 286.404205322266 285.016235351562 285.965637207031 290.434356689453 295.708679199219 304.311401367188 311.762908935547 314.519927978516 319.097076416016 323.188812255859 321.222259521484 319.423858642578 312.728088378906 311.590881347656
-9999 -9999 -9999 -9999 -9999 300.864517211914 381.285369873047 356.516174316406 355.437805175781 298.454254150391 306.110229492188 374.634002685547 444.323181152344 527.354064941406 508.489776611328 499.845581054688 488.550933837891 467.419616699219 463.401214599609 456.212097167969 428.429565429688 397.784576416016 355.919464111328 340.132751464844 381.720977783203 393.061065673828 384.734588623047 376.592651367188 380.144287109375 398.956787109375 422.323760986328 434.371734619141 443.135040283203 449.011810302734 451.893188476562 458.451507568359 471.396179199219 481.331451416016 485.330261230469 486.790893554688 480.390655517578 487.993927001953 492.920104980469 488.593200683594 475.038604736328 440.868499755859 381.875396728516 332.076812744141 398.606842041016 490.231658935547 456.193145751953 352.160247802734 305.397552490234 324.445343017578 303.358123779297 297.612640380859 290.402099609375 287.949676513672 287.524169921875 291.938171386719 297.655517578125 308.937164306641 317.810699462891 321.335968017578 322.639526367188 327.788330078125 328.737091064453 329.473571777344 328.801818847656 319.62841796875
-9999 -9999 -9999 -9999 276.026672363281 270.957092285156 275.188934326172 290.650268554688 306.470703125 308.126220703125 331.591522216797 435.870727539062 488.394592285156 476.41064453125 482.687164306641 474.975372314453 461.445861816406 463.714660644531 474.521942138672 435.554016113281 374.605163574219 363.795043945312 355.562408447266 366.760009765625 395.98876953125 396.390625 386.545532226562 382.918304443359 387.539825439453 399.461151123047 423.646789550781 450.761627197266 448.040924072266 443.915985107422 460.232971191406 466.119750976562 458.642791748047 464.757720947266 477.523132324219 480.178039550781 460.96044921875 484.381469726562 497.671112060547 475.505126953125 444.329895019531 396.633270263672 329.483428955078 308.581939697266 398.969055175781 481.749176025391 434.363891601562 358.623382568359 324.153472900391 332.55224609375 307.421356201172 300.710510253906 292.312042236328 289.882690429688 290.009765625 291.252227783203 300.858367919922 308.986358642578 320.248840332031 322.167663574219 324.102691650391 329.233489990234 332.478118896484 332.455139160156 333.852813720703 326.440246582031
-9999 -9999 -9999 252.162704467773 252.941146850586 251.242462158203 311.432830810547 360.675048828125 379.201293945312 395.354400634766 426.028839111328 451.479675292969 459.205322265625 468.488861083984 470.013000488281 455.999664306641 458.647644042969 453.850372314453 412.367553710938 356.077880859375 346.775756835938 353.180236816406 355.102294921875 381.515869140625 405.765197753906 402.905517578125 390.466583251953 379.951843261719 379.677368164062 390.003082275391 410.245849609375 428.330444335938 445.600982666016 453.704071044922 461.509338378906 464.434631347656 461.186004638672 467.299652099609 475.720977783203 467.600524902344 452.122161865234 491.397674560547 488.828247070312 451.608703613281 415.277008056641 348.755096435547 298.762084960938 312.919799804688 399.572357177734 473.087677001953 408.980194091797 355.985168457031 349.771240234375 334.741149902344 307.5830078125 301.953521728516 295.408416748047 287.300964355469 286.445281982422 291.861145019531 302.420349121094 316.270202636719 324.661651611328 327.201080322266 328.546173095703 336.027008056641 339.973571777344 339.733001708984 340.498748779297 338.511566162109
-9999 -9999 -9999 247.331207275391 232.351791381836 308.630859375 423.738311767578 530.102294921875 528.182922363281 524.119689941406 437.199768066406 442.529968261719 449.616088867188 466.178497314453 450.661499023438 447.810394287109 467.261962890625 444.229309082031 389.512115478516 354.086883544922 354.470825195312 358.377502441406 360.608703613281 397.79638671875 414.394622802734 401.122283935547 393.398132324219 383.539520263672 366.732055664062 380.929565429688 428.667602539062 463.988494873047 463.056335449219 462.069763183594 471.796203613281 469.748687744141 473.970153808594 469.977783203125 471.731597900391 450.079895019531 461.2529296875 476.144592285156 443.29052734375 395.961853027344 343.603454589844 310.896545410156 306.847686767578 338.830780029297 399.180053710938 455.489471435547 389.870483398438 328.523559570312 353.381439208984 340.865173339844 315.566833496094 304.759124755859 297.415130615234 287.315307617188 282.227478027344 290.392456054688 300.599304199219 310.721649169922 318.661315917969 322.011749267578 329.564575195312 334.892852783203 343.498626708984 345.437255859375 337.662902832031 339.916168212891
