NCOLS 70 
NROWS 52 
XLLCORNER -80 
YLLCORNER 33 
CELLSIZE 0.25 
NODATA_value -9999 
-9999.000000000000000 -9999 -9999 -9999 -9999 -9999 -9999 -9999 -9999 -9999 -9999 -9999 -9999 -9999 -9999 -9999 -9999 -9999 -9999 -9999 -9999 -9999 -9999 -9999 -9999 -9999 -9999 -9999 -9999 -9999 -9999 -9999 -9999 -9999 -9999 -9999 -9999 -9999 -9999 -9999 -9999 -9999 -9999 -9999 -9999 -9999 -9999 -9999 -9999 -9999 -9999 -9999 -9999 -9999 -9999 -9999 -9999 -9999 -9999 -9999 -9999 -9999 -9999 -9999 -9999 -9999 -9999 -9999 -9999 -9999
-9999 -9999 -9999 -9999 -9999 -9999 -9999 -9999 -9999 -9999 -9999 -9999 -9999 -9999 -9999 -9999 -9999 -9999 -9999 -9999 -9999 -9999 -9999 -9999 -9999 -9999 -9999 -9999 -9999 -9999 -9999 -9999 -9999 -9999 -9999 -9999 -9999 -9999 -9999 -9999 -9999 -9999 -9999 -9999 -9999 -9999 -9999 -9999 -9999 -9999 -9999 -9999 -9999 -9999 -9999 -9999 -9999 -9999 -9999 -9999 -9999 -9999 -9999 -9999 -9999 -9999 -9999 -9999 -9999 -9999
-9999 -9999 -9999 -9999 -9999 -9999 -9999 -9999 -9999 -9999 -9999 -9999 -9999 -9999 -9999 -9999 -9999 -9999 -9999 -9999 -9999 -9999 -9999 -9999 -9999 -9999 -9999 -9999 -9999 -9999 -9999 -9999 -9999 -9999 -9999 -9999 -9999 -9999 -9999 -9999 -9999 -9999 -9999 -9999 -9999 -9999 -9999 -9999 -9999 -9999 -9999 -9999 -9999 -9999 -9999 -9999 -9999 -9999 -9999 288.865844726562 -9999 -9999 -9999 -9999 -9999 -9999 -9999 -9999 -9999 -9999
-9999 -9999 -9999 -9999 -9999 -9999 -9999 -9999 -9999 -9999 -9999 -9999 -9999 -9999 -9999 -9999 -9999 -9999 -9999 -9999 -9999 -9999 -9999 -9999 -9999 -9999 -9999 -9999 -9999 -9999 -9999 -9999 -9999 -9999 -9999 -9999 -9999 -9999 -9999 -9999 -9999 -9999 -9999 -9999 -9999 -9999 -9999 -9999 -9999 -9999 -9999 -9999 -9999 -9999 -9999 213.705017089844 231.652053833008 257.734893798828 270.865661621094 280.147308349609 -9999 -9999 -9999 -9999 -9999 -9999 -9999 -9999 -9999 -9999
-9999 -9999 -9999 -9999 -9999 -9999 -9999 -9999 -9999 -9999 -9999 -9999 -9999 -9999 -9999 -9999 -9999 -9999 -9999 -9999 -9999 -9999 -9999 -9999 -9999 -9999 -9999 -9999 -9999 -9999 -9999 -9999 -9999 -9999 -9999 -9999 -9999 -9999 -9999 -9999 -9999 -9999 -9999 -9999 -9999 -9999 -9999 -9999 -9999 -9999 -9999 -9999 119.096313476562 129.290954589844 151.990997314453 185.604080200195 219.585815429688 244.7783203125 -9999 -9999 -9999 -9999 -9999 -9999 -9999 -9999 -9999 -9999 -9999 -9999
-9999 -9999 -9999 -9999 -9999 -9999 -9999 -9999 -9999 -9999 -9999 -9999 -9999 -9999 -9999 -9999 -9999 -9999 -9999 -9999 -9999 -9999 -9999 -9999 -9999 -9999 -9999 -9999 -9999 -9999 -9999 -9999 -9999 -9999 -9999 -9999 -9999 -9999 -9999 -9999 -9999 -9999 -9999 -9999 -9999 -9999 -9999 -9999 -9999 -9999 123.232026672363 131.423034667969 118.160430908203 103.957153320312 99.9738464355469 111.20272064209 -9999 -9999 -9999 -9999 -9999 -9999 -9999 -9999 -9999 -9999 -9999 156.463607788086 158.9111328125 172.142517089844
-9999 -9999 -9999 -9999 -9999 -9999 -9999 -9999 -9999 -9999 -9999 -9999 -9999 -9999 -9999 -9999 -9999 -9999 -9999 -9999 -9999 -9999 -9999 -9999 -9999 -9999 -9999 -9999 -9999 -9999 -9999 -9999 -9999 -9999 -9999 -9999 -9999 -9999 -9999 -9999 -9999 -9999 -9999 -9999 185.725438435872 -9999 -9999 135.993759155273 138.338470458984 133.836303710938 124.052772521973 114.694053649902 106.576240539551 101.031196594238 96.2380523681641 -9999 -9999 -9999 -9999 -9999 -9999 -9999 -9999 174.733779907227 163.746643066406 158.731307983398 159.642211914062 155.618682861328 154.129928588867 153.753402709961
-9999 -9999 -9999 -9999 -9999 -9999 -9999 -9999 -9999 -9999 -9999 -9999 -9999 -9999 -9999 -9999 -9999 -9999 -9999 -9999 -9999 -9999 -9999 -9999 -9999 -9999 -9999 -9999 -9999 -9999 -9999 -9999 -9999 -9999 -9999 -9999 -9999 -9999 -9999 -9999 -9999 -9999 -9999 -9999 189.203704833984 165.468811035156 148.316131591797 133.433441162109 123.886993408203 115.208778381348 106.842720031738 104.083854675293 105.817291259766 105.701698303223 103.644536972046 -9999 -9999 -9999 -9999 -9999 -9999 -9999 167.367218017578 160.373153686523 157.220779418945 154.376647949219 151.855773925781 147.912170410156 143.376251220703 137.284210205078
-9999 -9999 -9999 -9999 -9999 -9999 -9999 -9999 -9999 -9999 -9999 -9999 -9999 -9999 -9999 -9999 -9999 -9999 -9999 -9999 -9999 -9999 -9999 -9999 -9999 -9999 -9999 -9999 -9999 -9999 -9999 -9999 -9999 -9999 -9999 -9999 -9999 -9999 -9999 -9999 158.982452392578 154.546351114909 167.743719482422 192.986068725586 176.071365356445 147.04557800293 128.980941772461 115.524421691895 102.934906005859 95.9927368164062 96.730827331543 102.939628601074 110.109588623047 111.607200622559 119.060594177246 -9999 -9999 -9999 -9999 -9999 154.812728881836 156.448699951172 156.00993347168 152.847045898438 147.53825378418 140.85319519043 132.095397949219 123.804244995117 118.095321655273 113.374610900879
-9999 -9999 -9999 -9999 -9999 -9999 -9999 -9999 -9999 -9999 -9999 -9999 -9999 -9999 -9999 -9999 -9999 -9999 -9999 -9999 -9999 -9999 -9999 -9999 -9999 -9999 -9999 -9999 -9999 -9999 -9999 -9999 -9999 -9999 -9999 -9999 -9999 -9999 -9999 162.017791748047 159.627334594727 155.302230834961 148.709487915039 139.217010498047 126.465866088867 111.893692016602 102.463348388672 94.9536285400391 89.1991195678711 88.548469543457 92.9225234985352 101.090850830078 111.117141723633 117.240623474121 132.260238647461 128.493209838867 -9999 -9999 -9999 154.206005096436 154.605987548828 153.383499145508 149.879104614258 144.193984985352 136.734970092773 125.976219177246 113.307235717773 103.970260620117 100.184478759766 99.1657257080078
-9999 -9999 -9999 -9999 -9999 -9999 -9999 -9999 -9999 -9999 -9999 -9999 -9999 -9999 -9999 -9999 -9999 -9999 -9999 -9999 -9999 -9999 -9999 -9999 -9999 -9999 -9999 -9999 -9999 -9999 -9999 -9999 -9999 -9999 -9999 -9999 -9999 -9999 171.529110717773 163.014495849609 148.999099731445 129.739105224609 111.015312194824 97.0262756347656 88.53173828125 83.6414794921875 80.9328994750977 79.4686279296875 80.3638687133789 84.4775619506836 91.9720611572266 101.472640991211 111.616752624512 119.832389831543 132.369277954102 143.417449951172 137.46826171875 142.336003621419 166.943756103516 148.784164428711 146.490112304688 143.482498168945 138.226226806641 134.251007080078 128.486694335938 117.145935058594 104.12865447998 98.0960083007812 98.2670211791992 98.2770767211914
-9999 -9999 -9999 -9999 -9999 -9999 -9999 -9999 -9999 -9999 -9999 -9999 -9999 -9999 -9999 -9999 -9999 -9999 -9999 -9999 -9999 -9999 -9999 -9999 -9999 -9999 -9999 -9999 -9999 -9999 -9999 -9999 -9999 -9999 -9999 -9999 -9999 201.004318237305 183.98323059082 147.625717163086 115.216255187988 99.0458068847656 91.8549194335938 88.0008010864258 87.4058227539062 88.3682022094727 86.6214218139648 82.8302383422852 81.1133728027344 84.1941375732422 92.1431655883789 101.486297607422 110.303070068359 117.232391357422 123.220062255859 129.586975097656 138.643676757812 140.687088012695 138.6435546875 135.067184448242 129.02424621582 124.074226379395 121.789085388184 120.956359863281 117.197418212891 108.796363830566 104.593070983887 108.191230773926 111.079437255859 111.644973754883
-9999 -9999 -9999 -9999 -9999 -9999 -9999 -9999 -9999 -9999 -9999 -9999 -9999 -9999 -9999 -9999 -9999 -9999 -9999 -9999 -9999 -9999 -9999 -9999 -9999 -9999 -9999 -9999 -9999 -9999 -9999 -9999 -9999 -9999 -9999 -9999 -9999 208.456497192383 176.663436889648 134.451858520508 115.264259338379 108.43042755127 106.778495788574 108.824172973633 115.896560668945 123.041954040527 121.656768798828 110.224945068359 96.4277420043945 90.2806243896484 93.8288726806641 102.024353027344 110.570404052734 115.494834899902 118.158294677734 120.962013244629 123.710845947266 126.52693939209 126.43293762207 120.243598937988 116.038299560547 116.115249633789 114.21501159668 111.039375305176 109.692756652832 110.044944763184 119.091163635254 128.274536132812 131.503067016602 130.93635559082
-9999 -9999 -9999 -9999 -9999 -9999 -9999 -9999 -9999 -9999 -9999 -9999 -9999 -9999 -9999 -9999 -9999 -9999 -9999 -9999 -9999 -9999 -9999 -9999 -9999 -9999 -9999 -9999 -9999 -9999 -9999 -9999 -9999 -9999 -9999 -9999 -9999 234.266952514648 182.906692504883 144.125305175781 125.309028625488 115.951210021973 115.818733215332 121.704429626465 129.513687133789 135.556655883789 137.186752319336 132.253921508789 120.790977478027 110.391304016113 106.961158752441 110.380928039551 116.24373626709 121.358192443848 123.746002197266 123.724014282227 120.850563049316 115.442413330078 115.687797546387 112.535026550293 119.257080078125 131.765563964844 129.006851196289 119.762405395508 118.832984924316 120.36939239502 137.064300537109 150.627334594727 155.842483520508 155.39518737793
-9999 -9999 -9999 -9999 -9999 -9999 -9999 -9999 -9999 -9999 -9999 -9999 -9999 -9999 -9999 -9999 -9999 -9999 -9999 -9999 -9999 -9999 -9999 -9999 -9999 -9999 -9999 -9999 -9999 -9999 -9999 -9999 -9999 -9999 -9999 -9999 331.974822998047 281.406372070312 219.472625732422 176.638641357422 148.927383422852 127.528358459473 118.420372009277 120.602699279785 125.579742431641 131.879974365234 138.718902587891 142.247528076172 141.879974365234 138.440078735352 133.948120117188 130.056289672852 127.515953063965 128.638534545898 131.581741333008 130.645034790039 127.498764038086 120.277732849121 120.634895324707 122.681632995605 143.080520629883 167.004058837891 161.155654907227 148.407196044922 142.390258789062 139.494049072266 150.438095092773 163.259689331055 175.225997924805 182.972366333008
-9999 -9999 -9999 -9999 -9999 -9999 -9999 -9999 -9999 -9999 -9999 -9999 -9999 -9999 -9999 -9999 -9999 -9999 -9999 -9999 -9999 -9999 -9999 -9999 -9999 -9999 -9999 -9999 -9999 -9999 -9999 -9999 -9999 -9999 -9999 -9999 -9999 325.578430175781 295.993469238281 242.694915771484 195.057205200195 156.461395263672 130.280700683594 123.835021972656 130.690628051758 141.629135131836 150.53288269043 150.791244506836 147.552368164062 143.988662719727 139.461471557617 135.244323730469 132.118743896484 131.659210205078 136.012786865234 136.323043823242 148.356643676758 159.18034362793 157.986129760742 160.43733215332 183.748443603516 191.120819091797 180.027145385742 171.980682373047 159.367370605469 152.200775146484 151.739410400391 157.943023681641 170.638244628906 192.870178222656
-9999 -9999 -9999 -9999 -9999 -9999 -9999 -9999 -9999 -9999 -9999 -9999 -9999 -9999 -9999 -9999 -9999 -9999 -9999 -9999 -9999 -9999 -9999 -9999 -9999 -9999 -9999 -9999 -9999 -9999 -9999 -9999 -9999 -9999 -9999 -9999 -9999 -9999 337.826110839844 -9999 227.140121459961 186.444000244141 160.646850585938 149.137115478516 155.190811157227 162.83918762207 163.678482055664 153.423522949219 145.159759521484 142.194351196289 138.000335693359 136.072967529297 133.990707397461 132.561630249023 141.045669555664 149.298034667969 184.820083618164 208.436859130859 197.321395874023 197.414031982422 204.547790527344 178.631256103516 174.765319824219 177.306137084961 167.520080566406 158.339569091797 155.467590332031 155.576309204102 162.477386474609 187.223617553711
-9999 -9999 -9999 -9999 -9999 -9999 -9999 -9999 -9999 -9999 -9999 -9999 -9999 -9999 -9999 -9999 -9999 -9999 -9999 -9999 -9999 -9999 -9999 -9999 -9999 -9999 -9999 -9999 -9999 -9999 -9999 -9999 -9999 -9999 -9999 -9999 -9999 -9999 -9999 -9999 212.50944519043 206.323577880859 197.226989746094 188.441833496094 186.130874633789 177.1796875 164.49690246582 151.802551269531 147.130142211914 146.31982421875 146.384124755859 150.17756652832 149.965469360352 146.244293212891 146.382904052734 166.757568359375 212.184478759766 217.107757568359 190.530059814453 200.430374145508 199.680282592773 194.325653076172 189.327499389648 181.226470947266 176.914978027344 178.728088378906 174.809661865234 168.176498413086 164.915512084961 174.16828918457
-9999 -9999 -9999 -9999 -9999 -9999 -9999 -9999 -9999 -9999 -9999 -9999 -9999 -9999 -9999 -9999 -9999 -9999 -9999 -9999 -9999 -9999 -9999 -9999 -9999 -9999 -9999 -9999 -9999 -9999 -9999 -9999 -9999 -9999 161.61890411377 172.217987060547 174.033493041992 -9999 192.304702758789 215.814636230469 233.650375366211 228.570358276367 212.753707885742 204.678131103516 195.205062866211 183.603652954102 176.571731567383 172.502716064453 170.643310546875 173.826385498047 177.143966674805 179.528610229492 173.313064575195 164.134506225586 155.966766357422 188.951156616211 233.709976196289 207.192352294922 177.93994140625 178.487075805664 182.72721862793 198.896209716797 203.160171508789 199.885635375977 197.267669677734 202.105728149414 204.763977050781 202.672760009766 190.167541503906 177.065490722656
-9999 -9999 -9999 -9999 -9999 -9999 -9999 -9999 -9999 -9999 -9999 -9999 -9999 -9999 -9999 -9999 -9999 -9999 -9999 -9999 -9999 -9999 -9999 -9999 -9999 -9999 -9999 594.389221191406 594.389221191406 504.479370117188 372.70947265625 239.666244506836 161.378295898438 147.410522460938 157.27604675293 169.571060180664 171.053588867188 174.634033203125 184.227020263672 203.217880249023 230.464813232422 235.256454467773 214.666870117188 204.610702514648 207.078598022461 216.903289794922 215.833984375 210.193405151367 208.024200439453 208.265090942383 210.793670654297 208.082901000977 189.063842773438 183.587478637695 195.060012817383 224.094665527344 232.790496826172 183.262176513672 159.896148681641 161.865676879883 165.365295410156 162.995361328125 172.597579956055 186.210418701172 191.745986938477 187.821548461914 199.626129150391 212.713363647461 216.328842163086 196.931747436523
-9999 -9999 -9999 -9999 -9999 -9999 -9999 -9999 -9999 -9999 -9999 -9999 -9999 -9999 -9999 -9999 -9999 -9999 -9999 -9999 -9999 -9999 -9999 -9999 -9999 -9999 -9999 -9999 -9999 -9999 247.395935058594 200.030670166016 165.256240844727 165.28271484375 178.339935302734 190.199417114258 200.097427368164 209.620101928711 211.377487182617 218.192749023438 227.071624755859 223.613311767578 212.836242675781 221.826965332031 247.516036987305 269.002990722656 265.679809570312 256.385101318359 250.140655517578 252.582443237305 257.042633056641 247.583114624023 229.165542602539 232.107498168945 251.502487182617 247.339950561523 202.643035888672 168.646926879883 164.752822875977 167.323440551758 169.36735534668 166.99772644043 164.34455871582 161.193130493164 155.836456298828 149.629013061523 160.771133422852 173.882293701172 198.303298950195 203.124725341797
-9999 -9999 -9999 -9999 -9999 -9999 -9999 -9999 -9999 -9999 -9999 -9999 -9999 -9999 -9999 -9999 -9999 -9999 -9999 -9999 -9999 -9999 -9999 -9999 -9999 232.056610107422 188.125213623047 164.717137654622 156.483303070068 150.520812988281 156.784713745117 168.15901184082 182.238464355469 203.865783691406 227.577056884766 243.795135498047 253.69123840332 255.723526000977 250.132797241211 247.327026367188 245.690063476562 241.493286132812 244.680328369141 275.220672607422 292.741333007812 293.272399902344 295.427307128906 283.555236816406 282.686157226562 275.08837890625 293.020263671875 295.849853515625 267.373413085938 255.080108642578 256.345275878906 229.927490234375 192.802810668945 183.099411010742 188.348052978516 194.902603149414 199.410339355469 198.069000244141 190.869400024414 182.943237304688 175.434356689453 168.624557495117 160.860290527344 158.204116821289 161.377304077148 175.510162353516
-9999 -9999 -9999 -9999 -9999 -9999 -9999 -9999 -9999 -9999 -9999 -9999 -9999 -9999 -9999 -9999 -9999 -9999 -9999 -9999 -9999 -9999 -9999 -9999 290.869232177734 225.974960327148 179.325637817383 159.075042724609 155.750732421875 160.586624145508 175.888336181641 198.053009033203 227.655639648438 261.295166015625 280.352111816406 290.385131835938 294.939514160156 290.8681640625 289.858825683594 287.924133300781 285.261810302734 285.940124511719 291.833557128906 288.759674072266 259.711761474609 239.932144165039 240.5478515625 236.94596862793 264.342590332031 268.027984619141 291.474151611328 282.683502197266 233.504241943359 213.72819519043 218.107452392578 216.584136962891 212.851577758789 217.293960571289 229.976272583008 238.948547363281 239.731079101562 234.357833862305 225.500289916992 214.360900878906 202.55046081543 190.979629516602 175.930358886719 165.31575012207 158.14501953125 156.078231811523
-9999 -9999 -9999 -9999 -9999 -9999 -9999 -9999 -9999 -9999 -9999 -9999 -9999 -9999 -9999 -9999 -9999 -9999 -9999 -9999 -9999 -9999 -9999 -9999 297.379730224609 194.579483032227 152.483276367188 154.564987182617 166.570236206055 187.747024536133 217.913558959961 247.392623901367 273.493804931641 291.611999511719 289.633911132812 287.446350097656 282.917877197266 271.580841064453 269.535949707031 269.529083251953 267.696075439453 270.473693847656 274.892608642578 230.588607788086 179.810485839844 167.910415649414 169.099304199219 181.143692016602 210.476165771484 239.005645751953 244.088912963867 218.908584594727 200.174667358398 196.152160644531 208.202697753906 222.744186401367 241.624130249023 255.570236206055 269.250762939453 268.195617675781 259.473815917969 246.720108032227 233.869613647461 220.626571655273 210.036880493164 201.212966918945 189.602142333984 178.810028076172 168.161361694336 161.019668579102
-9999 -9999 -9999 -9999 -9999 -9999 -9999 -9999 -9999 -9999 -9999 -9999 -9999 -9999 -9999 -9999 -9999 -9999 -9999 -9999 -9999 -9999 -9999 317.972679138184 309.337097167969 201.051239013672 160.782135009766 169.8779296875 197.472381591797 236.948226928711 278.096588134766 293.179901123047 285.603759765625 283.950622558594 276.545928955078 269.593048095703 261.849334716797 249.905075073242 236.617645263672 222.483474731445 208.770523071289 205.734848022461 214.645111083984 198.225830078125 172.804626464844 161.058212280273 159.545684814453 159.17366027832 166.700393676758 180.089935302734 183.952880859375 189.400405883789 201.257797241211 213.438781738281 232.821624755859 252.950866699219 275.860717773438 288.550323486328 289.865509033203 273.490631103516 254.233978271484 232.667343139648 214.197647094727 202.34294128418 193.751373291016 189.79573059082 185.012512207031 178.360809326172 169.594741821289 163.252319335938
-9999 -9999 -9999 -9999 -9999 -9999 -9999 -9999 -9999 -9999 -9999 -9999 -9999 -9999 -9999 -9999 -9999 -9999 -9999 -9999 -9999 -9999 -9999 364.136199951172 301.037689208984 208.529357910156 180.793792724609 197.864486694336 239.990844726562 280.83935546875 302.402679443359 308.945343017578 299.420745849609 295.782257080078 293.826538085938 287.004486083984 279.399566650391 272.447479248047 259.794677734375 244.105484008789 229.483642578125 219.848449707031 217.731628417969 214.208557128906 204.254531860352 191.192367553711 175.524215698242 159.407196044922 155.214691162109 161.789566040039 172.659606933594 189.624374389648 209.554626464844 233.943069458008 262.68701171875 284.909454345703 304.231201171875 312.239929199219 301.374603271484 271.450408935547 239.871780395508 205.933029174805 184.945922851562 176.906295776367 170.657730102539 169.433654785156 171.018371582031 168.894104003906 162.03938293457 156.600875854492
-9999 -9999 -9999 -9999 -9999 -9999 -9999 -9999 -9999 -9999 -9999 -9999 -9999 -9999 -9999 -9999 -9999 -9999 -9999 -9999 -9999 -9999 353.628051757812 328.152008056641 260.885040283203 208.896987915039 208.546691894531 237.040237426758 278.473266601562 308.642517089844 318.115295410156 331.232696533203 336.841339111328 326.061370849609 309.348297119141 291.979309082031 278.293518066406 269.316711425781 262.244049072266 258.85498046875 256.238525390625 251.198822021484 243.687210083008 237.645706176758 231.596145629883 224.490829467773 214.881378173828 202.480407714844 185.826629638672 173.517028808594 174.224075317383 191.448852539062 217.599487304688 250.23649597168 282.125701904297 303.104370117188 318.134704589844 323.694885253906 310.955230712891 273.69140625 232.730056762695 187.772125244141 163.226211547852 157.897338867188 154.292282104492 153.610092163086 155.836486816406 155.979385375977 152.959899902344 149.760971069336
-9999 -9999 -9999 -9999 -9999 -9999 -9999 -9999 -9999 -9999 -9999 -9999 -9999 -9999 923.257052951389 -9999 -9999 -9999 -9999 570.076354980469 -9999 378.607879638672 322.912384033203 267.592590332031 228.540969848633 220.625045776367 242.254516601562 272.861602783203 307.018035888672 339.023590087891 355.511627197266 348.788024902344 321.219055175781 290.975219726562 270.064483642578 255.242858886719 244.005905151367 237.720184326172 235.607131958008 234.905685424805 235.237167358398 237.727294921875 243.625961303711 254.700622558594 259.998046875 257.715484619141 252.253021240234 246.122360229492 231.315811157227 208.81477355957 194.045944213867 199.431243896484 226.460479736328 261.998870849609 292.379516601562 310.860046386719 322.643737792969 328.53759765625 324.976593017578 288.564758300781 241.791244506836 194.085662841797 158.902465820312 147.353454589844 145.297958374023 143.507186889648 142.841262817383 143.418838500977 145.000213623047 148.583633422852
-9999 -9999 -9999 -9999 -9999 -9999 -9999 -9999 -9999 -9999 -9999 -9999 -9999 -9999 918.320190429688 -9999 -9999 -9999 -9999 532.977752685547 432.045184326172 371.239196777344 274.856781005859 229.375030517578 223.009201049805 237.040817260742 260.073883056641 289.981536865234 328.453460693359 348.540985107422 332.160461425781 296.629516601562 260.445617675781 236.069580078125 224.555404663086 219.560775756836 217.184478759766 217.488876342773 219.648147583008 222.606414794922 237.071853637695 268.549865722656 302.903472900391 322.298492431641 320.939758300781 312.016510009766 300.129669189453 287.458251953125 279.250823974609 259.369293212891 224.292358398438 209.850006103516 236.271606445312 272.932312011719 297.41455078125 311.357604980469 320.407379150391 327.684448242188 333.183807373047 308.690368652344 261.503967285156 214.292190551758 166.097869873047 140.267486572266 137.531356811523 135.46533203125 135.183181762695 140.675842285156 150.857727050781 164.756195068359
-9999 -9999 -9999 -9999 -9999 -9999 -9999 -9999 -9999 -9999 -9999 -9999 -9999 -9999 940.536071777344 -9999 -9999 -9999 -9999 -9999 353.299057006836 344.42333984375 241.070663452148 221.074783325195 232.776458740234 252.465484619141 276.151550292969 308.665802001953 325.367889404297 308.685272216797 279.044525146484 255.906600952148 241.497161865234 231.322357177734 225.005493164062 223.261215209961 225.612319946289 230.643646240234 241.662658691406 262.556701660156 292.775115966797 322.380065917969 341.854064941406 347.844543457031 343.176849365234 330.954559326172 320.855438232422 312.055603027344 306.65625 295.764923095703 252.464813232422 219.958450317383 234.372146606445 265.060668945312 288.034027099609 299.459136962891 306.722534179688 317.134948730469 329.869201660156 323.781036376953 286.864227294922 239.047225952148 183.57551574707 145.214248657227 136.996765136719 140.254348754883 148.642929077148 154.108993530273 154.043960571289 165.695297241211
-9999 -9999 -9999 -9999 -9999 -9999 -9999 -9999 -9999 -9999 -9999 -9999 -9999 -9999 870.638000488281 -9999 851.672546386719 -9999 -9999 -9999 378.440155029297 319.093536376953 227.525588989258 219.720275878906 242.615921020508 275.647033691406 299.836853027344 303.288452148438 288.588104248047 273.708099365234 264.280975341797 260.336944580078 258.764892578125 257.352844238281 256.215454101562 256.905059814453 261.031890869141 269.593414306641 285.560668945312 308.125549316406 325.827728271484 330.419616699219 332.994720458984 340.381286621094 342.531463623047 332.227874755859 318.122802734375 305.379791259766 300.725128173828 308.455902099609 289.733184814453 245.097717285156 234.332077026367 256.260711669922 273.556915283203 279.022216796875 283.162628173828 295.421508789062 316.281188964844 325.754608154297 303.682586669922 255.470184326172 203.548187255859 168.566162109375 143.963928222656 151.083267211914 170.633453369141 166.9404296875 150.585067749023 159.466369628906
-9999 -9999 -9999 -9999 -9999 -9999 -9999 -9999 -9999 -9999 -9999 -9999 -9999 -9999 870.638000488281 800.739929199219 640.454650878906 -9999 -9999 332.80689239502 357.559417724609 278.966339111328 219.643768310547 224.098648071289 251.492721557617 272.448760986328 277.893005371094 275.262268066406 270.247528076172 270.049285888672 267.682830810547 266.573547363281 267.640716552734 269.179595947266 269.905181884766 270.648773193359 273.425964355469 279.2705078125 286.841430664062 294.690124511719 301.687896728516 309.370574951172 325.3134765625 346.777374267578 353.134979248047 342.735046386719 320.687408447266 300.413146972656 289.502227783203 291.735382080078 305.82080078125 276.687530517578 237.199188232422 243.253311157227 258.514099121094 260.682098388672 258.931427001953 273.503112792969 301.477325439453 321.241912841797 309.075408935547 262.903930664062 219.126770019531 200.122817993164 161.143371582031 158.788864135742 189.976379394531 200.646072387695 194.183532714844 195.285079956055
-9999 -9999 -9999 -9999 -9999 -9999 -9999 -9999 -9999 -9999 -9999 -9999 -9999 -9999 -9999 556.044604492188 495.893615722656 -9999 345.908187866211 305.63720703125 289.590789794922 233.459014892578 218.723709106445 242.233627319336 260.521850585938 258.451416015625 258.593658447266 266.153656005859 268.423583984375 266.650329589844 264.350311279297 264.303009033203 265.456665039062 266.002960205078 266.889678955078 274.771423339844 281.650817871094 279.939971923828 278.071472167969 282.023651123047 296.016967773438 315.126098632812 337.855041503906 357.146636962891 358.4267578125 343.515533447266 317.181884765625 292.182373046875 276.684448242188 270.010345458984 289.199737548828 309.030517578125 288.423614501953 264.468627929688 254.380279541016 250.890121459961 253.362594604492 271.718475341797 301.263671875 321.297729492188 308.413482666016 266.297149658203 228.709548950195 219.007598876953 187.557144165039 175.066070556641 210.555160522461 226.677490234375 217.910842895508 208.016311645508
-9999 -9999 -9999 -9999 -9999 -9999 -9999 -9999 -9999 -9999 -9999 -9999 -9999 -9999 -9999 421.561126708984 421.573699951172 -9999 269.335174560547 266.416229248047 234.254440307617 217.551162719727 240.544219970703 268.855682373047 265.323577880859 253.95979309082 261.106140136719 265.523834228516 262.680328369141 258.597534179688 261.427185058594 272.500946044922 281.852203369141 288.690887451172 292.550537109375 302.478179931641 315.719024658203 321.731689453125 326.411010742188 332.366882324219 340.466552734375 351.756683349609 358.838928222656 354.407806396484 339.283721923828 316.988372802734 290.259521484375 269.916778564453 264.059478759766 264.662963867188 265.33984375 289.8291015625 312.009735107422 308.460174560547 297.023132324219 284.463653564453 287.975799560547 297.244201660156 321.366302490234 324.253021240234 293.829681396484 259.986450195312 224.346878051758 216.748428344727 206.212646484375 194.340286254883 219.138381958008 209.334045410156 172.81428527832 165.801452636719
-9999 -9999 -9999 -9999 -9999 -9999 -9999 -9999 -9999 -9999 -9999 -9999 -9999 -9999 -9999 388.422637939453 -9999 322.948830740792 270.769348144531 238.468170166016 220.056945800781 229.659133911133 259.802276611328 271.808013916016 259.732269287109 255.03776550293 258.997955322266 261.187438964844 267.776214599609 278.13134765625 300.491333007812 329.096008300781 346.619049072266 356.697143554688 365.398559570312 371.709045410156 372.727325439453 367.577239990234 360.879760742188 354.518768310547 344.895690917969 336.008514404297 322.674835205078 305.652496337891 286.433288574219 266.238311767578 249.711303710938 246.780197143555 254.346389770508 254.365936279297 252.686904907227 263.067443847656 287.253936767578 304.144744873047 319.298309326172 311.955688476562 303.828125 297.791290283203 305.015808105469 278.807800292969 252.356781005859 248.319686889648 220.083526611328 211.725143432617 210.982864379883 203.332794189453 217.779251098633 189.451110839844 136.659942626953 131.874969482422
-9999 -9999 -9999 -9999 -9999 -9999 -9999 -9999 -9999 -9999 -9999 -9999 -9999 -9999 388.422637939453 364.107940673828 337.328979492188 327.873291015625 267.189117431641 229.168930053711 224.85334777832 247.630386352539 267.732788085938 269.015502929688 262.391052246094 266.855560302734 283.752655029297 309.071197509766 330.490325927734 352.011444091797 376.912353515625 400.378875732422 411.689392089844 402.047607421875 380.796783447266 360.718109130859 347.039642333984 336.306549072266 324.419830322266 314.127227783203 301.634552001953 287.793151855469 272.026306152344 257.257080078125 245.148345947266 237.858825683594 230.940536499023 237.720855712891 247.658416748047 248.927963256836 253.622909545898 263.397308349609 282.528198242188 296.347381591797 312.327545166016 311.49267578125 299.216796875 289.126129150391 285.220153808594 279.197875976562 268.774871826172 261.172027587891 224.790054321289 213.799880981445 209.442184448242 202.671081542969 210.506683349609 182.807022094727 130.629272460938 129.38671875
-9999 -9999 -9999 -9999 -9999 -9999 -9999 -9999 -9999 -9999 -9999 -9999 -9999 -9999 -9999 -9999 334.024566650391 333.748901367188 249.344787597656 222.355895996094 232.379348754883 260.135559082031 271.922546386719 285.257904052734 294.696960449219 310.684967041016 347.261627197266 376.362152099609 395.37890625 403.790618896484 408.820251464844 403.667053222656 384.119873046875 359.517120361328 338.997100830078 322.069396972656 310.838104248047 300.466766357422 286.575622558594 274.135040283203 265.953399658203 260.096954345703 256.822845458984 255.007553100586 259.183380126953 256.976409912109 243.595840454102 256.271484375 270.968933105469 274.673980712891 277.454650878906 273.376495361328 276.867126464844 280.49267578125 288.559234619141 293.230102539062 288.604888916016 281.012268066406 268.749969482422 259.220397949219 237.122131347656 227.379516601562 206.391006469727 210.450012207031 208.333892822266 199.000823974609 198.836135864258 180.219604492188 138.060256958008 141.873397827148
-9999 -9999 -9999 -9999 -9999 -9999 -9999 -9999 -9999 -9999 -9999 -9999 -9999 -9999 -9999 -9999 335.447998046875 337.147094726562 251.981353759766 221.896102905273 236.138854980469 266.464965820312 302.303741455078 334.064361572266 350.985992431641 373.270446777344 400.419311523438 415.238952636719 418.965270996094 406.492248535156 385.792388916016 364.326782226562 344.625335693359 328.506561279297 315.567443847656 303.425994873047 289.773620605469 278.008270263672 271.336791992188 267.936553955078 267.615325927734 266.376281738281 270.392364501953 277.68017578125 285.192047119141 274.925537109375 268.406829833984 290.713684082031 305.137878417969 276.839385986328 249.040954589844 223.817291259766 233.347473144531 257.515472412109 270.822906494141 274.543914794922 267.576293945312 247.145248413086 212.631942749023 180.029769897461 158.910919189453 169.61848449707 181.086090087891 202.706146240234 209.140609741211 196.483688354492 189.488983154297 176.095611572266 155.85107421875 154.7724609375
-9999 -9999 -9999 -9999 -9999 -9999 -9999 -9999 -9999 -9999 -9999 -9999 -9999 -9999 -9999 -9999 -9999 298.371536254883 289.589904785156 234.765747070312 246.778900146484 283.821502685547 340.926116943359 383.726959228516 404.903350830078 427.470581054688 439.991912841797 435.090179443359 411.557434082031 383.275817871094 359.433441162109 340.745849609375 327.896148681641 320.858245849609 308.8076171875 292.051025390625 284.16064453125 281.195434570312 277.428802490234 276.762420654297 277.460479736328 269.822479248047 265.479095458984 281.374267578125 301.397277832031 288.279754638672 301.533325195312 334.191619873047 335.498352050781 278.566101074219 246.460266113281 214.057800292969 221.295700073242 230.368621826172 233.528381347656 216.142272949219 184.299179077148 156.43586730957 139.03190612793 131.154647827148 126.193130493164 147.049942016602 169.039321899414 193.867782592773 211.212173461914 199.432083129883 188.334564208984 179.331405639648 175.643661499023 170.506851196289
-9999 -9999 -9999 -9999 -9999 -9999 -9999 -9999 -9999 -9999 -9999 -9999 -9999 -9999 336.722320556641 337.147094726562 313.116317749023 302.178848266602 314.767791748047 265.011016845703 266.416015625 303.584320068359 371.498382568359 432.890838623047 452.214721679688 455.681427001953 441.195861816406 414.404144287109 388.254791259766 363.654388427734 344.084075927734 327.621978759766 314.680755615234 301.169006347656 286.601318359375 280.590789794922 283.142944335938 283.398559570312 283.474884033203 285.937744140625 281.878540039062 263.460266113281 258.294586181641 287.303466796875 306.538269042969 296.532653808594 328.930603027344 335.910614013672 274.014221191406 220.99983215332 224.932662963867 219.238342285156 225.457916259766 210.976547241211 183.994476318359 155.633697509766 132.561447143555 121.816925048828 120.021926879883 123.174308776855 126.787132263184 146.262191772461 164.682434082031 184.895370483398 216.670593261719 209.097930908203 196.376983642578 187.273635864258 186.995269775391 179.462738037109
-9999 -9999 -9999 -9999 -9999 -9999 -9999 -9999 -9999 -9999 -9999 -9999 -9999 -9999 -9999 -9999 -9999 -9999 284.672462463379 275.288513183594 275.620422363281 314.956268310547 409.805541992188 461.098724365234 452.863647460938 430.321746826172 404.384185791016 386.756988525391 366.813568115234 340.662231445312 318.835296630859 301.232757568359 286.32666015625 273.386688232422 274.222534179688 281.396575927734 282.176910400391 286.551483154297 277.279846191406 257.049468994141 252.672912597656 256.985809326172 272.766204833984 301.826293945312 309.753875732422 317.125061035156 330.702239990234 276.006896972656 215.281311035156 193.460540771484 197.337814331055 194.374694824219 185.109619140625 176.947937011719 178.78938293457 163.332946777344 134.6826171875 127.131896972656 127.258003234863 128.597366333008 132.012985229492 148.184371948242 165.000610351562 183.112518310547 223.158874511719 219.128494262695 210.532012939453 196.856750488281 192.337326049805 180.657699584961
-9999 -9999 -9999 -9999 -9999 -9999 -9999 -9999 -9999 -9999 -9999 -9999 -9999 -9999 -9999 -9999 -9999 253.554641723633 279.004055023193 283.622528076172 294.801635742188 357.655395507812 444.652069091797 449.741882324219 428.796569824219 406.704345703125 389.278778076172 376.448364257812 354.785400390625 324.383453369141 298.251953125 282.974731445312 273.062957763672 266.061065673828 270.525482177734 279.597045898438 287.869445800781 275.584442138672 235.76838684082 211.421936035156 234.994750976562 268.1337890625 293.559600830078 313.668975830078 319.002105712891 323.607849121094 278.976593017578 229.8642578125 212.654388427734 213.914993286133 215.591491699219 222.008224487305 214.311737060547 192.052230834961 193.76057434082 179.133712768555 148.169662475586 134.345947265625 133.90055847168 138.287796020508 138.821548461914 152.15104675293 162.652069091797 178.693176269531 224.493743896484 221.856719970703 219.35173034668 202.516540527344 196.774978637695 181.160430908203
-9999 -9999 -9999 -9999 -9999 -9999 -9999 -9999 -9999 -9999 -9999 -9999 -9999 236.268951416016 235.902642144097 -9999 243.752220153809 255.27587890625 253.554641723633 303.550537109375 325.234588623047 428.131896972656 459.120758056641 423.330718994141 400.880432128906 390.732788085938 382.364318847656 371.633087158203 343.150329589844 307.543090820312 283.997528076172 273.458618164062 267.128021240234 276.732879638672 289.959899902344 293.555328369141 291.879699707031 249.225448608398 205.13591003418 211.218139648438 249.887878417969 282.067596435547 302.244750976562 315.961303710938 322.103424072266 309.375762939453 256.929016113281 232.01335144043 227.542221069336 230.274169921875 229.054382324219 223.387512207031 228.05810546875 212.12760925293 214.494201660156 200.734909057617 175.685653686523 148.162155151367 146.288635253906 153.901443481445 159.677871704102 167.271499633789 174.493469238281 186.100708007812 224.675720214844 225.976913452148 221.089828491211 206.259231567383 198.719650268555 183.157287597656
-9999 -9999 -9999 -9999 -9999 -9999 -9999 -9999 -9999 -9999 -9999 -9999 -9999 -9999 236.268951416016 245.302942911784 226.136032104492 261.368408203125 280.04443359375 307.250518798828 376.815704345703 436.617492675781 425.839599609375 398.38623046875 385.110473632812 374.436431884766 367.010284423828 352.505737304688 333.207733154297 309.241394042969 288.024108886719 273.560394287109 284.482269287109 299.929351806641 287.335784912109 277.004638671875 261.639953613281 228.632766723633 218.564361572266 239.030700683594 263.656524658203 280.673614501953 294.153991699219 310.545837402344 311.322387695312 278.227813720703 253.717391967773 237.081237792969 248.522384643555 258.334899902344 252.102035522461 238.277969360352 235.449020385742 231.906845092773 236.6484375 227.502197265625 196.112350463867 157.60807800293 154.641448974609 157.791137695312 163.8203125 170.274688720703 182.939544677734 197.571655273438 221.960510253906 222.138977050781 217.746398925781 208.240615844727 200.411468505859 188.073699951172
-9999 -9999 -9999 -9999 -9999 -9999 -9999 -9999 -9999 -9999 -9999 -9999 -9999 -9999 254.841300964355 236.268951416016 273.503845214844 328.392059326172 355.405914306641 406.100952148438 435.250762939453 422.534332275391 399.992950439453 397.022613525391 385.526489257812 363.798370361328 349.486846923828 341.390991210938 328.125305175781 309.514465332031 293.637390136719 286.664611816406 289.515319824219 284.324554443359 275.456298828125 268.433471679688 250.494064331055 238.431900024414 242.210891723633 256.153900146484 268.628570556641 280.060638427734 292.298187255859 305.179718017578 295.743957519531 263.610229492188 259.459869384766 257.507781982422 270.168518066406 273.667053222656 264.910491943359 256.310668945312 246.985214233398 235.90657043457 241.392166137695 251.594879150391 220.975952148438 166.304641723633 157.755935668945 159.977081298828 160.9072265625 165.224334716797 176.219482421875 188.012390136719 200.13720703125 205.504867553711 206.86296081543 199.260162353516 195.177856445312 193.281066894531
-9999 -9999 -9999 -9999 -9999 -9999 -9999 -9999 -9999 -9999 -9999 226.70866394043 247.580917358398 246.913650512695 246.187973022461 289.99462890625 371.464385986328 405.153503417969 420.48681640625 432.009124755859 420.262634277344 400.987457275391 385.745361328125 375.451049804688 362.453399658203 349.877014160156 348.011749267578 339.036499023438 317.006317138672 296.354431152344 285.279907226562 275.687683105469 268.986511230469 265.489166259766 269.07666015625 257.095672607422 245.917297363281 250.291809082031 252.965881347656 258.109710693359 269.204284667969 282.301727294922 293.160095214844 303.229461669922 289.140869140625 264.882232666016 265.814544677734 273.740264892578 279.731719970703 276.212249755859 266.309417724609 253.92219543457 242.408340454102 228.022720336914 238.624481201172 268.833801269531 241.826278686523 175.50830078125 160.22412109375 159.526626586914 162.435516357422 164.567077636719 174.792984008789 188.086578369141 197.740432739258 212.691864013672 215.059860229492 205.244155883789 197.047134399414 196.644973754883
-9999 -9999 -9999 -9999 -9999 -9999 -9999 -9999 -9999 334.875610351562 234.867889404297 215.628784179688 248.142471313477 271.922393798828 319.242034912109 399.809020996094 413.859527587891 432.480926513672 420.677337646484 413.438537597656 398.314453125 385.017395019531 370.714080810547 364.999450683594 364.814453125 364.988464355469 346.956756591797 314.997009277344 300.627899169922 289.193695068359 274.927459716797 268.415496826172 264.711181640625 261.968994140625 254.649368286133 233.785842895508 225.513122558594 235.189636230469 242.294189453125 248.858795166016 262.669525146484 276.931976318359 291.949584960938 308.686950683594 304.127960205078 284.143646240234 278.998199462891 278.572235107422 271.574005126953 264.275939941406 252.830841064453 240.543182373047 226.855911254883 210.306243896484 229.059616088867 278.11181640625 258.066925048828 186.625778198242 164.43017578125 159.906173706055 162.711227416992 164.212326049805 171.8828125 192.386337280273 204.298553466797 217.89323425293 220.770797729492 205.644546508789 196.570358276367 196.932022094727
-9999 -9999 -9999 -9999 -9999 -9999 -9999 -9999 -9999 324.145477294922 232.671630859375 246.881851196289 284.860321044922 327.996368408203 381.146881103516 408.081878662109 438.571350097656 430.55859375 411.278350830078 399.756561279297 387.61767578125 373.824249267578 367.189575195312 368.809844970703 370.769287109375 353.347351074219 323.937225341797 309.652679443359 306.081451416016 287.371948242188 262.477630615234 248.768798828125 237.139022827148 225.502731323242 213.476745605469 205.912384033203 208.955871582031 220.689666748047 236.077407836914 249.476898193359 253.474411010742 253.6337890625 265.230041503906 284.768707275391 287.464599609375 280.876861572266 271.380523681641 256.882781982422 241.669006347656 227.753692626953 219.257293701172 207.735076904297 206.308502197266 197.238021850586 217.804183959961 279.012573242188 268.696441650391 203.758010864258 173.795043945312 164.975662231445 168.58430480957 166.594512939453 172.774154663086 196.159133911133 212.359100341797 218.736343383789 219.539627075195 205.910430908203 190.839218139648 190.842071533203
-9999 -9999 -9999 -9999 -9999 282.486927032471 368.576263427734 318.536651611328 299.439483642578 243.987838745117 234.231674194336 285.405334472656 360.892181396484 413.27880859375 420.849700927734 430.121826171875 425.348602294922 404.494140625 388.928497314453 378.107696533203 368.174591064453 359.697692871094 354.505310058594 354.605834960938 347.331359863281 323.970825195312 305.636505126953 304.837524414062 305.648712158203 283.891448974609 256.065216064453 241.396026611328 229.327789306641 218.172592163086 202.964431762695 194.955825805664 199.486022949219 203.747619628906 215.836547851562 236.17658996582 255.218719482422 254.06184387207 252.459762573242 257.217956542969 257.292694091797 247.712997436523 235.24201965332 220.368377685547 208.133041381836 199.832733154297 196.261901855469 186.23454284668 194.861236572266 191.192352294922 214.146224975586 281.958129882812 270.995452880859 216.884002685547 184.401580810547 172.540832519531 173.050003051758 170.220153808594 176.875396728516 199.937072753906 219.394729614258 226.733169555664 222.465881347656 202.781356811523 193.591125488281 189.050369262695
-9999 -9999 -9999 -9999 260.621063232422 256.054992675781 244.695388793945 235.217590332031 240.427108764648 246.466415405273 278.316467285156 388.935882568359 439.964141845703 413.555908203125 406.690032958984 383.965454101562 372.906341552734 364.141754150391 356.578063964844 351.170379638672 342.920654296875 321.457183837891 321.964416503906 319.329040527344 304.001953125 295.653076171875 304.051208496094 308.784820556641 302.653503417969 278.101226806641 253.956329345703 240.915817260742 229.568878173828 216.052764892578 202.647827148438 196.752380371094 199.480331420898 204.774826049805 218.678436279297 233.925369262695 245.585250854492 248.533294677734 247.854827880859 241.533081054688 235.582870483398 220.924911499023 216.333770751953 206.612319946289 183.995269775391 162.421447753906 158.04948425293 165.631271362305 183.593948364258 191.663238525391 214.918060302734 280.468475341797 271.255554199219 226.935974121094 195.895233154297 181.86116027832 177.575134277344 176.230102539062 187.580322265625 203.969055175781 225.573654174805 233.761428833008 231.819274902344 217.703201293945 201.023010253906 194.436141967773
-9999 -9999 -9999 233.357154846191 236.415557861328 214.96012878418 252.663635253906 302.285430908203 322.278564453125 343.639373779297 387.328369140625 414.455413818359 413.784332275391 385.165954589844 362.884948730469 359.910949707031 360.948425292969 350.123870849609 345.467041015625 343.524230957031 316.116638183594 303.988464355469 285.855316162109 268.728515625 262.303375244141 283.421997070312 298.770080566406 310.772613525391 310.338714599609 282.251525878906 256.373504638672 245.18928527832 231.175933837891 220.744659423828 211.658081054688 203.346389770508 207.489242553711 217.111465454102 231.911071777344 245.86962890625 251.107284545898 246.180969238281 231.280563354492 222.336151123047 217.532135009766 215.900894165039 204.198059082031 178.786041259766 160.259338378906 149.497360229492 149.163467407227 157.70817565918 175.589385986328 192.125793457031 217.468154907227 277.460906982422 268.335845947266 232.339492797852 205.448791503906 190.840148925781 184.608917236328 194.076141357422 201.167999267578 209.97998046875 238.503555297852 249.908477783203 240.990707397461 233.457107543945 219.778091430664 209.706726074219
-9999 -9999 -9999 226.907623291016 209.484375 254.295761108398 404.524230957031 494.081726074219 490.833587646484 458.088287353516 415.864654541016 405.612243652344 379.801422119141 367.607788085938 354.922760009766 348.449371337891 334.652313232422 328.565643310547 319.703918457031 297.663421630859 284.688995361328 269.321075439453 243.606491088867 233.269592285156 247.682388305664 269.169616699219 290.623321533203 304.67333984375 316.941131591797 296.584686279297 264.396209716797 250.238159179688 240.580627441406 229.429672241211 223.050888061523 218.683670043945 230.365081787109 251.894485473633 259.85888671875 257.468383789062 258.796661376953 255.871124267578 233.462036132812 218.190093994141 209.132629394531 197.042343139648 192.184783935547 183.126358032227 165.353607177734 150.816421508789 150.869689941406 163.646942138672 180.153793334961 191.765014648438 216.796417236328 270.578186035156 258.199981689453 227.575805664062 210.758209228516 202.798156738281 205.710098266602 215.2060546875 213.840942382812 217.601577758789 254.349197387695 263.618438720703 248.724945068359 241.820877075195 229.090835571289 222.217956542969
