NCOLS 70 
NROWS 52 
XLLCORNER -80 
YLLCORNER 33 
CELLSIZE 0.25 
NODATA_value -9999 
-9999.000000000000000 -9999 -9999 -9999 -9999 -9999 -9999 -9999 -9999 -9999 -9999 -9999 -9999 -9999 -9999 -9999 -9999 -9999 -9999 -9999 -9999 -9999 -9999 -9999 -9999 -9999 -9999 -9999 -9999 -9999 -9999 -9999 -9999 -9999 -9999 -9999 -9999 -9999 -9999 -9999 -9999 -9999 -9999 -9999 -9999 -9999 -9999 -9999 -9999 -9999 -9999 -9999 -9999 -9999 -9999 -9999 -9999 -9999 -9999 -9999 -9999 -9999 -9999 -9999 -9999 -9999 -9999 -9999 -9999 -9999
-9999 -9999 -9999 -9999 -9999 -9999 -9999 -9999 -9999 -9999 -9999 -9999 -9999 -9999 -9999 -9999 -9999 -9999 -9999 -9999 -9999 -9999 -9999 -9999 -9999 -9999 -9999 -9999 -9999 -9999 -9999 -9999 -9999 -9999 -9999 -9999 -9999 -9999 -9999 -9999 -9999 -9999 -9999 -9999 -9999 -9999 -9999 -9999 -9999 -9999 -9999 -9999 -9999 -9999 -9999 -9999 -9999 -9999 -9999 -9999 -9999 -9999 -9999 -9999 -9999 -9999 -9999 -9999 -9999 -9999
-9999 -9999 -9999 -9999 -9999 -9999 -9999 -9999 -9999 -9999 -9999 -9999 -9999 -9999 -9999 -9999 -9999 -9999 -9999 -9999 -9999 -9999 -9999 -9999 -9999 -9999 -9999 -9999 -9999 -9999 -9999 -9999 -9999 -9999 -9999 -9999 -9999 -9999 -9999 -9999 -9999 -9999 -9999 -9999 -9999 -9999 -9999 -9999 -9999 -9999 -9999 -9999 -9999 -9999 -9999 -9999 -9999 -9999 -9999 366.717651367188 -9999 -9999 -9999 -9999 -9999 -9999 -9999 -9999 -9999 -9999
-9999 -9999 -9999 -9999 -9999 -9999 -9999 -9999 -9999 -9999 -9999 -9999 -9999 -9999 -9999 -9999 -9999 -9999 -9999 -9999 -9999 -9999 -9999 -9999 -9999 -9999 -9999 -9999 -9999 -9999 -9999 -9999 -9999 -9999 -9999 -9999 -9999 -9999 -9999 -9999 -9999 -9999 -9999 -9999 -9999 -9999 -9999 -9999 -9999 -9999 -9999 -9999 -9999 -9999 -9999 375.880401611328 332.688537597656 304.492340087891 325.438751220703 364.001525878906 -9999 -9999 -9999 -9999 -9999 -9999 -9999 -9999 -9999 -9999
-9999 -9999 -9999 -9999 -9999 -9999 -9999 -9999 -9999 -9999 -9999 -9999 -9999 -9999 -9999 -9999 -9999 -9999 -9999 -9999 -9999 -9999 -9999 -9999 -9999 -9999 -9999 -9999 -9999 -9999 -9999 -9999 -9999 -9999 -9999 -9999 -9999 -9999 -9999 -9999 -9999 -9999 -9999 -9999 -9999 -9999 -9999 -9999 -9999 -9999 -9999 -9999 388.062469482422 374.747009277344 374.970672607422 355.909088134766 307.6474609375 261.242401123047 -9999 -9999 -9999 -9999 -9999 -9999 -9999 -9999 -9999 -9999 -9999 -9999
-9999 -9999 -9999 -9999 -9999 -9999 -9999 -9999 -9999 -9999 -9999 -9999 -9999 -9999 -9999 -9999 -9999 -9999 -9999 -9999 -9999 -9999 -9999 -9999 -9999 -9999 -9999 -9999 -9999 -9999 -9999 -9999 -9999 -9999 -9999 -9999 -9999 -9999 -9999 -9999 -9999 -9999 -9999 -9999 -9999 -9999 -9999 -9999 -9999 -9999 356.914300537109 374.374389648438 338.249542236328 266.651733398438 248.529937744141 262.521911621094 -9999 -9999 -9999 -9999 -9999 -9999 -9999 -9999 -9999 -9999 -9999 240.562367757161 230.488342285156 248.203201293945
-9999 -9999 -9999 -9999 -9999 -9999 -9999 -9999 -9999 -9999 -9999 -9999 -9999 -9999 -9999 -9999 -9999 -9999 -9999 -9999 -9999 -9999 -9999 -9999 -9999 -9999 -9999 -9999 -9999 -9999 -9999 -9999 -9999 -9999 -9999 -9999 -9999 -9999 -9999 -9999 -9999 -9999 -9999 -9999 361.51894124349 -9999 -9999 333.934707641602 342.209136962891 336.848388671875 333.620849609375 332.620422363281 280.315368652344 229.936447143555 213.53092956543 -9999 -9999 -9999 -9999 -9999 -9999 -9999 -9999 284.459350585938 281.492034912109 267.026763916016 257.676025390625 240.611267089844 223.399810791016 209.73908996582
-9999 -9999 -9999 -9999 -9999 -9999 -9999 -9999 -9999 -9999 -9999 -9999 -9999 -9999 -9999 -9999 -9999 -9999 -9999 -9999 -9999 -9999 -9999 -9999 -9999 -9999 -9999 -9999 -9999 -9999 -9999 -9999 -9999 -9999 -9999 -9999 -9999 -9999 -9999 -9999 -9999 -9999 -9999 -9999 356.427673339844 379.249176025391 367.669250488281 326.348937988281 299.511505126953 287.913604736328 274.967102050781 259.349639892578 243.22444152832 223.733871459961 219.15788269043 -9999 -9999 -9999 -9999 -9999 -9999 -9999 263.1083984375 262.776000976562 256.580932617188 241.138778686523 220.628646850586 202.111831665039 192.105072021484 185.741821289062
-9999 -9999 -9999 -9999 -9999 -9999 -9999 -9999 -9999 -9999 -9999 -9999 -9999 -9999 -9999 -9999 -9999 -9999 -9999 -9999 -9999 -9999 -9999 -9999 -9999 -9999 -9999 -9999 -9999 -9999 -9999 -9999 -9999 -9999 -9999 -9999 -9999 -9999 -9999 -9999 413.945292154948 400.13628133138 377.328363037109 393.502593994141 357.002868652344 319.752288818359 294.980895996094 261.764068603516 220.569091796875 194.821807861328 191.55696105957 197.658508300781 206.317794799805 209.430282592773 214.749835205078 -9999 -9999 -9999 -9999 -9999 264.607213338216 268.211242675781 256.067565917969 237.887710571289 216.993026733398 194.863510131836 175.039688110352 161.044799804688 154.306274414062 156.709747314453
-9999 -9999 -9999 -9999 -9999 -9999 -9999 -9999 -9999 -9999 -9999 -9999 -9999 -9999 -9999 -9999 -9999 -9999 -9999 -9999 -9999 -9999 -9999 -9999 -9999 -9999 -9999 -9999 -9999 -9999 -9999 -9999 -9999 -9999 -9999 -9999 -9999 -9999 -9999 423.125579833984 417.0869140625 401.623382568359 381.698547363281 360.937316894531 335.446929931641 297.689849853516 248.464385986328 191.015609741211 138.933044433594 114.529350280762 119.620491027832 140.438034057617 167.009094238281 193.590408325195 232.540313720703 214.454299926758 -9999 -9999 -9999 239.211772918701 272.3349609375 253.275436401367 232.749313354492 215.841552734375 201.979721069336 185.048095703125 163.622909545898 141.26530456543 124.910690307617 122.494201660156
-9999 -9999 -9999 -9999 -9999 -9999 -9999 -9999 -9999 -9999 -9999 -9999 -9999 -9999 -9999 -9999 -9999 -9999 -9999 -9999 -9999 -9999 -9999 -9999 -9999 -9999 -9999 -9999 -9999 -9999 -9999 -9999 -9999 -9999 -9999 -9999 -9999 -9999 334.249761962891 354.960632324219 357.703765869141 326.427764892578 277.617767333984 247.77604675293 228.504028320312 193.552627563477 150.442962646484 113.403633117676 88.5257720947266 80.4856491088867 91.2629852294922 113.879745483398 142.639205932617 180.344940185547 224.022155761719 230.753051757812 197.418472290039 212.378890991211 240.050720214844 227.004257202148 217.457153320312 203.599731445312 195.83203125 192.377746582031 189.396423339844 181.542877197266 164.505935668945 136.869140625 110.360549926758 103.625038146973
-9999 -9999 -9999 -9999 -9999 -9999 -9999 -9999 -9999 -9999 -9999 -9999 -9999 -9999 -9999 -9999 -9999 -9999 -9999 -9999 -9999 -9999 -9999 -9999 -9999 -9999 -9999 -9999 -9999 -9999 -9999 -9999 -9999 -9999 -9999 -9999 -9999 320.132904052734 298.705078125 274.324615478516 251.503112792969 217.040863037109 181.098236083984 162.20654296875 152.036087036133 132.888305664062 109.140197753906 90.1733627319336 76.9039840698242 73.9577789306641 86.8298416137695 111.41251373291 137.938232421875 170.523498535156 203.931793212891 212.574127197266 211.884796142578 213.794448852539 213.640090942383 193.67756652832 174.694122314453 165.994735717773 164.057632446289 169.398895263672 174.570297241211 171.772079467773 155.680908203125 125.761161804199 98.3153762817383 93.0119094848633
-9999 -9999 -9999 -9999 -9999 -9999 -9999 -9999 -9999 -9999 -9999 -9999 -9999 -9999 -9999 -9999 -9999 -9999 -9999 -9999 -9999 -9999 -9999 -9999 -9999 -9999 -9999 -9999 -9999 -9999 -9999 -9999 -9999 -9999 -9999 -9999 -9999 314.914245605469 275.314880371094 218.951904296875 189.477127075195 170.691055297852 151.650421142578 136.571792602539 124.776527404785 110.414764404297 95.6242523193359 85.3813323974609 80.2556228637695 80.5990829467773 90.4989242553711 113.097450256348 138.766510009766 165.938995361328 190.295623779297 196.136596679688 193.028274536133 191.242263793945 190.483856201172 174.627334594727 156.321792602539 144.284805297852 140.318435668945 145.999176025391 152.546142578125 152.192260742188 136.585052490234 111.993896484375 94.9678802490234 90.1409759521484
-9999 -9999 -9999 -9999 -9999 -9999 -9999 -9999 -9999 -9999 -9999 -9999 -9999 -9999 -9999 -9999 -9999 -9999 -9999 -9999 -9999 -9999 -9999 -9999 -9999 -9999 -9999 -9999 -9999 -9999 -9999 -9999 -9999 -9999 -9999 -9999 -9999 307.256286621094 211.63069152832 165.57275390625 156.102172851562 144.375366210938 132.13932800293 120.703994750977 108.599792480469 96.7707672119141 88.8429336547852 87.3515625 89.6660690307617 93.3930969238281 101.832946777344 120.495750427246 144.684814453125 168.028747558594 177.998977661133 174.301559448242 168.798110961914 166.873229980469 167.693084716797 161.145751953125 145.711898803711 132.267578125 125.476745605469 125.560981750488 129.407531738281 130.344009399414 121.074729919434 109.669410705566 102.887565612793 97.4795913696289
-9999 -9999 -9999 -9999 -9999 -9999 -9999 -9999 -9999 -9999 -9999 -9999 -9999 -9999 -9999 -9999 -9999 -9999 -9999 -9999 -9999 -9999 -9999 -9999 -9999 -9999 -9999 -9999 -9999 -9999 -9999 -9999 -9999 -9999 -9999 -9999 513.516662597656 332.044891357422 173.925689697266 141.491348266602 142.773391723633 134.216079711914 122.323249816895 112.106086730957 102.155548095703 92.9355697631836 87.0062255859375 86.2197952270508 89.5870056152344 95.3059158325195 105.443023681641 121.760955810547 142.303604125977 161.254837036133 167.31282043457 157.722778320312 149.721115112305 147.956420898438 149.805252075195 149.688018798828 138.613540649414 127.046043395996 117.909759521484 113.628204345703 112.71501159668 112.504920959473 112.001983642578 113.043510437012 111.395042419434 106.38134765625
-9999 -9999 -9999 -9999 -9999 -9999 -9999 -9999 -9999 -9999 -9999 -9999 -9999 -9999 -9999 -9999 -9999 -9999 -9999 -9999 -9999 -9999 -9999 -9999 -9999 -9999 -9999 -9999 -9999 -9999 -9999 -9999 -9999 -9999 -9999 -9999 -9999 286.874389648438 220.116226196289 154.630584716797 143.012969970703 133.560302734375 120.970626831055 111.506019592285 102.647132873535 92.5209503173828 83.7268829345703 80.2013702392578 84.1167449951172 93.1036376953125 97.9568481445312 106.75089263916 120.973007202148 139.498672485352 155.689758300781 152.157089233398 141.158889770508 140.428833007812 146.692184448242 148.211273193359 138.978515625 126.28295135498 115.523696899414 111.471481323242 110.889106750488 112.87084197998 120.39559173584 128.995758056641 122.745468139648 112.881637573242
-9999 -9999 -9999 -9999 -9999 -9999 -9999 -9999 -9999 -9999 -9999 -9999 -9999 -9999 -9999 -9999 -9999 -9999 -9999 -9999 -9999 -9999 -9999 -9999 -9999 -9999 -9999 -9999 -9999 -9999 -9999 -9999 -9999 -9999 -9999 -9999 -9999 -9999 273.866516113281 -9999 145.437210083008 127.624732971191 117.024635314941 110.754096984863 102.893058776855 91.9248275756836 84.9668655395508 84.8355102539062 91.5414199829102 101.203544616699 93.8424606323242 93.221076965332 100.330322265625 117.446784973145 142.490570068359 148.873443603516 141.103302001953 146.042358398438 176.879974365234 202.860122680664 190.028579711914 162.676055908203 141.428527832031 132.89990234375 128.449066162109 125.370895385742 130.539855957031 137.713241577148 128.261291503906 116.05493927002
-9999 -9999 -9999 -9999 -9999 -9999 -9999 -9999 -9999 -9999 -9999 -9999 -9999 -9999 -9999 -9999 -9999 -9999 -9999 -9999 -9999 -9999 -9999 -9999 -9999 -9999 -9999 -9999 -9999 -9999 -9999 -9999 -9999 -9999 -9999 -9999 -9999 -9999 -9999 -9999 128.945205688477 121.862174987793 111.990783691406 107.334678649902 100.131530761719 91.1691131591797 90.9704284667969 96.8371047973633 101.714019775391 101.229713439941 98.8169784545898 106.38680267334 115.437797546387 122.617805480957 138.948059082031 147.543670654297 146.456359863281 174.436508178711 280.600006103516 332.247039794922 311.649108886719 260.297271728516 207.706390380859 180.034103393555 162.183013916016 145.765197753906 141.925598144531 147.016174316406 143.091064453125 141.456405639648
-9999 -9999 -9999 -9999 -9999 -9999 -9999 -9999 -9999 -9999 -9999 -9999 -9999 -9999 -9999 -9999 -9999 -9999 -9999 -9999 -9999 -9999 -9999 -9999 -9999 -9999 -9999 -9999 -9999 -9999 -9999 -9999 -9999 -9999 186.463722229004 199.220245361328 178.946060180664 -9999 142.115859985352 130.485977172852 130.515396118164 127.843925476074 115.346084594727 106.366622924805 98.0734710693359 95.1633224487305 108.659301757812 128.178237915039 131.371963500977 126.519271850586 128.788162231445 138.781921386719 144.707092285156 141.719848632812 147.985092163086 160.260345458984 186.235870361328 272.576324462891 419.410491943359 404.739776611328 359.165313720703 318.578002929688 267.244079589844 231.642486572266 200.638061523438 171.252258300781 157.321960449219 163.080535888672 177.123809814453 219.96565246582
-9999 -9999 -9999 -9999 -9999 -9999 -9999 -9999 -9999 -9999 -9999 -9999 -9999 -9999 -9999 -9999 -9999 -9999 -9999 -9999 -9999 -9999 -9999 -9999 -9999 -9999 -9999 812.058410644531 812.058410644531 589.135314941406 382.721740722656 266.656280517578 227.750198364258 202.016189575195 183.18212890625 161.436325073242 138.853103637695 130.505249023438 129.720199584961 129.288665771484 132.090118408203 130.588973999023 119.888519287109 108.931167602539 102.192695617676 114.989463806152 148.812957763672 174.981002807617 178.479797363281 169.607635498047 164.688766479492 161.997085571289 159.642730712891 167.049499511719 196.409194946289 243.091583251953 302.697509765625 382.062438964844 433.557403564453 363.2998046875 305.739807128906 283.015319824219 263.505340576172 247.544311523438 231.716583251953 203.755767822266 185.615753173828 200.310806274414 266.975158691406 359.108917236328
-9999 -9999 -9999 -9999 -9999 -9999 -9999 -9999 -9999 -9999 -9999 -9999 -9999 -9999 -9999 -9999 -9999 -9999 -9999 -9999 -9999 -9999 -9999 -9999 -9999 -9999 -9999 -9999 -9999 -9999 220.502639770508 180.232345581055 151.731857299805 125.748100280762 112.637344360352 105.280235290527 102.397132873535 108.922477722168 115.812965393066 122.432441711426 129.836151123047 128.941482543945 122.727317810059 118.49520111084 129.052551269531 160.642593383789 191.669311523438 202.440841674805 199.685791015625 192.234924316406 186.482879638672 185.994277954102 195.775665283203 231.46826171875 322.711456298828 341.831420898438 345.603637695312 339.054168701172 352.122680664062 302.405151367188 285.485870361328 275.114379882812 245.288955688477 229.706527709961 235.85774230957 226.587905883789 223.846710205078 283.56005859375 395.366821289062 441.980621337891
-9999 -9999 -9999 -9999 -9999 -9999 -9999 -9999 -9999 -9999 -9999 -9999 -9999 -9999 -9999 -9999 -9999 -9999 -9999 -9999 -9999 -9999 -9999 -9999 -9999 531.420379638672 393.778722127279 263.496815999349 165.941110610962 134.665161132812 127.939613342285 127.488479614258 121.649032592773 110.511688232422 101.808517456055 100.918525695801 105.551467895508 114.088150024414 119.500282287598 122.759605407715 129.388427734375 134.253265380859 135.60871887207 143.94172668457 173.365829467773 206.881729125977 222.463012695312 220.934677124023 217.20085144043 219.571899414062 229.442657470703 246.243469238281 273.8427734375 336.604797363281 439.438934326172 355.058288574219 287.992095947266 296.018035888672 309.146087646484 305.312652587891 307.099243164062 300.333099365234 282.540710449219 268.382690429688 264.802185058594 269.893157958984 299.571929931641 385.122894287109 448.235198974609 436.972686767578
-9999 -9999 -9999 -9999 -9999 -9999 -9999 -9999 -9999 -9999 -9999 -9999 -9999 -9999 -9999 -9999 -9999 -9999 -9999 -9999 -9999 -9999 -9999 -9999 655.804321289062 550.263549804688 388.193267822266 242.879348754883 159.417831420898 126.802101135254 116.20516204834 109.508056640625 105.124977111816 103.973617553711 106.325752258301 110.365272521973 115.393241882324 121.900375366211 128.353332519531 133.546234130859 141.388381958008 150.479766845703 163.542098999023 185.732681274414 222.515182495117 264.893402099609 285.234222412109 305.782470703125 337.403350830078 357.405487060547 379.800750732422 396.762054443359 413.713653564453 461.134368896484 498.957794189453 446.800231933594 403.751647949219 406.867004394531 405.475799560547 405.524505615234 400.843383789062 386.494323730469 359.1591796875 346.688385009766 353.267913818359 369.722503662109 413.350433349609 458.613647460938 470.154724121094 477.811859130859
-9999 -9999 -9999 -9999 -9999 -9999 -9999 -9999 -9999 -9999 -9999 -9999 -9999 -9999 -9999 -9999 -9999 -9999 -9999 -9999 -9999 -9999 -9999 -9999 549.466979980469 382.073211669922 208.435897827148 143.588821411133 130.822647094727 123.778472900391 117.09260559082 120.522598266602 137.886322021484 157.806289672852 170.516860961914 177.919082641602 184.314193725586 192.371215820312 215.789489746094 244.520553588867 260.839874267578 278.236968994141 303.228393554688 322.286071777344 365.894409179688 436.810302734375 468.767517089844 511.10888671875 540.756042480469 540.71435546875 545.165405273438 546.254455566406 542.1376953125 551.794982910156 560.898315429688 558.520141601562 546.904052734375 533.771911621094 520.636535644531 494.456726074219 474.778076171875 465.751647949219 443.804290771484 442.272857666016 455.699554443359 461.743957519531 485.261383056641 508.162628173828 509.7578125 508.833679199219
-9999 -9999 -9999 -9999 -9999 -9999 -9999 -9999 -9999 -9999 -9999 -9999 -9999 -9999 -9999 -9999 -9999 -9999 -9999 -9999 -9999 -9999 -9999 407.636589050293 447.182769775391 283.946228027344 163.706497192383 139.358749389648 142.524200439453 142.060775756836 161.987442016602 215.559158325195 283.091217041016 325.318664550781 332.276611328125 342.486389160156 360.590637207031 396.683074951172 452.265167236328 475.783172607422 458.293975830078 469.244476318359 505.137329101562 522.99365234375 563.463562011719 612.228820800781 612.964721679688 605.666320800781 581.239990234375 563.592163085938 558.170471191406 558.007629394531 557.290344238281 566.682556152344 575.337219238281 582.766845703125 585.133605957031 574.822875976562 572.447448730469 538.48828125 513.296325683594 517.14111328125 523.079772949219 532.744384765625 535.22119140625 525.188415527344 513.589111328125 495.384124755859 476.493682861328 457.547912597656
-9999 -9999 -9999 -9999 -9999 -9999 -9999 -9999 -9999 -9999 -9999 -9999 -9999 -9999 -9999 -9999 -9999 -9999 -9999 -9999 -9999 -9999 -9999 328.258758544922 305.637847900391 212.128463745117 155.894149780273 156.188446044922 179.831329345703 224.421569824219 294.920623779297 362.884216308594 420.828216552734 459.675170898438 465.159545898438 473.260925292969 502.368988037109 558.700988769531 598.734130859375 562.367919921875 497.540985107422 496.606994628906 546.59228515625 585.792785644531 611.671508789062 609.080810546875 582.301940917969 560.662841796875 558.81787109375 569.327453613281 579.825866699219 580.9443359375 576.323364257812 575.124816894531 573.460144042969 569.419067382812 576.374084472656 589.408569335938 600.710144042969 589.335693359375 577.533569335938 570.86865234375 566.087219238281 563.859130859375 553.488403320312 519.856201171875 476.860321044922 428.312561035156 394.509887695312 376.93798828125
-9999 -9999 -9999 -9999 -9999 -9999 -9999 -9999 -9999 -9999 -9999 -9999 -9999 -9999 -9999 -9999 -9999 -9999 -9999 -9999 -9999 -9999 344.68798828125 258.781616210938 211.281631469727 176.924530029297 179.542144775391 227.436752319336 311.589599609375 415.797790527344 495.183654785156 512.512573242188 503.599853515625 504.793823242188 503.919097900391 515.591430664062 551.637939453125 572.750122070312 565.998352050781 540.093566894531 511.209533691406 513.246276855469 545.692993164062 570.532836914062 576.810546875 576.662353515625 584.268493652344 605.607299804688 630.310729980469 645.01513671875 654.774963378906 658.419738769531 652.207885742188 638.10302734375 615.007263183594 597.607604980469 590.620483398438 595.830627441406 609.487548828125 610.468872070312 618.78173828125 610.358764648438 596.321411132812 570.994323730469 531.936828613281 483.407012939453 450.970794677734 420.339813232422 393.458251953125 381.029449462891
-9999 -9999 -9999 -9999 -9999 -9999 -9999 -9999 -9999 -9999 -9999 -9999 -9999 -9999 1175.96357557509 -9999 -9999 -9999 -9999 1045.45043945312 -9999 621.257507324219 390.120330810547 255.410171508789 224.090637207031 242.231323242188 300.218109130859 397.665679931641 533.787048339844 630.767822265625 649.210144042969 626.48388671875 598.697570800781 576.603149414062 554.360961914062 556.077941894531 587.762268066406 589.00927734375 560.968444824219 558.529907226562 565.849060058594 569.480773925781 575.722717285156 579.724975585938 588.65478515625 601.893737792969 619.432800292969 646.225952148438 679.599792480469 709.116943359375 723.341247558594 721.311157226562 708.169677734375 690.341125488281 668.099365234375 652.611877441406 632.348693847656 616.963745117188 617.922424316406 616.343933105469 635.20947265625 637.396240234375 586.926818847656 526.178405761719 487.829742431641 493.708343505859 517.293762207031 497.705688476562 419.734436035156 344.910766601562
-9999 -9999 -9999 -9999 -9999 -9999 -9999 -9999 -9999 -9999 -9999 -9999 -9999 -9999 1168.09686279297 -9999 -9999 -9999 -9999 988.925384521484 730.318774414063 600.359497070312 357.344360351562 267.745208740234 281.418304443359 337.005249023438 426.868225097656 555.827270507812 683.84521484375 708.771789550781 662.968688964844 626.091796875 607.020141601562 598.058044433594 594.47705078125 601.592102050781 621.114807128906 630.753173828125 611.118103027344 587.162902832031 585.160827636719 594.16943359375 598.469482421875 608.813049316406 625.713989257812 635.947814941406 651.823303222656 681.110900878906 720.091735839844 743.118591308594 717.769775390625 663.449645996094 618.313781738281 600.177734375 623.032592773438 656.409912109375 653.837524414062 630.792541503906 610.881042480469 629.372009277344 664.316040039062 626.822265625 539.862609863281 497.208587646484 511.305572509766 543.648681640625 522.295715332031 447.059631347656 362.281951904297 289.093017578125
-9999 -9999 -9999 -9999 -9999 -9999 -9999 -9999 -9999 -9999 -9999 -9999 -9999 -9999 1203.4970703125 -9999 -9999 -9999 -9999 -9999 421.403160095215 452.126098632812 316.109619140625 339.406768798828 425.665069580078 516.844299316406 628.278991699219 731.153259277344 747.561279296875 666.813903808594 595.16796875 569.183288574219 557.629699707031 557.331298828125 567.203796386719 587.443359375 615.466979980469 638.494384765625 643.805969238281 633.723022460938 626.451721191406 620.327331542969 609.833740234375 627.579650878906 658.920776367188 664.301330566406 674.05126953125 709.001281738281 747.19287109375 734.654724121094 654.413452148438 559.476684570312 493.997985839844 470.319061279297 513.241821289062 593.417602539062 625.653381347656 610.795166015625 600.171630859375 641.694763183594 650.697326660156 580.950866699219 527.264770507812 526.226989746094 558.840759277344 535.069458007812 401.662384033203 307.788055419922 316.785858154297 312.944274902344
-9999 -9999 -9999 -9999 -9999 -9999 -9999 -9999 -9999 -9999 -9999 -9999 -9999 -9999 1108.44125366211 -9999 1061.89624023438 -9999 -9999 -9999 270.948364257812 362.178680419922 389.90283203125 512.002685546875 665.248229980469 754.825317382812 783.866271972656 751.778381347656 676.60595703125 594.329772949219 547.1474609375 533.070678710938 529.575012207031 532.753112792969 539.005187988281 549.441284179688 576.491333007812 614.203430175781 640.435119628906 649.38232421875 646.685668945312 635.848754882812 619.56591796875 631.425048828125 662.043212890625 663.259704589844 670.339294433594 707.306518554688 733.454040527344 695.866027832031 611.086975097656 530.317993164062 472.229888916016 439.231903076172 461.052001953125 539.360107421875 585.6298828125 587.377075195312 606.816833496094 636.713928222656 605.708618164062 554.648681640625 535.348815917969 530.265930175781 565.560913085938 549.370544433594 370.918212890625 230.31266784668 298.213195800781 361.729431152344
-9999 -9999 -9999 -9999 -9999 -9999 -9999 -9999 -9999 -9999 -9999 -9999 -9999 -9999 1108.44125366211 1013.38543701172 742.106262207031 -9999 -9999 295.715843200684 273.941314697266 398.643981933594 544.186462402344 695.528198242188 795.457824707031 787.684326171875 722.855712890625 642.141479492188 577.908752441406 548.789001464844 534.638549804688 528.871520996094 529.3564453125 534.408447265625 538.981872558594 543.45654296875 553.74951171875 578.628112792969 615.552001953125 644.230834960938 653.844421386719 653.266540527344 645.172302246094 646.200622558594 652.606201171875 645.442321777344 652.495910644531 685.346557617188 696.538879394531 654.235656738281 602.237426757812 560.702392578125 517.047973632812 478.87451171875 469.220397949219 515.400817871094 559.227905273438 582.237121582031 610.66357421875 626.2392578125 590.166381835938 552.710571289062 551.972290039062 537.752136230469 539.89794921875 553.947143554688 487.079742431641 313.865814208984 290.403564453125 386.112701416016
-9999 -9999 -9999 -9999 -9999 -9999 -9999 -9999 -9999 -9999 -9999 -9999 -9999 -9999 -9999 643.202972412109 536.056945800781 -9999 354.910980224609 277.880920410156 360.0927734375 527.598999023438 700.570739746094 799.7587890625 779.146423339844 687.769897460938 619.215759277344 572.534545898438 539.791015625 535.309997558594 534.824951171875 532.083679199219 533.7587890625 544.485961914062 560.443115234375 577.578857421875 584.496276855469 580.101623535156 592.241271972656 627.432250976562 651.3564453125 655.649475097656 654.79736328125 648.405822753906 634.416809082031 623.380065917969 626.7958984375 651.737731933594 666.281677246094 644.483276367188 616.502990722656 596.88623046875 562.628356933594 518.156188964844 478.954681396484 491.914703369141 534.518005371094 571.593566894531 588.071166992188 598.692504882812 579.397888183594 554.271545410156 563.674438476562 566.650634765625 542.877014160156 515.389831542969 533.900939941406 492.260772705078 368.384185791016 338.187744140625
-9999 -9999 -9999 -9999 -9999 -9999 -9999 -9999 -9999 -9999 -9999 -9999 -9999 -9999 -9999 477.458251953125 447.007965087891 -9999 267.085113525391 312.071014404297 453.117553710938 647.378601074219 783.012634277344 797.468078613281 705.125427246094 592.560913085938 559.276184082031 544.354797363281 535.371887207031 533.452880859375 533.697021484375 532.825256347656 543.315856933594 570.745422363281 595.069885253906 598.398681640625 594.801025390625 592.368713378906 592.108276367188 612.415466308594 644.8837890625 654.786804199219 651.502014160156 637.310424804688 615.099182128906 602.484375 599.690612792969 616.96044921875 640.147277832031 654.733093261719 653.972778320312 655.407043457031 628.241943359375 569.160034179688 490.799133300781 466.607208251953 512.361389160156 553.982482910156 558.484008789062 568.222412109375 564.200622558594 554.557067871094 565.8701171875 585.08837890625 568.493957519531 510.301361083984 505.928955078125 558.766967773438 523.517211914062 361.388641357422
-9999 -9999 -9999 -9999 -9999 -9999 -9999 -9999 -9999 -9999 -9999 -9999 -9999 -9999 -9999 448.742950439453 -9999 351.846697126116 317.732879638672 366.636260986328 548.560729980469 751.772399902344 807.598999023438 781.971008300781 688.574340820312 569.485778808594 549.651123046875 541.685485839844 538.779968261719 533.207214355469 536.3251953125 553.221862792969 572.442626953125 585.799560546875 594.587158203125 600.712951660156 596.971008300781 588.18115234375 588.348754882812 610.286437988281 644.469421386719 659.800415039062 651.03564453125 623.168762207031 593.554870605469 580.000061035156 576.27490234375 592.9111328125 619.767395019531 656.040710449219 691.969421386719 694.285400390625 615.558288574219 536.247863769531 477.942993164062 447.853973388672 488.659118652344 532.552062988281 542.14111328125 560.39501953125 563.882629394531 564.027038574219 577.315368652344 600.683532714844 586.416137695312 528.752319335938 511.081176757812 537.154541015625 630.340637207031 500.775970458984
-9999 -9999 -9999 -9999 -9999 -9999 -9999 -9999 -9999 -9999 -9999 -9999 -9999 -9999 448.742950439453 398.415954589844 352.641448974609 339.203308105469 345.392700195312 401.550628662109 583.278869628906 772.861999511719 761.8310546875 669.553955078125 603.881591796875 560.345031738281 544.624877929688 537.27392578125 533.506225585938 536.932739257812 556.677795410156 574.825012207031 593.859008789062 602.462463378906 596.479736328125 615.849365234375 629.304748535156 603.312805175781 586.537658691406 612.262268066406 643.275207519531 657.770385742188 649.125610351562 613.321472167969 577.338317871094 559.146057128906 557.154235839844 578.308837890625 608.302917480469 639.146301269531 674.171264648438 624.07275390625 516.95556640625 466.145233154297 467.872497558594 450.309051513672 469.519317626953 502.598937988281 529.005798339844 564.205078125 578.550964355469 579.949951171875 597.089172363281 612.395690917969 584.286926269531 532.359741210938 546.634887695312 549.841247558594 621.115600585938 621.467468261719
-9999 -9999 -9999 -9999 -9999 -9999 -9999 -9999 -9999 -9999 -9999 -9999 -9999 -9999 -9999 -9999 344.11515045166 345.259704589844 325.861450195312 389.906311035156 560.161560058594 736.315856933594 686.984619140625 564.946960449219 560.115173339844 558.524597167969 541.32861328125 535.693908691406 531.931945800781 551.751403808594 580.297180175781 602.399230957031 625.236389160156 627.018615722656 622.722900390625 642.15869140625 648.726318359375 620.244567871094 597.550659179688 622.227478027344 652.937622070312 656.206726074219 642.89404296875 605.064025878906 561.0810546875 538.899841308594 545.997802734375 569.321166992188 591.740295410156 608.797607421875 640.52734375 586.586547851562 493.943939208984 464.336334228516 499.055694580078 486.175048828125 469.440704345703 483.841217041016 508.930389404297 551.88916015625 586.909118652344 594.553649902344 605.566284179688 599.037902832031 543.564086914062 496.570892333984 589.274963378906 590.727355957031 567.798828125 658.061157226562
-9999 -9999 -9999 -9999 -9999 -9999 -9999 -9999 -9999 -9999 -9999 -9999 -9999 -9999 -9999 -9999 342.307922363281 339.356140136719 348.179718017578 429.640563964844 593.933166503906 705.828491210938 629.231079101562 547.4013671875 563.153930664062 551.516174316406 536.082153320312 525.708251953125 544.347229003906 590.2880859375 625.067321777344 653.695739746094 675.744567871094 675.379943847656 673.755737304688 671.895385742188 644.651672363281 617.687133789062 596.636535644531 612.788696289062 651.036560058594 652.690002441406 636.433715820312 601.797912597656 551.803344726562 534.689331054688 551.813903808594 565.450256347656 572.522705078125 578.4677734375 605.336730957031 574.793212890625 562.059326171875 554.580993652344 537.70361328125 510.275177001953 478.892395019531 472.264709472656 492.559448242188 538.556213378906 573.076904296875 583.662902832031 581.57568359375 547.420776367188 489.082977294922 526.711486816406 646.356750488281 585.760559082031 494.321075439453 645.711181640625
-9999 -9999 -9999 -9999 -9999 -9999 -9999 -9999 -9999 -9999 -9999 -9999 -9999 -9999 -9999 -9999 -9999 366.688385009766 393.049377441406 515.9365234375 675.162048339844 681.294982910156 596.201965332031 563.450012207031 555.110473632812 533.441589355469 513.982543945312 519.617126464844 583.111633300781 638.494323730469 660.696655273438 700.708251953125 726.965454101562 722.11181640625 692.898864746094 656.171508789062 620.759887695312 616.049255371094 617.312744140625 615.206298828125 624.985229492188 633.120910644531 620.933410644531 592.528198242188 554.982238769531 551.497985839844 565.809448242188 570.592895507812 566.326293945312 563.709167480469 564.609924316406 527.826477050781 523.789367675781 557.354248046875 557.722717285156 535.678955078125 518.8779296875 497.805511474609 501.213836669922 530.070129394531 560.176452636719 573.117248535156 559.648193359375 498.803436279297 488.099426269531 615.953796386719 632.206298828125 489.244262695312 482.127838134766 664.299499511719
-9999 -9999 -9999 -9999 -9999 -9999 -9999 -9999 -9999 -9999 -9999 -9999 -9999 -9999 340.094085693359 339.356140136719 370.455417633057 389.608840942383 386.168304443359 525.928771972656 700.210205078125 672.102600097656 602.502868652344 565.404907226562 537.473876953125 509.277313232422 498.6669921875 540.42138671875 618.670654296875 645.059387207031 664.095947265625 719.118225097656 747.048278808594 721.827941894531 659.151184082031 605.597045898438 589.527465820312 612.044555664062 631.039489746094 626.946228027344 635.538818359375 640.84326171875 623.416748046875 600.982238769531 585.113952636719 574.982543945312 572.982299804688 566.66357421875 562.206115722656 550.656494140625 514.816833496094 493.688812255859 485.612487792969 488.111145019531 512.589599609375 540.486755371094 575.288940429688 572.117614746094 555.907165527344 544.428833007812 540.671020507812 537.662048339844 515.924255371094 506.584442138672 574.617919921875 635.511108398438 483.694152832031 460.621826171875 553.703796386719 681.608337402344
-9999 -9999 -9999 -9999 -9999 -9999 -9999 -9999 -9999 -9999 -9999 -9999 -9999 -9999 -9999 -9999 -9999 -9999 460.405319213867 480.915771484375 638.596008300781 620.961303710938 587.364196777344 552.241577148438 514.038208007812 484.570831298828 495.849334716797 568.886596679688 643.361328125 654.565734863281 677.510681152344 741.645629882812 760.424560546875 725.83203125 677.555847167969 636.263244628906 619.3623046875 632.792907714844 655.349548339844 668.238525390625 682.098876953125 676.613464355469 645.930603027344 618.859436035156 586.694702148438 560.941223144531 549.524108886719 549.264892578125 564.060668945312 547.303161621094 488.080963134766 498.057434082031 508.826782226562 509.798889160156 537.553100585938 571.901306152344 600.176086425781 609.794250488281 581.34521484375 553.330200195312 550.659301757812 546.21240234375 535.102111816406 593.60986328125 631.012023925781 546.744018554688 461.593688964844 536.842895507812 601.810485839844 663.808349609375
-9999 -9999 -9999 -9999 -9999 -9999 -9999 -9999 -9999 -9999 -9999 -9999 -9999 -9999 -9999 -9999 -9999 331.054901123047 450.79133605957 448.608428955078 576.824401855469 585.551147460938 567.952087402344 522.988037109375 479.047454833984 464.801086425781 522.292663574219 598.583618164062 643.595581054688 694.025939941406 747.848999023438 805.524597167969 809.971740722656 766.980773925781 710.48876953125 662.444946289062 630.918823242188 631.60693359375 649.63330078125 666.885375976562 683.58984375 672.431884765625 618.088256835938 569.759094238281 548.510009765625 537.614685058594 522.50341796875 552.452575683594 582.563171386719 529.327331542969 486.265167236328 510.082397460938 543.181030273438 554.584106445312 570.339477539062 600.046264648438 607.988708496094 615.219116210938 603.866333007812 580.38623046875 572.534301757812 558.997253417969 566.670715332031 625.631469726562 626.326293945312 482.190460205078 515.884826660156 556.751037597656 586.874877929688 619.447021484375
-9999 -9999 -9999 -9999 -9999 -9999 -9999 -9999 -9999 -9999 -9999 -9999 -9999 289.013946533203 294.388034396701 -9999 308.043167114258 359.208297729492 331.054901123047 542.586242675781 578.808959960938 563.941223144531 523.858459472656 472.541046142578 439.177398681641 462.983184814453 543.626525878906 607.893310546875 671.979064941406 725.822631835938 767.082214355469 772.003967285156 712.718200683594 659.405639648438 629.485168457031 610.467895507812 601.937744140625 612.423889160156 625.231750488281 636.757568359375 629.053100585938 600.095703125 564.101379394531 542.166320800781 526.958374023438 508.610046386719 533.49072265625 610.101013183594 598.318603515625 521.01318359375 501.50244140625 533.22900390625 564.27783203125 576.654113769531 581.832641601562 591.419738769531 599.995849609375 607.677734375 609.228454589844 602.848571777344 588.296875 555.222045898438 581.165222167969 631.1943359375 628.398498535156 510.353607177734 551.465576171875 556.90087890625 569.449096679688 580.490112304688
-9999 -9999 -9999 -9999 -9999 -9999 -9999 -9999 -9999 -9999 -9999 -9999 -9999 -9999 289.013946533203 330.033213297526 264.116943359375 351.969390869141 489.691955566406 548.080383300781 564.688537597656 526.163879394531 468.460662841797 434.585968017578 448.675537109375 498.220397949219 570.586730957031 632.985717773438 679.383666992188 697.926635742188 714.10693359375 670.954956054688 597.566162109375 554.800842285156 530.507019042969 540.309020996094 564.609680175781 597.835144042969 615.201477050781 611.53955078125 593.705017089844 566.924377441406 545.157165527344 535.169799804688 530.080261230469 536.83544921875 601.548156738281 633.522216796875 549.272705078125 505.101531982422 507.869293212891 532.881958007812 554.450134277344 574.223449707031 584.68505859375 586.034362792969 589.432983398438 592.519348144531 594.051818847656 593.54736328125 585.057067871094 561.764221191406 576.958862304688 627.260559082031 641.013122558594 595.590698242188 589.59912109375 583.095764160156 582.076049804688 580.838317871094
-9999 -9999 -9999 -9999 -9999 -9999 -9999 -9999 -9999 -9999 -9999 -9999 -9999 -9999 296.101448059082 289.013946533203 436.96875 526.865356445312 533.584594726562 533.37646484375 497.021514892578 446.540466308594 421.808349609375 435.539123535156 480.355194091797 516.131286621094 574.09375 656.912475585938 644.009826660156 597.856750488281 566.397094726562 514.675231933594 495.895660400391 511.952056884766 526.880981445312 561.190979003906 578.829772949219 579.599426269531 580.717468261719 600.917724609375 624.074096679688 635.2021484375 638.411437988281 625.043273925781 620.413452148438 604.136352539062 626.421569824219 569.083190917969 516.343505859375 523.472045898438 534.146667480469 540.798461914062 545.988037109375 553.295349121094 566.687377929688 586.103698730469 603.257873535156 605.872985839844 608.429870605469 614.88427734375 613.355346679688 598.896118164062 602.092224121094 642.999572753906 642.408935546875 617.750244140625 609.231018066406 604.442199707031 596.590270996094 590.017028808594
-9999 -9999 -9999 -9999 -9999 -9999 -9999 -9999 -9999 -9999 -9999 269.573059082031 271.466583251953 280.754760742188 257.00537109375 357.631713867188 568.322570800781 557.722351074219 511.960662841797 456.29833984375 416.418365478516 402.880004882812 432.849243164062 484.3359375 528.212097167969 549.359008789062 601.590148925781 646.018310546875 592.045837402344 544.980712890625 522.925048828125 455.707153320312 432.410552978516 469.621856689453 487.103820800781 533.384155273438 560.572998046875 566.2294921875 587.764038085938 601.123596191406 612.478759765625 650.665466308594 696.151245117188 700.519287109375 654.1591796875 622.337707519531 625.230285644531 532.966125488281 522.128356933594 548.865051269531 549.7021484375 546.130920410156 547.309326171875 555.808288574219 566.406127929688 579.875671386719 607.825866699219 628.585693359375 638.520751953125 644.145874023438 654.0400390625 654.802856445312 658.150939941406 661.4736328125 646.306091308594 627.436828613281 612.672790527344 600.055603027344 590.935852050781 587.611938476562
-9999 -9999 -9999 -9999 -9999 -9999 -9999 -9999 -9999 409.154083251953 283.377777099609 261.403564453125 284.743865966797 304.536468505859 317.470672607422 456.689849853516 505.294647216797 504.752868652344 451.230834960938 394.414520263672 377.847869873047 406.479583740234 475.931732177734 520.234680175781 558.065856933594 575.554016113281 612.792236328125 628.701171875 579.9638671875 523.922424316406 490.754730224609 433.651031494141 443.531921386719 524.252258300781 558.401611328125 549.6591796875 517.256774902344 523.942932128906 560.452209472656 586.580810546875 612.666870117188 638.351196289062 695.596801757812 723.602355957031 708.918701171875 695.910888671875 654.362365722656 562.48193359375 541.729431152344 559.285705566406 555.236389160156 547.1845703125 539.926025390625 541.867858886719 553.390930175781 566.881530761719 582.291076660156 602.609558105469 624.004150390625 638.985900878906 648.168884277344 653.410522460938 651.736938476562 636.607727050781 620.162231445312 609.369689941406 603.010314941406 588.135375976562 570.376037597656 567.431579589844
-9999 -9999 -9999 -9999 -9999 -9999 -9999 -9999 -9999 380.239196777344 278.515167236328 299.060394287109 345.262451171875 392.352722167969 407.277954101562 463.742584228516 482.401519775391 427.163238525391 365.206024169922 352.197967529297 376.781890869141 463.193695068359 569.258117675781 563.649047851562 533.670043945312 565.162353515625 598.654357910156 616.065734863281 579.4248046875 529.858093261719 519.091491699219 499.533538818359 496.460998535156 565.74853515625 625.843078613281 620.153991699219 590.117858886719 564.895141601562 584.230773925781 600.247436523438 594.444152832031 623.934265136719 698.474487304688 724.19775390625 708.3173828125 709.849609375 674.423034667969 595.886413574219 558.573974609375 562.465515136719 568.059692382812 571.636047363281 561.899047851562 550.688354492188 550.965026855469 561.675109863281 576.800354003906 588.796203613281 602.705688476562 621.428466796875 634.395141601562 634.942749023438 627.137023925781 618.9462890625 623.787292480469 623.970764160156 609.115600585938 581.077880859375 549.563598632812 549.7216796875
-9999 -9999 -9999 -9999 -9999 279.411724090576 353.440948486328 334.030242919922 333.796661376953 277.057769775391 281.781677246094 352.785491943359 412.967407226562 506.172149658203 491.620483398438 476.932800292969 416.52001953125 352.449371337891 332.954895019531 371.148376464844 446.964752197266 543.167663574219 606.158935546875 595.456787109375 556.000610351562 552.861389160156 604.346740722656 645.702575683594 618.371887207031 586.084350585938 581.013671875 589.231079101562 610.975769042969 656.030334472656 673.839416503906 655.699951171875 633.677368164062 615.591796875 622.086059570312 621.569519042969 576.926696777344 583.213012695312 683.056945800781 698.861633300781 667.513854980469 670.884521484375 656.411987304688 620.153137207031 596.835388183594 587.281677246094 591.40087890625 596.529174804688 581.974060058594 558.772033691406 555.821166992188 569.469360351562 585.451782226562 598.571594238281 609.784240722656 624.813842773438 638.50439453125 640.98095703125 638.184143066406 637.787658691406 641.489807128906 644.736755371094 628.157836914062 596.420043945312 556.554077148438 553.145446777344
-9999 -9999 -9999 -9999 260.071960449219 250.610702514648 253.523284912109 268.875366210938 300.514312744141 297.487731933594 308.003356933594 402.611663818359 451.73583984375 463.1513671875 458.718688964844 399.806243896484 336.881072998047 319.230285644531 340.1240234375 412.42724609375 544.814758300781 646.798400878906 629.342346191406 586.0029296875 552.283386230469 556.146423339844 601.371032714844 659.681091308594 678.356384277344 660.1337890625 661.585754394531 690.730224609375 703.938049316406 705.756896972656 690.727478027344 672.717712402344 654.2275390625 641.318237304688 633.562622070312 614.360046386719 576.870727539062 607.941589355469 681.936340332031 641.133056640625 611.523559570312 625.633605957031 613.236389160156 598.596130371094 598.401184082031 594.531555175781 607.792236328125 609.804138183594 589.81884765625 570.471252441406 570.318359375 580.134948730469 590.948547363281 606.057312011719 623.7109375 637.661376953125 650.184387207031 655.77392578125 658.240295410156 660.254455566406 663.094848632812 660.240051269531 638.866333007812 605.183349609375 563.511169433594 567.913146972656
-9999 -9999 -9999 235.389533996582 233.51969909668 231.581207275391 299.726043701172 368.346374511719 381.974151611328 380.141021728516 399.310577392578 419.673065185547 436.995910644531 431.292022705078 385.871429443359 326.922210693359 296.972503662109 307.187957763672 360.706115722656 493.144989013672 631.094299316406 580.854797363281 535.685607910156 601.158874511719 596.810913085938 556.078674316406 582.364562988281 623.31298828125 655.176208496094 667.591247558594 676.267578125 685.624328613281 683.452819824219 673.37646484375 663.833740234375 653.9990234375 633.902893066406 620.585205078125 609.12060546875 587.259948730469 590.461791992188 668.945373535156 694.560241699219 608.171752929688 579.131103515625 586.611877441406 578.009521484375 596.333312988281 617.095825195312 620.427307128906 626.297546386719 611.314880371094 587.502563476562 567.304138183594 559.970336914062 567.622619628906 587.78857421875 611.348815917969 635.012573242188 650.016235351562 662.114074707031 669.395202636719 670.19970703125 669.491638183594 671.559814453125 662.004821777344 635.349243164062 606.084228515625 569.873413085938 582.750244140625
-9999 -9999 -9999 231.819381713867 216.147094726562 288.697723388672 429.528045654297 521.932678222656 489.748168945312 455.312438964844 414.078094482422 428.408233642578 442.642791748047 401.644165039062 338.313568115234 295.419250488281 299.368682861328 325.74072265625 407.459228515625 529.666259765625 581.53515625 525.303283691406 567.039245605469 595.530212402344 593.981384277344 563.640502929688 580.474670410156 616.6708984375 638.778198242188 648.206665039062 650.468566894531 642.881286621094 625.735412597656 597.774291992188 575.970092773438 584.088134765625 595.134826660156 592.9970703125 585.780212402344 573.982727050781 600.38818359375 684.305358886719 668.553039550781 604.144470214844 603.727478027344 611.349243164062 614.580017089844 634.119445800781 633.282043457031 625.967102050781 610.34326171875 588.352844238281 566.445373535156 543.49072265625 538.112731933594 558.234497070312 586.182983398438 615.129272460938 641.818115234375 660.892700195312 673.000854492188 679.085021972656 680.293090820312 677.547302246094 665.13623046875 639.200744628906 613.731750488281 599.616149902344 575.44384765625 589.889587402344
