NCOLS 70 
NROWS 52 
XLLCORNER -80 
YLLCORNER 33 
CELLSIZE 0.25 
NODATA_value -9999 
-9999.000000000000000 -9999 -9999 -9999 -9999 -9999 -9999 -9999 -9999 -9999 -9999 -9999 -9999 -9999 -9999 -9999 -9999 -9999 -9999 -9999 -9999 -9999 -9999 -9999 -9999 -9999 -9999 -9999 -9999 -9999 -9999 -9999 -9999 -9999 -9999 -9999 -9999 -9999 -9999 -9999 -9999 -9999 -9999 -9999 -9999 -9999 -9999 -9999 -9999 -9999 -9999 -9999 -9999 -9999 -9999 -9999 -9999 -9999 -9999 -9999 -9999 -9999 -9999 -9999 -9999 -9999 -9999 -9999 -9999 -9999
-9999 -9999 -9999 -9999 -9999 -9999 -9999 -9999 -9999 -9999 -9999 -9999 -9999 -9999 -9999 -9999 -9999 -9999 -9999 -9999 -9999 -9999 -9999 -9999 -9999 -9999 -9999 -9999 -9999 -9999 -9999 -9999 -9999 -9999 -9999 -9999 -9999 -9999 -9999 -9999 -9999 -9999 -9999 -9999 -9999 -9999 -9999 -9999 -9999 -9999 -9999 -9999 -9999 -9999 -9999 -9999 -9999 -9999 -9999 -9999 -9999 -9999 -9999 -9999 -9999 -9999 -9999 -9999 -9999 -9999
-9999 -9999 -9999 -9999 -9999 -9999 -9999 -9999 -9999 -9999 -9999 -9999 -9999 -9999 -9999 -9999 -9999 -9999 -9999 -9999 -9999 -9999 -9999 -9999 -9999 -9999 -9999 -9999 -9999 -9999 -9999 -9999 -9999 -9999 -9999 -9999 -9999 -9999 -9999 -9999 -9999 -9999 -9999 -9999 -9999 -9999 -9999 -9999 -9999 -9999 -9999 -9999 -9999 -9999 -9999 -9999 -9999 -9999 -9999 250.34651184082 -9999 -9999 -9999 -9999 -9999 -9999 -9999 -9999 -9999 -9999
-9999 -9999 -9999 -9999 -9999 -9999 -9999 -9999 -9999 -9999 -9999 -9999 -9999 -9999 -9999 -9999 -9999 -9999 -9999 -9999 -9999 -9999 -9999 -9999 -9999 -9999 -9999 -9999 -9999 -9999 -9999 -9999 -9999 -9999 -9999 -9999 -9999 -9999 -9999 -9999 -9999 -9999 -9999 -9999 -9999 -9999 -9999 -9999 -9999 -9999 -9999 -9999 -9999 -9999 -9999 192.076248168945 159.481903076172 159.67643737793 204.38362121582 248.774108886719 -9999 -9999 -9999 -9999 -9999 -9999 -9999 -9999 -9999 -9999
-9999 -9999 -9999 -9999 -9999 -9999 -9999 -9999 -9999 -9999 -9999 -9999 -9999 -9999 -9999 -9999 -9999 -9999 -9999 -9999 -9999 -9999 -9999 -9999 -9999 -9999 -9999 -9999 -9999 -9999 -9999 -9999 -9999 -9999 -9999 -9999 -9999 -9999 -9999 -9999 -9999 -9999 -9999 -9999 -9999 -9999 -9999 -9999 -9999 -9999 -9999 -9999 215.379531860352 235.901077270508 242.223571777344 219.528442382812 189.553115844727 194.698669433594 -9999 -9999 -9999 -9999 -9999 -9999 -9999 -9999 -9999 -9999 -9999 -9999
-9999 -9999 -9999 -9999 -9999 -9999 -9999 -9999 -9999 -9999 -9999 -9999 -9999 -9999 -9999 -9999 -9999 -9999 -9999 -9999 -9999 -9999 -9999 -9999 -9999 -9999 -9999 -9999 -9999 -9999 -9999 -9999 -9999 -9999 -9999 -9999 -9999 -9999 -9999 -9999 -9999 -9999 -9999 -9999 -9999 -9999 -9999 -9999 -9999 -9999 176.117465209961 239.43603515625 204.057327270508 191.147521972656 212.598937988281 243.796829223633 -9999 -9999 -9999 -9999 -9999 -9999 -9999 -9999 -9999 -9999 -9999 79.9133783976237 92.2648963928223 144.442398071289
-9999 -9999 -9999 -9999 -9999 -9999 -9999 -9999 -9999 -9999 -9999 -9999 -9999 -9999 -9999 -9999 -9999 -9999 -9999 -9999 -9999 -9999 -9999 -9999 -9999 -9999 -9999 -9999 -9999 -9999 -9999 -9999 -9999 -9999 -9999 -9999 -9999 -9999 -9999 -9999 -9999 -9999 -9999 -9999 252.182769775391 -9999 -9999 164.600814819336 149.294143676758 155.99494934082 159.369003295898 153.593048095703 135.241058349609 137.198455810547 163.228530883789 -9999 -9999 -9999 -9999 -9999 -9999 -9999 -9999 101.817810058594 104.791770935059 102.818656921387 90.236572265625 77.2757339477539 72.2278289794922 75.1136245727539
-9999 -9999 -9999 -9999 -9999 -9999 -9999 -9999 -9999 -9999 -9999 -9999 -9999 -9999 -9999 -9999 -9999 -9999 -9999 -9999 -9999 -9999 -9999 -9999 -9999 -9999 -9999 -9999 -9999 -9999 -9999 -9999 -9999 -9999 -9999 -9999 -9999 -9999 -9999 -9999 -9999 -9999 -9999 -9999 250.928466796875 258.356018066406 220.300964355469 162.884201049805 125.923950195312 101.975067138672 89.4431915283203 87.6018905639648 96.544548034668 114.874443054199 128.348220825195 -9999 -9999 -9999 -9999 -9999 -9999 -9999 75.8543395996094 72.1817245483398 69.7031784057617 66.9763107299805 62.6696472167969 59.9773979187012 59.5906181335449 60.0417556762695
-9999 -9999 -9999 -9999 -9999 -9999 -9999 -9999 -9999 -9999 -9999 -9999 -9999 -9999 -9999 -9999 -9999 -9999 -9999 -9999 -9999 -9999 -9999 -9999 -9999 -9999 -9999 -9999 -9999 -9999 -9999 -9999 -9999 -9999 -9999 -9999 -9999 -9999 -9999 -9999 208.257949829102 170.844907124837 162.854132080078 181.260284423828 138.193740844727 102.154815673828 91.8451385498047 83.9237365722656 75.31103515625 67.3576889038086 61.0948638916016 59.6182441711426 72.7651443481445 98.0914535522461 99.9500518798828 -9999 -9999 -9999 -9999 -9999 85.5569152832031 78.176383972168 70.6641616821289 63.0360450744629 58.8632965087891 58.1204719543457 58.7646789550781 59.7201995849609 61.0974349975586 62.0475578308105
-9999 -9999 -9999 -9999 -9999 -9999 -9999 -9999 -9999 -9999 -9999 -9999 -9999 -9999 -9999 -9999 -9999 -9999 -9999 -9999 -9999 -9999 -9999 -9999 -9999 -9999 -9999 -9999 -9999 -9999 -9999 -9999 -9999 -9999 -9999 -9999 -9999 -9999 -9999 237.647888183594 213.624816894531 173.50114440918 125.408760070801 86.8366470336914 69.9859085083008 63.6525039672852 61.9272041320801 61.1347923278809 60.5240364074707 59.7996406555176 57.3539276123047 55.1677665710449 61.0049705505371 79.6756057739258 110.117141723633 96.9916152954102 -9999 -9999 -9999 105.447647094727 97.9765930175781 80.5177688598633 70.9984817504883 65.5759963989258 62.6829719543457 62.1141357421875 63.4908790588379 64.4753570556641 64.3610229492188 66.0796813964844
-9999 -9999 -9999 -9999 -9999 -9999 -9999 -9999 -9999 -9999 -9999 -9999 -9999 -9999 -9999 -9999 -9999 -9999 -9999 -9999 -9999 -9999 -9999 -9999 -9999 -9999 -9999 -9999 -9999 -9999 -9999 -9999 -9999 -9999 -9999 -9999 -9999 -9999 151.770855712891 159.729705810547 128.059432983398 83.2557601928711 63.4241180419922 55.929012298584 56.8678398132324 58.4241638183594 56.7268333435059 54.9066276550293 55.7923316955566 57.942066192627 58.9520378112793 57.3176002502441 57.3300170898438 65.6255111694336 84.0670623779297 85.1121444702148 79.5149230957031 96.6208051045736 128.60595703125 103.613609313965 91.5944290161133 84.2995529174805 78.0803146362305 74.2249908447266 72.6350402832031 71.8999786376953 71.9966583251953 71.4334335327148 68.1993865966797 67.7609329223633
-9999 -9999 -9999 -9999 -9999 -9999 -9999 -9999 -9999 -9999 -9999 -9999 -9999 -9999 -9999 -9999 -9999 -9999 -9999 -9999 -9999 -9999 -9999 -9999 -9999 -9999 -9999 -9999 -9999 -9999 -9999 -9999 -9999 -9999 -9999 -9999 -9999 148.455718994141 124.044044494629 88.976921081543 65.5500183105469 55.4042015075684 53.6876411437988 53.9040336608887 56.0797462463379 57.4069709777832 56.4800796508789 56.8260383605957 58.1654739379883 59.5862655639648 60.7374305725098 59.6503524780273 57.1870956420898 57.8324737548828 63.7708206176758 70.2631225585938 79.8535385131836 92.5434875488281 100.073486328125 98.4449081420898 95.1233215332031 88.9198913574219 77.6852493286133 69.9473190307617 69.8017578125 71.1922760009766 71.4770736694336 70.5611877441406 68.3834533691406 66.45947265625
-9999 -9999 -9999 -9999 -9999 -9999 -9999 -9999 -9999 -9999 -9999 -9999 -9999 -9999 -9999 -9999 -9999 -9999 -9999 -9999 -9999 -9999 -9999 -9999 -9999 -9999 -9999 -9999 -9999 -9999 -9999 -9999 -9999 -9999 -9999 -9999 -9999 172.607604980469 125.27108001709 74.0136489868164 61.186466217041 58.3055191040039 57.2733764648438 56.9713478088379 57.6254768371582 58.9518547058105 60.559455871582 60.7273406982422 60.2801628112793 61.4254722595215 63.1275405883789 62.1100387573242 58.5867042541504 55.9881935119629 56.6889495849609 58.4423637390137 60.9298324584961 66.0375061035156 77.2561950683594 86.0927886962891 88.3482513427734 84.5805892944336 75.1497116088867 67.5114974975586 66.5821914672852 66.747314453125 67.6526489257812 69.5456161499023 70.3487930297852 69.4251403808594
-9999 -9999 -9999 -9999 -9999 -9999 -9999 -9999 -9999 -9999 -9999 -9999 -9999 -9999 -9999 -9999 -9999 -9999 -9999 -9999 -9999 -9999 -9999 -9999 -9999 -9999 -9999 -9999 -9999 -9999 -9999 -9999 -9999 -9999 -9999 -9999 -9999 209.608734130859 127.222312927246 71.2611618041992 61.6190910339355 59.8887939453125 59.3957138061523 59.1239242553711 59.5833854675293 61.1880493164062 62.4417343139648 62.0099754333496 60.7901725769043 61.3011856079102 62.2716445922852 61.4964141845703 59.5966453552246 59.6054496765137 61.7809295654297 65.4547348022461 67.3655853271484 68.2071914672852 70.5538864135742 75.957405090332 79.2895812988281 77.2423553466797 72.5481414794922 70.908561706543 68.9737854003906 69.3559341430664 73.377197265625 77.2295989990234 76.7813415527344 73.8377990722656
-9999 -9999 -9999 -9999 -9999 -9999 -9999 -9999 -9999 -9999 -9999 -9999 -9999 -9999 -9999 -9999 -9999 -9999 -9999 -9999 -9999 -9999 -9999 -9999 -9999 -9999 -9999 -9999 -9999 -9999 -9999 -9999 -9999 -9999 -9999 -9999 325.624114990234 213.851196289062 114.761276245117 82.0268859863281 69.9904937744141 63.7536773681641 60.9059753417969 59.441780090332 58.7841644287109 59.7608184814453 61.7980079650879 63.349250793457 63.6281623840332 62.8801651000977 62.3635864257812 62.1755905151367 62.6497840881348 64.8020629882812 69.1417388916016 74.8488845825195 78.7057189941406 80.9208984375 82.0593414306641 84.0576477050781 86.1178970336914 84.4278106689453 82.0622100830078 81.4995422363281 79.4954833984375 79.3240737915039 84.6089019775391 85.2807464599609 80.4387817382812 77.8137054443359
-9999 -9999 -9999 -9999 -9999 -9999 -9999 -9999 -9999 -9999 -9999 -9999 -9999 -9999 -9999 -9999 -9999 -9999 -9999 -9999 -9999 -9999 -9999 -9999 -9999 -9999 -9999 -9999 -9999 -9999 -9999 -9999 -9999 -9999 -9999 -9999 -9999 154.809997558594 134.829513549805 108.312713623047 90.8790969848633 74.9738082885742 65.1112976074219 61.1235847473145 59.0862083435059 59.0486526489258 60.3414344787598 62.9335823059082 67.4482650756836 71.26806640625 71.7396697998047 68.700439453125 67.3107528686523 69.2113342285156 77.3638153076172 82.2729339599609 88.1852111816406 97.5900039672852 105.664924621582 110.092163085938 111.360130310059 108.369827270508 103.559288024902 99.2914810180664 94.6144256591797 90.8935928344727 94.7514343261719 89.2560729980469 79.2881546020508 77.1388473510742
-9999 -9999 -9999 -9999 -9999 -9999 -9999 -9999 -9999 -9999 -9999 -9999 -9999 -9999 -9999 -9999 -9999 -9999 -9999 -9999 -9999 -9999 -9999 -9999 -9999 -9999 -9999 -9999 -9999 -9999 -9999 -9999 -9999 -9999 -9999 -9999 -9999 -9999 133.232269287109 -9999 97.4884948730469 81.2216644287109 70.1020431518555 64.9511260986328 62.2314796447754 61.3090667724609 61.6126556396484 65.2575531005859 75.6696166992188 86.0916442871094 85.8203659057617 78.7385787963867 74.4241943359375 77.6781158447266 87.8543167114258 89.9107666015625 98.1823577880859 115.052047729492 128.942245483398 135.855758666992 138.403091430664 136.641616821289 132.128173828125 125.886528015137 117.945442199707 107.91561126709 106.464179992676 93.8903427124023 76.5330352783203 73.6514663696289
-9999 -9999 -9999 -9999 -9999 -9999 -9999 -9999 -9999 -9999 -9999 -9999 -9999 -9999 -9999 -9999 -9999 -9999 -9999 -9999 -9999 -9999 -9999 -9999 -9999 -9999 -9999 -9999 -9999 -9999 -9999 -9999 -9999 -9999 -9999 -9999 -9999 -9999 -9999 -9999 90.7412567138672 76.2584075927734 71.2869567871094 66.3258590698242 63.1728363037109 61.8215217590332 65.3379898071289 72.6021041870117 81.9906921386719 89.6174240112305 88.1246109008789 85.1439361572266 84.9483032226562 91.8726577758789 94.6633758544922 96.4791412353516 112.609153747559 132.34196472168 145.178115844727 150.337539672852 152.534408569336 151.689651489258 149.937789916992 145.18049621582 140.481384277344 127.757041931152 120.87890625 102.709411621094 76.1773529052734 74.0280075073242
-9999 -9999 -9999 -9999 -9999 -9999 -9999 -9999 -9999 -9999 -9999 -9999 -9999 -9999 -9999 -9999 -9999 -9999 -9999 -9999 -9999 -9999 -9999 -9999 -9999 -9999 -9999 -9999 -9999 -9999 -9999 -9999 -9999 -9999 169.524482727051 179.556198120117 168.950592041016 -9999 141.005187988281 131.082611083984 95.4169921875 73.7499237060547 70.1055221557617 65.0370635986328 62.3244285583496 64.3117370605469 74.1757354736328 80.5790405273438 81.7060012817383 87.0742568969727 92.8288650512695 90.1614608764648 93.0097732543945 100.912391662598 104.163475036621 115.556549072266 134.121124267578 147.537780761719 152.126770019531 151.843032836914 152.740646362305 152.9287109375 152.915832519531 150.589447021484 150.604644775391 142.556549072266 137.496475219727 119.580665588379 82.9574432373047 76.9471206665039
-9999 -9999 -9999 -9999 -9999 -9999 -9999 -9999 -9999 -9999 -9999 -9999 -9999 -9999 -9999 -9999 -9999 -9999 -9999 -9999 -9999 -9999 -9999 -9999 -9999 -9999 -9999 498.143768310547 498.143768310547 360.536834716797 258.798919677734 219.938446044922 218.05387878418 196.923934936523 167.586563110352 134.031234741211 105.335891723633 93.6746444702148 87.0471954345703 81.9494400024414 74.9229202270508 63.2981948852539 62.2526588439941 63.6714286804199 64.1360702514648 74.0561828613281 83.6917877197266 88.6075668334961 93.9679107666016 98.3307952880859 105.397300720215 105.300750732422 103.113288879395 109.226287841797 120.645309448242 130.259704589844 137.425445556641 141.479110717773 142.20280456543 142.431594848633 144.500259399414 146.065521240234 147.251876831055 148.149154663086 149.864990234375 150.482864379883 153.029190063477 148.836898803711 104.563804626465 80.6651458740234
-9999 -9999 -9999 -9999 -9999 -9999 -9999 -9999 -9999 -9999 -9999 -9999 -9999 -9999 -9999 -9999 -9999 -9999 -9999 -9999 -9999 -9999 -9999 -9999 -9999 -9999 -9999 -9999 -9999 -9999 221.635848999023 210.513320922852 195.941802978516 165.185791015625 145.19352722168 126.813385009766 113.295669555664 103.974746704102 83.3365478515625 59.0897598266602 55.4743881225586 52.3404998779297 58.444522857666 68.0021362304688 75.0929183959961 88.6814117431641 94.2029190063477 96.9769439697266 100.14714050293 106.714416503906 111.390899658203 111.996131896973 113.621429443359 117.181930541992 118.403930664062 117.884635925293 117.904159545898 119.056922912598 120.938735961914 124.536277770996 129.392990112305 133.760665893555 136.628646850586 139.272033691406 141.283294677734 145.003646850586 152.072601318359 170.380523681641 137.134918212891 98.095329284668
-9999 -9999 -9999 -9999 -9999 -9999 -9999 -9999 -9999 -9999 -9999 -9999 -9999 -9999 -9999 -9999 -9999 -9999 -9999 -9999 -9999 -9999 -9999 -9999 -9999 509.545776367188 364.684112548828 268.460047403971 216.856185913086 201.55419921875 197.582015991211 193.019714355469 184.145462036133 167.370727539062 154.833709716797 146.226715087891 140.696044921875 131.521026611328 111.781700134277 82.9801635742188 69.1326293945312 66.0018692016602 67.5049133300781 76.2268676757812 85.326171875 93.5127868652344 99.3954925537109 101.057548522949 103.148246765137 104.342826843262 103.720764160156 106.25301361084 110.056716918945 111.05687713623 110.485916137695 110.326484680176 110.54842376709 111.368553161621 113.760780334473 117.911712646484 123.480621337891 128.686889648438 131.917617797852 133.951431274414 135.765213012695 138.073699951172 145.967971801758 174.53596496582 170.756164550781 132.41682434082
-9999 -9999 -9999 -9999 -9999 -9999 -9999 -9999 -9999 -9999 -9999 -9999 -9999 -9999 -9999 -9999 -9999 -9999 -9999 -9999 -9999 -9999 -9999 -9999 681.848693847656 510.705657958984 336.082977294922 247.263702392578 222.033462524414 196.573379516602 180.053527832031 169.031188964844 167.081939697266 165.561752319336 158.45491027832 152.102294921875 153.978363037109 154.181625366211 141.72216796875 126.927444458008 117.010345458984 101.560432434082 88.7321929931641 91.4222793579102 97.7237167358398 105.87809753418 117.909423828125 130.013107299805 140.377563476562 144.461624145508 144.655578613281 146.514923095703 148.638916015625 148.978485107422 148.061447143555 146.246185302734 144.27734375 142.783920288086 143.274780273438 144.548004150391 145.762023925781 145.803009033203 145.793670654297 145.264404296875 145.560531616211 145.725051879883 148.547943115234 171.129852294922 191.78515625 169.060775756836
-9999 -9999 -9999 -9999 -9999 -9999 -9999 -9999 -9999 -9999 -9999 -9999 -9999 -9999 -9999 -9999 -9999 -9999 -9999 -9999 -9999 -9999 -9999 -9999 509.646789550781 369.674713134766 269.294525146484 222.888290405273 197.750213623047 185.571197509766 176.096710205078 167.919723510742 162.747360229492 156.310165405273 148.14811706543 143.229446411133 142.941055297852 143.973052978516 145.859619140625 146.42839050293 147.689224243164 140.100875854492 130.37272644043 130.748687744141 138.983947753906 151.622695922852 162.541687011719 170.594879150391 176.401275634766 176.151519775391 171.375885009766 166.320983886719 161.651214599609 157.338638305664 153.538192749023 150.2783203125 147.98420715332 146.403167724609 145.982955932617 145.163711547852 143.786529541016 141.339126586914 139.34407043457 137.808776855469 136.977142333984 137.479110717773 139.89714050293 151.311416625977 180.511779785156 183.751861572266
-9999 -9999 -9999 -9999 -9999 -9999 -9999 -9999 -9999 -9999 -9999 -9999 -9999 -9999 -9999 -9999 -9999 -9999 -9999 -9999 -9999 -9999 -9999 381.254348754883 413.007293701172 348.603302001953 274.595703125 221.564422607422 196.835098266602 187.421325683594 178.822845458984 167.290588378906 155.023071289062 143.80615234375 138.841171264648 142.400344848633 148.004119873047 151.19026184082 152.522903442383 152.576156616211 152.893417358398 155.481140136719 160.92041015625 165.70735168457 170.380920410156 176.466918945312 177.420074462891 171.122894287109 161.161193847656 151.292678833008 142.408935546875 133.925064086914 126.634071350098 122.067108154297 119.565200805664 118.195686340332 117.454864501953 117.009910583496 116.745223999023 116.427406311035 115.979415893555 115.547782897949 115.482437133789 115.497520446777 115.955390930176 118.330505371094 121.582725524902 128.416839599609 150.807540893555 166.155242919922
-9999 -9999 -9999 -9999 -9999 -9999 -9999 -9999 -9999 -9999 -9999 -9999 -9999 -9999 -9999 -9999 -9999 -9999 -9999 -9999 -9999 -9999 -9999 275.364135742188 326.999176025391 316.818145751953 268.174743652344 222.622634887695 202.696731567383 196.717987060547 183.775787353516 160.71549987793 142.735870361328 135.55744934082 136.273712158203 141.799224853516 148.455261230469 152.82991027832 155.576110839844 157.978088378906 158.86669921875 160.498443603516 166.258529663086 172.492111206055 173.917022705078 169.06982421875 156.744979858398 141.057388305664 129.266006469727 122.505393981934 116.893821716309 111.70581817627 108.63941192627 108.544868469238 109.80094909668 110.61856842041 110.389434814453 110.152572631836 109.810882568359 107.563110351562 105.888671875 107.74072265625 110.32544708252 110.785018920898 110.95435333252 113.732864379883 116.795120239258 121.76473236084 133.941802978516 149.418365478516
-9999 -9999 -9999 -9999 -9999 -9999 -9999 -9999 -9999 -9999 -9999 -9999 -9999 -9999 -9999 -9999 -9999 -9999 -9999 -9999 -9999 -9999 307.630096435547 286.0341796875 296.991607666016 287.358062744141 248.075561523438 227.132034301758 221.950424194336 217.516815185547 196.502960205078 165.540115356445 147.548980712891 142.027816772461 139.190048217773 137.134521484375 137.055526733398 139.983993530273 146.060440063477 153.04719543457 156.982818603516 159.433746337891 165.046356201172 169.789596557617 166.880447387695 150.908111572266 128.186660766602 113.621978759766 110.127563476562 109.516052246094 106.901466369629 104.625587463379 104.401557922363 105.866333007812 107.347663879395 107.502113342285 107.913795471191 110.642913818359 113.395393371582 110.971481323242 106.41870880127 106.324661254883 108.569786071777 109.29419708252 109.882102966309 111.559844970703 112.545143127441 115.76490020752 128.432876586914 148.173233032227
-9999 -9999 -9999 -9999 -9999 -9999 -9999 -9999 -9999 -9999 -9999 -9999 -9999 -9999 654.595986260308 -9999 -9999 -9999 -9999 567.902770996094 -9999 307.2783203125 306.202697753906 296.775146484375 293.839752197266 265.19580078125 241.850845336914 239.105941772461 246.615798950195 245.100173950195 227.010467529297 201.10676574707 183.971008300781 175.147552490234 167.39013671875 157.417572021484 144.090957641602 134.035842895508 136.219329833984 147.292373657227 155.760284423828 159.826400756836 165.095474243164 169.159774780273 165.409240722656 147.514038085938 122.063850402832 108.052673339844 107.326461791992 107.370628356934 104.692764282227 102.216979980469 102.062171936035 104.612121582031 107.817321777344 109.83846282959 112.155059814453 116.01985168457 119.806076049805 120.199829101562 116.634178161621 113.416633605957 112.656448364258 113.244415283203 113.45263671875 112.220634460449 113.919891357422 124.581665039062 139.215301513672 150.281890869141
-9999 -9999 -9999 -9999 -9999 -9999 -9999 -9999 -9999 -9999 -9999 -9999 -9999 -9999 651.402603149414 -9999 -9999 -9999 -9999 500.816192626953 404.513043212891 349.227233886719 314.822570800781 296.650939941406 278.356811523438 261.390106201172 252.188400268555 255.618667602539 262.983337402344 261.216674804688 250.898849487305 236.262756347656 223.76806640625 215.67561340332 210.073135375977 204.186676025391 192.985473632812 174.973571777344 158.193664550781 151.839874267578 154.030410766602 157.761108398438 162.419540405273 167.936416625977 170.098083496094 162.785446166992 139.480529785156 114.102668762207 104.678833007812 104.469459533691 103.173110961914 100.496963500977 99.614616394043 101.833564758301 105.891754150391 110.260246276855 115.285423278809 119.621376037598 123.446357727051 127.500396728516 126.52018737793 121.571472167969 118.746368408203 118.642776489258 118.997268676758 120.057266235352 125.949348449707 135.915710449219 137.497650146484 127.868026733398
-9999 -9999 -9999 -9999 -9999 -9999 -9999 -9999 -9999 -9999 -9999 -9999 -9999 -9999 665.772827148438 -9999 -9999 -9999 -9999 -9999 324.244091033936 364.427276611328 319.202667236328 295.392578125 291.400238037109 287.066070556641 281.508270263672 273.967529296875 263.489044189453 249.085205078125 233.720474243164 220.349182128906 211.013137817383 206.928741455078 208.301574707031 213.812530517578 219.910034179688 219.120132446289 204.385833740234 181.247940063477 163.339447021484 156.399368286133 157.780639648438 163.461837768555 169.801040649414 172.843994140625 162.915283203125 135.718963623047 110.335578918457 102.335350036621 101.315269470215 98.5324630737305 95.8671493530273 96.1998672485352 99.4474639892578 103.732231140137 107.921356201172 112.426712036133 120.745674133301 131.230209350586 132.64030456543 124.953620910645 119.366821289062 118.628814697266 118.915596008301 119.828948974609 120.735313415527 116.922508239746 107.451675415039 98.3047714233398
-9999 -9999 -9999 -9999 -9999 -9999 -9999 -9999 -9999 -9999 -9999 -9999 -9999 -9999 624.378601074219 -9999 608.291931152344 -9999 -9999 -9999 250.028274536133 333.293579101562 308.507598876953 306.984954833984 314.916717529297 312.1748046875 292.931091308594 262.510131835938 230.669082641602 200.899429321289 176.902267456055 160.88591003418 152.636566162109 151.304000854492 156.347015380859 168.073135375977 185.570358276367 204.242065429688 214.053558349609 205.199600219727 182.834686279297 163.011184692383 155.156204223633 157.663482666016 164.135772705078 170.115982055664 172.192642211914 160.558456420898 134.981903076172 113.354125976562 103.840446472168 98.3748779296875 92.6182479858398 89.6848220825195 91.156852722168 95.1755294799805 98.6824264526367 100.793319702148 105.10237121582 114.505058288574 121.577980041504 118.744178771973 114.000205993652 112.604232788086 111.068817138672 107.222785949707 101.24991607666 93.7538909912109 87.7212982177734 86.4652252197266
-9999 -9999 -9999 -9999 -9999 -9999 -9999 -9999 -9999 -9999 -9999 -9999 -9999 -9999 624.378601074219 582.984375 470.160278320312 -9999 -9999 275.395763397217 277.643463134766 333.136596679688 323.082550048828 341.2275390625 342.395782470703 303.445190429688 254.046646118164 204.611770629883 164.454895019531 136.492126464844 119.81462097168 111.449989318848 108.029991149902 107.808334350586 110.39697265625 117.216026306152 130.452972412109 150.982864379883 176.062805175781 193.867858886719 192.269241333008 175.483840942383 158.822906494141 153.369384765625 157.824020385742 163.929611206055 168.203247070312 169.051635742188 160.00959777832 138.209915161133 117.080123901367 103.919570922852 93.331413269043 86.1991577148438 84.871826171875 88.8284149169922 94.5865173339844 97.6600723266602 97.4878692626953 97.958381652832 102.886161804199 106.976997375488 108.295608520508 107.57275390625 104.928245544434 99.9844512939453 93.8055419921875 87.9614410400391 84.6139831542969 84.7250061035156
-9999 -9999 -9999 -9999 -9999 -9999 -9999 -9999 -9999 -9999 -9999 -9999 -9999 -9999 -9999 415.275170898438 372.096343994141 -9999 284.167152404785 259.437561035156 314.473754882812 345.267639160156 360.802093505859 361.332916259766 317.283264160156 248.195785522461 184.343444824219 138.308486938477 113.301658630371 103.124755859375 100.41902923584 100.412719726562 101.037490844727 101.453598022461 101.371879577637 101.418441772461 103.888175964355 112.774589538574 132.769226074219 161.829162597656 183.075485229492 182.486724853516 166.716781616211 154.091278076172 154.25993347168 160.332046508789 164.500244140625 166.99772644043 167.711364746094 156.958099365234 134.234954833984 114.043228149414 97.9679718017578 87.0628509521484 83.1769409179688 86.8351364135742 94.8072509765625 99.4037857055664 99.3082504272461 96.3171844482422 94.5442657470703 96.1708602905273 99.6915664672852 102.496429443359 102.651542663574 99.6116485595703 93.8410873413086 87.7906188964844 85.5166397094727 86.6098785400391
-9999 -9999 -9999 -9999 -9999 -9999 -9999 -9999 -9999 -9999 -9999 -9999 -9999 -9999 -9999 350.743255615234 300.3916015625 -9999 208.064697265625 256.547058105469 310.316955566406 349.459075927734 370.361785888672 342.421325683594 263.270141601562 188.657699584961 132.189270019531 104.793197631836 97.7876510620117 99.5278701782227 102.468803405762 104.148147583008 105.075622558594 104.266014099121 102.272468566895 101.72826385498 101.721778869629 103.12476348877 111.529418945312 133.556457519531 162.7529296875 178.653366088867 173.47021484375 160.114822387695 154.530166625977 158.198623657227 162.69270324707 164.494476318359 165.106567382812 161.688018798828 146.642181396484 125.597061157227 104.347221374512 90.0927886962891 84.5117034912109 88.9800338745117 98.7839813232422 102.836273193359 101.319366455078 98.4560546875 94.8948745727539 92.0711517333984 92.0428771972656 95.0630874633789 99.0027008056641 100.607627868652 96.9354248046875 90.7822494506836 88.8591156005859 89.963981628418
-9999 -9999 -9999 -9999 -9999 -9999 -9999 -9999 -9999 -9999 -9999 -9999 -9999 -9999 -9999 327.641876220703 -9999 244.246037074498 232.639709472656 264.467254638672 325.166717529297 358.713500976562 360.906799316406 305.048858642578 215.709548950195 145.792449951172 106.372177124023 96.9262542724609 98.2317199707031 102.031768798828 102.462738037109 99.1923446655273 95.8041687011719 93.7708740234375 92.1866455078125 92.567268371582 95.8376541137695 100.039039611816 104.380447387695 115.389472961426 139.096008300781 165.010269165039 174.675720214844 167.701553344727 159.065948486328 158.459197998047 162.095764160156 164.310760498047 164.075805664062 162.122253417969 154.52587890625 137.452651977539 112.977378845215 94.3262329101562 86.6039581298828 92.3229827880859 103.096694946289 105.659461975098 102.024421691895 98.536003112793 95.543098449707 91.7552947998047 89.3675994873047 90.4888916015625 93.9039764404297 98.2141647338867 98.6610336303711 94.932746887207 92.6147079467773 92.3963470458984
-9999 -9999 -9999 -9999 -9999 -9999 -9999 -9999 -9999 -9999 -9999 -9999 -9999 -9999 327.641876220703 273.257186889648 231.713943481445 228.771606445312 247.724960327148 287.599639892578 343.002746582031 351.737426757812 328.059509277344 252.298294067383 168.953674316406 113.319076538086 95.7009735107422 95.8700637817383 98.5309295654297 101.676643371582 100.450370788574 96.754638671875 94.8294296264648 95.5024261474609 94.1076202392578 89.7607192993164 88.5191268920898 94.0256805419922 100.461112976074 106.089515686035 120.846992492676 147.651916503906 168.823638916016 171.294509887695 164.086822509766 160.511367797852 162.201919555664 164.248336791992 164.043182373047 162.047348022461 157.751312255859 145.456604003906 122.476501464844 100.05598449707 88.8672332763672 94.5805740356445 105.484085083008 106.820495605469 101.883056640625 98.1042251586914 94.7234878540039 90.6921539306641 87.833854675293 88.7091751098633 90.485107421875 93.3609466552734 95.7013397216797 95.0241775512695 93.5111312866211 92.7213516235352
-9999 -9999 -9999 -9999 -9999 -9999 -9999 -9999 -9999 -9999 -9999 -9999 -9999 -9999 -9999 -9999 232.104774475098 234.562728881836 225.915100097656 267.380645751953 322.851379394531 334.767852783203 306.728668212891 221.494384765625 142.768325805664 98.8778305053711 92.144287109375 93.4680404663086 95.0345458984375 98.6003646850586 99.5542907714844 98.954475402832 98.9300079345703 99.1023101806641 96.9175186157227 92.6585693359375 89.6176681518555 91.1996459960938 96.7350387573242 101.374267578125 109.520149230957 130.397918701172 156.092208862305 168.707580566406 166.944396972656 162.766983032227 162.300796508789 163.029891967773 162.169692993164 160.210464477539 157.497787475586 149.146408081055 131.05827331543 107.854690551758 92.9897079467773 96.3935928344727 106.255187988281 107.484764099121 101.954093933105 98.1046752929688 93.1387786865234 87.8396759033203 85.1970672607422 87.4525527954102 89.2298049926758 89.4708938598633 90.7756195068359 91.6473007202148 92.0356674194336 91.5881195068359
-9999 -9999 -9999 -9999 -9999 -9999 -9999 -9999 -9999 -9999 -9999 -9999 -9999 -9999 -9999 -9999 233.966773986816 233.370819091797 230.615219116211 271.848266601562 326.045318603516 332.539764404297 294.30810546875 204.373809814453 128.246673583984 92.0986175537109 89.317268371582 89.4525299072266 88.5021591186523 90.155517578125 91.4814147949219 92.2332229614258 93.0111236572266 93.9590377807617 94.4610900878906 94.2373962402344 92.8123474121094 91.0209350585938 92.9320449829102 96.9192962646484 101.901397705078 115.422676086426 138.896499633789 158.605178833008 164.982467651367 162.838775634766 160.500228881836 159.41960144043 157.934005737305 156.193862915039 154.752517700195 149.362930297852 135.474838256836 114.630157470703 98.2138519287109 97.6474304199219 106.059349060059 108.092987060547 101.253799438477 96.3318634033203 90.3013763427734 83.9832229614258 82.9046249389648 86.8290328979492 88.5527420043945 87.0897369384766 86.4196395874023 87.9400253295898 90.1430816650391 89.8110885620117
-9999 -9999 -9999 -9999 -9999 -9999 -9999 -9999 -9999 -9999 -9999 -9999 -9999 -9999 -9999 -9999 -9999 235.129863739014 245.727951049805 302.630462646484 344.863067626953 337.046051025391 284.093994140625 192.997268676758 120.015556335449 90.0417709350586 86.5782241821289 86.0544204711914 84.4052352905273 84.3314743041992 84.7246246337891 85.3812866210938 86.4075927734375 88.2312698364258 91.1019973754883 94.4740753173828 96.4790878295898 95.8612213134766 94.1392288208008 94.0854568481445 96.9398040771484 105.42862701416 123.361991882324 143.946578979492 156.557876586914 159.121475219727 157.752014160156 155.468292236328 153.168365478516 151.23600769043 150.681518554688 147.651672363281 136.22688293457 118.101066589355 101.722198486328 97.8559036254883 105.527420043945 109.132453918457 100.641792297363 92.9866180419922 86.5967407226562 80.6278381347656 81.3167190551758 85.7514572143555 87.7328262329102 86.1886749267578 83.6180648803711 84.4258575439453 86.776008605957 86.3627166748047
-9999 -9999 -9999 -9999 -9999 -9999 -9999 -9999 -9999 -9999 -9999 -9999 -9999 -9999 233.519807815552 233.370819091797 234.393214225769 238.266708374023 230.805465698242 289.731231689453 360.353302001953 354.512756347656 279.966796875 184.650100708008 119.204399108887 96.9395217895508 86.6608581542969 82.2093048095703 80.3659820556641 79.3641204833984 78.6011123657227 78.208381652832 78.3238220214844 79.2820053100586 81.5373916625977 85.7310485839844 91.4134216308594 96.3934707641602 98.7508087158203 98.9616470336914 98.9971466064453 102.257949829102 112.738746643066 129.024566650391 142.854598999023 149.110321044922 149.443161010742 147.330032348633 145.202560424805 142.579254150391 142.125457763672 142.354263305664 134.425476074219 119.229942321777 103.49299621582 97.4296493530273 104.177917480469 110.17472076416 102.595458984375 90.5298614501953 83.6243591308594 78.7652282714844 80.1997985839844 85.3462524414062 89.2750701904297 89.4069747924805 86.7781753540039 85.6224136352539 85.0241317749023 84.5034255981445
-9999 -9999 -9999 -9999 -9999 -9999 -9999 -9999 -9999 -9999 -9999 -9999 -9999 -9999 -9999 -9999 -9999 -9999 271.1569480896 279.957550048828 376.633941650391 373.647216796875 273.043395996094 169.355422973633 114.635787963867 99.0010604858398 86.9391326904297 78.4533081054688 73.9081192016602 71.6640548706055 70.2457656860352 69.7355422973633 70.1108093261719 71.1728057861328 72.7983474731445 75.320930480957 79.306640625 84.7832336425781 90.3745880126953 94.3196792602539 96.3447799682617 97.796745300293 102.373008728027 112.41104888916 123.897880554199 131.73860168457 134.822357177734 134.179702758789 132.512786865234 130.813415527344 129.098510742188 131.736557006836 129.150100708008 118.101058959961 104.230690002441 98.0224990844727 103.323471069336 109.950080871582 104.806274414062 90.6476058959961 82.7012023925781 78.3752975463867 78.7440032958984 83.4371948242188 87.9563674926758 90.1267166137695 92.6283493041992 93.3707885742188 90.1889266967773 87.5712203979492
-9999 -9999 -9999 -9999 -9999 -9999 -9999 -9999 -9999 -9999 -9999 -9999 -9999 -9999 -9999 -9999 -9999 236.30940246582 286.801937103271 284.133544921875 396.256286621094 379.593170166016 241.400833129883 140.129089355469 100.969825744629 93.979118347168 86.6887130737305 76.5569229125977 69.0719146728516 65.5114593505859 63.9727783203125 63.5518646240234 64.1650161743164 65.4000396728516 67.0566329956055 69.2518081665039 72.1213455200195 76.2272415161133 81.3633880615234 86.2499389648438 89.9864730834961 91.782096862793 92.0856552124023 95.879997253418 104.754066467285 113.441276550293 118.378662109375 118.891540527344 118.742774963379 120.53279876709 117.876274108887 118.418403625488 120.740211486816 115.355972290039 104.922760009766 100.445678710938 105.07266998291 109.856727600098 104.54337310791 91.6052703857422 82.5645599365234 77.7826156616211 76.9163513183594 80.0121002197266 81.6340484619141 79.4164581298828 83.2279586791992 90.011360168457 92.4102020263672 93.6108169555664
-9999 -9999 -9999 -9999 -9999 -9999 -9999 -9999 -9999 -9999 -9999 -9999 -9999 239.981597900391 238.456288655599 -9999 265.288482666016 283.910762786865 236.30940246582 346.807250976562 335.822326660156 258.625457763672 165.742141723633 107.357559204102 88.4668273925781 88.417121887207 85.9554672241211 76.9925994873047 68.0320892333984 62.7330322265625 60.5743370056152 59.9999198913574 60.6952629089355 62.2759094238281 64.2518920898438 66.4013595581055 68.826286315918 72.4559097290039 77.2923889160156 81.7462615966797 85.7070083618164 88.8791122436523 89.9696273803711 90.7631683349609 96.1098556518555 103.177642822266 106.284477233887 105.768043518066 107.171081542969 114.053443908691 112.857688903809 107.903762817383 110.368614196777 110.987022399902 106.291015625 104.787811279297 108.529525756836 109.521965026855 101.426612854004 90.3843536376953 82.5953903198242 76.689697265625 74.1002883911133 75.3279266357422 77.9261856079102 78.5492935180664 82.7346649169922 85.4579696655273 86.6669464111328 89.5058975219727
-9999 -9999 -9999 -9999 -9999 -9999 -9999 -9999 -9999 -9999 -9999 -9999 -9999 -9999 239.981597900391 249.779846191406 225.607421875 304.969543457031 368.756683349609 314.804656982422 237.021453857422 169.743133544922 115.765106201172 89.5766983032227 81.8073883056641 84.5334701538086 85.418083190918 78.9634475708008 69.6723251342773 63.1483154296875 60.2217407226562 59.5531234741211 60.3981704711914 62.4679260253906 65.0058212280273 67.4222106933594 69.5156326293945 72.3138809204102 76.774543762207 80.4258880615234 82.692268371582 85.5566711425781 89.4402465820312 93.4984741210938 96.9856262207031 98.2071380615234 95.6492080688477 92.885498046875 93.8079071044922 104.719551086426 112.592269897461 107.572631835938 104.934478759766 108.283813476562 107.849174499512 107.777404785156 109.168365478516 106.211547851562 94.8385925292969 86.8747329711914 82.2870712280273 74.8673553466797 70.0333480834961 68.5001983642578 69.1673889160156 69.8791275024414 75.6439666748047 84.2878646850586 85.9526519775391 81.1741561889648
-9999 -9999 -9999 -9999 -9999 -9999 -9999 -9999 -9999 -9999 -9999 -9999 -9999 -9999 238.623447418213 239.981597900391 283.750518798828 304.349517822266 259.491271972656 197.921524047852 158.382293701172 118.715232849121 89.8740692138672 78.9476165771484 76.7243804931641 81.8016891479492 85.7631759643555 82.5089416503906 74.210090637207 66.8135070800781 62.6683235168457 61.8443946838379 62.8778305053711 64.9786224365234 67.7504577636719 70.7146301269531 73.1957321166992 75.8184661865234 79.3921508789062 81.8984680175781 82.1391296386719 82.1779098510742 84.1833038330078 87.8578033447266 89.6613006591797 87.4858474731445 84.6587524414062 84.5681076049805 86.9110641479492 96.9618225097656 109.531875610352 109.539756774902 103.308952331543 105.648300170898 107.458915710449 106.96501159668 105.717788696289 99.6658020019531 87.3069076538086 83.2539215087891 80.8814086914062 72.8648681640625 67.3034133911133 67.4432907104492 69.3789291381836 69.7588272094727 71.7849044799805 80.3372955322266 88.0288619995117 84.5267562866211
-9999 -9999 -9999 -9999 -9999 -9999 -9999 -9999 -9999 -9999 -9999 237.544723510742 245.286575317383 240.893585205078 226.98014831543 246.638458251953 280.247985839844 220.067306518555 170.471893310547 141.181579589844 114.617988586426 90.0199203491211 77.4110260009766 74.0381469726562 75.5449523925781 81.3589477539062 84.668212890625 85.932373046875 81.0878753662109 73.979606628418 68.3803253173828 66.1674041748047 66.8314971923828 68.786735534668 71.8818893432617 75.7094421386719 78.5827713012695 80.3981170654297 82.4952621459961 83.9792633056641 83.144287109375 81.1400680541992 80.20166015625 80.6684799194336 81.7379913330078 83.3113250732422 87.6041793823242 91.8736038208008 95.8737487792969 103.649597167969 111.269538879395 109.043029785156 100.656600952148 99.8474044799805 103.774337768555 106.207748413086 101.769226074219 92.0556335449219 83.1749267578125 80.4091567993164 78.5246963500977 70.9845123291016 68.9992446899414 77.877067565918 72.512336730957 74.1199188232422 76.9118423461914 83.1796188354492 86.0257415771484 85.887825012207
-9999 -9999 -9999 -9999 -9999 -9999 -9999 -9999 -9999 332.278961181641 261.158599853516 240.054138183594 246.924118041992 212.855819702148 213.384704589844 220.69157409668 197.60546875 159.453964233398 125.115249633789 102.32689666748 86.1743011474609 74.945182800293 69.5258941650391 70.06982421875 76.701171875 83.5527420043945 84.8162002563477 86.0649566650391 86.0996627807617 82.1074829101562 76.9442672729492 73.3394088745117 72.8003616333008 74.6704406738281 78.4996948242188 82.4586486816406 83.6441421508789 83.1752700805664 83.7708206176758 84.3517227172852 83.4890213012695 82.0472259521484 81.7395782470703 83.5210876464844 86.8212051391602 92.389289855957 98.5986785888672 100.343688964844 99.5924224853516 99.7394943237305 100.932769775391 99.252326965332 96.0629730224609 97.9601745605469 101.623443603516 101.972457885742 96.1500625610352 85.5973129272461 78.9061126708984 76.6682281494141 76.2868347167969 74.9911346435547 76.6101531982422 75.5716934204102 71.5305557250977 79.6194534301758 85.5360488891602 90.7974319458008 91.3485488891602 87.5180053710938
-9999 -9999 -9999 -9999 -9999 -9999 -9999 -9999 -9999 330.742309570312 274.618927001953 248.831695556641 224.281219482422 198.237182617188 180.292587280273 145.612594604492 125.97883605957 108.920402526855 99.1144866943359 84.747932434082 72.8893356323242 70.6077270507812 67.5359497070312 64.6873245239258 71.1913375854492 80.8396072387695 85.7331008911133 84.9393157958984 85.1732559204102 85.7511520385742 84.4506378173828 82.5936050415039 82.2497711181641 84.101203918457 86.6049728393555 86.7583847045898 83.5176467895508 81.3379440307617 81.9309234619141 83.0063705444336 82.6263961791992 80.5248947143555 79.9735107421875 81.5927047729492 83.6447830200195 87.0638732910156 88.89404296875 86.6744003295898 84.7043914794922 84.8038787841797 86.7984924316406 89.6723861694336 92.8868865966797 94.6962203979492 94.8081665039062 93.950927734375 89.4753112792969 80.5707931518555 76.7422637939453 76.6856918334961 77.1104431152344 75.833869934082 75.1271438598633 73.9339218139648 72.9250411987305 83.1291427612305 88.0201873779297 89.7602310180664 89.7754364013672 87.2279205322266
-9999 -9999 -9999 -9999 -9999 276.268165588379 307.888061523438 296.580780029297 298.618469238281 272.658386230469 277.433166503906 243.32829284668 188.464797973633 179.202163696289 140.570892333984 117.20629119873 104.244140625 94.9286193847656 85.8351287841797 74.1835784912109 65.3037414550781 66.6074523925781 69.9539108276367 66.6573944091797 67.8058013916016 73.583740234375 81.3157958984375 82.1608428955078 79.9344024658203 80.0470581054688 80.7329330444336 80.9194412231445 81.1411285400391 81.6750259399414 81.0368881225586 77.5611419677734 75.149040222168 76.8087844848633 79.5998611450195 80.5421295166016 77.0501022338867 72.8146438598633 74.690299987793 75.9371948242188 73.9487380981445 75.4361419677734 79.3198394775391 79.5171966552734 77.4534378051758 76.9585189819336 78.9437866210938 81.743278503418 83.0008163452148 83.0026321411133 83.9528198242188 85.629524230957 82.0365142822266 77.2321548461914 75.1734924316406 74.2822723388672 72.0594940185547 70.7704772949219 74.7129058837891 77.4730987548828 67.1736679077148 73.9618453979492 82.65966796875 84.9252548217773 84.2887115478516 83.4086227416992
-9999 -9999 -9999 -9999 264.641204833984 261.815124511719 270.728271484375 256.593078613281 265.024047851562 269.584197998047 252.320419311523 212.229156494141 162.480880737305 129.016632080078 111.351615905762 100.509872436523 93.8935394287109 85.3966217041016 75.4774398803711 65.0231170654297 57.0901374816895 61.361270904541 71.7260437011719 72.3742523193359 68.635612487793 69.0701599121094 75.9359970092773 81.1554946899414 81.2897109985352 80.5058822631836 80.4045944213867 80.0403137207031 79.4740753173828 78.0929718017578 74.694206237793 72.6279373168945 74.3451232910156 77.2616348266602 79.1251449584961 76.1221313476562 69.4176177978516 67.3441925048828 71.5817031860352 74.8757858276367 73.4134750366211 71.483772277832 77.0772323608398 83.0909042358398 81.8339920043945 78.6093978881836 79.1269836425781 80.6826705932617 80.4376983642578 79.9881973266602 82.7237777709961 82.4313278198242 78.1555633544922 74.5777969360352 72.5266647338867 70.7021789550781 69.3540878295898 72.5382461547852 79.8065490722656 76.0317916870117 64.3475112915039 63.5287246704102 69.4841156005859 78.2385864257812 78.9174880981445 78.3550338745117
-9999 -9999 -9999 248.226963043213 250.51008605957 252.878402709961 267.31982421875 237.268905639648 217.473754882812 176.828887939453 189.832092285156 142.389892578125 116.905570983887 101.365158081055 95.2173843383789 91.6508255004883 85.7124176025391 77.4053039550781 68.4507217407227 58.0836906433105 50.2592468261719 51.3854866027832 62.2839279174805 73.9941253662109 70.8371047973633 67.5771331787109 70.548942565918 75.1279678344727 76.3019485473633 74.1979293823242 73.7802352905273 76.2791900634766 79.5984039306641 81.0485229492188 79.5657272338867 77.3790512084961 75.8848876953125 75.950325012207 75.4372863769531 71.2904968261719 67.6892929077148 68.2705307006836 68.1666641235352 65.5172500610352 66.1338958740234 67.37353515625 71.9484710693359 81.5931701660156 83.1950302124023 78.8469085693359 78.6085815429688 80.4369049072266 81.4237594604492 81.9918060302734 82.9210891723633 81.5363998413086 78.0115509033203 75.8466033935547 75.1066741943359 74.774658203125 76.6293106079102 82.0488967895508 78.1739044189453 67.8365097045898 65.9654083251953 66.5888442993164 63.9438591003418 67.8683090209961 71.5603179931641 72.3144836425781
-9999 -9999 -9999 248.43180847168 229.324752807617 287.007080078125 264.571533203125 233.976272583008 209.176742553711 152.094284057617 119.160148620605 107.803924560547 100.610977172852 96.2553939819336 94.7333221435547 88.5413513183594 80.192138671875 71.8387985229492 63.5868263244629 54.2279357910156 49.4340438842773 46.1831474304199 51.7830467224121 70.3797073364258 72.5536804199219 63.3492240905762 58.4018135070801 59.974193572998 60.6532096862793 60.257942199707 61.4701461791992 64.4908218383789 68.7507934570312 72.0526580810547 72.6266860961914 72.0844955444336 72.4512939453125 73.1834411621094 71.5653228759766 67.8562164306641 66.1698837280273 65.5733032226562 62.1171684265137 59.1028099060059 61.6564292907715 64.1761932373047 66.9502868652344 77.3752136230469 82.2788543701172 77.1407699584961 73.9161224365234 74.4883117675781 76.5478210449219 77.8700485229492 78.5540008544922 79.2843322753906 79.5268402099609 80.3589935302734 82.0239181518555 84.8435363769531 88.8807067871094 87.4890289306641 71.6886978149414 63.354663848877 68.1454772949219 68.4061737060547 65.9648513793945 64.6839981079102 65.9070358276367 66.9570465087891
