NCOLS 70 
NROWS 52 
XLLCORNER -80 
YLLCORNER 33 
CELLSIZE 0.25 
NODATA_value -9999 
-9999.000000000000000 -9999 -9999 -9999 -9999 -9999 -9999 -9999 -9999 -9999 -9999 -9999 -9999 -9999 -9999 -9999 -9999 -9999 -9999 -9999 -9999 -9999 -9999 -9999 -9999 -9999 -9999 -9999 -9999 -9999 -9999 -9999 -9999 -9999 -9999 -9999 -9999 -9999 -9999 -9999 -9999 -9999 -9999 -9999 -9999 -9999 -9999 -9999 -9999 -9999 -9999 -9999 -9999 -9999 -9999 -9999 -9999 -9999 -9999 -9999 -9999 -9999 -9999 -9999 -9999 -9999 -9999 -9999 -9999 -9999
-9999 -9999 -9999 -9999 -9999 -9999 -9999 -9999 -9999 -9999 -9999 -9999 -9999 -9999 -9999 -9999 -9999 -9999 -9999 -9999 -9999 -9999 -9999 -9999 -9999 -9999 -9999 -9999 -9999 -9999 -9999 -9999 -9999 -9999 -9999 -9999 -9999 -9999 -9999 -9999 -9999 -9999 -9999 -9999 -9999 -9999 -9999 -9999 -9999 -9999 -9999 -9999 -9999 -9999 -9999 -9999 -9999 -9999 -9999 -9999 -9999 -9999 -9999 -9999 -9999 -9999 -9999 -9999 -9999 -9999
-9999 -9999 -9999 -9999 -9999 -9999 -9999 -9999 -9999 -9999 -9999 -9999 -9999 -9999 -9999 -9999 -9999 -9999 -9999 -9999 -9999 -9999 -9999 -9999 -9999 -9999 -9999 -9999 -9999 -9999 -9999 -9999 -9999 -9999 -9999 -9999 -9999 -9999 -9999 -9999 -9999 -9999 -9999 -9999 -9999 -9999 -9999 -9999 -9999 -9999 -9999 -9999 -9999 -9999 -9999 -9999 -9999 -9999 -9999 239.810363769531 -9999 -9999 -9999 -9999 -9999 -9999 -9999 -9999 -9999 -9999
-9999 -9999 -9999 -9999 -9999 -9999 -9999 -9999 -9999 -9999 -9999 -9999 -9999 -9999 -9999 -9999 -9999 -9999 -9999 -9999 -9999 -9999 -9999 -9999 -9999 -9999 -9999 -9999 -9999 -9999 -9999 -9999 -9999 -9999 -9999 -9999 -9999 -9999 -9999 -9999 -9999 -9999 -9999 -9999 -9999 -9999 -9999 -9999 -9999 -9999 -9999 -9999 -9999 -9999 -9999 220.245193481445 192.820785522461 204.628295898438 233.41650390625 277.999816894531 -9999 -9999 -9999 -9999 -9999 -9999 -9999 -9999 -9999 -9999
-9999 -9999 -9999 -9999 -9999 -9999 -9999 -9999 -9999 -9999 -9999 -9999 -9999 -9999 -9999 -9999 -9999 -9999 -9999 -9999 -9999 -9999 -9999 -9999 -9999 -9999 -9999 -9999 -9999 -9999 -9999 -9999 -9999 -9999 -9999 -9999 -9999 -9999 -9999 -9999 -9999 -9999 -9999 -9999 -9999 -9999 -9999 -9999 -9999 -9999 -9999 -9999 324.866027832031 338.253112792969 306.548065185547 240.736465454102 218.954345703125 243.956329345703 -9999 -9999 -9999 -9999 -9999 -9999 -9999 -9999 -9999 -9999 -9999 -9999
-9999 -9999 -9999 -9999 -9999 -9999 -9999 -9999 -9999 -9999 -9999 -9999 -9999 -9999 -9999 -9999 -9999 -9999 -9999 -9999 -9999 -9999 -9999 -9999 -9999 -9999 -9999 -9999 -9999 -9999 -9999 -9999 -9999 -9999 -9999 -9999 -9999 -9999 -9999 -9999 -9999 -9999 -9999 -9999 -9999 -9999 -9999 -9999 -9999 -9999 148.24430847168 187.27717590332 169.89338684082 204.336791992188 267.519897460938 294.987335205078 -9999 -9999 -9999 -9999 -9999 -9999 -9999 -9999 -9999 -9999 -9999 64.7148971557617 71.3747711181641 95.4822769165039
-9999 -9999 -9999 -9999 -9999 -9999 -9999 -9999 -9999 -9999 -9999 -9999 -9999 -9999 -9999 -9999 -9999 -9999 -9999 -9999 -9999 -9999 -9999 -9999 -9999 -9999 -9999 -9999 -9999 -9999 -9999 -9999 -9999 -9999 -9999 -9999 -9999 -9999 -9999 -9999 -9999 -9999 -9999 -9999 284.442677815755 -9999 -9999 165.284624099731 102.865074157715 108.981056213379 100.097396850586 92.0102767944336 111.561668395996 207.105239868164 279.689758300781 -9999 -9999 -9999 -9999 -9999 -9999 -9999 -9999 68.4179992675781 58.3560180664062 71.1516265869141 66.5446548461914 64.4912338256836 63.1088027954102 62.4167709350586
-9999 -9999 -9999 -9999 -9999 -9999 -9999 -9999 -9999 -9999 -9999 -9999 -9999 -9999 -9999 -9999 -9999 -9999 -9999 -9999 -9999 -9999 -9999 -9999 -9999 -9999 -9999 -9999 -9999 -9999 -9999 -9999 -9999 -9999 -9999 -9999 -9999 -9999 -9999 -9999 -9999 -9999 -9999 -9999 286.912841796875 301.003692626953 251.389892578125 178.063278198242 128.820251464844 98.4144439697266 79.7807083129883 92.4208145141602 148.321014404297 227.747177124023 240.041870117188 -9999 -9999 -9999 -9999 -9999 -9999 -9999 57.1751365661621 58.172966003418 58.1575698852539 57.914981842041 57.6978492736816 58.0400123596191 58.6813697814941 58.8765449523926
-9999 -9999 -9999 -9999 -9999 -9999 -9999 -9999 -9999 -9999 -9999 -9999 -9999 -9999 -9999 -9999 -9999 -9999 -9999 -9999 -9999 -9999 -9999 -9999 -9999 -9999 -9999 -9999 -9999 -9999 -9999 -9999 -9999 -9999 -9999 -9999 -9999 -9999 -9999 -9999 255.890930175781 238.003972371419 221.508526611328 220.223587036133 171.235015869141 138.209945678711 124.568550109863 107.66185760498 91.7693786621094 81.2234420776367 73.1512756347656 87.3761596679688 152.872207641602 245.625305175781 281.536270141602 -9999 -9999 -9999 -9999 -9999 86.6271082560221 73.1208877563477 67.4007568359375 63.2618789672852 59.9956474304199 56.5343551635742 53.3537979125977 53.6273155212402 55.3395957946777 55.2033271789551
-9999 -9999 -9999 -9999 -9999 -9999 -9999 -9999 -9999 -9999 -9999 -9999 -9999 -9999 -9999 -9999 -9999 -9999 -9999 -9999 -9999 -9999 -9999 -9999 -9999 -9999 -9999 -9999 -9999 -9999 -9999 -9999 -9999 -9999 -9999 -9999 -9999 -9999 -9999 263.839904785156 258.94921875 244.883666992188 210.17903137207 166.844848632812 134.61067199707 113.638687133789 96.7035140991211 81.7511749267578 73.9303131103516 72.4531097412109 70.4483795166016 74.1631622314453 122.659576416016 239.799285888672 365.553161621094 328.956420898438 -9999 -9999 -9999 124.245115280151 100.280303955078 86.4801330566406 74.8436737060547 67.0007553100586 61.5827026367188 56.6859741210938 52.3021011352539 53.02490234375 56.3069381713867 55.8375778198242
-9999 -9999 -9999 -9999 -9999 -9999 -9999 -9999 -9999 -9999 -9999 -9999 -9999 -9999 -9999 -9999 -9999 -9999 -9999 -9999 -9999 -9999 -9999 -9999 -9999 -9999 -9999 -9999 -9999 -9999 -9999 -9999 -9999 -9999 -9999 -9999 -9999 -9999 193.001454162598 179.77766418457 151.131225585938 115.514869689941 104.740158081055 104.881683349609 107.177452087402 100.401458740234 82.5758819580078 71.3234329223633 69.2258682250977 69.079963684082 68.1920166015625 66.9090576171875 86.5979843139648 165.872161865234 273.000244140625 337.921569824219 254.361404418945 197.216073354085 190.537200927734 118.394721984863 87.7682342529297 73.2791137695312 65.4710388183594 61.6828994750977 60.4036254882812 58.8523216247559 54.4766159057617 54.5331687927246 59.4916343688965 62.9316749572754
-9999 -9999 -9999 -9999 -9999 -9999 -9999 -9999 -9999 -9999 -9999 -9999 -9999 -9999 -9999 -9999 -9999 -9999 -9999 -9999 -9999 -9999 -9999 -9999 -9999 -9999 -9999 -9999 -9999 -9999 -9999 -9999 -9999 -9999 -9999 -9999 -9999 212.520645141602 181.952911376953 126.916145324707 90.2337341308594 80.6844863891602 84.1935806274414 91.103401184082 94.545051574707 86.5583190917969 73.6806030273438 70.3072204589844 70.7373886108398 70.0422592163086 68.5388412475586 66.0788192749023 67.5857009887695 92.6866683959961 149.731185913086 193.110107421875 199.242034912109 164.940948486328 109.233406066895 78.1001586914062 63.6432418823242 58.2692489624023 57.8094215393066 58.4656829833984 59.7110176086426 60.2477111816406 58.1469688415527 59.2336540222168 61.328441619873 66.5522079467773
-9999 -9999 -9999 -9999 -9999 -9999 -9999 -9999 -9999 -9999 -9999 -9999 -9999 -9999 -9999 -9999 -9999 -9999 -9999 -9999 -9999 -9999 -9999 -9999 -9999 -9999 -9999 -9999 -9999 -9999 -9999 -9999 -9999 -9999 -9999 -9999 -9999 254.739990234375 202.556686401367 120.496444702148 84.2602691650391 82.2630233764648 85.7332382202148 86.4060821533203 82.1718673706055 75.719108581543 72.8759536743164 73.1952896118164 73.4405975341797 71.9039077758789 70.0037612915039 67.9030456542969 68.1376724243164 79.6242446899414 102.370544433594 114.148590087891 111.438995361328 101.012985229492 83.4118347167969 67.2749862670898 58.8214111328125 57.8829803466797 59.4632034301758 60.5274200439453 60.7579650878906 61.0073623657227 60.4316940307617 61.9186477661133 63.0158996582031 63.7532844543457
-9999 -9999 -9999 -9999 -9999 -9999 -9999 -9999 -9999 -9999 -9999 -9999 -9999 -9999 -9999 -9999 -9999 -9999 -9999 -9999 -9999 -9999 -9999 -9999 -9999 -9999 -9999 -9999 -9999 -9999 -9999 -9999 -9999 -9999 -9999 -9999 -9999 279.064880371094 189.138412475586 113.407806396484 84.1190872192383 81.6297607421875 82.9095077514648 79.9977035522461 75.9297714233398 74.5240631103516 72.7117462158203 72.7595672607422 73.6750793457031 72.8043060302734 71.8309097290039 72.8309860229492 76.500617980957 80.8478012084961 82.7300186157227 81.2890853881836 81.1531600952148 80.6871337890625 76.9018173217773 68.5517807006836 62.6172714233398 63.0640716552734 66.2934875488281 67.7218170166016 66.6426239013672 65.4023056030273 64.5510101318359 65.0480117797852 66.5603713989258 69.0509185791016
-9999 -9999 -9999 -9999 -9999 -9999 -9999 -9999 -9999 -9999 -9999 -9999 -9999 -9999 -9999 -9999 -9999 -9999 -9999 -9999 -9999 -9999 -9999 -9999 -9999 -9999 -9999 -9999 -9999 -9999 -9999 -9999 -9999 -9999 -9999 -9999 434.635192871094 308.743988037109 166.438339233398 99.9952163696289 85.0004806518555 80.6422882080078 79.2183151245117 76.2874298095703 74.370491027832 73.3269653320312 71.2165145874023 70.3616104125977 72.5278701782227 74.2045059204102 74.1219177246094 74.1541976928711 73.8861694335938 72.0183715820312 74.4609069824219 76.7799301147461 78.3955535888672 78.5346221923828 76.7396774291992 72.4561309814453 70.8254470825195 71.8125228881836 75.9534072875977 78.7008819580078 79.171745300293 78.4928665161133 77.8591156005859 77.6699676513672 77.7554550170898 78.6644821166992
-9999 -9999 -9999 -9999 -9999 -9999 -9999 -9999 -9999 -9999 -9999 -9999 -9999 -9999 -9999 -9999 -9999 -9999 -9999 -9999 -9999 -9999 -9999 -9999 -9999 -9999 -9999 -9999 -9999 -9999 -9999 -9999 -9999 -9999 -9999 -9999 -9999 212.194763183594 152.782348632812 102.455810546875 98.5311508178711 87.8417739868164 79.9192047119141 76.636474609375 74.8947143554688 74.9737243652344 75.6501007080078 74.6467590332031 76.6743927001953 80.0630187988281 80.2307968139648 77.3795776367188 75.1380310058594 74.2969970703125 77.6382141113281 77.526123046875 74.2545471191406 73.9972839355469 77.3216934204102 77.7993774414062 79.5342712402344 83.0200958251953 83.7833023071289 82.6740875244141 82.238639831543 82.1553802490234 81.9662017822266 81.669059753418 81.3879776000977 81.0343704223633
-9999 -9999 -9999 -9999 -9999 -9999 -9999 -9999 -9999 -9999 -9999 -9999 -9999 -9999 -9999 -9999 -9999 -9999 -9999 -9999 -9999 -9999 -9999 -9999 -9999 -9999 -9999 -9999 -9999 -9999 -9999 -9999 -9999 -9999 -9999 -9999 -9999 -9999 108.833000183105 -9999 117.765151977539 100.501083374023 86.8823928833008 82.4809036254883 80.6477203369141 81.4112014770508 84.3523101806641 88.9472808837891 93.6282653808594 94.143669128418 91.2739028930664 84.9833908081055 80.1687088012695 79.5025863647461 82.1463394165039 78.9462966918945 73.6844329833984 78.3432464599609 87.6441192626953 89.6485443115234 88.8980865478516 86.1896514892578 80.7814331054688 78.1344451904297 78.661865234375 79.0570449829102 78.9412155151367 78.4252548217773 77.7249374389648 76.6586837768555
-9999 -9999 -9999 -9999 -9999 -9999 -9999 -9999 -9999 -9999 -9999 -9999 -9999 -9999 -9999 -9999 -9999 -9999 -9999 -9999 -9999 -9999 -9999 -9999 -9999 -9999 -9999 -9999 -9999 -9999 -9999 -9999 -9999 -9999 -9999 -9999 -9999 -9999 -9999 -9999 139.873794555664 113.613014221191 92.6792068481445 86.630500793457 85.422477722168 86.3596038818359 92.20263671875 101.095947265625 104.377029418945 103.823577880859 98.8322296142578 90.7173080444336 85.9970321655273 85.4609451293945 83.9791870117188 76.2919311523438 73.733039855957 85.6660232543945 95.7505264282227 94.2780532836914 87.4805221557617 80.4342880249023 76.859375 75.9328765869141 76.2769165039062 76.744010925293 76.4893188476562 75.6429061889648 74.6288604736328 74.0307769775391
-9999 -9999 -9999 -9999 -9999 -9999 -9999 -9999 -9999 -9999 -9999 -9999 -9999 -9999 -9999 -9999 -9999 -9999 -9999 -9999 -9999 -9999 -9999 -9999 -9999 -9999 -9999 -9999 -9999 -9999 -9999 -9999 -9999 -9999 201.001342773438 228.40185546875 213.00016784668 -9999 172.860916137695 164.050567626953 152.36897277832 132.087387084961 102.845283508301 87.6308517456055 85.5086669921875 88.4697418212891 97.1614151000977 105.556915283203 106.351753234863 104.758682250977 98.5658569335938 89.794807434082 91.2121353149414 93.1624908447266 86.5942764282227 76.7550201416016 81.5350875854492 97.1379699707031 101.798759460449 94.9397811889648 84.786247253418 80.1584396362305 80.1066207885742 79.2000274658203 76.4925155639648 75.6884460449219 75.0706787109375 74.5958709716797 74.3783950805664 74.789680480957
-9999 -9999 -9999 -9999 -9999 -9999 -9999 -9999 -9999 -9999 -9999 -9999 -9999 -9999 -9999 -9999 -9999 -9999 -9999 -9999 -9999 -9999 -9999 -9999 -9999 -9999 -9999 690.929504394531 690.929504394531 575.940490722656 450.195587158203 336.927185058594 269.019744873047 221.626205444336 191.835891723633 162.141418457031 131.104370117188 119.642868041992 123.928833007812 123.747718811035 128.43879699707 132.250305175781 112.762115478516 92.0902557373047 86.1870422363281 91.7467956542969 100.36695098877 105.820755004883 104.837051391602 97.7540283203125 90.9103927612305 87.2902450561523 86.905632019043 86.1158828735352 82.5719909667969 80.7953186035156 90.1609878540039 101.383842468262 103.326095581055 98.2235412597656 92.6282348632812 88.8523941040039 86.2452621459961 85.822151184082 82.3731536865234 78.0136032104492 76.0365905761719 76.2721710205078 76.7192077636719 77.2965621948242
-9999 -9999 -9999 -9999 -9999 -9999 -9999 -9999 -9999 -9999 -9999 -9999 -9999 -9999 -9999 -9999 -9999 -9999 -9999 -9999 -9999 -9999 -9999 -9999 -9999 -9999 -9999 -9999 -9999 -9999 345.070556640625 274.286224365234 209.361267089844 147.841262817383 119.142181396484 105.43815612793 100.646095275879 104.974739074707 108.679985046387 105.533004760742 114.753326416016 117.493240356445 105.880859375 93.496711730957 87.8367156982422 92.2477111816406 98.2024765014648 99.9607086181641 96.2118835449219 91.6616287231445 88.1945266723633 86.619384765625 86.3495559692383 84.0930023193359 84.6663131713867 89.1835098266602 96.0117568969727 100.375411987305 102.634292602539 103.92894744873 104.331726074219 102.979713439941 98.9074783325195 93.2924041748047 88.7940063476562 83.5870742797852 80.9132461547852 82.9831390380859 84.3474502563477 84.8102645874023
-9999 -9999 -9999 -9999 -9999 -9999 -9999 -9999 -9999 -9999 -9999 -9999 -9999 -9999 -9999 -9999 -9999 -9999 -9999 -9999 -9999 -9999 -9999 -9999 -9999 511.641642252604 393.93999226888 301.298502604167 254.685871124268 293.668060302734 237.092178344727 197.790390014648 165.668319702148 138.013549804688 120.969009399414 109.787246704102 100.274116516113 96.5962829589844 97.7111129760742 99.9669036865234 101.756370544434 99.0074081420898 94.4988479614258 90.7412338256836 88.1225204467773 89.1269836425781 92.7337112426758 93.3695526123047 92.113883972168 91.0354537963867 91.9930648803711 95.0900497436523 98.5895233154297 101.809661865234 105.292472839355 108.529815673828 111.078971862793 112.143829345703 112.597259521484 112.961013793945 112.632751464844 110.798690795898 106.660186767578 100.132652282715 93.3312454223633 87.6808013916016 87.0152435302734 91.9538269042969 92.1260070800781 90.7698669433594
-9999 -9999 -9999 -9999 -9999 -9999 -9999 -9999 -9999 -9999 -9999 -9999 -9999 -9999 -9999 -9999 -9999 -9999 -9999 -9999 -9999 -9999 -9999 -9999 639.760009765625 517.21240234375 377.952514648438 286.655059814453 239.287933349609 199.132431030273 171.772048950195 158.476135253906 155.524383544922 155.021286010742 150.285308837891 140.7236328125 126.299545288086 111.213325500488 100.988395690918 95.4362411499023 91.153923034668 88.9364318847656 90.3595352172852 92.4188613891602 93.46923828125 97.3486862182617 108.083786010742 120.600883483887 127.357940673828 127.683662414551 126.977119445801 128.650665283203 131.616256713867 134.438278198242 136.239074707031 136.237213134766 135.046768188477 133.352081298828 129.88623046875 125.328323364258 121.442047119141 119.537460327148 114.437530517578 106.999267578125 97.8810958862305 91.0515441894531 91.3912048339844 96.0181655883789 93.423698425293 88.6499252319336
-9999 -9999 -9999 -9999 -9999 -9999 -9999 -9999 -9999 -9999 -9999 -9999 -9999 -9999 -9999 -9999 -9999 -9999 -9999 -9999 -9999 -9999 -9999 -9999 508.787628173828 355.064819335938 231.875045776367 181.976501464844 165.009368896484 156.774108886719 155.777770996094 162.024383544922 170.02067565918 173.099212646484 170.021957397461 163.091552734375 152.960952758789 140.540939331055 128.58561706543 118.28288269043 109.246559143066 104.389457702637 107.416519165039 115.97679901123 124.609191894531 132.324005126953 145.212097167969 158.714935302734 163.314117431641 160.216400146484 155.126876831055 151.600509643555 149.299667358398 147.170745849609 144.54753112793 141.086715698242 137.951904296875 136.397445678711 134.645141601562 131.037521362305 126.700675964355 124.22721862793 120.470504760742 114.699195861816 105.381973266602 95.5850601196289 91.3135452270508 91.2778091430664 88.9941864013672 86.0730438232422
-9999 -9999 -9999 -9999 -9999 -9999 -9999 -9999 -9999 -9999 -9999 -9999 -9999 -9999 -9999 -9999 -9999 -9999 -9999 -9999 -9999 -9999 -9999 459.473617553711 475.555786132812 347.963928222656 244.477737426758 197.694259643555 185.132598876953 180.241744995117 179.748336791992 181.846038818359 180.938247680664 173.449005126953 160.842926025391 148.824554443359 142.118423461914 139.01057434082 136.395797729492 132.631851196289 129.937133789062 131.646514892578 140.221969604492 152.767791748047 162.197540283203 162.625228881836 160.168853759766 157.428588867188 153.323165893555 149.321258544922 146.797378540039 145.115600585938 143.042602539062 140.04264831543 136.787017822266 134.315658569336 133.359375 133.733444213867 134.869125366211 134.570037841797 131.359130859375 126.135070800781 122.819999694824 119.38988494873 113.331100463867 104.160667419434 95.7919998168945 91.449348449707 90.3051910400391 91.3823852539062
-9999 -9999 -9999 -9999 -9999 -9999 -9999 -9999 -9999 -9999 -9999 -9999 -9999 -9999 -9999 -9999 -9999 -9999 -9999 -9999 -9999 -9999 -9999 419.137145996094 434.413909912109 342.163970947266 267.066802978516 225.611129760742 208.714477539062 201.966674804688 195.565338134766 184.412582397461 167.92041015625 149.942779541016 134.18147277832 123.628807067871 120.488800048828 121.922897338867 124.355911254883 127.90225982666 136.303314208984 148.846206665039 160.069732666016 163.074584960938 159.328506469727 151.115127563477 142.729782104492 138.639205932617 139.463592529297 142.996246337891 146.288665771484 147.065582275391 144.82080078125 141.254745483398 138.174194335938 136.226135253906 135.256622314453 135.06770324707 135.811553955078 135.538665771484 131.128875732422 123.819404602051 118.482192993164 116.542190551758 115.709091186523 112.854766845703 108.426116943359 105.275672912598 105.293395996094 108.170249938965
-9999 -9999 -9999 -9999 -9999 -9999 -9999 -9999 -9999 -9999 -9999 -9999 -9999 -9999 -9999 -9999 -9999 -9999 -9999 -9999 -9999 -9999 485.975982666016 446.659454345703 384.440277099609 316.998077392578 258.840942382812 231.198104858398 220.219055175781 213.874649047852 202.879821777344 184.349822998047 162.828689575195 146.182815551758 133.982498168945 123.395195007324 116.73802947998 116.885925292969 122.975257873535 134.10498046875 147.661697387695 156.231201171875 153.808578491211 142.949234008789 132.409164428711 125.873138427734 124.687294006348 128.93571472168 136.239181518555 144.009918212891 149.341873168945 149.147216796875 143.798095703125 137.502990722656 134.221649169922 134.312454223633 135.70849609375 136.677871704102 135.800491333008 131.735900878906 124.427429199219 117.27880859375 112.958923339844 111.999008178711 113.688354492188 116.214469909668 118.368537902832 119.64330291748 120.661567687988 121.226142883301
-9999 -9999 -9999 -9999 -9999 -9999 -9999 -9999 -9999 -9999 -9999 -9999 -9999 -9999 656.419542100694 -9999 -9999 -9999 -9999 609.63623046875 -9999 450.993194580078 472.77197265625 418.518920898438 345.967590332031 284.220336914062 252.566970825195 240.798919677734 233.469390869141 223.326095581055 209.565795898438 192.863967895508 178.755661010742 168.728729248047 154.12158203125 137.780014038086 125.296173095703 120.621589660645 127.729690551758 141.92546081543 150.603515625 144.7666015625 130.114715576172 118.303077697754 111.846961975098 109.875198364258 114.667861938477 125.798301696777 138.496719360352 148.28239440918 151.845565795898 146.395156860352 135.201156616211 126.399536132812 124.261375427246 127.607849121094 133.168258666992 135.182418823242 128.9609375 119.533798217773 113.277976989746 110.832290649414 110.314376831055 110.896324157715 112.783508300781 115.161804199219 116.487182617188 115.785636901855 114.078552246094 112.594635009766
-9999 -9999 -9999 -9999 -9999 -9999 -9999 -9999 -9999 -9999 -9999 -9999 -9999 -9999 653.10595703125 -9999 -9999 -9999 -9999 567.120086669922 526.573370361328 515.707824707031 439.755065917969 355.921417236328 301.353546142578 268.233673095703 251.463989257812 241.683547973633 230.23991394043 217.421646118164 206.17431640625 196.680633544922 189.836441040039 183.519561767578 173.203796386719 163.238662719727 153.333099365234 142.699569702148 138.995727539062 143.329345703125 142.254333496094 127.829223632812 112.520263671875 105.551055908203 102.99536895752 103.981063842773 113.003845214844 128.819534301758 143.549041748047 151.275787353516 149.375823974609 137.021850585938 122.188659667969 114.827079772949 116.037582397461 122.845947265625 131.085464477539 128.674087524414 114.69506072998 104.26634979248 101.739776611328 102.5966796875 103.918167114258 104.405632019043 102.974273681641 100.378623962402 98.1519470214844 96.6430892944336 96.1574783325195 95.1877212524414
-9999 -9999 -9999 -9999 -9999 -9999 -9999 -9999 -9999 -9999 -9999 -9999 -9999 -9999 668.01708984375 -9999 -9999 -9999 -9999 -9999 492.704261779785 531.925659179688 400.918121337891 332.545684814453 298.73046875 273.369049072266 249.862884521484 229.087188720703 211.803451538086 198.174362182617 188.074783325195 181.268325805664 177.134368896484 175.060028076172 174.918212890625 175.112197875977 172.968902587891 168.434524536133 160.857009887695 152.418746948242 141.455505371094 123.327453613281 108.389595031738 102.332275390625 101.12345123291 105.067726135254 117.214714050293 134.389175415039 147.126922607422 149.946365356445 142.376525878906 126.306106567383 112.444465637207 109.373054504395 114.256774902344 123.065803527832 127.879623413086 118.043991088867 103.819923400879 98.7675018310547 98.6862564086914 99.5325241088867 99.525993347168 97.7034378051758 93.3081436157227 87.969856262207 84.8039169311523 83.9269943237305 83.4802169799805 81.1298522949219
-9999 -9999 -9999 -9999 -9999 -9999 -9999 -9999 -9999 -9999 -9999 -9999 -9999 -9999 628.386657714844 -9999 608.37255859375 -9999 -9999 -9999 438.941436767578 484.242126464844 377.496856689453 327.019256591797 296.786529541016 265.965728759766 233.982070922852 206.744262695312 188.228973388672 177.005493164062 168.144683837891 159.88655090332 153.825881958008 152.195465087891 155.838592529297 162.098861694336 167.955291748047 173.525283813477 174.937973022461 167.567230224609 153.528945922852 134.866943359375 116.870910644531 106.714096069336 105.453674316406 112.349517822266 125.925849914551 140.611709594727 147.390777587891 143.68522644043 132.461074829102 116.869087219238 106.474067687988 107.760551452637 114.914154052734 121.768707275391 119.002563476562 106.496269226074 98.6358642578125 97.4633178710938 97.8539810180664 98.7824249267578 99.0291900634766 98.6479034423828 97.1168594360352 93.4416122436523 88.5372085571289 84.5931091308594 80.5296249389648 75.8758697509766
-9999 -9999 -9999 -9999 -9999 -9999 -9999 -9999 -9999 -9999 -9999 -9999 -9999 -9999 628.386657714844 588.756225585938 476.705780029297 -9999 -9999 517.820854187012 516.63525390625 467.363250732422 375.355682373047 320.672698974609 280.740386962891 239.009094238281 204.888153076172 183.254470825195 172.032028198242 163.045486450195 150.314819335938 135.5732421875 124.196624755859 119.352615356445 121.227180480957 128.430679321289 138.866561889648 151.448211669922 163.456314086914 168.548736572266 163.816314697266 151.751251220703 136.218475341797 124.609176635742 122.299858093262 128.64338684082 139.394119262695 146.925643920898 144.510177612305 134.986312866211 123.138206481934 110.41463470459 103.203056335449 106.77254486084 113.448554992676 115.648696899414 108.091194152832 97.7404479980469 94.2090072631836 93.4238815307617 93.7298889160156 94.8009948730469 95.7919616699219 97.4344635009766 98.9054641723633 98.5671768188477 95.1079406738281 90.0026702880859 83.9637222290039 76.1135406494141
-9999 -9999 -9999 -9999 -9999 -9999 -9999 -9999 -9999 -9999 -9999 -9999 -9999 -9999 -9999 446.968780517578 402.763122558594 -9999 516.780487060547 591.609069824219 524.09765625 418.065277099609 354.955993652344 303.436553955078 250.714813232422 206.772537231445 181.162704467773 170.320388793945 164.356597900391 152.049179077148 130.910125732422 108.824310302734 95.1586074829102 89.8739471435547 89.550666809082 92.9281387329102 100.544479370117 113.23210144043 130.187713623047 146.85400390625 156.117202758789 155.729690551758 149.382446289062 142.126266479492 139.903411865234 143.613998413086 148.650451660156 147.967575073242 138.665481567383 126.57154083252 116.197204589844 106.861419677734 101.780158996582 105.360992431641 109.550651550293 107.739761352539 99.6170120239258 92.3395385742188 90.2294540405273 89.7032318115234 89.9852752685547 90.4652481079102 92.2072372436523 95.3859024047852 97.5540466308594 98.142448425293 97.3631134033203 96.0065841674805 92.6651153564453 80.5376892089844
-9999 -9999 -9999 -9999 -9999 -9999 -9999 -9999 -9999 -9999 -9999 -9999 -9999 -9999 -9999 383.199523925781 383.419250488281 -9999 490.366729736328 549.092346191406 431.195678710938 369.610534667969 334.816619873047 274.919952392578 218.399887084961 184.250518798828 169.334518432617 165.692459106445 160.575225830078 144.987014770508 118.694145202637 93.7845916748047 81.9517135620117 78.5576400756836 77.7929763793945 78.4021224975586 80.9439010620117 87.177490234375 98.6913681030273 114.908576965332 130.639373779297 139.919540405273 142.273452758789 141.175338745117 141.317352294922 143.668716430664 143.790802001953 137.216857910156 126.023101806641 115.474739074707 108.248878479004 102.911361694336 100.431381225586 103.115219116211 104.492324829102 100.91584777832 94.8089447021484 90.4179992675781 89.5206832885742 89.6038513183594 89.2099533081055 89.0917358398438 92.7105331420898 97.8907241821289 99.8275985717773 98.6080322265625 96.3703002929688 96.3122253417969 98.7485275268555 90.6117172241211
-9999 -9999 -9999 -9999 -9999 -9999 -9999 -9999 -9999 -9999 -9999 -9999 -9999 -9999 -9999 368.85400390625 -9999 460.50596836635 516.456604003906 450.182220458984 387.599761962891 376.845794677734 327.857482910156 249.940902709961 195.438095092773 170.343887329102 164.286682128906 164.624298095703 161.092178344727 145.362396240234 116.584381103516 89.8116607666016 79.3683090209961 77.0561370849609 75.7460250854492 75.1339263916016 75.2881011962891 77.0216064453125 81.7756118774414 90.9613418579102 103.281532287598 114.488754272461 121.236015319824 124.3974609375 126.81852722168 128.300491333008 125.687019348145 118.574005126953 110.371528625488 104.043228149414 100.953765869141 99.3725051879883 98.9028015136719 100.34407043457 99.762809753418 96.8484649658203 94.2458267211914 92.6079864501953 92.0707778930664 91.8543930053711 90.5994644165039 90.9173202514648 96.8062515258789 102.497985839844 102.702903747559 99.0436248779297 94.960693359375 93.1380004882812 95.9616165161133 96.6824798583984
-9999 -9999 -9999 -9999 -9999 -9999 -9999 -9999 -9999 -9999 -9999 -9999 -9999 -9999 368.85400390625 383.01318359375 405.717468261719 526.11328125 527.000366210938 433.963531494141 422.936096191406 415.428039550781 324.517578125 229.819686889648 178.268829345703 159.88720703125 159.576782226562 164.151596069336 164.451354980469 150.949157714844 121.365882873535 91.7310028076172 80.1745071411133 77.7266082763672 75.7965927124023 75.0023651123047 74.8606109619141 75.2480850219727 76.8380126953125 81.3792266845703 89.3843841552734 98.3954391479492 104.612648010254 108.201683044434 111.364692687988 112.134925842285 108.926712036133 104.726928710938 99.7055206298828 96.6280975341797 97.7560195922852 99.0281143188477 98.5488204956055 98.2109680175781 96.5818786621094 94.8261795043945 95.6969375610352 97.7219924926758 97.8160018920898 97.091552734375 95.4985427856445 96.2765960693359 102.25464630127 105.782279968262 103.212608337402 98.9606781005859 96.1418533325195 94.0200500488281 91.2744674682617 93.6982955932617
-9999 -9999 -9999 -9999 -9999 -9999 -9999 -9999 -9999 -9999 -9999 -9999 -9999 -9999 -9999 -9999 553.986892700195 606.063415527344 557.015319824219 497.981994628906 480.857086181641 444.989929199219 320.325988769531 211.040176391602 165.856597900391 154.027069091797 155.153381347656 162.58610534668 167.11930847168 157.348709106445 128.936172485352 96.5534362792969 82.2154083251953 79.9646682739258 78.1850204467773 77.097541809082 76.3647689819336 76.0382690429688 76.6664657592773 79.6568450927734 85.937858581543 92.8211517333984 97.0514755249023 99.4726104736328 101.849830627441 101.597015380859 98.8814468383789 97.5487670898438 93.5727691650391 91.4301452636719 95.8823852539062 99.7705383300781 98.6677627563477 96.8338317871094 94.9455871582031 93.9352493286133 96.3678588867188 99.6491622924805 100.020133972168 99.2884750366211 97.6929779052734 97.0736618041992 101.503242492676 105.127243041992 104.863349914551 103.118911743164 100.798362731934 92.3679962158203 82.0238189697266 90.2016525268555
-9999 -9999 -9999 -9999 -9999 -9999 -9999 -9999 -9999 -9999 -9999 -9999 -9999 -9999 -9999 -9999 642.058410644531 678.053405761719 642.651550292969 559.128540039062 528.530395507812 459.654235839844 310.228210449219 189.927169799805 153.435928344727 149.299911499023 149.716033935547 158.45866394043 168.010498046875 164.086944580078 139.046630859375 104.127662658691 84.8883361816406 82.9872055053711 82.7550048828125 82.3840713500977 82.1946334838867 82.1722564697266 83.3776626586914 86.7855224609375 91.838005065918 95.5515518188477 96.9533843994141 99.4239273071289 101.442245483398 97.4384841918945 94.2753677368164 93.3876647949219 89.1813812255859 88.1714401245117 93.900016784668 98.1813201904297 96.7721099853516 95.2901306152344 94.1578750610352 93.6550750732422 95.9248352050781 99.1148681640625 99.9971084594727 98.8785858154297 95.4672775268555 91.4164047241211 95.2641143798828 102.569595336914 106.419105529785 104.211624145508 97.0211639404297 83.1901702880859 77.1404495239258 84.7995147705078
-9999 -9999 -9999 -9999 -9999 -9999 -9999 -9999 -9999 -9999 -9999 -9999 -9999 -9999 -9999 -9999 -9999 680.728668212891 696.197021484375 594.05126953125 540.079223632812 454.510650634766 288.359588623047 167.739868164062 139.883026123047 142.561248779297 143.777603149414 153.988296508789 168.589431762695 171.231506347656 151.427780151367 114.018531799316 87.7647323608398 85.037483215332 86.7888946533203 88.4234619140625 91.2126312255859 94.6167907714844 99.0083999633789 104.440689086914 108.91382598877 108.95255279541 106.074813842773 104.842330932617 100.051551818848 91.5542678833008 89.9805145263672 89.3569869995117 85.977424621582 87.5467300415039 92.5590744018555 95.0640411376953 93.2212829589844 93.4081878662109 93.5860900878906 92.5728378295898 93.8398590087891 94.106315612793 89.1834564208984 85.3342895507812 85.5383377075195 85.6654205322266 89.2785720825195 92.9268493652344 94.5580291748047 91.1112289428711 83.5218887329102 77.0012817382812 81.4529342651367 84.8218383789062
-9999 -9999 -9999 -9999 -9999 -9999 -9999 -9999 -9999 -9999 -9999 -9999 -9999 -9999 669.054656982422 678.053405761719 691.474906921387 701.104858398438 706.0126953125 627.2548828125 540.535949707031 435.574096679688 258.477386474609 149.132308959961 130.381271362305 135.310546875 138.046936035156 151.179275512695 171.010528564453 177.21630859375 162.354629516602 123.873100280762 90.3617935180664 84.0826034545898 85.7749481201172 87.6117401123047 90.1098175048828 93.1070251464844 95.0049819946289 96.7794952392578 98.0975799560547 96.6870651245117 95.2301559448242 93.5370635986328 86.2758941650391 82.633171081543 85.0277862548828 85.4752960205078 85.4323425292969 88.6884536743164 91.6922607421875 93.3790893554688 92.6804580688477 92.9238052368164 92.1907730102539 89.9932174682617 88.5565490722656 83.7709426879883 80.1487274169922 81.8899536132812 82.9208068847656 83.6774673461914 85.6064682006836 85.4731140136719 83.6409912109375 79.328239440918 77.5102844238281 79.4813995361328 83.8968048095703 86.2890472412109
-9999 -9999 -9999 -9999 -9999 -9999 -9999 -9999 -9999 -9999 -9999 -9999 -9999 -9999 -9999 -9999 -9999 -9999 667.722305297852 657.525329589844 557.4052734375 413.64111328125 231.537948608398 138.617050170898 125.502098083496 129.291610717773 134.482238769531 151.118179321289 172.779190063477 181.215835571289 170.940719604492 134.520812988281 96.9551391601562 84.7265930175781 83.8302764892578 85.5500869750977 88.4442901611328 91.7009658813477 93.7799835205078 92.2452087402344 85.9960861206055 80.5651397705078 80.8251571655273 81.656852722168 78.3539352416992 78.6258544921875 80.8580017089844 82.3085479736328 84.5111083984375 87.5374145507812 89.5197830200195 91.0245742797852 90.4986190795898 89.3647994995117 88.1039810180664 86.6441955566406 83.0385894775391 79.8812026977539 82.3195266723633 80.7887573242188 78.2340698242188 77.0554962158203 76.4100189208984 75.0473480224609 74.9360427856445 78.0725250244141 81.4327774047852 80.1396026611328 82.42041015625 85.2215270996094
-9999 -9999 -9999 -9999 -9999 -9999 -9999 -9999 -9999 -9999 -9999 -9999 -9999 -9999 -9999 -9999 -9999 649.143798828125 674.578125 680.096313476562 570.535034179688 396.036712646484 223.335708618164 142.9072265625 125.110656738281 126.946128845215 137.292709350586 155.93635559082 173.974060058594 183.260940551758 175.649322509766 141.027069091797 104.620323181152 91.0133895874023 84.8879776000977 81.8683929443359 83.0555419921875 86.8326110839844 91.1403503417969 94.25537109375 91.8348617553711 82.9831848144531 77.6448516845703 75.924186706543 73.9004745483398 74.9574127197266 76.5013656616211 77.9193115234375 79.8471527099609 81.7750244140625 83.4222412109375 84.6482543945312 84.7255477905273 84.5501556396484 84.6441497802734 83.078369140625 78.790168762207 77.5359268188477 77.113525390625 74.106819152832 71.6619338989258 69.4866561889648 66.1035003662109 63.3233451843262 63.9082069396973 68.7521209716797 74.7883911132812 77.6854248046875 76.9011383056641 79.3324813842773
-9999 -9999 -9999 -9999 -9999 -9999 -9999 -9999 -9999 -9999 -9999 -9999 -9999 366.088653564453 358.831058078342 -9999 434.807693481445 546.834144592285 649.143798828125 711.547058105469 557.681579589844 378.584259033203 234.149108886719 178.840087890625 161.530197143555 157.914642333984 161.032409667969 170.267562866211 180.471939086914 186.266098022461 177.145080566406 142.190811157227 107.347312927246 94.7975082397461 87.8032684326172 83.3084030151367 81.4637985229492 82.7968902587891 85.4558410644531 88.1328048706055 90.6316986083984 87.7612228393555 79.6112976074219 72.3316345214844 70.0087585449219 71.0801391601562 71.453742980957 71.8440628051758 72.7622680664062 74.0198059082031 75.6728363037109 77.3637313842773 78.5729522705078 79.2325897216797 79.1762619018555 76.5875244140625 72.3401947021484 71.1106338500977 71.3658752441406 72.5405349731445 71.2114181518555 66.4011764526367 61.9900512695312 61.0325355529785 62.2122917175293 65.0736236572266 68.1161727905273 71.1707992553711 70.4088745117188 70.8598480224609
-9999 -9999 -9999 -9999 -9999 -9999 -9999 -9999 -9999 -9999 -9999 -9999 -9999 -9999 366.088653564453 363.052256266276 347.352264404297 522.263122558594 668.577392578125 619.697265625 482.360595703125 296.862152099609 224.93522644043 203.525955200195 195.976547241211 192.945053100586 191.96711730957 191.645492553711 191.363250732422 189.200378417969 176.029724121094 140.055160522461 105.87410736084 93.1399307250977 85.8280944824219 82.4510726928711 82.8097763061523 84.3023681640625 84.5527648925781 84.3120956420898 85.4579010009766 86.5109481811523 81.364128112793 69.5352783203125 64.3751754760742 64.5528564453125 63.7415809631348 63.2075119018555 63.6609573364258 64.6412811279297 65.9940872192383 67.2165222167969 67.9429702758789 68.2556381225586 68.7850799560547 67.6197357177734 65.0337829589844 62.5672874450684 63.8664054870605 69.7298355102539 70.3545989990234 64.593132019043 61.4366645812988 62.113883972168 63.06982421875 65.2545852661133 68.2527542114258 69.0195770263672 68.5182876586914 69.9826965332031
-9999 -9999 -9999 -9999 -9999 -9999 -9999 -9999 -9999 -9999 -9999 -9999 -9999 -9999 357.546981811523 366.088653564453 375.715850830078 355.313720703125 334.803161621094 306.140533447266 268.846893310547 228.182968139648 213.767135620117 207.354446411133 203.03337097168 199.433944702148 196.469451904297 193.242874145508 189.62744140625 184.704971313477 169.281753540039 133.681091308594 101.01301574707 87.6729736328125 82.3015289306641 81.0677337646484 81.5204849243164 81.7634887695312 81.600715637207 81.1314849853516 81.6400756835938 83.4760513305664 81.8197555541992 69.9703216552734 61.7926406860352 60.2741661071777 59.403564453125 58.8512153625488 59.0311126708984 60.2119064331055 62.4614715576172 64.8893356323242 66.5070495605469 66.2560043334961 63.740062713623 61.1826782226562 59.747745513916 59.4221801757812 63.2519264221191 67.1191864013672 68.0481872558594 63.4160194396973 62.3853340148926 63.1223030090332 63.6117362976074 64.6179885864258 65.3686447143555 66.7672119140625 67.153564453125 68.4164886474609
-9999 -9999 -9999 -9999 -9999 -9999 -9999 -9999 -9999 -9999 -9999 339.478729248047 365.438690185547 369.175689697266 338.747528076172 356.176055908203 301.960754394531 264.938873291016 246.171493530273 235.581115722656 225.19873046875 215.64860534668 206.654418945312 197.558853149414 189.282196044922 182.336608886719 177.759353637695 174.924530029297 173.247619628906 171.383926391602 156.85334777832 123.283065795898 95.0994567871094 85.5769882202148 85.1134567260742 84.5608673095703 82.8627853393555 80.5536041259766 79.1241149902344 79.3719100952148 80.3231430053711 81.7804794311523 82.1472396850586 72.0726318359375 62.6355133056641 59.9254112243652 57.7658996582031 56.5528602600098 56.3905715942383 56.8879318237305 59.0351982116699 61.9420051574707 64.6029663085938 67.1301956176758 68.7565002441406 66.3914566040039 61.7621574401855 59.112720489502 63.620979309082 66.4849853515625 66.4098358154297 62.4979820251465 62.1427726745605 63.1980247497559 64.4562301635742 65.0880813598633 64.0275497436523 64.087776184082 67.5242233276367 69.2499923706055
-9999 -9999 -9999 -9999 -9999 -9999 -9999 -9999 -9999 434.976348876953 402.186798095703 369.777923583984 370.507110595703 299.391296386719 312.817535400391 315.677307128906 254.08283996582 246.514175415039 238.661026000977 228.075988769531 214.005172729492 195.798278808594 176.751190185547 159.558898925781 145.831039428711 136.241180419922 132.474349975586 135.275360107422 143.459014892578 152.600311279297 143.859924316406 113.88410949707 93.9979553222656 90.209846496582 90.0131988525391 88.6616744995117 86.1033325195312 82.4078826904297 79.4979248046875 78.8422393798828 79.2746810913086 80.8638458251953 83.0812072753906 74.8381729125977 64.9170150756836 62.0275115966797 59.7453384399414 57.0082740783691 55.5318603515625 56.374698638916 58.9409370422363 62.25537109375 65.1066665649414 67.0464019775391 68.0830459594727 68.9844741821289 67.2236862182617 62.3882713317871 61.1981544494629 65.2594909667969 64.2061233520508 59.4953575134277 58.6148719787598 59.8478393554688 61.9055252075195 64.3011932373047 64.9563980102539 63.9541664123535 65.3576354980469 73.9430313110352
-9999 -9999 -9999 -9999 -9999 -9999 -9999 -9999 -9999 490.20458984375 433.011901855469 370.183135986328 315.427978515625 277.271728515625 271.359588623047 245.345245361328 235.544296264648 237.290191650391 225.605895996094 204.253433227539 176.582641601562 148.146728515625 123.115631103516 103.840660095215 90.9337844848633 85.4235763549805 86.9391021728516 96.2861633300781 114.126342773438 134.621536254883 132.203430175781 105.660415649414 92.1471939086914 91.492919921875 92.3476791381836 93.1758117675781 91.9946594238281 88.4250106811523 83.6061782836914 79.9292297363281 78.0678253173828 78.2799682617188 82.4458236694336 78.6689224243164 69.3547439575195 65.5027847290039 64.221549987793 62.0205993652344 60.2346801757812 60.9076347351074 63.5234031677246 66.6260986328125 69.0268325805664 70.1750106811523 70.1842880249023 70.01220703125 69.90234375 67.3276824951172 62.135871887207 62.2768783569336 63.2383575439453 59.539005279541 57.698902130127 57.6450805664062 58.4750709533691 61.4831962585449 64.5891799926758 64.6183700561523 62.7582740783691 65.061637878418
-9999 -9999 -9999 -9999 -9999 434.905181884766 464.700531005859 423.470489501953 424.600830078125 409.416381835938 432.066345214844 340.56591796875 284.696502685547 254.806594848633 239.020797729492 231.263885498047 226.270843505859 212.090057373047 183.365234375 148.102035522461 115.313491821289 89.5166397094727 73.0687103271484 64.3740310668945 61.5140724182129 62.3547744750977 66.0167694091797 75.6742782592773 97.8430557250977 124.234031677246 122.436943054199 99.132698059082 90.6327362060547 90.0063171386719 91.7238388061523 94.3936767578125 94.9062042236328 92.6623001098633 88.5661087036133 84.5926818847656 82.5643844604492 79.8599472045898 79.7837066650391 79.1313629150391 73.9558563232422 69.8013534545898 68.5174255371094 67.6776351928711 66.9437255859375 68.1679992675781 71.0331649780273 73.1695556640625 73.4644393920898 72.6178131103516 71.1833114624023 69.9493713378906 70.0485229492188 70.1318054199219 67.119873046875 62.4851112365723 61.6463661193848 60.3369674682617 59.63330078125 59.3118209838867 58.9338226318359 62.1927757263184 65.86572265625 66.0963439941406 64.034423828125 61.4977111816406
-9999 -9999 -9999 -9999 375.391235351562 427.372802734375 472.156158447266 410.8076171875 433.148498535156 445.594207763672 380.80810546875 306.145080566406 261.067077636719 242.70964050293 236.386779785156 226.778762817383 205.21614074707 168.354721069336 127.532363891602 93.1256484985352 69.443733215332 58.8684539794922 54.7440757751465 53.4189300537109 53.9732322692871 56.5487442016602 60.9798774719238 70.3442153930664 94.5219573974609 120.288314819336 114.6162109375 94.416862487793 88.1663665771484 86.2472915649414 89.0817642211914 94.1658554077148 95.7599487304688 93.4513168334961 89.3442535400391 85.0349960327148 82.9651489257812 83.2682723999023 81.8037261962891 78.9029769897461 76.25244140625 74.1462783813477 73.0441360473633 72.583984375 73.2237548828125 75.2022094726562 75.9116287231445 75.2326202392578 73.551399230957 71.3497314453125 69.4601898193359 68.3674087524414 68.0417938232422 69.8215484619141 69.6618347167969 66.2829284667969 62.7085723876953 61.0317726135254 60.3467178344727 59.3334808349609 59.8089408874512 64.4459838867188 68.2687530517578 66.9154434204102 63.2456283569336 59.5839004516602
-9999 -9999 -9999 403.060958862305 404.626342773438 442.458740234375 457.612823486328 394.813049316406 341.197601318359 304.151733398438 285.835998535156 253.807662963867 241.198867797852 230.761901855469 222.127319335938 200.068435668945 161.477478027344 117.987167358398 83.2540893554688 62.2295913696289 54.8963775634766 52.0608406066895 50.5611152648926 50.1641120910645 51.2702789306641 54.1737060546875 59.7631034851074 70.9106216430664 96.3274230957031 117.810585021973 108.721687316895 90.8993988037109 84.4738845825195 82.0308837890625 85.6592636108398 92.3287048339844 96.0553207397461 94.7006149291992 90.0963134765625 84.5523071289062 80.9192962646484 80.6133651733398 81.6644058227539 79.2812347412109 77.2082748413086 78.0807342529297 78.3154296875 77.2269439697266 76.8026351928711 75.7397155761719 74.1009292602539 72.095573425293 68.5319213867188 64.0968933105469 62.3806419372559 62.5863494873047 62.9937591552734 65.1315460205078 68.139762878418 68.2635726928711 65.7700500488281 63.3078727722168 62.0093421936035 60.9362144470215 62.8491020202637 68.5451889038086 70.126838684082 64.4629974365234 59.7251510620117 55.6148414611816
-9999 -9999 -9999 415.751892089844 416.474365234375 489.714294433594 408.651062011719 345.662109375 269.035522460938 234.238647460938 222.176818847656 232.286743164062 235.962951660156 228.795654296875 209.07453918457 169.955108642578 121.446166992188 83.2533798217773 61.9888534545898 54.1925888061523 50.5936241149902 47.9648170471191 46.0784225463867 45.9519309997559 48.4672622680664 52.9404640197754 59.7445411682129 72.7229309082031 97.9871978759766 114.621559143066 103.230323791504 86.7747344970703 80.0399932861328 78.0588073730469 83.1520233154297 91.3897933959961 96.6282501220703 95.6012115478516 90.6805953979492 84.3595581054688 79.7690734863281 77.7664413452148 77.8738555908203 80.3269195556641 78.0061721801758 73.6636734008789 72.3239440917969 72.2558212280273 69.936279296875 68.3876800537109 66.5720138549805 62.0098266601562 56.6703300476074 54.5735893249512 57.0669097900391 61.2164726257324 62.2577362060547 61.4024429321289 62.8498268127441 65.4916305541992 66.2084808349609 65.3617477416992 64.0454559326172 62.9345054626465 65.8273315429688 72.6470260620117 65.950798034668 57.7105941772461 58.2805366516113 52.8531036376953
