NCOLS 70 
NROWS 52 
XLLCORNER -80 
YLLCORNER 33 
CELLSIZE 0.25 
NODATA_value -9999 
-9999.000000000000000 -9999 -9999 -9999 -9999 -9999 -9999 -9999 -9999 -9999 -9999 -9999 -9999 -9999 -9999 -9999 -9999 -9999 -9999 -9999 -9999 -9999 -9999 -9999 -9999 -9999 -9999 -9999 -9999 -9999 -9999 -9999 -9999 -9999 -9999 -9999 -9999 -9999 -9999 -9999 -9999 -9999 -9999 -9999 -9999 -9999 -9999 -9999 -9999 -9999 -9999 -9999 -9999 -9999 -9999 -9999 -9999 -9999 -9999 -9999 -9999 -9999 -9999 -9999 -9999 -9999 -9999 -9999 -9999 -9999
-9999 -9999 -9999 -9999 -9999 -9999 -9999 -9999 -9999 -9999 -9999 -9999 -9999 -9999 -9999 -9999 -9999 -9999 -9999 -9999 -9999 -9999 -9999 -9999 -9999 -9999 -9999 -9999 -9999 -9999 -9999 -9999 -9999 -9999 -9999 -9999 -9999 -9999 -9999 -9999 -9999 -9999 -9999 -9999 -9999 -9999 -9999 -9999 -9999 -9999 -9999 -9999 -9999 -9999 -9999 -9999 -9999 -9999 -9999 -9999 -9999 -9999 -9999 -9999 -9999 -9999 -9999 -9999 -9999 -9999
-9999 -9999 -9999 -9999 -9999 -9999 -9999 -9999 -9999 -9999 -9999 -9999 -9999 -9999 -9999 -9999 -9999 -9999 -9999 -9999 -9999 -9999 -9999 -9999 -9999 -9999 -9999 -9999 -9999 -9999 -9999 -9999 -9999 -9999 -9999 -9999 -9999 -9999 -9999 -9999 -9999 -9999 -9999 -9999 -9999 -9999 -9999 -9999 -9999 -9999 -9999 -9999 -9999 -9999 -9999 -9999 -9999 -9999 -9999 419.186370849609 -9999 -9999 -9999 -9999 -9999 -9999 -9999 -9999 -9999 -9999
-9999 -9999 -9999 -9999 -9999 -9999 -9999 -9999 -9999 -9999 -9999 -9999 -9999 -9999 -9999 -9999 -9999 -9999 -9999 -9999 -9999 -9999 -9999 -9999 -9999 -9999 -9999 -9999 -9999 -9999 -9999 -9999 -9999 -9999 -9999 -9999 -9999 -9999 -9999 -9999 -9999 -9999 -9999 -9999 -9999 -9999 -9999 -9999 -9999 -9999 -9999 -9999 -9999 -9999 -9999 326.011047363281 279.910675048828 301.046325683594 361.928955078125 420.285125732422 -9999 -9999 -9999 -9999 -9999 -9999 -9999 -9999 -9999 -9999
-9999 -9999 -9999 -9999 -9999 -9999 -9999 -9999 -9999 -9999 -9999 -9999 -9999 -9999 -9999 -9999 -9999 -9999 -9999 -9999 -9999 -9999 -9999 -9999 -9999 -9999 -9999 -9999 -9999 -9999 -9999 -9999 -9999 -9999 -9999 -9999 -9999 -9999 -9999 -9999 -9999 -9999 -9999 -9999 -9999 -9999 -9999 -9999 -9999 -9999 -9999 -9999 360.113739013672 378.827850341797 378.002716064453 319.854309082031 293.691864013672 323.580596923828 -9999 -9999 -9999 -9999 -9999 -9999 -9999 -9999 -9999 -9999 -9999 -9999
-9999 -9999 -9999 -9999 -9999 -9999 -9999 -9999 -9999 -9999 -9999 -9999 -9999 -9999 -9999 -9999 -9999 -9999 -9999 -9999 -9999 -9999 -9999 -9999 -9999 -9999 -9999 -9999 -9999 -9999 -9999 -9999 -9999 -9999 -9999 -9999 -9999 -9999 -9999 -9999 -9999 -9999 -9999 -9999 -9999 -9999 -9999 -9999 -9999 -9999 261.267059326172 315.553131103516 281.683258056641 204.603103637695 159.267974853516 149.307052612305 -9999 -9999 -9999 -9999 -9999 -9999 -9999 -9999 -9999 -9999 -9999 100.876230875651 103.181028366089 137.708419799805
-9999 -9999 -9999 -9999 -9999 -9999 -9999 -9999 -9999 -9999 -9999 -9999 -9999 -9999 -9999 -9999 -9999 -9999 -9999 -9999 -9999 -9999 -9999 -9999 -9999 -9999 -9999 -9999 -9999 -9999 -9999 -9999 -9999 -9999 -9999 -9999 -9999 -9999 -9999 -9999 -9999 -9999 -9999 -9999 355.331878662109 -9999 -9999 207.375247955322 215.091079711914 223.85612487793 234.572784423828 229.488235473633 159.047454833984 101.431762695312 82.5024795532227 -9999 -9999 -9999 -9999 -9999 -9999 -9999 -9999 120.583976745605 115.46989440918 115.470146179199 114.035346984863 99.9947052001953 88.5986404418945 86.4223480224609
-9999 -9999 -9999 -9999 -9999 -9999 -9999 -9999 -9999 -9999 -9999 -9999 -9999 -9999 -9999 -9999 -9999 -9999 -9999 -9999 -9999 -9999 -9999 -9999 -9999 -9999 -9999 -9999 -9999 -9999 -9999 -9999 -9999 -9999 -9999 -9999 -9999 -9999 -9999 -9999 -9999 -9999 -9999 -9999 367.929077148438 323.488342285156 251.522201538086 196.328857421875 166.558853149414 136.838088989258 112.038711547852 98.1032562255859 80.0332336425781 70.8032760620117 81.0915412902832 -9999 -9999 -9999 -9999 -9999 -9999 -9999 92.3756942749023 91.307487487793 86.4084320068359 83.7316207885742 80.5297012329102 75.9515686035156 74.8256301879883 75.9419555664062
-9999 -9999 -9999 -9999 -9999 -9999 -9999 -9999 -9999 -9999 -9999 -9999 -9999 -9999 -9999 -9999 -9999 -9999 -9999 -9999 -9999 -9999 -9999 -9999 -9999 -9999 -9999 -9999 -9999 -9999 -9999 -9999 -9999 -9999 -9999 -9999 -9999 -9999 -9999 -9999 290.549931844076 237.702768961589 234.352726745605 253.134689331055 201.634078979492 134.379486083984 102.283805847168 82.0799713134766 65.8556213378906 57.349292755127 54.8504524230957 56.0604820251465 59.8541107177734 69.6286468505859 82.4200805664063 -9999 -9999 -9999 -9999 -9999 89.6421534220378 82.5165252685547 75.8137512207031 67.2611389160156 59.5695991516113 55.760196685791 54.4693450927734 54.9953880310059 57.1132659912109 59.3996162414551
-9999 -9999 -9999 -9999 -9999 -9999 -9999 -9999 -9999 -9999 -9999 -9999 -9999 -9999 -9999 -9999 -9999 -9999 -9999 -9999 -9999 -9999 -9999 -9999 -9999 -9999 -9999 -9999 -9999 -9999 -9999 -9999 -9999 -9999 -9999 -9999 -9999 -9999 -9999 337.851013183594 296.365844726562 237.43293762207 179.309524536133 127.308265686035 94.9723663330078 76.1923370361328 66.8124313354492 60.271427154541 55.4541854858398 53.3046684265137 53.4243698120117 54.9665794372559 57.6591415405273 66.2455062866211 94.0791854858398 111.343788146973 -9999 -9999 -9999 85.6954135894775 106.267181396484 80.1427536010742 65.4953384399414 55.4459228515625 49.508544921875 47.8506469726562 48.6402359008789 49.7405738830566 50.4297370910645 51.7859497070312
-9999 -9999 -9999 -9999 -9999 -9999 -9999 -9999 -9999 -9999 -9999 -9999 -9999 -9999 -9999 -9999 -9999 -9999 -9999 -9999 -9999 -9999 -9999 -9999 -9999 -9999 -9999 -9999 -9999 -9999 -9999 -9999 -9999 -9999 -9999 -9999 -9999 -9999 260.181576538086 267.468505859375 207.597183227539 132.067092895508 90.8526000976562 70.0048370361328 63.6361961364746 60.6262893676758 58.0791625976562 55.7872352600098 53.6004028320312 52.542407989502 53.5214004516602 55.2016639709473 56.22119140625 59.5887641906738 70.1047821044922 76.2329864501953 74.7994079589844 82.0476977030436 82.4935531616211 77.7620010375977 76.258918762207 67.6120223999023 61.3806915283203 55.3961868286133 51.7868728637695 52.2183456420898 55.0439987182617 55.653507232666 54.016414642334 54.5686683654785
-9999 -9999 -9999 -9999 -9999 -9999 -9999 -9999 -9999 -9999 -9999 -9999 -9999 -9999 -9999 -9999 -9999 -9999 -9999 -9999 -9999 -9999 -9999 -9999 -9999 -9999 -9999 -9999 -9999 -9999 -9999 -9999 -9999 -9999 -9999 -9999 -9999 271.509674072266 243.685638427734 180.393051147461 111.340034484863 73.761589050293 63.1526832580566 60.3309783935547 59.0579032897949 57.148681640625 54.7844886779785 52.4879035949707 51.1104049682617 52.0666389465332 55.0060806274414 57.0786819458008 56.9960556030273 58.6277084350586 64.5124816894531 70.5219879150391 73.2023239135742 72.758415222168 71.9058990478516 70.9847869873047 68.1977767944336 65.1926574707031 63.6095924377441 60.9474220275879 57.7761306762695 58.5644607543945 61.4095268249512 60.7239875793457 58.6822891235352 59.0571327209473
-9999 -9999 -9999 -9999 -9999 -9999 -9999 -9999 -9999 -9999 -9999 -9999 -9999 -9999 -9999 -9999 -9999 -9999 -9999 -9999 -9999 -9999 -9999 -9999 -9999 -9999 -9999 -9999 -9999 -9999 -9999 -9999 -9999 -9999 -9999 -9999 -9999 287.396606445312 219.561721801758 123.589042663574 76.6879043579102 62.7017288208008 60.1094703674316 58.4403038024902 56.4052772521973 54.0838584899902 52.0906295776367 51.3483505249023 51.8822555541992 53.2696266174316 56.9545364379883 59.6209754943848 58.3500061035156 57.3902740478516 61.2048110961914 67.7648620605469 71.3478240966797 72.1825790405273 72.7122116088867 71.7021789550781 69.7781829833984 69.6587295532227 71.8153686523438 70.6912307739258 67.9870834350586 68.1114349365234 69.4816055297852 67.7172088623047 66.7408599853516 66.7828979492188
-9999 -9999 -9999 -9999 -9999 -9999 -9999 -9999 -9999 -9999 -9999 -9999 -9999 -9999 -9999 -9999 -9999 -9999 -9999 -9999 -9999 -9999 -9999 -9999 -9999 -9999 -9999 -9999 -9999 -9999 -9999 -9999 -9999 -9999 -9999 -9999 -9999 347.612945556641 211.83381652832 101.279235839844 68.9808807373047 60.5866928100586 57.4344596862793 55.6598052978516 54.8729629516602 54.0438842773438 53.1998558044434 53.3355407714844 54.6993217468262 56.0675468444824 58.6238594055176 61.4360961914062 60.6359405517578 58.5272750854492 59.6938705444336 63.882682800293 65.629508972168 66.52294921875 67.8098907470703 67.6173477172852 67.8357086181641 73.124870300293 83.4655838012695 84.5982437133789 81.4888458251953 82.6014785766602 88.3645095825195 91.7207641601562 91.3565292358398 90.1064453125
-9999 -9999 -9999 -9999 -9999 -9999 -9999 -9999 -9999 -9999 -9999 -9999 -9999 -9999 -9999 -9999 -9999 -9999 -9999 -9999 -9999 -9999 -9999 -9999 -9999 -9999 -9999 -9999 -9999 -9999 -9999 -9999 -9999 -9999 -9999 -9999 520.276794433594 349.153991699219 182.203384399414 109.300086975098 78.5893783569336 64.0787658691406 57.0301971435547 54.2513618469238 53.9889945983887 53.8934440612793 53.7113838195801 55.2887687683105 58.9335556030273 61.6236953735352 61.3926963806152 62.0326232910156 61.796817779541 59.8202590942383 61.9776000976562 68.3862152099609 68.8799514770508 68.1399230957031 70.4664688110352 74.8413696289062 80.4744110107422 90.3993759155273 106.706535339355 115.486976623535 112.09253692627 112.76212310791 120.677513122559 128.993041992188 128.90251159668 123.370094299316
-9999 -9999 -9999 -9999 -9999 -9999 -9999 -9999 -9999 -9999 -9999 -9999 -9999 -9999 -9999 -9999 -9999 -9999 -9999 -9999 -9999 -9999 -9999 -9999 -9999 -9999 -9999 -9999 -9999 -9999 -9999 -9999 -9999 -9999 -9999 -9999 -9999 270.194976806641 217.637908935547 148.686080932617 107.04712677002 78.2309265136719 62.3506851196289 55.5225410461426 53.6965827941895 53.7420120239258 55.1025505065918 60.0893974304199 66.8930206298828 72.4165344238281 69.1734237670898 64.5288772583008 61.832691192627 60.57080078125 64.490348815918 73.3157653808594 77.6457214355469 78.9403991699219 86.2587509155273 96.5564727783203 104.796279907227 119.378051757812 143.957916259766 156.793350219727 153.797027587891 158.924591064453 164.553039550781 165.102447509766 156.683990478516 144.000442504883
-9999 -9999 -9999 -9999 -9999 -9999 -9999 -9999 -9999 -9999 -9999 -9999 -9999 -9999 -9999 -9999 -9999 -9999 -9999 -9999 -9999 -9999 -9999 -9999 -9999 -9999 -9999 -9999 -9999 -9999 -9999 -9999 -9999 -9999 -9999 -9999 -9999 -9999 226.646667480469 -9999 123.847602844238 91.1416702270508 71.5687484741211 60.7240943908691 56.3190269470215 56.5900421142578 61.5113182067871 71.2131118774414 78.5694885253906 83.7126617431641 77.133186340332 69.875114440918 65.0145721435547 63.1462020874023 66.5439529418945 73.8124084472656 78.4640350341797 87.9470367431641 113.669418334961 134.675628662109 145.436676025391 171.474990844727 200.193206787109 201.645660400391 193.08561706543 201.21696472168 207.711166381836 198.931777954102 181.70751953125 163.884353637695
-9999 -9999 -9999 -9999 -9999 -9999 -9999 -9999 -9999 -9999 -9999 -9999 -9999 -9999 -9999 -9999 -9999 -9999 -9999 -9999 -9999 -9999 -9999 -9999 -9999 -9999 -9999 -9999 -9999 -9999 -9999 -9999 -9999 -9999 -9999 -9999 -9999 -9999 -9999 -9999 93.0236511230469 89.593864440918 77.1592559814453 64.9488830566406 59.2648048400879 60.890308380127 69.6636810302734 79.609977722168 82.1900100708008 79.9590911865234 74.2719573974609 71.1075744628906 68.442497253418 68.8930053710938 69.4538497924805 75.0461120605469 81.2890167236328 108.291885375977 160.537063598633 186.578231811523 207.288482666016 229.0361328125 237.458847045898 236.258071899414 234.135940551758 242.390258789062 251.813537597656 254.281143188477 250.150573730469 245.044998168945
-9999 -9999 -9999 -9999 -9999 -9999 -9999 -9999 -9999 -9999 -9999 -9999 -9999 -9999 -9999 -9999 -9999 -9999 -9999 -9999 -9999 -9999 -9999 -9999 -9999 -9999 -9999 -9999 -9999 -9999 -9999 -9999 -9999 -9999 181.203464508057 188.092269897461 147.768463134766 -9999 85.8874130249023 79.7248764038086 82.8153839111328 83.7015075683594 75.3789596557617 64.8847122192383 61.475830078125 66.1337585449219 74.7986373901367 79.6250762939453 78.0642471313477 77.0487442016602 74.3403778076172 72.3143692016602 73.5840301513672 76.624870300293 74.2933349609375 78.6325759887695 97.7031860351562 156.016952514648 218.508438110352 222.737365722656 246.264419555664 275.986175537109 282.231842041016 280.752258300781 280.597473144531 286.418487548828 289.715454101562 292.425048828125 300.940093994141 317.299682617188
-9999 -9999 -9999 -9999 -9999 -9999 -9999 -9999 -9999 -9999 -9999 -9999 -9999 -9999 -9999 -9999 -9999 -9999 -9999 -9999 -9999 -9999 -9999 -9999 -9999 -9999 -9999 784.224182128906 784.224182128906 625.984619140625 471.330322265625 389.011138916016 305.274322509766 221.733108520508 179.777618408203 135.210861206055 95.1867904663086 76.1345901489258 72.5664901733398 72.6736373901367 76.9747467041016 73.8827819824219 68.6540451049805 64.0797424316406 64.9259338378906 73.5381011962891 80.2060394287109 80.8176040649414 79.133056640625 77.4827423095703 77.623176574707 78.3167877197266 78.6306228637695 79.1011810302734 82.5181121826172 96.8413391113281 148.670974731445 226.560089111328 280.056060791016 283.356750488281 304.390228271484 338.207153320312 352.466400146484 360.488067626953 364.0126953125 363.214477539062 351.040863037109 337.135650634766 343.674530029297 364.687225341797
-9999 -9999 -9999 -9999 -9999 -9999 -9999 -9999 -9999 -9999 -9999 -9999 -9999 -9999 -9999 -9999 -9999 -9999 -9999 -9999 -9999 -9999 -9999 -9999 -9999 -9999 -9999 -9999 -9999 -9999 277.314697265625 258.217498779297 190.276718139648 104.542190551758 88.5846252441406 79.8548126220703 74.485221862793 72.8258209228516 72.2361297607422 73.0343017578125 76.5663757324219 70.5285339355469 66.9163970947266 67.7848129272461 73.0732116699219 80.8421173095703 84.3668365478516 85.1810073852539 85.3805923461914 87.3051605224609 91.3722305297852 97.8816146850586 105.035545349121 111.131126403809 122.071914672852 153.063293457031 235.684692382812 299.341613769531 332.457885742188 344.678436279297 360.275115966797 380.757904052734 399.381622314453 413.053314208984 421.143157958984 420.34228515625 405.896362304688 391.135528564453 393.985748291016 398.666931152344
-9999 -9999 -9999 -9999 -9999 -9999 -9999 -9999 -9999 -9999 -9999 -9999 -9999 -9999 -9999 -9999 -9999 -9999 -9999 -9999 -9999 -9999 -9999 -9999 -9999 469.228230794271 298.478363037109 195.257039388021 149.516237258911 159.846984863281 151.933959960938 145.861511230469 119.689506530762 90.7146759033203 84.8231887817383 85.3687438964844 84.5603637695312 82.9553985595703 81.1603927612305 80.3718948364258 81.4108505249023 79.7445907592773 78.0854034423828 81.391227722168 89.9492645263672 95.5883636474609 96.1044235229492 96.7711181640625 99.3517532348633 105.021835327148 114.846458435059 131.502838134766 154.906005859375 185.568252563477 216.521942138672 254.246520996094 305.886505126953 330.809417724609 347.729400634766 357.968841552734 366.819641113281 381.914428710938 403.258056640625 422.739318847656 432.068634033203 429.379119873047 418.492645263672 407.749725341797 400.182647705078 383.344635009766
-9999 -9999 -9999 -9999 -9999 -9999 -9999 -9999 -9999 -9999 -9999 -9999 -9999 -9999 -9999 -9999 -9999 -9999 -9999 -9999 -9999 -9999 -9999 -9999 691.66552734375 452.549438476562 263.4697265625 179.415924072266 142.885467529297 115.916572570801 104.539825439453 98.5132446289062 91.6973037719727 86.5459060668945 85.268684387207 87.7840805053711 90.3846130371094 91.3487014770508 91.50927734375 92.7515335083008 94.4613189697266 96.1254272460938 98.9660034179688 106.094955444336 118.747375488281 128.952331542969 130.860366821289 131.007736206055 132.778106689453 136.119873046875 142.013778686523 154.846832275391 177.798431396484 228.040405273438 294.597686767578 340.271270751953 357.444305419922 362.767242431641 362.678253173828 360.971435546875 362.606536865234 370.318206787109 387.013458251953 409.532135009766 423.358489990234 421.185150146484 406.996734619141 392.819366455078 378.676971435547 357.953094482422
-9999 -9999 -9999 -9999 -9999 -9999 -9999 -9999 -9999 -9999 -9999 -9999 -9999 -9999 -9999 -9999 -9999 -9999 -9999 -9999 -9999 -9999 -9999 -9999 544.606323242188 311.862243652344 162.775009155273 114.824462890625 100.078147888184 93.5272369384766 90.838249206543 89.2745056152344 87.4548950195312 86.4582061767578 87.7695465087891 94.6530380249023 105.281669616699 113.81990814209 118.277015686035 122.356925964355 125.062400817871 128.965591430664 137.047317504883 147.570220947266 159.892532348633 168.969375610352 173.044525146484 175.356338500977 177.322372436523 176.692993164062 174.044815063477 172.3046875 173.9140625 197.113311767578 262.923828125 332.434844970703 365.607879638672 371.381042480469 368.153350830078 362.610260009766 356.847625732422 356.084808349609 364.256103515625 381.485229492188 396.625610351562 397.681762695312 384.878265380859 373.386535644531 359.677917480469 340.896606445312
-9999 -9999 -9999 -9999 -9999 -9999 -9999 -9999 -9999 -9999 -9999 -9999 -9999 -9999 -9999 -9999 -9999 -9999 -9999 -9999 -9999 -9999 -9999 382.287567138672 415.670379638672 245.917633056641 137.763717651367 101.600608825684 91.339111328125 88.3133850097656 88.2930755615234 89.5011291503906 93.3198852539062 100.595733642578 112.00171661377 129.170135498047 149.541427612305 167.012252807617 178.245727539062 184.675811767578 185.51904296875 187.550659179688 197.322158813477 209.394271850586 218.088653564453 223.67317199707 229.700805664062 235.658065795898 239.880615234375 239.027130126953 233.329132080078 224.829406738281 213.459655761719 204.312698364258 217.976333618164 258.965484619141 293.712371826172 313.493927001953 323.600738525391 326.663330078125 323.055389404297 317.982849121094 321.461273193359 335.54052734375 358.247772216797 369.775848388672 367.380828857422 361.72119140625 349.591888427734 332.287811279297
-9999 -9999 -9999 -9999 -9999 -9999 -9999 -9999 -9999 -9999 -9999 -9999 -9999 -9999 -9999 -9999 -9999 -9999 -9999 -9999 -9999 -9999 -9999 293.106903076172 275.766662597656 183.767486572266 123.613311767578 99.5498275756836 89.6949615478516 87.3097610473633 90.4967727661133 98.2780609130859 112.124244689941 129.054107666016 148.660385131836 171.855667114258 198.307571411133 228.022659301758 257.117309570312 280.573425292969 294.334106445312 300.211791992188 307.743133544922 319.742462158203 331.939971923828 342.986389160156 353.904022216797 362.251281738281 366.361114501953 363.319030761719 353.909240722656 340.893524169922 323.024749755859 303.744750976562 282.230041503906 263.045288085938 253.579940795898 251.581283569336 252.313293457031 252.651184082031 253.622009277344 252.002746582031 253.944274902344 266.846527099609 297.996368408203 330.902679443359 352.771423339844 355.791809082031 346.474060058594 334.851898193359
-9999 -9999 -9999 -9999 -9999 -9999 -9999 -9999 -9999 -9999 -9999 -9999 -9999 -9999 -9999 -9999 -9999 -9999 -9999 -9999 -9999 -9999 297.967834472656 227.54914855957 187.394790649414 139.507400512695 107.092308044434 95.0558242797852 89.7801208496094 89.7845001220703 97.9303741455078 113.286636352539 132.80876159668 153.672897338867 174.528945922852 198.251892089844 231.413421630859 273.960998535156 315.568939208984 350.298187255859 376.747192382812 391.160675048828 401.087341308594 413.581024169922 428.813629150391 442.831604003906 448.938507080078 445.321166992188 435.292327880859 426.658447265625 419.654296875 410.155395507812 397.015350341797 381.162139892578 361.789215087891 337.560577392578 312.691436767578 291.040496826172 271.458892822266 254.928344726562 244.469223022461 238.223648071289 232.976303100586 232.633895874023 244.45442199707 268.560852050781 295.697326660156 309.880432128906 313.621246337891 312.929473876953
-9999 -9999 -9999 -9999 -9999 -9999 -9999 -9999 -9999 -9999 -9999 -9999 -9999 -9999 937.558983696832 -9999 -9999 -9999 -9999 1021.66674804688 -9999 354.272155761719 250.616912841797 167.401947021484 135.56852722168 110.286865234375 94.7941818237305 89.8999633789062 90.1574401855469 94.5078048706055 105.455131530762 121.543251037598 140.413772583008 161.084655761719 181.033950805664 205.272064208984 244.604263305664 298.462097167969 351.265441894531 387.250274658203 404.992279052734 411.874084472656 416.864196777344 424.842834472656 435.548095703125 442.644622802734 444.898742675781 438.542114257812 424.668029785156 418.468688964844 415.990325927734 409.422058105469 402.362976074219 397.592437744141 392.531158447266 382.789886474609 370.349792480469 358.162506103516 344.011779785156 326.7900390625 309.460571289062 293.6142578125 276.119720458984 259.005187988281 245.885848999023 238.180160522461 238.013763427734 243.478805541992 249.120849609375 252.071914672852
-9999 -9999 -9999 -9999 -9999 -9999 -9999 -9999 -9999 -9999 -9999 -9999 -9999 -9999 933.107574462891 -9999 -9999 -9999 -9999 858.787017822266 519.523110961914 307.359375 162.488403320312 120.465545654297 103.579223632812 94.5160217285156 89.9987258911133 91.3165664672852 97.9587173461914 106.309982299805 116.973587036133 134.430725097656 157.267196655273 177.724945068359 196.733993530273 220.6376953125 257.436584472656 312.049652099609 374.030426025391 418.260894775391 434.015106201172 437.801116943359 437.684112548828 431.762725830078 424.886077880859 424.986938476562 437.606781005859 444.908111572266 445.504821777344 451.228149414062 450.470977783203 441.725769042969 433.468200683594 429.566558837891 427.08984375 419.204315185547 407.037902832031 395.346771240234 383.956817626953 370.740325927734 356.112701416016 341.546875 323.613922119141 303.082977294922 282.71240234375 263.823669433594 249.480911254883 240.345733642578 236.371475219727 237.550674438477
-9999 -9999 -9999 -9999 -9999 -9999 -9999 -9999 -9999 -9999 -9999 -9999 -9999 -9999 953.138916015625 -9999 -9999 -9999 -9999 -9999 214.03454208374 218.40998840332 118.537742614746 100.35425567627 94.1222381591797 93.0915145874023 93.8683319091797 98.8338928222656 110.084518432617 127.471641540527 153.384094238281 188.303161621094 218.531921386719 235.73225402832 250.05403137207 262.703308105469 273.124176025391 293.513458251953 328.190765380859 366.242919921875 398.167724609375 426.805603027344 448.057006835938 449.949981689453 440.250183105469 438.980560302734 453.467742919922 464.591583251953 466.436981201172 473.551635742188 476.934814453125 471.969207763672 463.169921875 457.504577636719 455.078094482422 449.204315185547 439.067474365234 426.538604736328 412.258819580078 397.081695556641 381.902954101562 367.860504150391 352.307189941406 335.950286865234 322.166381835938 310.265380859375 302.551300048828 302.388702392578 310.397796630859 327.169342041016
-9999 -9999 -9999 -9999 -9999 -9999 -9999 -9999 -9999 -9999 -9999 -9999 -9999 -9999 881.585235595703 -9999 873.013549804688 -9999 -9999 -9999 170.521545410156 159.847259521484 103.645957946777 97.8842926025391 102.511024475098 112.531120300293 122.991119384766 129.135955810547 128.326110839844 139.760269165039 176.506866455078 215.891372680664 245.886978149414 266.056549072266 268.463836669922 263.005065917969 258.455261230469 257.353851318359 263.209197998047 276.864379882812 302.432403564453 340.588134765625 384.718994140625 421.543640136719 445.879852294922 460.929809570312 470.904571533203 475.854064941406 468.525756835938 458.923553466797 460.328369140625 467.85888671875 471.391571044922 471.243743896484 469.003173828125 462.994537353516 455.159210205078 450.571105957031 445.994018554688 430.357757568359 408.689208984375 394.585144042969 381.7998046875 366.684234619141 363.043853759766 370.751373291016 386.821472167969 403.947479248047 422.038055419922 444.349822998047
-9999 -9999 -9999 -9999 -9999 -9999 -9999 -9999 -9999 -9999 -9999 -9999 -9999 -9999 881.585235595703 810.031555175781 645.036315917969 -9999 -9999 156.13977432251 160.446807861328 134.013381958008 105.692886352539 112.167594909668 135.471099853516 167.254257202148 196.462448120117 216.761535644531 205.164428710938 174.369354248047 169.362152099609 186.89582824707 213.280426025391 238.112930297852 243.563171386719 237.875717163086 233.555282592773 228.804885864258 226.248321533203 228.668548583984 240.066650390625 261.909393310547 289.239074707031 324.390502929688 372.999481201172 421.922637939453 455.481262207031 474.212249755859 473.02294921875 451.134368896484 435.185455322266 441.962554931641 462.177795410156 476.606872558594 477.544677734375 472.219024658203 467.045593261719 466.972839355469 467.14404296875 452.307922363281 428.630310058594 413.381561279297 400.742889404297 390.554565429688 392.300415039062 407.277709960938 433.249114990234 460.270263671875 470.008392333984 469.165161132812
-9999 -9999 -9999 -9999 -9999 -9999 -9999 -9999 -9999 -9999 -9999 -9999 -9999 -9999 -9999 577.605633544922 520.31494140625 -9999 266.765270233154 152.324142456055 141.2666015625 122.248466491699 123.981307983398 159.190643310547 209.164321899414 252.131057739258 279.638214111328 302.14208984375 306.075561523438 283.574523925781 250.653366088867 223.600891113281 219.383010864258 225.290634155273 228.708709716797 227.193405151367 218.922256469727 207.871963500977 199.146697998047 198.875946044922 213.732498168945 235.943115234375 248.342910766602 259.563385009766 291.651031494141 343.604278564453 397.06689453125 443.635711669922 465.171661376953 450.042572021484 420.540405273438 422.725616455078 458.288024902344 484.214050292969 482.375061035156 483.714233398438 484.044891357422 475.655731201172 454.980377197266 429.997161865234 407.020782470703 387.791229248047 372.018310546875 365.541229248047 372.851806640625 391.932373046875 418.576995849609 442.987640380859 453.081298828125 451.946350097656
-9999 -9999 -9999 -9999 -9999 -9999 -9999 -9999 -9999 -9999 -9999 -9999 -9999 -9999 -9999 455.056976318359 457.58837890625 -9999 225.436294555664 152.932540893555 127.904518127441 128.855545043945 168.172378540039 237.160614013672 300.615295410156 341.139282226562 361.234191894531 377.240020751953 384.558471679688 379.878051757812 358.295349121094 317.317749023438 278.024230957031 254.87223815918 248.628112792969 242.636306762695 227.033706665039 207.766876220703 193.185668945312 191.094589233398 205.056213378906 231.664688110352 253.24006652832 256.227874755859 257.755187988281 285.639770507812 330.192810058594 381.930358886719 427.885711669922 446.894195556641 436.552276611328 421.078582763672 436.573974609375 481.639587402344 501.504302978516 494.597259521484 475.894317626953 443.235473632812 406.173736572266 380.572814941406 355.307647705078 329.210968017578 310.619903564453 308.733123779297 330.540710449219 364.682403564453 403.874694824219 433.658203125 448.101379394531 457.384674072266
-9999 -9999 -9999 -9999 -9999 -9999 -9999 -9999 -9999 -9999 -9999 -9999 -9999 -9999 -9999 420.942047119141 -9999 345.604398454939 264.913116455078 159.463500976562 137.607391357422 156.753494262695 223.793182373047 302.618804931641 359.729705810547 392.66357421875 405.283569335938 401.813110351562 384.922332763672 370.144287109375 356.951568603516 339.109405517578 316.460632324219 297.304138183594 288.306060791016 278.116088867188 259.338653564453 235.039398193359 213.942596435547 204.804290771484 206.894302368164 222.84831237793 249.856536865234 263.746368408203 256.299468994141 266.705078125 290.052337646484 324.8125 375.730316162109 419.295776367188 445.595855712891 454.918121337891 437.723449707031 440.806823730469 474.823150634766 485.942138671875 452.321441650391 404.964538574219 370.493011474609 339.049499511719 304.817443847656 274.47265625 259.587585449219 269.248687744141 303.383850097656 347.6728515625 393.091949462891 426.806915283203 445.339202880859 458.160858154297
-9999 -9999 -9999 -9999 -9999 -9999 -9999 -9999 -9999 -9999 -9999 -9999 -9999 -9999 420.942047119141 399.044952392578 373.938934326172 395.534332275391 299.565856933594 179.427612304688 160.788131713867 194.844833374023 270.569061279297 330.091339111328 360.872894287109 364.847808837891 356.790161132812 349.490783691406 338.577301025391 327.552978515625 322.916809082031 323.282684326172 322.406585693359 320.941375732422 320.042205810547 316.84326171875 303.260620117188 278.323272705078 248.295166015625 223.973068237305 213.136367797852 217.566543579102 239.16357421875 261.078857421875 260.472229003906 261.036071777344 277.329254150391 300.780853271484 335.769805908203 377.890838623047 411.35546875 443.080139160156 462.244903564453 447.633483886719 445.2802734375 462.19140625 447.314239501953 393.991455078125 346.841888427734 304.133575439453 265.3740234375 240.279067993164 233.891784667969 254.991638183594 299.647857666016 346.468017578125 385.624969482422 415.827239990234 434.993255615234 444.492828369141
-9999 -9999 -9999 -9999 -9999 -9999 -9999 -9999 -9999 -9999 -9999 -9999 -9999 -9999 -9999 -9999 372.626441955566 386.883422851562 269.679565429688 176.193176269531 180.581512451172 226.300216674805 300.841369628906 335.554412841797 334.634063720703 318.629791259766 305.5595703125 305.820159912109 307.391662597656 300.817932128906 295.195587158203 296.151733398438 300.619079589844 308.221954345703 317.607055664062 328.695526123047 333.420196533203 320.389465332031 293.593566894531 261.285858154297 234.734359741211 224.34489440918 234.367614746094 256.420745849609 267.131927490234 270.644317626953 280.402923583984 299.158538818359 325.616973876953 361.478546142578 384.817474365234 403.110870361328 436.203186035156 466.890289306641 467.066223144531 455.191345214844 433.573516845703 391.431427001953 349.185394287109 302.080444335938 259.481018066406 236.687210083008 241.642639160156 276.877716064453 326.517791748047 361.833557128906 386.384246826172 409.533050537109 418.389892578125 422.069519042969
-9999 -9999 -9999 -9999 -9999 -9999 -9999 -9999 -9999 -9999 -9999 -9999 -9999 -9999 -9999 -9999 360.516250610352 334.149078369141 257.776916503906 181.644088745117 209.803680419922 260.070129394531 318.868408203125 332.246032714844 310.032562255859 280.614990234375 274.62255859375 283.382995605469 289.232666015625 286.056365966797 278.990020751953 277.288848876953 278.066467285156 282.777526855469 290.4375 304.515625 326.885803222656 343.6103515625 342.811645507812 322.046234130859 289.345489501953 263.086853027344 256.875915527344 271.454986572266 286.682250976562 296.171936035156 306.227386474609 319.874694824219 341.631072998047 365.485198974609 377.519897460938 383.27197265625 392.585632324219 419.372497558594 463.72412109375 469.408966064453 457.017150878906 420.649566650391 372.358184814453 328.232299804688 288.798980712891 269.068328857422 285.017791748047 335.231903076172 375.580078125 387.246032714844 391.760955810547 404.474884033203 397.973052978516 388.456909179688
-9999 -9999 -9999 -9999 -9999 -9999 -9999 -9999 -9999 -9999 -9999 -9999 -9999 -9999 -9999 -9999 -9999 286.94750213623 284.324737548828 216.49104309082 241.490478515625 281.939575195312 324.475738525391 323.1396484375 286.877136230469 253.855880737305 257.750823974609 272.843658447266 282.3671875 283.968383789062 287.726837158203 298.141845703125 303.243774414062 301.431823730469 295.677001953125 292.456726074219 299.197723388672 323.149017333984 352.835845947266 364.192138671875 348.265960693359 318.497009277344 296.878448486328 294.676391601562 304.418579101562 315.572021484375 327.024993896484 340.092895507812 357.746337890625 373.335021972656 377.294525146484 371.892059326172 365.692291259766 366.606719970703 396.272308349609 424.680969238281 437.318572998047 441.693420410156 419.331695556641 388.629547119141 357.099151611328 340.430114746094 355.105560302734 388.905364990234 398.680725097656 387.670074462891 382.438323974609 381.289093017578 357.5693359375 323.984313964844
-9999 -9999 -9999 -9999 -9999 -9999 -9999 -9999 -9999 -9999 -9999 -9999 -9999 -9999 340.740871429443 334.149078369141 292.641965866089 277.932006835938 271.539276123047 261.20263671875 272.383514404297 291.700622558594 328.368530273438 322.034790039062 279.327453613281 251.502517700195 258.690277099609 275.635131835938 284.465515136719 287.870422363281 304.007354736328 326.888580322266 338.595245361328 339.753814697266 335.515228271484 326.857849121094 312.012084960938 305.332977294922 324.569854736328 356.716735839844 373.378723144531 362.072082519531 338.873260498047 325.431427001953 326.049652099609 332.719268798828 338.800384521484 347.337036132812 361.659149169922 371.055633544922 364.701995849609 348.558715820312 332.578399658203 326.315063476562 336.284210205078 361.270263671875 384.713531494141 405.327178955078 411.720947265625 412.326293945312 411.376007080078 410.283843994141 420.001312255859 413.080657958984 384.858428955078 360.423675537109 353.324584960938 348.668121337891 299.132263183594 273.822875976562
-9999 -9999 -9999 -9999 -9999 -9999 -9999 -9999 -9999 -9999 -9999 -9999 -9999 -9999 -9999 -9999 -9999 -9999 258.061176300049 257.023315429688 275.795471191406 289.723327636719 310.798217773438 299.674163818359 267.567626953125 256.124267578125 268.720001220703 282.946807861328 285.931549072266 293.918182373047 321.492889404297 343.3759765625 351.892120361328 354.503875732422 365.854827880859 374.669830322266 367.443878173828 347.454162597656 327.277404785156 326.666229248047 344.003601074219 358.164459228516 356.4658203125 347.610015869141 341.509368896484 338.101776123047 336.899475097656 340.20849609375 347.841247558594 344.175903320312 328.342193603516 312.537017822266 301.934448242188 300.1708984375 304.923706054688 315.353912353516 329.342193603516 345.044586181641 359.98828125 372.896514892578 382.675689697266 393.663970947266 388.160858154297 371.061798095703 340.253051757812 316.630279541016 314.251678466797 288.809478759766 292.593597412109 315.334075927734
-9999 -9999 -9999 -9999 -9999 -9999 -9999 -9999 -9999 -9999 -9999 -9999 -9999 -9999 -9999 -9999 -9999 188.811233520508 236.891677856445 242.479476928711 267.296051025391 268.996063232422 260.407501220703 255.523803710938 254.545379638672 262.625915527344 275.789794921875 284.748291015625 284.632141113281 303.340637207031 342.987030029297 360.531768798828 367.751037597656 380.717895507812 404.416076660156 422.272644042969 416.147766113281 391.643096923828 366.202087402344 342.470977783203 328.182373046875 330.971160888672 338.478668212891 336.706939697266 330.398834228516 325.29296875 326.182220458984 327.523651123047 328.657897949219 318.3193359375 307.892211914062 302.377624511719 298.385925292969 299.457244873047 296.466857910156 293.436187744141 292.681121826172 298.277313232422 308.02783203125 319.276458740234 332.697662353516 336.087280273438 326.117156982422 315.442047119141 284.061676025391 279.013153076172 284.636474609375 290.764953613281 341.554840087891 367.552276611328
-9999 -9999 -9999 -9999 -9999 -9999 -9999 -9999 -9999 -9999 -9999 -9999 -9999 165.578842163086 176.686859130859 -9999 195.686653137207 203.014457702637 188.811233520508 259.252685546875 254.955612182617 251.677368164062 247.385848999023 251.651473999023 259.988616943359 266.483642578125 279.102203369141 283.802795410156 287.732238769531 322.140747070312 364.562225341797 378.232177734375 399.940338134766 439.420318603516 460.300354003906 463.673736572266 454.710784912109 424.875885009766 392.827789306641 371.286468505859 349.342559814453 332.049621582031 328.200408935547 325.492401123047 321.078887939453 316.1123046875 316.430755615234 323.965759277344 324.379913330078 317.917388916016 315.683044433594 314.474578857422 307.045776367188 308.248870849609 287.638000488281 258.467163085938 253.706939697266 256.712707519531 258.320526123047 263.763031005859 269.933288574219 265.595947265625 264.147399902344 262.842193603516 256.402008056641 273.247802734375 283.897308349609 322.137115478516 339.704498291016 344.686157226562
-9999 -9999 -9999 -9999 -9999 -9999 -9999 -9999 -9999 -9999 -9999 -9999 -9999 -9999 165.578842163086 184.709854125977 179.771881103516 211.601425170898 231.873291015625 245.643493652344 243.514678955078 242.923126220703 249.281875610352 257.012817382812 262.313232421875 269.253723144531 279.324768066406 279.647216796875 297.446746826172 349.547302246094 385.759643554688 406.949523925781 451.830261230469 497.018280029297 512.862243652344 516.943969726562 507.799468994141 480.373321533203 444.692474365234 414.801391601562 389.275238037109 366.961303710938 351.836517333984 340.289947509766 332.228179931641 327.203857421875 327.447906494141 329.954315185547 327.413513183594 338.972534179688 328.817565917969 309.137603759766 263.884704589844 252.127319335938 251.861267089844 245.543518066406 243.898406982422 246.82633972168 252.937255859375 262.923522949219 273.373992919922 276.716125488281 283.800384521484 288.101318359375 285.450347900391 272.324737548828 277.469085693359 284.872802734375 273.045166015625 272.343200683594
-9999 -9999 -9999 -9999 -9999 -9999 -9999 -9999 -9999 -9999 -9999 -9999 -9999 -9999 167.497108459473 165.578842163086 208.778839111328 237.775924682617 228.730087280273 231.749145507812 234.929901123047 243.585815429688 253.644546508789 259.753387451172 262.618499755859 260.3662109375 267.054229736328 281.488250732422 318.506866455078 370.368316650391 406.515045166016 433.888946533203 459.383056640625 483.706726074219 500.133758544922 501.978698730469 497.524688720703 485.160797119141 463.050354003906 438.592376708984 415.645690917969 395.565673828125 378.724761962891 363.364776611328 347.62548828125 334.858978271484 324.0849609375 336.339721679688 351.949951171875 336.675689697266 283.968566894531 246.849975585938 249.805313110352 275.878723144531 305.489227294922 295.095275878906 269.920684814453 258.679443359375 257.931182861328 266.703521728516 283.047119140625 304.767425537109 329.084167480469 325.300231933594 286.081573486328 246.761245727539 235.60319519043 222.592819213867 224.062225341797 226.699935913086
-9999 -9999 -9999 -9999 -9999 -9999 -9999 -9999 -9999 -9999 -9999 171.172561645508 181.396392822266 163.078735351562 155.314086914062 186.01676940918 222.731704711914 225.623168945312 224.253662109375 232.188293457031 243.516662597656 251.154937744141 256.269348144531 257.527618408203 250.65348815918 246.227172851562 265.2861328125 302.912872314453 343.098999023438 380.642608642578 427.352691650391 444.499145507812 435.528900146484 444.338134765625 454.048889160156 452.751495361328 447.131103515625 441.503173828125 433.541046142578 419.427551269531 401.125244140625 381.623443603516 362.29052734375 347.291900634766 346.963348388672 350.793182373047 348.976379394531 354.207641601562 320.331176757812 266.384887695312 231.855163574219 242.924835205078 280.783538818359 271.846160888672 267.679901123047 269.959533691406 266.697265625 263.721099853516 267.944213867188 281.250762939453 303.328918457031 324.563537597656 341.029876708984 313.012542724609 254.284973144531 217.803833007812 201.208190917969 191.647964477539 194.787963867188 202.55078125
-9999 -9999 -9999 -9999 -9999 -9999 -9999 -9999 -9999 300.144897460938 188.229080200195 160.86669921875 176.718521118164 164.716720581055 174.368225097656 221.573837280273 225.590957641602 225.622772216797 235.884826660156 248.170623779297 253.679107666016 249.669586181641 246.150741577148 238.743026733398 234.330810546875 247.809539794922 291.396057128906 340.356750488281 365.916656494141 393.514739990234 410.823394775391 406.607513427734 406.825012207031 409.555877685547 410.862579345703 408.482208251953 406.676300048828 396.929473876953 384.754058837891 374.961639404297 373.033203125 373.054779052734 371.251556396484 365.422210693359 359.475921630859 353.127624511719 328.695434570312 293.342895507812 253.758804321289 230.189987182617 231.156356811523 240.64924621582 237.475799560547 244.788162231445 262.811279296875 283.110656738281 294.025787353516 292.510467529297 295.463958740234 308.377471923828 322.363067626953 330.846160888672 320.610107421875 264.202270507812 213.520843505859 191.465103149414 188.318206787109 188.581420898438 190.179046630859 192.572677612305
-9999 -9999 -9999 -9999 -9999 -9999 -9999 -9999 -9999 304.422546386719 194.403289794922 174.389038085938 190.644836425781 205.237228393555 221.506378173828 225.748962402344 228.855621337891 238.469985961914 246.530151367188 245.299011230469 239.011047363281 233.047958374023 229.6298828125 228.549255371094 239.299606323242 269.745544433594 319.491943359375 363.610687255859 397.885223388672 388.124877929688 352.067016601562 358.067535400391 369.346801757812 370.802825927734 368.880645751953 368.644500732422 364.33447265625 352.866485595703 337.869445800781 324.192108154297 312.326080322266 304.588714599609 304.616027832031 304.143463134766 294.970733642578 276.980224609375 255.182815551758 236.44580078125 227.259841918945 229.044387817383 222.571807861328 208.597900390625 206.863815307617 216.825546264648 234.050903320312 258.842346191406 286.688018798828 303.656768798828 311.045166015625 314.9404296875 309.088684082031 287.731994628906 251.441436767578 210.635360717773 187.366271972656 183.865249633789 188.773803710938 191.803359985352 194.194808959961 198.228454589844
-9999 -9999 -9999 -9999 -9999 252.458564758301 330.343688964844 284.027008056641 265.898712158203 201.353012084961 187.670822143555 189.187454223633 204.269653320312 223.720932006836 219.358016967773 229.297058105469 241.311798095703 248.977142333984 240.881652832031 228.240036010742 223.785659790039 227.763748168945 230.451858520508 233.719573974609 250.04150390625 292.170623779297 341.470642089844 372.414855957031 376.269409179688 327.355194091797 285.921569824219 283.618621826172 283.770141601562 282.578460693359 278.789611816406 275.190368652344 271.973937988281 266.13720703125 257.119110107422 248.606109619141 244.617645263672 244.299774169922 246.749603271484 248.529174804688 243.895614624023 234.811798095703 227.005615234375 226.225479125977 232.764068603516 226.128677368164 205.120162963867 191.977386474609 185.234741210938 184.524963378906 190.549041748047 203.539184570312 220.547332763672 235.015930175781 244.350921630859 243.572448730469 232.982223510742 217.975189208984 204.226806640625 193.878326416016 185.95703125 188.627746582031 187.769866943359 192.074157714844 193.643142700195 192.261978149414
-9999 -9999 -9999 -9999 245.792343139648 226.853393554688 206.844833374023 174.11344909668 187.868362426758 177.359313964844 170.123321533203 204.68733215332 218.305648803711 221.629333496094 234.313003540039 248.419830322266 246.559600830078 233.335784912109 215.837585449219 214.243011474609 227.27458190918 234.87809753418 236.402816772461 246.202911376953 277.841674804688 318.152740478516 347.964416503906 391.20751953125 405.982025146484 329.854705810547 271.429809570312 253.936492919922 243.659713745117 242.097808837891 240.562484741211 241.603912353516 242.621643066406 245.636459350586 253.624526977539 271.623840332031 294.582580566406 307.592620849609 300.317199707031 280.223663330078 260.662628173828 237.790512084961 225.045181274414 228.269073486328 228.709091186523 214.651489257812 197.056121826172 185.220520019531 176.24609375 171.81184387207 170.462219238281 171.268630981445 176.548522949219 185.504592895508 192.885543823242 196.860748291016 196.319076538086 193.785263061523 188.962448120117 181.076461791992 172.30207824707 169.91015625 166.812911987305 173.024032592773 190.009674072266 189.075668334961
-9999 -9999 -9999 217.798515319824 227.876251220703 179.233749389648 183.393936157227 179.196548461914 191.578170776367 194.157348632812 229.568176269531 218.307205200195 217.339126586914 228.217300415039 245.864242553711 240.736572265625 224.511123657227 207.218307495117 207.889923095703 230.931884765625 251.222610473633 245.54833984375 248.171859741211 270.547821044922 287.388671875 291.221557617188 285.815734863281 284.324798583984 304.613220214844 308.863891601562 289.320983886719 271.034454345703 245.919311523438 228.011978149414 227.219467163086 227.502151489258 223.454208374023 219.808181762695 224.928512573242 241.211486816406 269.637420654297 302.173828125 315.049438476562 289.828704833984 250.905075073242 223.599075317383 217.007110595703 219.595596313477 213.632553100586 201.3017578125 189.115692138672 180.390594482422 173.634063720703 169.186874389648 166.560821533203 164.698745727539 165.518905639648 168.659805297852 172.630706787109 175.656845092773 174.999526977539 172.731246948242 166.760528564453 156.022003173828 146.247406005859 144.486938476562 146.200714111328 150.514770507812 168.758712768555 181.042892456055
-9999 -9999 -9999 219.295944213867 178.229522705078 188.012130737305 203.086990356445 223.845916748047 229.741363525391 243.7685546875 228.1513671875 218.073471069336 222.117813110352 238.646194458008 242.678588867188 223.746032714844 206.132888793945 206.100540161133 232.856231689453 273.087554931641 276.470947265625 255.433883666992 259.963134765625 264.156372070312 253.082321166992 239.378311157227 230.17951965332 224.309066772461 223.567367553711 230.593002319336 241.912582397461 252.057678222656 251.10009765625 237.128433227539 226.141098022461 222.985870361328 215.359817504883 208.167724609375 205.254257202148 203.68376159668 203.925750732422 209.65495300293 226.957977294922 235.756652832031 219.469421386719 204.488922119141 203.581237792969 203.918258666992 196.743545532227 188.646728515625 183.552627563477 180.636322021484 177.279037475586 173.100936889648 168.76921081543 163.730407714844 159.88037109375 158.927047729492 158.963714599609 159.709487915039 161.265914916992 161.499465942383 157.262191772461 147.147689819336 139.127578735352 138.442947387695 142.0166015625 143.918731689453 148.934967041016 163.353576660156
