NCOLS 70 
NROWS 52 
XLLCORNER -80 
YLLCORNER 33 
CELLSIZE 0.25 
NODATA_value -9999 
-9999.000000000000000 -9999 -9999 -9999 -9999 -9999 -9999 -9999 -9999 -9999 -9999 -9999 -9999 -9999 -9999 -9999 -9999 -9999 -9999 -9999 -9999 -9999 -9999 -9999 -9999 -9999 -9999 -9999 -9999 -9999 -9999 -9999 -9999 -9999 -9999 -9999 -9999 -9999 -9999 -9999 -9999 -9999 -9999 -9999 -9999 -9999 -9999 -9999 -9999 -9999 -9999 -9999 -9999 -9999 -9999 -9999 -9999 -9999 -9999 -9999 -9999 -9999 -9999 -9999 -9999 -9999 -9999 -9999 -9999 -9999
-9999 -9999 -9999 -9999 -9999 -9999 -9999 -9999 -9999 -9999 -9999 -9999 -9999 -9999 -9999 -9999 -9999 -9999 -9999 -9999 -9999 -9999 -9999 -9999 -9999 -9999 -9999 -9999 -9999 -9999 -9999 -9999 -9999 -9999 -9999 -9999 -9999 -9999 -9999 -9999 -9999 -9999 -9999 -9999 -9999 -9999 -9999 -9999 -9999 -9999 -9999 -9999 -9999 -9999 -9999 -9999 -9999 -9999 -9999 -9999 -9999 -9999 -9999 -9999 -9999 -9999 -9999 -9999 -9999 -9999
-9999 -9999 -9999 -9999 -9999 -9999 -9999 -9999 -9999 -9999 -9999 -9999 -9999 -9999 -9999 -9999 -9999 -9999 -9999 -9999 -9999 -9999 -9999 -9999 -9999 -9999 -9999 -9999 -9999 -9999 -9999 -9999 -9999 -9999 -9999 -9999 -9999 -9999 -9999 -9999 -9999 -9999 -9999 -9999 -9999 -9999 -9999 -9999 -9999 -9999 -9999 -9999 -9999 -9999 -9999 -9999 -9999 -9999 -9999 275.341949462891 -9999 -9999 -9999 -9999 -9999 -9999 -9999 -9999 -9999 -9999
-9999 -9999 -9999 -9999 -9999 -9999 -9999 -9999 -9999 -9999 -9999 -9999 -9999 -9999 -9999 -9999 -9999 -9999 -9999 -9999 -9999 -9999 -9999 -9999 -9999 -9999 -9999 -9999 -9999 -9999 -9999 -9999 -9999 -9999 -9999 -9999 -9999 -9999 -9999 -9999 -9999 -9999 -9999 -9999 -9999 -9999 -9999 -9999 -9999 -9999 -9999 -9999 -9999 -9999 -9999 222.856109619141 230.239730834961 237.937728881836 248.404357910156 258.623870849609 -9999 -9999 -9999 -9999 -9999 -9999 -9999 -9999 -9999 -9999
-9999 -9999 -9999 -9999 -9999 -9999 -9999 -9999 -9999 -9999 -9999 -9999 -9999 -9999 -9999 -9999 -9999 -9999 -9999 -9999 -9999 -9999 -9999 -9999 -9999 -9999 -9999 -9999 -9999 -9999 -9999 -9999 -9999 -9999 -9999 -9999 -9999 -9999 -9999 -9999 -9999 -9999 -9999 -9999 -9999 -9999 -9999 -9999 -9999 -9999 -9999 -9999 217.619125366211 216.412170410156 223.968933105469 256.492736816406 255.216171264648 245.250106811523 -9999 -9999 -9999 -9999 -9999 -9999 -9999 -9999 -9999 -9999 -9999 -9999
-9999 -9999 -9999 -9999 -9999 -9999 -9999 -9999 -9999 -9999 -9999 -9999 -9999 -9999 -9999 -9999 -9999 -9999 -9999 -9999 -9999 -9999 -9999 -9999 -9999 -9999 -9999 -9999 -9999 -9999 -9999 -9999 -9999 -9999 -9999 -9999 -9999 -9999 -9999 -9999 -9999 -9999 -9999 -9999 -9999 -9999 -9999 -9999 -9999 -9999 221.12200012207 224.267272949219 233.252471923828 225.965957641602 214.284866333008 234.457794189453 -9999 -9999 -9999 -9999 -9999 -9999 -9999 -9999 -9999 -9999 -9999 88.6035766601562 91.1520175933838 103.016799926758
-9999 -9999 -9999 -9999 -9999 -9999 -9999 -9999 -9999 -9999 -9999 -9999 -9999 -9999 -9999 -9999 -9999 -9999 -9999 -9999 -9999 -9999 -9999 -9999 -9999 -9999 -9999 -9999 -9999 -9999 -9999 -9999 -9999 -9999 -9999 -9999 -9999 -9999 -9999 -9999 -9999 -9999 -9999 -9999 243.891108194987 -9999 -9999 217.338165283203 228.892364501953 224.477111816406 222.276962280273 213.737899780273 207.460571289062 167.1728515625 142.719024658203 -9999 -9999 -9999 -9999 -9999 -9999 -9999 -9999 89.1753158569336 88.171516418457 90.0336761474609 90.0018844604492 88.3732833862305 87.4355621337891 85.7824249267578
-9999 -9999 -9999 -9999 -9999 -9999 -9999 -9999 -9999 -9999 -9999 -9999 -9999 -9999 -9999 -9999 -9999 -9999 -9999 -9999 -9999 -9999 -9999 -9999 -9999 -9999 -9999 -9999 -9999 -9999 -9999 -9999 -9999 -9999 -9999 -9999 -9999 -9999 -9999 -9999 -9999 -9999 -9999 -9999 243.286834716797 240.779022216797 229.80387878418 209.224594116211 201.431823730469 191.976486206055 177.737579345703 159.935989379883 142.228500366211 124.527053833008 137.557847976685 -9999 -9999 -9999 -9999 -9999 -9999 -9999 80.7701416015625 81.3491363525391 81.0800704956055 80.9480056762695 77.8462677001953 74.3795166015625 73.4936294555664 72.7429122924805
-9999 -9999 -9999 -9999 -9999 -9999 -9999 -9999 -9999 -9999 -9999 -9999 -9999 -9999 -9999 -9999 -9999 -9999 -9999 -9999 -9999 -9999 -9999 -9999 -9999 -9999 -9999 -9999 -9999 -9999 -9999 -9999 -9999 -9999 -9999 -9999 -9999 -9999 -9999 -9999 211.881251017253 198.986455281576 213.039611816406 255.283126831055 243.795532226562 222.224029541016 207.181381225586 191.854217529297 172.956100463867 154.23291015625 138.080520629883 128.261581420898 122.552848815918 115.812461853027 118.750131225586 -9999 -9999 -9999 -9999 -9999 72.6259002685547 71.9485168457031 70.8250122070312 70.8341751098633 71.7476501464844 70.944694519043 69.7382125854492 69.7937393188477 69.4065170288086 68.6344528198242
-9999 -9999 -9999 -9999 -9999 -9999 -9999 -9999 -9999 -9999 -9999 -9999 -9999 -9999 -9999 -9999 -9999 -9999 -9999 -9999 -9999 -9999 -9999 -9999 -9999 -9999 -9999 -9999 -9999 -9999 -9999 -9999 -9999 -9999 -9999 -9999 -9999 -9999 -9999 222.816131591797 215.126205444336 197.701416015625 184.131744384766 180.474304199219 179.487594604492 178.151062011719 174.041549682617 159.805358886719 142.198394775391 132.433319091797 126.936637878418 123.237281799316 120.551315307617 114.645385742188 121.714569091797 117.05118560791 -9999 -9999 -9999 80.8655700683594 75.5410079956055 70.3881759643555 69.2183380126953 71.7757034301758 73.4839096069336 73.1154937744141 75.8817138671875 81.4947204589844 82.5098114013672 76.9296951293945
-9999 -9999 -9999 -9999 -9999 -9999 -9999 -9999 -9999 -9999 -9999 -9999 -9999 -9999 -9999 -9999 -9999 -9999 -9999 -9999 -9999 -9999 -9999 -9999 -9999 -9999 -9999 -9999 -9999 -9999 -9999 -9999 -9999 -9999 -9999 -9999 -9999 -9999 249.977713012695 233.109375 216.312484741211 191.802001953125 168.622756958008 154.282379150391 144.893417358398 135.821136474609 121.124580383301 99.2642364501953 82.9424362182617 81.2649612426758 90.1468048095703 104.687530517578 114.668998718262 111.381454467773 112.008972167969 113.284912109375 102.088356018066 97.5009460449219 91.6407470703125 81.6379165649414 74.6426086425781 74.7851486206055 79.4267272949219 82.3617401123047 81.9761581420898 83.0816497802734 93.7421875 107.259460449219 110.694854736328 99.4051971435547
-9999 -9999 -9999 -9999 -9999 -9999 -9999 -9999 -9999 -9999 -9999 -9999 -9999 -9999 -9999 -9999 -9999 -9999 -9999 -9999 -9999 -9999 -9999 -9999 -9999 -9999 -9999 -9999 -9999 -9999 -9999 -9999 -9999 -9999 -9999 -9999 -9999 289.155151367188 270.071716308594 234.736190795898 189.053207397461 151.247528076172 132.386306762695 122.419792175293 113.702865600586 102.883964538574 89.1952896118164 75.5847625732422 68.2001342773438 69.7862319946289 81.2045516967773 102.12671661377 115.614959716797 112.469009399414 105.590591430664 100.968605041504 97.9445953369141 91.3847122192383 85.6069183349609 82.1877288818359 85.0065460205078 95.4424285888672 103.374046325684 101.592979431152 96.7963562011719 97.9038162231445 108.968994140625 117.739608764648 119.664291381836 111.958671569824
-9999 -9999 -9999 -9999 -9999 -9999 -9999 -9999 -9999 -9999 -9999 -9999 -9999 -9999 -9999 -9999 -9999 -9999 -9999 -9999 -9999 -9999 -9999 -9999 -9999 -9999 -9999 -9999 -9999 -9999 -9999 -9999 -9999 -9999 -9999 -9999 -9999 273.416137695312 248.18603515625 200.104736328125 142.36376953125 102.020729064941 89.508918762207 88.6780242919922 88.8178100585938 83.8493118286133 76.1163787841797 68.7749099731445 65.2517318725586 70.426155090332 88.4310684204102 110.189155578613 122.930656433105 122.605438232422 113.902473449707 105.860816955566 99.5476150512695 94.3147888183594 92.2456970214844 95.2168655395508 105.659248352051 120.315216064453 130.784423828125 124.409172058105 115.98021697998 114.734252929688 118.873580932617 119.545989990234 118.184234619141 116.40991973877
-9999 -9999 -9999 -9999 -9999 -9999 -9999 -9999 -9999 -9999 -9999 -9999 -9999 -9999 -9999 -9999 -9999 -9999 -9999 -9999 -9999 -9999 -9999 -9999 -9999 -9999 -9999 -9999 -9999 -9999 -9999 -9999 -9999 -9999 -9999 -9999 -9999 273.447448730469 226.858657836914 177.062652587891 126.716354370117 96.3927536010742 83.10791015625 78.2290954589844 75.3139114379883 71.8754653930664 69.4713973999023 67.6620025634766 68.6162490844727 77.9263610839844 97.4201354980469 117.333770751953 130.436340332031 135.170349121094 128.330337524414 117.938636779785 111.540740966797 109.010192871094 110.362983703613 114.529678344727 122.558380126953 139.142776489258 154.889587402344 147.718765258789 136.712417602539 131.634872436523 128.603103637695 123.957878112793 119.281288146973 118.560752868652
-9999 -9999 -9999 -9999 -9999 -9999 -9999 -9999 -9999 -9999 -9999 -9999 -9999 -9999 -9999 -9999 -9999 -9999 -9999 -9999 -9999 -9999 -9999 -9999 -9999 -9999 -9999 -9999 -9999 -9999 -9999 -9999 -9999 -9999 -9999 -9999 385.272827148438 307.675506591797 238.119705200195 192.212890625 144.634674072266 113.668769836426 96.9730682373047 85.7414703369141 77.591682434082 73.7124710083008 74.4490280151367 75.0055847167969 78.19140625 88.2884750366211 103.01505279541 118.570419311523 130.740875244141 137.869232177734 135.82926940918 127.335502624512 121.106758117676 122.255653381348 129.861328125 134.74382019043 142.354385375977 157.340621948242 155.576705932617 156.0576171875 156.975540161133 158.68473815918 153.183807373047 147.775588989258 143.762664794922 137.950073242188
-9999 -9999 -9999 -9999 -9999 -9999 -9999 -9999 -9999 -9999 -9999 -9999 -9999 -9999 -9999 -9999 -9999 -9999 -9999 -9999 -9999 -9999 -9999 -9999 -9999 -9999 -9999 -9999 -9999 -9999 -9999 -9999 -9999 -9999 -9999 -9999 -9999 294.415100097656 277.361389160156 237.899795532227 187.471466064453 150.047225952148 131.255554199219 114.062156677246 97.0312194824219 88.2545776367188 89.7763748168945 90.667236328125 91.0977249145508 98.5210723876953 109.343978881836 122.369369506836 136.871459960938 146.523620605469 145.516891479492 132.852813720703 138.822143554688 148.133224487305 157.107147216797 159.906036376953 163.83740234375 158.80192565918 150.739700317383 150.825088500977 150.258483886719 147.872589111328 141.27815246582 140.909133911133 153.686508178711 157.842178344727
-9999 -9999 -9999 -9999 -9999 -9999 -9999 -9999 -9999 -9999 -9999 -9999 -9999 -9999 -9999 -9999 -9999 -9999 -9999 -9999 -9999 -9999 -9999 -9999 -9999 -9999 -9999 -9999 -9999 -9999 -9999 -9999 -9999 -9999 -9999 -9999 -9999 -9999 324.041961669922 -9999 216.404220581055 177.3955078125 163.928634643555 150.113204956055 126.805732727051 112.466491699219 114.107246398926 114.099510192871 111.924957275391 118.570274353027 127.434059143066 141.894134521484 157.975479125977 161.736129760742 147.131118774414 120.535049438477 155.143829345703 175.017532348633 175.297607421875 168.889755249023 165.607711791992 152.853408813477 148.372940063477 146.793441772461 146.873321533203 146.225708007812 142.159805297852 140.504730224609 146.5185546875 159.269180297852
-9999 -9999 -9999 -9999 -9999 -9999 -9999 -9999 -9999 -9999 -9999 -9999 -9999 -9999 -9999 -9999 -9999 -9999 -9999 -9999 -9999 -9999 -9999 -9999 -9999 -9999 -9999 -9999 -9999 -9999 -9999 -9999 -9999 -9999 -9999 -9999 -9999 -9999 -9999 -9999 197.519577026367 185.79084777832 177.365463256836 164.025161743164 140.166519165039 126.207450866699 125.011505126953 121.543930053711 119.090202331543 127.685432434082 137.484252929688 152.50163269043 169.020309448242 170.636642456055 150.057479858398 131.82421875 159.247100830078 170.96614074707 176.504364013672 166.984085083008 158.034881591797 152.016021728516 147.505355834961 145.831451416016 145.001953125 143.782089233398 143.446884155273 143.788177490234 150.061798095703 159.224136352539
-9999 -9999 -9999 -9999 -9999 -9999 -9999 -9999 -9999 -9999 -9999 -9999 -9999 -9999 -9999 -9999 -9999 -9999 -9999 -9999 -9999 -9999 -9999 -9999 -9999 -9999 -9999 -9999 -9999 -9999 -9999 -9999 -9999 -9999 222.902740478516 203.6884765625 180.143188476562 -9999 155.920196533203 186.373413085938 220.241317749023 206.373062133789 176.158172607422 155.922805786133 137.321685791016 125.802032470703 122.323394775391 118.139831542969 115.463928222656 125.26781463623 136.222900390625 151.357849121094 163.751800537109 167.633636474609 143.151123046875 149.688369750977 165.760025024414 173.281875610352 170.491790771484 158.190292358398 151.93537902832 151.104736328125 149.174179077148 150.074600219727 149.813598632812 148.839004516602 148.988098144531 150.339660644531 159.598739624023 163.227783203125
-9999 -9999 -9999 -9999 -9999 -9999 -9999 -9999 -9999 -9999 -9999 -9999 -9999 -9999 -9999 -9999 -9999 -9999 -9999 -9999 -9999 -9999 -9999 -9999 -9999 -9999 -9999 575.34716796875 575.34716796875 464.297241210938 364.666351318359 309.118041992188 257.928283691406 236.839721679688 231.249359130859 219.833404541016 189.661483764648 164.907791137695 157.185241699219 174.302200317383 209.776840209961 207.507858276367 172.484741210938 150.238693237305 138.202041625977 128.362426757812 122.077743530273 121.767608642578 125.370323181152 134.118133544922 146.396194458008 153.812713623047 152.73616027832 158.022216796875 153.093765258789 176.720275878906 184.20832824707 182.775360107422 178.671829223633 171.882278442383 166.886871337891 163.579330444336 161.031372070312 158.088729858398 155.976181030273 154.114898681641 157.353317260742 160.605880737305 176.073577880859 179.415466308594
-9999 -9999 -9999 -9999 -9999 -9999 -9999 -9999 -9999 -9999 -9999 -9999 -9999 -9999 -9999 -9999 -9999 -9999 -9999 -9999 -9999 -9999 -9999 -9999 -9999 -9999 -9999 -9999 -9999 -9999 288.310882568359 290.375457763672 278.943084716797 269.515167236328 268.766571044922 253.91650390625 224.186813354492 194.925567626953 174.869720458984 172.15998840332 180.037475585938 175.807418823242 161.967010498047 151.037094116211 143.844207763672 139.51432800293 137.353775024414 143.976943969727 153.436920166016 163.102966308594 173.734466552734 176.383422851562 175.356048583984 187.15885925293 204.63835144043 207.637023925781 201.92610168457 196.336380004883 193.465942382812 190.267730712891 185.20149230957 177.71858215332 175.707534790039 169.014907836914 163.470077514648 155.322387695312 156.732803344727 159.087036132812 172.711044311523 181.367263793945
-9999 -9999 -9999 -9999 -9999 -9999 -9999 -9999 -9999 -9999 -9999 -9999 -9999 -9999 -9999 -9999 -9999 -9999 -9999 -9999 -9999 -9999 -9999 -9999 -9999 465.695119222005 405.732045491536 357.046132405599 320.521697998047 287.706848144531 302.025085449219 317.140960693359 322.5576171875 322.767395019531 320.036651611328 301.988861083984 280.464172363281 254.166122436523 225.500671386719 203.055603027344 189.36604309082 181.386703491211 175.545669555664 167.911163330078 163.517623901367 161.299697875977 166.701950073242 174.33366394043 181.492004394531 185.454330444336 194.643615722656 215.133712768555 222.232711791992 221.220184326172 209.671508789062 192.208160400391 179.625411987305 172.335296630859 170.151672363281 169.946487426758 171.32341003418 171.466262817383 173.537948608398 175.043609619141 169.353622436523 164.014938354492 163.381576538086 164.881286621094 167.843612670898 172.610275268555
-9999 -9999 -9999 -9999 -9999 -9999 -9999 -9999 -9999 -9999 -9999 -9999 -9999 -9999 -9999 -9999 -9999 -9999 -9999 -9999 -9999 -9999 -9999 -9999 527.38720703125 465.634979248047 404.063171386719 347.497985839844 319.577239990234 327.304718017578 350.430358886719 357.466766357422 342.316772460938 319.269836425781 296.858093261719 268.641448974609 259.004150390625 261.800476074219 256.444641113281 244.147094726562 232.394195556641 222.579116821289 217.697906494141 212.682327270508 201.570785522461 190.270492553711 195.34944152832 202.455337524414 205.330368041992 203.642883300781 203.850982666016 211.929595947266 205.719635009766 191.372116088867 175.498840332031 165.126495361328 157.386657714844 153.216400146484 149.997146606445 148.551162719727 148.069839477539 150.645294189453 154.618103027344 159.376342773438 162.071304321289 164.415252685547 163.889556884766 165.057647705078 167.555999755859 168.432312011719
-9999 -9999 -9999 -9999 -9999 -9999 -9999 -9999 -9999 -9999 -9999 -9999 -9999 -9999 -9999 -9999 -9999 -9999 -9999 -9999 -9999 -9999 -9999 -9999 449.8271484375 349.005523681641 313.539306640625 319.138153076172 339.477996826172 361.557891845703 369.343627929688 346.018737792969 307.908386230469 270.092468261719 241.068557739258 217.852401733398 205.990295410156 209.336380004883 218.19319152832 226.972640991211 233.003707885742 231.107635498047 230.554489135742 228.624160766602 217.526443481445 207.387756347656 207.805969238281 215.851791381836 218.443313598633 219.805999755859 213.961181640625 200.475677490234 185.878402709961 175.369995117188 166.422958374023 161.573440551758 156.431686401367 153.089447021484 150.563003540039 148.265930175781 145.539016723633 142.784362792969 142.686370849609 145.624893188477 149.09260559082 153.390121459961 155.714233398438 158.005676269531 160.782943725586 163.398880004883
-9999 -9999 -9999 -9999 -9999 -9999 -9999 -9999 -9999 -9999 -9999 -9999 -9999 -9999 -9999 -9999 -9999 -9999 -9999 -9999 -9999 -9999 -9999 333.147094726562 362.378540039062 307.488555908203 300.510345458984 320.406005859375 345.873321533203 348.359405517578 325.303466796875 292.527893066406 263.010162353516 240.828521728516 223.864013671875 214.509216308594 207.568710327148 202.123352050781 200.269668579102 198.494903564453 197.200347900391 198.327102661133 204.113311767578 209.274749755859 211.98747253418 213.78254699707 213.702362060547 213.011367797852 213.273895263672 211.334503173828 208.271377563477 197.345504760742 186.468643188477 176.660705566406 169.935958862305 166.024948120117 163.783264160156 162.286346435547 161.308868408203 159.11604309082 157.175155639648 153.099624633789 148.006225585938 142.948547363281 140.632553100586 142.244583129883 145.005569458008 147.831893920898 151.72380065918 155.688751220703
-9999 -9999 -9999 -9999 -9999 -9999 -9999 -9999 -9999 -9999 -9999 -9999 -9999 -9999 -9999 -9999 -9999 -9999 -9999 -9999 -9999 -9999 -9999 252.095520019531 268.287170410156 266.904083251953 285.8662109375 318.111877441406 340.787780761719 320.884338378906 286.338806152344 262.088409423828 243.843719482422 228.384246826172 221.190017700195 220.183639526367 219.035537719727 217.490905761719 215.52978515625 211.883209228516 209.324584960938 211.39665222168 213.283874511719 215.098205566406 216.882308959961 216.585586547852 213.439239501953 214.252990722656 219.015289306641 218.88688659668 214.30403137207 201.560897827148 189.113616943359 182.939880371094 180.253463745117 178.904602050781 178.660308837891 178.692581176758 178.826705932617 177.685256958008 176.499908447266 172.225646972656 167.360900878906 158.148208618164 147.313201904297 140.518417358398 139.408355712891 141.66975402832 144.589797973633 149.188247680664
-9999 -9999 -9999 -9999 -9999 -9999 -9999 -9999 -9999 -9999 -9999 -9999 -9999 -9999 -9999 -9999 -9999 -9999 -9999 -9999 -9999 -9999 286.853820800781 236.539779663086 238.773910522461 265.734313964844 303.102874755859 335.918212890625 335.686279296875 299.91748046875 268.856384277344 247.366394042969 229.735198974609 221.323211669922 222.470626831055 226.777450561523 230.707397460938 234.488464355469 237.668090820312 239.237930297852 240.1337890625 240.063262939453 238.235702514648 235.952560424805 231.580490112305 228.420639038086 225.147796630859 226.094207763672 227.221633911133 228.247192382812 227.624755859375 216.363388061523 198.550308227539 187.469299316406 184.275207519531 184.633712768555 186.487884521484 189.003982543945 192.136917114258 195.086639404297 196.13215637207 194.175430297852 191.542510986328 185.20068359375 173.998046875 158.890121459961 146.413162231445 142.377166748047 143.344665527344 147.384887695312
-9999 -9999 -9999 -9999 -9999 -9999 -9999 -9999 -9999 -9999 -9999 -9999 -9999 -9999 746.300862630208 -9999 -9999 -9999 -9999 656.739013671875 -9999 381.807556152344 301.416595458984 254.739593505859 277.901275634766 324.552978515625 354.279632568359 344.569274902344 315.794189453125 281.4111328125 255.177032470703 237.712738037109 226.979583740234 223.439758300781 225.715438842773 230.987167358398 236.579452514648 242.574523925781 246.989624023438 248.229034423828 250.055389404297 252.391937255859 253.143020629883 250.863067626953 245.877655029297 242.488143920898 239.473449707031 236.270263671875 233.001998901367 231.845138549805 231.177352905273 222.251113891602 206.705322265625 193.897933959961 187.497970581055 186.171813964844 188.53125 193.211090087891 199.059356689453 205.330047607422 209.873489379883 212.534515380859 211.551177978516 209.958679199219 207.298126220703 195.799285888672 173.787780761719 152.79899597168 144.407608032227 146.712219238281
-9999 -9999 -9999 -9999 -9999 -9999 -9999 -9999 -9999 -9999 -9999 -9999 -9999 -9999 742.09423828125 -9999 -9999 -9999 -9999 602.648010253906 453.654211425781 370.523742675781 288.242248535156 288.939270019531 331.619415283203 362.899078369141 359.314514160156 330.765167236328 304.752166748047 276.415466308594 251.19172668457 235.802795410156 228.39469909668 226.101257324219 227.7919921875 232.528869628906 238.903289794922 245.258560180664 247.275848388672 247.852081298828 252.431594848633 255.785308837891 253.929534912109 249.360061645508 244.897689819336 240.201095581055 234.843109130859 229.214401245117 227.131118774414 228.113174438477 227.269424438477 222.015975952148 215.861587524414 209.511001586914 202.185302734375 196.666687011719 194.375595092773 195.028472900391 199.623031616211 206.887344360352 213.707000732422 219.158920288086 219.521713256836 217.53385925293 219.370208740234 219.884262084961 205.870468139648 175.0966796875 153.606689453125 149.396179199219
-9999 -9999 -9999 -9999 -9999 -9999 -9999 -9999 -9999 -9999 -9999 -9999 -9999 -9999 761.024047851562 -9999 -9999 -9999 -9999 -9999 301.333786010742 310.643737792969 289.199676513672 321.067718505859 346.794647216797 341.359893798828 326.769470214844 310.497619628906 286.677673339844 262.900360107422 244.093154907227 233.966369628906 228.057464599609 226.339828491211 228.474502563477 232.729888916016 238.364654541016 243.71516418457 245.875961303711 249.978042602539 257.967437744141 259.68408203125 254.265075683594 247.37629699707 240.291030883789 232.571487426758 225.113861083984 219.233856201172 216.600540161133 217.64372253418 220.572723388672 222.041244506836 221.006042480469 220.461456298828 218.096282958984 213.190338134766 207.637191772461 204.67756652832 205.887268066406 209.686798095703 215.959594726562 222.26252746582 223.344314575195 218.043151855469 214.032913208008 216.659896850586 221.851531982422 207.312484741211 176.831527709961 158.544296264648
-9999 -9999 -9999 -9999 -9999 -9999 -9999 -9999 -9999 -9999 -9999 -9999 -9999 -9999 701.305541992188 -9999 685.304809570312 -9999 -9999 -9999 235.031066894531 289.136596679688 312.324096679688 323.266021728516 322.021911621094 316.136566162109 308.368591308594 290.038391113281 265.31689453125 247.455978393555 237.75602722168 233.951995849609 229.224243164062 227.157897949219 229.530197143555 231.902648925781 235.645889282227 242.318023681641 248.390777587891 256.45458984375 265.228088378906 264.076049804688 254.635604858398 244.540023803711 234.299026489258 223.200012207031 213.386154174805 206.053115844727 202.710647583008 203.837051391602 208.684143066406 214.451156616211 217.996780395508 220.426284790039 222.666015625 222.718673706055 220.15364074707 218.997985839844 219.28483581543 220.719161987305 224.263748168945 227.283157348633 227.556167602539 223.463714599609 214.711654663086 207.626907348633 218.509628295898 223.505889892578 193.362030029297 169.354263305664
-9999 -9999 -9999 -9999 -9999 -9999 -9999 -9999 -9999 -9999 -9999 -9999 -9999 -9999 701.305541992188 641.587036132812 512.170288085938 -9999 -9999 264.276741027832 254.902648925781 306.456695556641 319.223968505859 318.337646484375 323.005889892578 325.027313232422 304.620056152344 276.694030761719 255.551177978516 242.989944458008 237.857192993164 235.97624206543 232.481063842773 229.600769042969 228.885482788086 231.266830444336 242.024185180664 255.205291748047 263.044250488281 271.200012207031 275.309875488281 267.961639404297 254.181198120117 240.670181274414 227.573425292969 214.13037109375 203.467361450195 195.275802612305 188.463836669922 184.393463134766 186.595367431641 197.305465698242 208.940826416016 215.297866821289 220.099411010742 224.211395263672 225.522827148438 226.049591064453 226.693435668945 227.561080932617 230.049392700195 232.251708984375 230.088104248047 225.060653686523 216.467208862305 205.946014404297 213.399307250977 226.966384887695 202.322952270508 179.277450561523
-9999 -9999 -9999 -9999 -9999 -9999 -9999 -9999 -9999 -9999 -9999 -9999 -9999 -9999 -9999 454.529656982422 402.372344970703 -9999 322.352569580078 277.225250244141 289.947998046875 304.970306396484 313.333038330078 334.415802001953 345.555084228516 326.893493652344 290.907775878906 261.640991210938 247.454147338867 241.320358276367 239.131423950195 238.432373046875 235.469451904297 231.118469238281 230.392974853516 242.287887573242 267.734893798828 285.321624755859 288.244415283203 288.949096679688 284.165130615234 269.822235107422 253.389953613281 238.620819091797 223.97346496582 211.586288452148 199.0927734375 183.997955322266 171.837890625 166.675598144531 169.163482666016 179.777114868164 194.859710693359 205.899887084961 213.699371337891 221.195220947266 225.692947387695 226.965393066406 228.002838134766 228.276809692383 229.100982666016 229.451614379883 226.157821655273 221.222900390625 214.454330444336 205.649429321289 209.347427368164 225.836853027344 211.741806030273 189.155029296875
-9999 -9999 -9999 -9999 -9999 -9999 -9999 -9999 -9999 -9999 -9999 -9999 -9999 -9999 -9999 359.962463378906 356.55615234375 -9999 287.432891845703 289.469848632812 292.285430908203 308.692596435547 340.601837158203 367.175506591797 357.235046386719 320.169128417969 276.308349609375 249.717742919922 242.865982055664 241.04638671875 241.976745605469 242.151321411133 239.043991088867 234.847579956055 240.240661621094 269.80126953125 302.469299316406 311.310455322266 305.926452636719 298.051208496094 285.060821533203 267.785583496094 251.71435546875 236.445068359375 221.187622070312 207.77180480957 191.090515136719 173.812622070312 163.304595947266 160.936782836914 164.075805664062 172.838348388672 186.648391723633 198.433471679688 207.355346679688 215.394226074219 221.609497070312 224.24787902832 225.702850341797 224.55241394043 221.896545410156 217.854751586914 215.13200378418 211.908767700195 209.495452880859 204.774688720703 204.83512878418 225.89079284668 225.794250488281 203.256423950195
-9999 -9999 -9999 -9999 -9999 -9999 -9999 -9999 -9999 -9999 -9999 -9999 -9999 -9999 -9999 331.827667236328 -9999 299.329650878906 303.328979492188 292.221221923828 300.551605224609 342.12646484375 381.297149658203 382.824401855469 347.471832275391 299.031066894531 261.599029541016 245.104110717773 242.750595092773 242.488616943359 243.992614746094 244.776550292969 243.35661315918 244.848892211914 262.324920654297 299.442749023438 323.361755371094 320.885925292969 309.899169921875 297.086517333984 281.95849609375 265.576538085938 249.665344238281 233.933303833008 219.243270874023 202.210693359375 182.510787963867 170.260620117188 165.190856933594 163.782348632812 165.938888549805 174.673599243164 187.29264831543 198.338012695312 206.576934814453 212.46760559082 215.988021850586 218.052139282227 217.099639892578 213.313522338867 210.026351928711 207.512847900391 205.694030761719 204.387359619141 204.521041870117 203.022354125977 204.331253051758 230.292922973633 239.831970214844 218.648422241211
-9999 -9999 -9999 -9999 -9999 -9999 -9999 -9999 -9999 -9999 -9999 -9999 -9999 -9999 331.827667236328 304.012766520182 268.075042724609 277.552001953125 290.226898193359 304.565460205078 333.5986328125 373.395538330078 399.210266113281 380.936309814453 333.800994873047 285.910034179688 261.414611816406 252.723434448242 252.667083740234 251.517868041992 250.367950439453 249.97834777832 250.970672607422 261.226928710938 287.172149658203 316.291809082031 325.952178955078 316.617401123047 304.290161132812 291.357727050781 276.855773925781 262.519714355469 247.097763061523 232.168548583984 219.370162963867 201.359283447266 181.549392700195 171.359481811523 169.330581665039 170.443695068359 174.088623046875 182.223587036133 193.777114868164 202.373611450195 205.904251098633 207.811538696289 208.186187744141 208.948211669922 208.335083007812 206.429656982422 206.992736816406 205.800262451172 204.388656616211 203.562561035156 202.713165283203 203.000259399414 206.954025268555 232.195907592773 245.651489257812 233.683837890625
-9999 -9999 -9999 -9999 -9999 -9999 -9999 -9999 -9999 -9999 -9999 -9999 -9999 -9999 -9999 -9999 271.322532653809 272.986480712891 268.086212158203 309.898956298828 369.230224609375 404.187622070312 405.913452148438 381.032073974609 333.225402832031 293.347198486328 276.284118652344 277.010101318359 288.197021484375 292.691741943359 290.348388671875 287.060882568359 282.055511474609 282.94921875 295.445465087891 310.0009765625 320.834594726562 318.457824707031 302.981384277344 286.4697265625 270.913787841797 256.451538085938 242.357116699219 229.639526367188 220.424682617188 202.852127075195 186.412155151367 180.868453979492 181.346542358398 184.496398925781 189.163375854492 195.243850708008 201.08073425293 204.600555419922 206.287322998047 206.409408569336 204.40998840332 204.24365234375 203.940017700195 202.870529174805 204.338607788086 204.242889404297 204.031616210938 204.872146606445 203.153305053711 204.278656005859 208.313934326172 222.580978393555 232.296188354492 233.927108764648
-9999 -9999 -9999 -9999 -9999 -9999 -9999 -9999 -9999 -9999 -9999 -9999 -9999 -9999 -9999 -9999 269.83154296875 266.676605224609 290.668731689453 337.315307617188 396.750701904297 424.501953125 415.581207275391 380.141967773438 339.453460693359 328.81640625 337.080871582031 345.426391601562 346.544616699219 344.41650390625 338.794189453125 333.949432373047 327.651733398438 319.986450195312 312.085632324219 304.528472900391 299.244689941406 293.019622802734 280.072540283203 266.564422607422 255.432571411133 245.402877807617 235.6474609375 226.911163330078 223.246063232422 210.147186279297 195.151580810547 193.478210449219 196.761840820312 200.547348022461 202.723526000977 205.236953735352 208.294586181641 207.792022705078 205.301895141602 205.777374267578 206.445220947266 205.724197387695 203.922668457031 202.683212280273 203.816680908203 204.923706054688 204.882736206055 205.288543701172 202.618362426758 205.736068725586 208.572174072266 213.969741821289 219.611694335938 226.646743774414
-9999 -9999 -9999 -9999 -9999 -9999 -9999 -9999 -9999 -9999 -9999 -9999 -9999 -9999 -9999 -9999 -9999 297.042167663574 315.402252197266 382.554626464844 437.69970703125 443.633758544922 436.930419921875 417.582427978516 395.778350830078 388.360595703125 383.606842041016 374.00146484375 358.51318359375 343.375610351562 330.898864746094 321.393676757812 311.977325439453 301.430908203125 290.529083251953 277.800537109375 264.580322265625 254.292999267578 244.254669189453 236.178955078125 230.514739990234 226.705139160156 224.018524169922 222.285980224609 223.987930297852 218.636352539062 207.087615966797 205.579620361328 209.267166137695 212.986526489258 213.504013061523 214.263458251953 213.188034057617 210.6064453125 209.337249755859 209.495361328125 208.751663208008 208.557601928711 207.677947998047 206.456237792969 207.37646484375 208.281921386719 207.947250366211 208.325912475586 208.884613037109 213.852462768555 217.497528076172 225.528457641602 227.247863769531 224.44694519043
-9999 -9999 -9999 -9999 -9999 -9999 -9999 -9999 -9999 -9999 -9999 -9999 -9999 -9999 267.465339660645 266.676605224609 298.637880325317 315.411666870117 315.421081542969 398.391204833984 471.302825927734 447.199157714844 433.907287597656 422.671112060547 402.96533203125 382.726715087891 364.074737548828 347.997589111328 334.079681396484 321.981842041016 310.527557373047 299.597198486328 288.126770019531 277.642791748047 268.986358642578 260.537811279297 251.207855224609 242.800109863281 235.772003173828 230.744338989258 229.291656494141 231.137405395508 229.720458984375 227.419967651367 229.651260375977 226.397399902344 218.126754760742 216.392578125 218.760940551758 220.387405395508 218.933944702148 217.145553588867 216.093887329102 215.186737060547 216.035690307617 217.394104003906 219.020736694336 218.303329467773 216.759475708008 213.388229370117 215.224746704102 214.769470214844 215.722045898438 214.33024597168 212.735534667969 212.854293823242 213.423065185547 221.79460144043 226.787780761719 208.094116210938
-9999 -9999 -9999 -9999 -9999 -9999 -9999 -9999 -9999 -9999 -9999 -9999 -9999 -9999 -9999 -9999 -9999 -9999 371.436042785645 387.54638671875 468.429504394531 449.437835693359 424.449645996094 405.914428710938 382.988922119141 362.711608886719 344.289459228516 325.832427978516 306.811157226562 290.913757324219 278.262939453125 266.795623779297 257.003021240234 249.24137878418 242.347778320312 235.48193359375 229.976257324219 225.215438842773 220.353866577148 218.068984985352 220.073638916016 224.744003295898 228.877029418945 232.035949707031 234.618789672852 233.277069091797 226.156204223633 224.248916625977 225.678405761719 225.170272827148 222.640106201172 220.604995727539 220.221908569336 221.091064453125 223.098556518555 226.594955444336 229.200698852539 230.340667724609 228.349304199219 221.213150024414 220.553863525391 218.354064941406 218.191635131836 215.631164550781 213.494537353516 213.710388183594 212.14111328125 216.58576965332 225.433609008789 206.967819213867
-9999 -9999 -9999 -9999 -9999 -9999 -9999 -9999 -9999 -9999 -9999 -9999 -9999 -9999 -9999 -9999 -9999 307.281341552734 376.268478393555 384.385498046875 441.904846191406 420.09228515625 403.838806152344 380.530029296875 355.736633300781 328.153869628906 297.672698974609 275.601745605469 255.158645629883 241.618850708008 232.931228637695 226.050338745117 222.04426574707 218.721588134766 215.58219909668 211.332672119141 208.10400390625 205.432174682617 202.823135375977 204.612838745117 209.408828735352 217.036865234375 224.810913085938 234.032653808594 237.594100952148 237.741714477539 231.278274536133 230.210556030273 232.201049804688 231.188537597656 229.355438232422 227.778594970703 226.76123046875 226.02326965332 228.133178710938 231.944290161133 233.586883544922 234.235290527344 236.222183227539 230.109375 226.833984375 224.37841796875 220.099685668945 216.651763916016 215.441436767578 217.312866210938 215.958404541016 215.989776611328 226.563415527344 228.732696533203
-9999 -9999 -9999 -9999 -9999 -9999 -9999 -9999 -9999 -9999 -9999 -9999 -9999 301.297424316406 303.357652452257 -9999 312.746994018555 329.022247314453 307.281341552734 425.860687255859 411.300262451172 397.738922119141 369.535247802734 340.923278808594 306.791412353516 276.255554199219 251.474044799805 233.370178222656 220.174697875977 214.186462402344 210.777008056641 208.673065185547 206.530319213867 202.701171875 199.242553710938 197.033248901367 198.328414916992 198.363815307617 199.652481079102 204.470489501953 208.686660766602 219.21257019043 227.939910888672 237.805725097656 240.349960327148 240.160446166992 235.934478759766 235.868743896484 239.364761352539 238.996597290039 235.160247802734 232.410049438477 230.269622802734 229.66145324707 230.962875366211 232.30339050293 232.027221679688 231.261795043945 231.563003540039 241.918579101562 237.410858154297 236.965362548828 232.265472412109 226.500442504883 223.182266235352 223.752105712891 218.479370117188 217.052459716797 225.068405151367 233.85041809082
-9999 -9999 -9999 -9999 -9999 -9999 -9999 -9999 -9999 -9999 -9999 -9999 -9999 -9999 301.297424316406 325.459157307943 283.316375732422 342.177612304688 383.313659667969 364.498352050781 380.035095214844 361.693542480469 338.363220214844 307.355895996094 271.685516357422 238.594497680664 226.803588867188 222.986282348633 218.313232421875 215.682174682617 210.814300537109 200.733108520508 193.788177490234 193.227264404297 197.999374389648 202.238708496094 203.037246704102 204.410522460938 210.950439453125 217.186401367188 223.010025024414 233.978149414062 239.419357299805 250.87126159668 250.059722900391 243.168731689453 238.948669433594 240.887191772461 244.730377197266 245.461761474609 242.642623901367 240.42707824707 238.273742675781 236.680923461914 235.450698852539 232.919723510742 230.185775756836 229.918991088867 229.237701416016 232.710510253906 236.555297851562 237.747116088867 241.485336303711 236.757827758789 230.391647338867 228.915176391602 227.440734863281 226.227432250977 228.030258178711 232.613967895508
-9999 -9999 -9999 -9999 -9999 -9999 -9999 -9999 -9999 -9999 -9999 -9999 -9999 -9999 304.956954956055 301.297424316406 391.763671875 431.799896240234 376.949005126953 361.353759765625 350.197235107422 310.635345458984 275.474853515625 256.012878417969 243.147842407227 233.538803100586 233.279190063477 227.845657348633 221.6259765625 216.814117431641 209.434707641602 206.244262695312 206.050247192383 207.650695800781 211.793243408203 216.250610351562 221.470809936523 225.716888427734 229.544677734375 234.957580566406 244.550323486328 250.860702514648 252.817626953125 265.569946289062 269.016510009766 254.911315917969 247.429580688477 251.227478027344 254.15983581543 253.452407836914 251.867126464844 250.940689086914 248.349609375 246.875946044922 242.921691894531 238.556549072266 240.550918579102 238.079376220703 236.171936035156 232.710906982422 236.087478637695 232.422805786133 234.847518920898 240.885269165039 242.313369750977 240.151870727539 238.628768920898 237.736709594727 236.889038085938 239.637100219727
-9999 -9999 -9999 -9999 -9999 -9999 -9999 -9999 -9999 -9999 -9999 262.340972900391 279.819366455078 296.507751464844 279.008117675781 343.014526367188 436.031372070312 403.787017822266 359.257202148438 329.742462158203 283.440338134766 252.828277587891 240.377792358398 241.634765625 242.357864379883 238.317001342773 233.84407043457 228.251968383789 222.649169921875 221.067611694336 218.382415771484 219.679489135742 222.067581176758 224.994369506836 230.695404052734 235.953628540039 240.336135864258 243.330810546875 248.171249389648 253.967178344727 256.866851806641 255.284729003906 255.29069519043 267.634552001953 281.569458007812 280.090576171875 272.529235839844 268.1630859375 266.155242919922 265.078430175781 262.286773681641 258.966186523438 255.523666381836 251.814376831055 248.632064819336 247.149749755859 246.702285766602 244.518829345703 242.087844848633 239.412780761719 239.912704467773 228.822326660156 228.846939086914 234.368194580078 245.056579589844 248.032592773438 248.413391113281 247.604797363281 246.824295043945 258.994262695312
-9999 -9999 -9999 -9999 -9999 -9999 -9999 -9999 -9999 333.138366699219 277.384582519531 271.427337646484 295.462860107422 304.047119140625 315.282562255859 391.725921630859 346.341644287109 342.169982910156 323.864044189453 280.007934570312 254.934829711914 255.561096191406 246.889053344727 238.980087280273 246.583038330078 239.464233398438 232.864898681641 232.579391479492 229.899520874023 229.105529785156 230.274490356445 231.868103027344 233.912414550781 237.246231079102 242.559936523438 247.618087768555 252.10237121582 254.910369873047 258.187713623047 259.528076171875 257.714111328125 250.135482788086 247.832901000977 261.528564453125 263.741394042969 262.293731689453 259.794067382812 258.75537109375 256.707733154297 250.259979248047 241.857452392578 235.387771606445 230.469680786133 228.615203857422 231.173980712891 238.060455322266 246.812850952148 255.259262084961 254.774108886719 249.040115356445 232.006469726562 218.890640258789 224.787475585938 224.925354003906 239.773818969727 251.779205322266 256.943969726562 256.938049316406 258.935394287109 270.102294921875
-9999 -9999 -9999 -9999 -9999 -9999 -9999 -9999 -9999 337.48876953125 297.036102294922 305.535064697266 329.584350585938 360.4091796875 357.484985351562 344.734558105469 354.627044677734 335.277893066406 280.040069580078 248.100189208984 243.570373535156 240.851287841797 236.397262573242 238.78596496582 243.549270629883 237.599746704102 233.856964111328 231.714492797852 228.161499023438 229.400619506836 231.416244506836 234.866088867188 240.156372070312 244.740661621094 248.144500732422 250.352737426758 253.816696166992 256.03662109375 256.261444091797 255.19953918457 252.271820068359 249.220581054688 250.756683349609 254.770797729492 259.242736816406 261.136291503906 250.927932739258 236.122772216797 222.314010620117 210.167831420898 201.038787841797 200.243041992188 200.653167724609 198.456146240234 202.113723754883 220.835357666016 242.636383056641 258.177490234375 260.978149414062 251.268081665039 220.76628112793 203.217498779297 200.407409667969 226.785430908203 228.895568847656 246.375686645508 262.676666259766 269.884368896484 271.738128662109 275.960235595703
-9999 -9999 -9999 -9999 -9999 283.258232116699 318.080688476562 304.498626708984 307.428283691406 285.564636230469 298.847625732422 332.856628417969 378.629058837891 418.386566162109 376.045989990234 334.597381591797 319.6474609375 267.842346191406 220.86750793457 225.663360595703 242.941024780273 247.328979492188 236.858474731445 238.375244140625 240.523223876953 237.923034667969 237.924163818359 234.439300537109 231.213485717773 231.14013671875 234.423385620117 239.589233398438 245.666763305664 251.627563476562 255.826202392578 259.022918701172 261.387145996094 262.310821533203 262.253112792969 259.623107910156 257.504913330078 255.201507568359 259.457427978516 263.197174072266 254.668807983398 246.078277587891 228.572967529297 205.254470825195 187.416000366211 181.96630859375 183.189361572266 187.349380493164 194.232421875 198.750762939453 207.528457641602 231.506546020508 256.501098632812 266.570617675781 262.148223876953 248.365005493164 234.196899414062 217.018539428711 198.282196044922 219.913772583008 229.309600830078 241.336349487305 265.667114257812 282.960296630859 276.961669921875 277.638153076172
-9999 -9999 -9999 -9999 270.774963378906 264.267578125 279.909698486328 289.6259765625 297.518585205078 296.524291992188 304.570861816406 359.932800292969 377.919342041016 341.894775390625 327.105987548828 302.911590576172 255.959487915039 207.732711791992 213.74592590332 244.607650756836 243.068862915039 235.212997436523 234.118011474609 238.327163696289 241.038604736328 241.898254394531 242.620498657227 239.951431274414 243.692520141602 248.425582885742 252.867538452148 256.182800292969 259.528686523438 261.994964599609 264.493865966797 266.239868164062 265.618316650391 263.373626708984 259.248077392578 255.875091552734 254.278503417969 257.04248046875 258.171569824219 251.060089111328 250.130004882812 234.647064208984 212.791717529297 203.321273803711 195.826705932617 191.633758544922 190.516540527344 195.030349731445 204.014450073242 215.232269287109 234.916152954102 256.973114013672 268.716918945312 268.692749023438 258.496673583984 255.177963256836 252.812255859375 239.751129150391 213.013458251953 196.091156005859 239.128768920898 239.762603759766 259.387573242188 281.384490966797 281.963470458984 282.151916503906
-9999 -9999 -9999 256.27530670166 254.516983032227 262.899993896484 304.950286865234 326.779602050781 334.270874023438 333.592437744141 358.959136962891 372.823944091797 366.225128173828 340.858215332031 310.233489990234 262.628509521484 205.560760498047 181.685531616211 211.951919555664 222.317489624023 227.043121337891 232.179275512695 234.91975402832 241.039901733398 245.517913818359 248.279434204102 250.363479614258 248.992706298828 255.329711914062 257.026458740234 254.823043823242 254.919998168945 256.554473876953 256.541870117188 254.557556152344 253.509460449219 250.210784912109 249.77897644043 251.244369506836 250.211013793945 249.96418762207 247.693511962891 248.254745483398 252.645812988281 252.954711914062 243.77848815918 232.264129638672 222.119018554688 214.202789306641 215.459579467773 222.167266845703 231.207824707031 243.233612060547 257.989074707031 269.955718994141 274.919677734375 270.696533203125 262.629577636719 261.608947753906 264.036956787109 263.409118652344 250.99772644043 231.015121459961 200.742446899414 226.591796875 239.940078735352 252.988876342773 270.682525634766 279.049102783203 271.673126220703
-9999 -9999 -9999 253.389541625977 246.419738769531 304.860687255859 370.237365722656 424.799743652344 406.604461669922 374.516998291016 381.220275878906 370.894622802734 327.870513916016 306.121185302734 270.966827392578 215.786804199219 168.75373840332 182.223175048828 223.236511230469 226.079513549805 226.353363037109 235.665100097656 241.779724121094 244.461898803711 247.129470825195 250.174499511719 252.007629394531 252.837814331055 256.818298339844 255.493148803711 251.669540405273 253.05583190918 257.645965576172 256.824890136719 252.117721557617 249.948196411133 249.075836181641 246.853240966797 243.91145324707 237.192047119141 232.125549316406 241.341537475586 254.13671875 261.854095458984 263.776458740234 258.3701171875 252.142578125 251.443222045898 256.425659179688 262.357696533203 268.380279541016 272.743530273438 274.207336425781 276.519805908203 275.396484375 274.536102294922 271.313751220703 271.614471435547 271.754272460938 261.719787597656 244.316986083984 234.445373535156 221.30500793457 199.483901977539 196.837265014648 228.761489868164 248.601196289062 260.994140625 269.119567871094 251.833221435547
