NCOLS 70 
NROWS 52 
XLLCORNER -80 
YLLCORNER 33 
CELLSIZE 0.25 
NODATA_value -9999 
-9999.000000000000000 -9999 -9999 -9999 -9999 -9999 -9999 -9999 -9999 -9999 -9999 -9999 -9999 -9999 -9999 -9999 -9999 -9999 -9999 -9999 -9999 -9999 -9999 -9999 -9999 -9999 -9999 -9999 -9999 -9999 -9999 -9999 -9999 -9999 -9999 -9999 -9999 -9999 -9999 -9999 -9999 -9999 -9999 -9999 -9999 -9999 -9999 -9999 -9999 -9999 -9999 -9999 -9999 -9999 -9999 -9999 -9999 -9999 -9999 -9999 -9999 -9999 -9999 -9999 -9999 -9999 -9999 -9999 -9999 -9999
-9999 -9999 -9999 -9999 -9999 -9999 -9999 -9999 -9999 -9999 -9999 -9999 -9999 -9999 -9999 -9999 -9999 -9999 -9999 -9999 -9999 -9999 -9999 -9999 -9999 -9999 -9999 -9999 -9999 -9999 -9999 -9999 -9999 -9999 -9999 -9999 -9999 -9999 -9999 -9999 -9999 -9999 -9999 -9999 -9999 -9999 -9999 -9999 -9999 -9999 -9999 -9999 -9999 -9999 -9999 -9999 -9999 -9999 -9999 -9999 -9999 -9999 -9999 -9999 -9999 -9999 -9999 -9999 -9999 -9999
-9999 -9999 -9999 -9999 -9999 -9999 -9999 -9999 -9999 -9999 -9999 -9999 -9999 -9999 -9999 -9999 -9999 -9999 -9999 -9999 -9999 -9999 -9999 -9999 -9999 -9999 -9999 -9999 -9999 -9999 -9999 -9999 -9999 -9999 -9999 -9999 -9999 -9999 -9999 -9999 -9999 -9999 -9999 -9999 -9999 -9999 -9999 -9999 -9999 -9999 -9999 -9999 -9999 -9999 -9999 -9999 -9999 -9999 -9999 307.333343505859 -9999 -9999 -9999 -9999 -9999 -9999 -9999 -9999 -9999 -9999
-9999 -9999 -9999 -9999 -9999 -9999 -9999 -9999 -9999 -9999 -9999 -9999 -9999 -9999 -9999 -9999 -9999 -9999 -9999 -9999 -9999 -9999 -9999 -9999 -9999 -9999 -9999 -9999 -9999 -9999 -9999 -9999 -9999 -9999 -9999 -9999 -9999 -9999 -9999 -9999 -9999 -9999 -9999 -9999 -9999 -9999 -9999 -9999 -9999 -9999 -9999 -9999 -9999 -9999 -9999 181.886642456055 183.814727783203 206.281555175781 252.364013671875 276.96337890625 -9999 -9999 -9999 -9999 -9999 -9999 -9999 -9999 -9999 -9999
-9999 -9999 -9999 -9999 -9999 -9999 -9999 -9999 -9999 -9999 -9999 -9999 -9999 -9999 -9999 -9999 -9999 -9999 -9999 -9999 -9999 -9999 -9999 -9999 -9999 -9999 -9999 -9999 -9999 -9999 -9999 -9999 -9999 -9999 -9999 -9999 -9999 -9999 -9999 -9999 -9999 -9999 -9999 -9999 -9999 -9999 -9999 -9999 -9999 -9999 -9999 -9999 179.172500610352 175.439147949219 166.686630249023 174.445709228516 180.261764526367 194.163269042969 -9999 -9999 -9999 -9999 -9999 -9999 -9999 -9999 -9999 -9999 -9999 -9999
-9999 -9999 -9999 -9999 -9999 -9999 -9999 -9999 -9999 -9999 -9999 -9999 -9999 -9999 -9999 -9999 -9999 -9999 -9999 -9999 -9999 -9999 -9999 -9999 -9999 -9999 -9999 -9999 -9999 -9999 -9999 -9999 -9999 -9999 -9999 -9999 -9999 -9999 -9999 -9999 -9999 -9999 -9999 -9999 -9999 -9999 -9999 -9999 -9999 -9999 189.175341796875 194.797073364258 184.044357299805 169.516937255859 160.005111694336 163.741455078125 -9999 -9999 -9999 -9999 -9999 -9999 -9999 -9999 -9999 -9999 -9999 82.8615646362305 86.2569713592529 99.2818374633789
-9999 -9999 -9999 -9999 -9999 -9999 -9999 -9999 -9999 -9999 -9999 -9999 -9999 -9999 -9999 -9999 -9999 -9999 -9999 -9999 -9999 -9999 -9999 -9999 -9999 -9999 -9999 -9999 -9999 -9999 -9999 -9999 -9999 -9999 -9999 -9999 -9999 -9999 -9999 -9999 -9999 -9999 -9999 -9999 156.89284769694 -9999 -9999 153.781993865967 177.660705566406 191.357849121094 193.956466674805 190.409729003906 180.162124633789 165.061813354492 160.567840576172 -9999 -9999 -9999 -9999 -9999 -9999 -9999 -9999 88.0669326782227 86.3998641967773 86.89990234375 84.7363662719727 82.1998901367188 81.6484375 81.8977203369141
-9999 -9999 -9999 -9999 -9999 -9999 -9999 -9999 -9999 -9999 -9999 -9999 -9999 -9999 -9999 -9999 -9999 -9999 -9999 -9999 -9999 -9999 -9999 -9999 -9999 -9999 -9999 -9999 -9999 -9999 -9999 -9999 -9999 -9999 -9999 -9999 -9999 -9999 -9999 -9999 -9999 -9999 -9999 -9999 158.511016845703 157.527786254883 147.900726318359 140.214462280273 149.352081298828 158.274261474609 158.15202331543 152.633682250977 145.338195800781 139.650436401367 146.422546386719 -9999 -9999 -9999 -9999 -9999 -9999 -9999 78.6331558227539 78.8743362426758 77.5927658081055 74.5974807739258 69.8012924194336 65.7295989990234 64.3274841308594 64.929817199707
-9999 -9999 -9999 -9999 -9999 -9999 -9999 -9999 -9999 -9999 -9999 -9999 -9999 -9999 -9999 -9999 -9999 -9999 -9999 -9999 -9999 -9999 -9999 -9999 -9999 -9999 -9999 -9999 -9999 -9999 -9999 -9999 -9999 -9999 -9999 -9999 -9999 -9999 -9999 -9999 132.05571492513 137.544830322266 142.935107421875 149.628204345703 138.600921630859 122.36767578125 107.467819213867 102.564590454102 111.543899536133 124.895401000977 129.900817871094 122.227905273438 115.756988525391 120.410095214844 120.32444152832 -9999 -9999 -9999 -9999 -9999 77.8861923217773 76.6960067749023 72.8418350219727 68.1799774169922 64.1098480224609 58.6064987182617 52.8414916992188 49.7565269470215 48.2840995788574 47.7295341491699
-9999 -9999 -9999 -9999 -9999 -9999 -9999 -9999 -9999 -9999 -9999 -9999 -9999 -9999 -9999 -9999 -9999 -9999 -9999 -9999 -9999 -9999 -9999 -9999 -9999 -9999 -9999 -9999 -9999 -9999 -9999 -9999 -9999 -9999 -9999 -9999 -9999 -9999 -9999 122.70881652832 132.305114746094 141.153213500977 139.176162719727 130.078216552734 113.85880279541 92.5767135620117 74.7295608520508 70.3320922851562 79.1726760864258 91.7993774414062 97.6241912841797 92.6504592895508 91.7623138427734 107.004425048828 126.181449890137 108.375801086426 -9999 -9999 -9999 78.3462066650391 82.056282043457 74.9062881469727 67.3065490722656 63.2225761413574 60.3523635864258 55.724925994873 52.9604682922363 50.9561309814453 48.098217010498 44.4795379638672
-9999 -9999 -9999 -9999 -9999 -9999 -9999 -9999 -9999 -9999 -9999 -9999 -9999 -9999 -9999 -9999 -9999 -9999 -9999 -9999 -9999 -9999 -9999 -9999 -9999 -9999 -9999 -9999 -9999 -9999 -9999 -9999 -9999 -9999 -9999 -9999 -9999 -9999 146.015274047852 145.206436157227 135.931503295898 120.885162353516 103.912246704102 88.0700759887695 69.2409896850586 50.117847442627 39.2746124267578 39.2244071960449 45.1733894348145 51.8649559020996 57.1774139404297 61.345516204834 72.2623062133789 94.119873046875 111.487686157227 107.452301025391 88.9787368774414 81.6777699788411 79.6781845092773 76.6444320678711 75.0059280395508 69.5992279052734 65.487548828125 64.9834976196289 64.4908981323242 60.6226272583008 58.2573356628418 55.7458038330078 52.6909255981445 49.669750213623
-9999 -9999 -9999 -9999 -9999 -9999 -9999 -9999 -9999 -9999 -9999 -9999 -9999 -9999 -9999 -9999 -9999 -9999 -9999 -9999 -9999 -9999 -9999 -9999 -9999 -9999 -9999 -9999 -9999 -9999 -9999 -9999 -9999 -9999 -9999 -9999 -9999 168.478652954102 160.038513183594 133.643951416016 101.78450012207 77.4172134399414 58.3304061889648 47.7466506958008 40.7151107788086 35.9111557006836 34.3943748474121 34.2602844238281 34.6363296508789 36.5079193115234 42.2052841186523 54.2626152038574 72.1470947265625 86.3251800537109 89.9967269897461 86.5640640258789 80.1167678833008 73.5144271850586 71.2556457519531 71.3928680419922 69.8864440917969 66.6638488769531 64.7560501098633 65.5531768798828 67.1113586425781 67.8154602050781 68.3772277832031 67.4932632446289 67.5293045043945 70.2895126342773
-9999 -9999 -9999 -9999 -9999 -9999 -9999 -9999 -9999 -9999 -9999 -9999 -9999 -9999 -9999 -9999 -9999 -9999 -9999 -9999 -9999 -9999 -9999 -9999 -9999 -9999 -9999 -9999 -9999 -9999 -9999 -9999 -9999 -9999 -9999 -9999 -9999 199.675354003906 168.405380249023 111.35050201416 70.3540802001953 51.3557739257812 44.7117385864258 42.1761703491211 40.4031066894531 39.2869033813477 38.6097717285156 37.9133682250977 36.9696998596191 37.7193717956543 44.7329406738281 58.5097999572754 72.1372756958008 75.9607925415039 72.5950088500977 67.4523773193359 61.5638122558594 56.996395111084 56.6045417785645 59.031421661377 62.4970741271973 65.5447998046875 72.2622604370117 76.1376876831055 71.8156356811523 71.1328125 72.1129302978516 78.600715637207 92.468864440918 121.374168395996
-9999 -9999 -9999 -9999 -9999 -9999 -9999 -9999 -9999 -9999 -9999 -9999 -9999 -9999 -9999 -9999 -9999 -9999 -9999 -9999 -9999 -9999 -9999 -9999 -9999 -9999 -9999 -9999 -9999 -9999 -9999 -9999 -9999 -9999 -9999 -9999 -9999 198.966262817383 153.706909179688 96.0940170288086 60.8647880554199 52.3954963684082 50.6125564575195 49.1333541870117 49.5017585754395 51.5301971435547 55.3722648620605 57.1942329406738 51.4138603210449 45.4325294494629 47.1427345275879 55.9011459350586 63.3346366882324 63.4233093261719 60.3742027282715 57.4632720947266 55.033447265625 52.3685684204102 51.184455871582 55.0261421203613 66.0246658325195 89.6437149047852 128.572235107422 142.731430053711 126.724472045898 117.491233825684 114.115432739258 118.819816589355 135.825790405273 164.922439575195
-9999 -9999 -9999 -9999 -9999 -9999 -9999 -9999 -9999 -9999 -9999 -9999 -9999 -9999 -9999 -9999 -9999 -9999 -9999 -9999 -9999 -9999 -9999 -9999 -9999 -9999 -9999 -9999 -9999 -9999 -9999 -9999 -9999 -9999 -9999 -9999 258.654113769531 199.300994873047 136.247253417969 96.7596664428711 73.9475402832031 69.9180297851562 68.6548461914062 65.3443069458008 69.9894561767578 85.4821243286133 106.158630371094 112.396049499512 91.4046630859375 66.0654525756836 55.3200073242188 55.2303199768066 57.9841575622559 61.0629959106445 65.0509796142578 67.3779830932617 73.7742156982422 77.2164306640625 80.8007202148438 92.8352661132812 118.531959533691 161.833343505859 203.303375244141 212.792190551758 212.798095703125 210.706909179688 202.423812866211 195.988418579102 193.3408203125 189.503372192383
-9999 -9999 -9999 -9999 -9999 -9999 -9999 -9999 -9999 -9999 -9999 -9999 -9999 -9999 -9999 -9999 -9999 -9999 -9999 -9999 -9999 -9999 -9999 -9999 -9999 -9999 -9999 -9999 -9999 -9999 -9999 -9999 -9999 -9999 -9999 -9999 -9999 159.046875 137.378936767578 114.261611938477 104.781578063965 101.715209960938 97.069580078125 94.8405456542969 112.836128234863 148.853424072266 181.341445922852 180.311386108398 143.530960083008 102.05632019043 83.6444549560547 85.6931457519531 91.7411041259766 90.837890625 92.1971817016602 100.582870483398 121.975158691406 135.894836425781 143.095809936523 156.828247070312 185.225509643555 204.471832275391 201.197540283203 201.233657836914 201.304351806641 199.446975708008 194.832412719727 189.642944335938 191.576034545898 194.631896972656
-9999 -9999 -9999 -9999 -9999 -9999 -9999 -9999 -9999 -9999 -9999 -9999 -9999 -9999 -9999 -9999 -9999 -9999 -9999 -9999 -9999 -9999 -9999 -9999 -9999 -9999 -9999 -9999 -9999 -9999 -9999 -9999 -9999 -9999 -9999 -9999 -9999 -9999 152.956420898438 -9999 134.348220825195 126.60962677002 121.984642028809 152.918075561523 206.103698730469 242.822463989258 247.23030090332 215.799072265625 164.573928833008 118.744842529297 109.74870300293 130.041488647461 145.613357543945 140.793090820312 127.926399230957 137.640609741211 172.102798461914 197.674896240234 191.587432861328 185.998641967773 193.4853515625 195.685409545898 197.083053588867 198.361572265625 197.745590209961 197.632232666016 198.135787963867 206.215057373047 208.717269897461 209.417724609375
-9999 -9999 -9999 -9999 -9999 -9999 -9999 -9999 -9999 -9999 -9999 -9999 -9999 -9999 -9999 -9999 -9999 -9999 -9999 -9999 -9999 -9999 -9999 -9999 -9999 -9999 -9999 -9999 -9999 -9999 -9999 -9999 -9999 -9999 -9999 -9999 -9999 -9999 -9999 -9999 131.069183349609 132.468307495117 152.281890869141 241.738403320312 294.522979736328 286.996002197266 241.948272705078 176.478866577148 119.282264709473 91.1745376586914 96.6106338500977 118.675163269043 146.003967285156 171.593673706055 177.476531982422 187.733154296875 221.273956298828 230.714172363281 215.252944946289 202.565567016602 199.490005493164 198.882476806641 199.93083190918 201.567077636719 203.112991333008 209.828918457031 217.520584106445 220.76969909668 221.335998535156 221.089416503906
-9999 -9999 -9999 -9999 -9999 -9999 -9999 -9999 -9999 -9999 -9999 -9999 -9999 -9999 -9999 -9999 -9999 -9999 -9999 -9999 -9999 -9999 -9999 -9999 -9999 -9999 -9999 -9999 -9999 -9999 -9999 -9999 -9999 -9999 220.840141296387 197.337265014648 175.562225341797 -9999 124.431945800781 109.051803588867 117.320190429688 132.963088989258 196.582046508789 302.006286621094 318.240661621094 304.653625488281 225.590560913086 137.343048095703 102.338310241699 101.159484863281 115.44270324707 134.866409301758 175.072143554688 226.170822143555 226.824920654297 244.04997253418 250.037948608398 230.244674682617 208.798355102539 198.967590332031 201.265991210938 203.242538452148 203.897567749023 204.516326904297 204.735931396484 207.53840637207 209.220077514648 212.407623291016 214.662475585938 216.875762939453
-9999 -9999 -9999 -9999 -9999 -9999 -9999 -9999 -9999 -9999 -9999 -9999 -9999 -9999 -9999 -9999 -9999 -9999 -9999 -9999 -9999 -9999 -9999 -9999 -9999 -9999 -9999 495.649597167969 495.649597167969 407.767822265625 319.105072021484 277.546325683594 248.199844360352 236.438781738281 232.218521118164 217.365997314453 183.215103149414 151.112518310547 127.415916442871 112.834449768066 119.747871398926 149.505630493164 252.446060180664 339.463500976562 361.246551513672 345.739227294922 245.779693603516 171.285522460938 160.451370239258 176.980758666992 200.03483581543 209.843292236328 223.381072998047 243.551818847656 224.299575805664 239.961898803711 230.613586425781 214.412948608398 202.796310424805 200.445037841797 202.154037475586 205.683502197266 203.848175048828 203.250183105469 203.397933959961 202.687362670898 201.203735351562 200.286148071289 200.083786010742 202.664627075195
-9999 -9999 -9999 -9999 -9999 -9999 -9999 -9999 -9999 -9999 -9999 -9999 -9999 -9999 -9999 -9999 -9999 -9999 -9999 -9999 -9999 -9999 -9999 -9999 -9999 -9999 -9999 -9999 -9999 -9999 274.465698242188 284.082336425781 297.079895019531 309.498596191406 306.168548583984 281.293212890625 241.563262939453 200.850341796875 166.227081298828 146.81559753418 153.899215698242 193.712112426758 293.089660644531 367.522705078125 406.472473144531 383.170532226562 309.504119873047 261.869049072266 257.747650146484 266.423004150391 271.612518310547 264.913238525391 254.932662963867 236.206207275391 232.464004516602 227.417739868164 215.291885375977 213.018417358398 213.269927978516 216.830276489258 218.726593017578 219.105743408203 217.440521240234 219.009216308594 219.816513061523 218.827728271484 213.803512573242 208.322143554688 203.876281738281 202.128570556641
-9999 -9999 -9999 -9999 -9999 -9999 -9999 -9999 -9999 -9999 -9999 -9999 -9999 -9999 -9999 -9999 -9999 -9999 -9999 -9999 -9999 -9999 -9999 -9999 -9999 463.131856282552 391.605041503906 342.414957682292 316.484771728516 279.471771240234 302.170776367188 337.926849365234 376.622497558594 397.722717285156 393.497161865234 373.94677734375 351.4033203125 318.652008056641 272.807586669922 241.405395507812 248.028442382812 288.418884277344 347.461151123047 393.564727783203 413.214477539062 381.025360107422 336.117889404297 296.464630126953 291.251617431641 270.503051757812 256.686431884766 253.482727050781 249.748016357422 240.496551513672 231.830917358398 226.570831298828 220.731491088867 224.513031005859 229.768783569336 234.535949707031 235.93830871582 237.236434936523 239.650512695312 240.639587402344 240.00666809082 239.067138671875 235.90544128418 233.364761352539 230.31086730957 226.641403198242
-9999 -9999 -9999 -9999 -9999 -9999 -9999 -9999 -9999 -9999 -9999 -9999 -9999 -9999 -9999 -9999 -9999 -9999 -9999 -9999 -9999 -9999 -9999 -9999 542.025207519531 463.942413330078 383.427947998047 327.444763183594 316.372161865234 342.650390625 384.765899658203 417.569549560547 430.252990722656 420.453338623047 402.552642822266 387.151458740234 388.118377685547 386.598327636719 367.918273925781 349.612152099609 354.754730224609 374.634460449219 376.400787353516 366.054321289062 352.369903564453 314.714233398438 283.529479980469 265.658447265625 272.884429931641 271.853607177734 275.724853515625 269.635650634766 251.186386108398 235.706420898438 228.462921142578 228.66438293457 232.682403564453 237.859848022461 242.382659912109 246.273132324219 249.558212280273 250.926940917969 252.134124755859 250.531829833984 246.069229125977 240.299774169922 235.102172851562 234.29216003418 235.357315063477 236.324478149414
-9999 -9999 -9999 -9999 -9999 -9999 -9999 -9999 -9999 -9999 -9999 -9999 -9999 -9999 -9999 -9999 -9999 -9999 -9999 -9999 -9999 -9999 -9999 -9999 405.750915527344 320.876342773438 299.751647949219 327.245391845703 375.900604248047 422.706390380859 444.51025390625 427.862884521484 399.460418701172 368.499664306641 342.291412353516 327.077728271484 323.887359619141 327.018920898438 336.156372070312 343.284484863281 346.609008789062 342.046112060547 320.975860595703 305.583343505859 294.59228515625 287.213958740234 286.903869628906 289.626922607422 293.498657226562 300.661071777344 296.121459960938 271.934234619141 244.564666748047 231.836654663086 232.649932861328 235.893478393555 239.54345703125 245.518890380859 252.749328613281 256.418731689453 259.701904296875 260.000701904297 258.940887451172 254.724197387695 246.177001953125 232.03694152832 217.875442504883 211.324417114258 213.098480224609 220.322677612305
-9999 -9999 -9999 -9999 -9999 -9999 -9999 -9999 -9999 -9999 -9999 -9999 -9999 -9999 -9999 -9999 -9999 -9999 -9999 -9999 -9999 -9999 -9999 320.559043884277 331.942077636719 299.511260986328 309.418029785156 359.898773193359 420.761627197266 434.169097900391 403.968811035156 360.469970703125 328.796875 314.520324707031 308.800170898438 305.792083740234 303.521270751953 301.169158935547 302.708251953125 305.124145507812 304.256866455078 298.439178466797 292.277679443359 292.371185302734 292.692077636719 293.451599121094 294.415710449219 296.769256591797 297.739227294922 304.034210205078 305.764953613281 288.774139404297 260.636077880859 240.526870727539 234.970748901367 235.252670288086 236.556945800781 245.769027709961 257.806427001953 260.067840576172 260.930084228516 260.492279052734 259.753479003906 256.702453613281 247.98698425293 230.94465637207 211.91862487793 197.857086181641 192.212707519531 197.147583007812
-9999 -9999 -9999 -9999 -9999 -9999 -9999 -9999 -9999 -9999 -9999 -9999 -9999 -9999 -9999 -9999 -9999 -9999 -9999 -9999 -9999 -9999 -9999 263.890563964844 280.652618408203 284.694244384766 308.858184814453 362.099822998047 407.035095214844 381.525360107422 332.2099609375 302.782928466797 297.951995849609 307.584991455078 318.097106933594 323.175872802734 322.265045166016 316.226226806641 310.693389892578 306.055328369141 299.163024902344 291.560455322266 286.847412109375 284.818420410156 284.105743408203 284.141967773438 286.34619140625 290.028076171875 295.662475585938 305.151550292969 315.009460449219 320.917602539062 301.814392089844 266.460418701172 240.42790222168 232.063873291016 230.041717529297 240.526977539062 254.015350341797 255.822036743164 254.692413330078 253.374252319336 253.434127807617 253.901641845703 251.017456054688 239.230590820312 222.890899658203 208.228851318359 197.092758178711 192.867446899414
-9999 -9999 -9999 -9999 -9999 -9999 -9999 -9999 -9999 -9999 -9999 -9999 -9999 -9999 -9999 -9999 -9999 -9999 -9999 -9999 -9999 -9999 317.104858398438 276.458801269531 280.066345214844 300.334381103516 333.005096435547 370.410949707031 367.64697265625 330.007110595703 306.956451416016 307.609954833984 322.003845214844 334.532379150391 334.907653808594 326.604919433594 314.169311523438 300.692962646484 287.881652832031 276.893371582031 268.314544677734 263.175659179688 260.638854980469 258.167388916016 255.096755981445 252.555099487305 253.003402709961 256.079162597656 262.854431152344 277.372436523438 293.674591064453 315.304016113281 327.499572753906 309.434204101562 273.220825195312 245.200439453125 232.037734985352 235.789184570312 246.788513183594 249.051498413086 245.714385986328 242.266754150391 241.578628540039 244.944290161133 248.380020141602 245.964614868164 235.559906005859 221.908645629883 208.966278076172 198.746887207031
-9999 -9999 -9999 -9999 -9999 -9999 -9999 -9999 -9999 -9999 -9999 -9999 -9999 -9999 628.498319837782 -9999 -9999 -9999 -9999 567.248474121094 -9999 341.404174804688 322.243225097656 306.769012451172 328.131622314453 355.843444824219 375.909606933594 360.560668945312 326.537170410156 312.021087646484 320.234680175781 338.892272949219 355.889129638672 356.700317382812 341.063507080078 320.616455078125 302.838928222656 288.41845703125 273.568603515625 260.128448486328 251.382217407227 248.536437988281 248.51692199707 245.903961181641 241.084487915039 235.63671875 230.969192504883 228.765869140625 230.815444946289 240.838500976562 256.747985839844 274.684478759766 299.863433837891 318.007965087891 311.649169921875 285.911376953125 259.429443359375 243.589370727539 241.475662231445 240.814056396484 235.202072143555 229.469177246094 229.69075012207 236.937744140625 244.432952880859 247.292343139648 243.851226806641 233.462921142578 218.982070922852 204.982284545898
-9999 -9999 -9999 -9999 -9999 -9999 -9999 -9999 -9999 -9999 -9999 -9999 -9999 -9999 625.724838256836 -9999 -9999 -9999 -9999 506.735397338867 401.235656738281 334.153930664062 320.617584228516 344.593658447266 370.151397705078 376.129089355469 358.072723388672 324.950317382812 312.762084960938 325.623107910156 351.289398193359 373.473876953125 377.546905517578 361.537261962891 339.146514892578 320.634979248047 307.341735839844 294.909606933594 279.595153808594 266.760711669922 258.306488037109 254.121658325195 251.986968994141 246.146270751953 239.296798706055 231.717071533203 223.798156738281 216.753646850586 212.73112487793 214.918716430664 224.229553222656 239.377868652344 258.441223144531 283.102966308594 307.934967041016 314.208129882812 297.549438476562 273.184478759766 254.75373840332 243.210250854492 234.079116821289 228.646743774414 231.369155883789 240.115844726562 247.223068237305 249.315872192383 248.496124267578 242.788162231445 230.014434814453 213.964996337891
-9999 -9999 -9999 -9999 -9999 -9999 -9999 -9999 -9999 -9999 -9999 -9999 -9999 -9999 638.205505371094 -9999 -9999 -9999 -9999 -9999 308.632415771484 317.149383544922 326.768341064453 347.881011962891 354.249359130859 347.821197509766 333.160614013672 326.084136962891 333.941192626953 357.838928222656 383.984252929688 396.062591552734 391.169647216797 372.4736328125 350.884918212891 335.762908935547 325.880065917969 316.802276611328 302.811370849609 286.238006591797 273.5029296875 266.160034179688 261.411071777344 253.473266601562 244.395614624023 233.038009643555 220.237182617188 208.741806030273 198.845932006836 194.068969726562 198.214782714844 211.152160644531 228.697158813477 247.488861083984 273.573394775391 298.643157958984 305.503204345703 296.37109375 281.315826416016 267.776397705078 258.118133544922 253.043594360352 253.054733276367 255.430908203125 256.405914306641 255.138763427734 252.268325805664 247.094741821289 235.851501464844 218.223983764648
-9999 -9999 -9999 -9999 -9999 -9999 -9999 -9999 -9999 -9999 -9999 -9999 -9999 -9999 600.545593261719 -9999 588.282836914062 -9999 -9999 -9999 266.435180664062 316.791168212891 330.668304443359 336.67431640625 342.373626708984 348.518463134766 352.073883056641 353.928161621094 357.632232666016 371.048370361328 388.949127197266 397.28076171875 395.479827880859 386.155883789062 369.109436035156 354.020172119141 345.385833740234 337.811676025391 326.298187255859 308.7890625 291.321350097656 279.379760742188 270.899017333984 259.08740234375 246.488021850586 232.198745727539 213.512802124023 192.839599609375 174.909881591797 165.184494018555 167.791748046875 181.81037902832 201.218719482422 219.296417236328 237.278305053711 258.801025390625 277.863677978516 287.119567871094 287.13134765625 282.831237792969 277.120941162109 272.160583496094 267.701812744141 263.099639892578 258.485748291016 254.108291625977 249.410659790039 243.749465942383 234.142623901367 217.103424072266
-9999 -9999 -9999 -9999 -9999 -9999 -9999 -9999 -9999 -9999 -9999 -9999 -9999 -9999 600.545593261719 562.885681152344 464.591430664062 -9999 -9999 294.626663208008 289.937957763672 335.14794921875 339.483856201172 345.478393554688 361.974639892578 375.703155517578 379.823822021484 375.831146240234 369.7431640625 366.833862304688 370.538940429688 375.253753662109 378.054931640625 380.408477783203 376.853240966797 368.296478271484 361.039031982422 354.210998535156 344.277709960938 326.083282470703 302.834899902344 284.407775878906 271.348083496094 255.744552612305 242.636795043945 227.42366027832 199.13134765625 164.476593017578 141.559982299805 134.324234008789 137.034744262695 150.736114501953 172.876358032227 195.25146484375 211.832168579102 225.516021728516 241.567459106445 256.710632324219 265.19580078125 268.269409179688 267.439636230469 265.789703369141 261.730041503906 256.759124755859 252.502975463867 247.96257019043 243.540588378906 237.560577392578 228.961517333984 211.988906860352
-9999 -9999 -9999 -9999 -9999 -9999 -9999 -9999 -9999 -9999 -9999 -9999 -9999 -9999 -9999 428.884869384766 392.638824462891 -9999 318.408935546875 296.958953857422 325.174560546875 346.782653808594 355.491760253906 379.03759765625 399.463317871094 400.506225585938 392.060882568359 380.143920898438 368.818237304688 359.624816894531 353.561096191406 349.756286621094 347.580108642578 349.735137939453 356.311920166016 362.233612060547 363.372436523438 359.584320068359 353.210876464844 336.685607910156 309.968109130859 286.538543701172 270.234100341797 252.568542480469 237.934158325195 213.856262207031 173.030838012695 137.328353881836 122.71280670166 121.009887695312 123.673843383789 132.406204223633 149.276702880859 171.581344604492 190.353012084961 202.160980224609 212.249801635742 223.288055419922 232.49626159668 237.78759765625 239.79345703125 241.358703613281 240.677017211914 239.432769775391 238.998031616211 236.865692138672 233.524261474609 229.931121826172 220.549514770508 201.514556884766
-9999 -9999 -9999 -9999 -9999 -9999 -9999 -9999 -9999 -9999 -9999 -9999 -9999 -9999 -9999 368.059692382812 356.248718261719 -9999 269.795074462891 305.360992431641 338.36962890625 359.881103515625 385.724182128906 416.369201660156 419.574188232422 401.514190673828 381.987518310547 362.713104248047 346.067260742188 334.997436523438 328.283172607422 325.089538574219 323.307067871094 322.113708496094 324.792510986328 333.693664550781 344.961395263672 349.906463623047 347.433319091797 332.541870117188 307.444519042969 287.256652832031 271.630981445312 252.44743347168 228.660064697266 187.525833129883 147.032684326172 126.653015136719 120.325721740723 118.607032775879 121.115653991699 129.075775146484 141.581329345703 157.828811645508 172.801010131836 181.567657470703 186.099716186523 190.262512207031 196.240905761719 202.062133789062 206.546401977539 210.726181030273 215.253829956055 220.28857421875 223.481887817383 223.412841796875 221.467086791992 217.676635742188 206.201736450195 187.788284301758
-9999 -9999 -9999 -9999 -9999 -9999 -9999 -9999 -9999 -9999 -9999 -9999 -9999 -9999 -9999 345.939453125 -9999 298.265459333147 290.925933837891 309.139038085938 350.783233642578 387.660675048828 417.100494384766 426.695129394531 402.216094970703 371.095611572266 345.187957763672 318.894073486328 298.611480712891 285.231842041016 280.922546386719 282.179840087891 286.234313964844 290.631195068359 294.611907958984 300.517730712891 307.749298095703 314.590454101562 315.419616699219 305.587829589844 289.701690673828 281.159606933594 271.001007080078 247.757247924805 206.306030273438 158.28173828125 133.761169433594 127.041595458984 124.94962310791 123.927864074707 127.245536804199 135.803680419922 145.74430847168 155.911758422852 163.704147338867 167.25048828125 167.666122436523 167.064468383789 169.261520385742 175.152420043945 182.572738647461 190.249420166016 199.829940795898 208.434997558594 212.875335693359 213.651397705078 210.003646850586 201.979064941406 189.841110229492 176.851257324219
-9999 -9999 -9999 -9999 -9999 -9999 -9999 -9999 -9999 -9999 -9999 -9999 -9999 -9999 345.939453125 311.328552246094 272.617706298828 281.789764404297 301.052520751953 322.809722900391 368.943786621094 420.030456542969 431.215515136719 406.559265136719 366.367126464844 335.160247802734 307.935516357422 278.158843994141 256.466827392578 243.791015625 240.230743408203 242.333312988281 250.648513793945 259.075317382812 265.916107177734 271.968933105469 276.308044433594 278.929229736328 278.921264648438 275.336975097656 270.969696044922 274.221496582031 267.843017578125 234.941329956055 182.283767700195 143.035766601562 130.287628173828 127.800025939941 129.318252563477 131.120162963867 134.712860107422 139.903869628906 145.471374511719 151.058120727539 153.712356567383 154.611663818359 153.102783203125 151.250015258789 152.628448486328 160.02751159668 171.138214111328 182.141616821289 191.755081176758 199.205093383789 203.024658203125 200.326385498047 194.055267333984 184.559020996094 174.143981933594 169.990570068359
-9999 -9999 -9999 -9999 -9999 -9999 -9999 -9999 -9999 -9999 -9999 -9999 -9999 -9999 -9999 -9999 287.001937866211 292.552673339844 297.439453125 331.245178222656 397.323760986328 448.781036376953 424.075347900391 380.794860839844 339.950592041016 308.803833007812 284.653869628906 261.184112548828 242.995056152344 232.847351074219 228.187164306641 225.620895385742 230.370635986328 239.441802978516 249.75422668457 259.080902099609 263.674011230469 263.781036376953 262.165863037109 260.474365234375 262.28955078125 272.906494140625 260.597320556641 214.199111938477 167.647766113281 143.075912475586 132.980545043945 127.710380554199 127.552520751953 128.995208740234 131.507736206055 133.494003295898 135.926574707031 138.163589477539 139.501495361328 140.305618286133 139.963790893555 140.555526733398 142.650024414062 149.821380615234 160.451034545898 170.606002807617 178.773483276367 184.335052490234 185.437026977539 181.439208984375 174.076675415039 162.016418457031 157.02912902832 169.930923461914
-9999 -9999 -9999 -9999 -9999 -9999 -9999 -9999 -9999 -9999 -9999 -9999 -9999 -9999 -9999 -9999 296.800140380859 301.047607421875 322.255065917969 359.987548828125 437.051727294922 469.319274902344 418.610290527344 363.228118896484 321.770660400391 291.493713378906 273.839508056641 260.748168945312 247.664108276367 240.194580078125 237.94287109375 235.608001708984 235.435211181641 240.49853515625 248.552352905273 256.311157226562 259.936279296875 260.766723632812 259.121215820312 259.946472167969 264.423919677734 270.124359130859 240.229095458984 194.991058349609 170.898361206055 160.214782714844 149.725784301758 139.677932739258 133.323303222656 129.843353271484 127.989646911621 126.809020996094 127.18677520752 128.168884277344 129.170669555664 130.319854736328 132.192260742188 136.209014892578 141.130859375 149.182800292969 159.219879150391 169.596832275391 174.224914550781 170.270858764648 158.852127075195 143.758102416992 138.825180053711 139.360977172852 153.535766601562 167.80989074707
-9999 -9999 -9999 -9999 -9999 -9999 -9999 -9999 -9999 -9999 -9999 -9999 -9999 -9999 -9999 -9999 -9999 327.237937927246 346.442169189453 404.709228515625 469.713806152344 468.090301513672 402.860229492188 348.603668212891 305.520751953125 280.238098144531 268.497161865234 265.703643798828 262.139282226562 258.492797851562 258.852355957031 259.830169677734 260.123199462891 262.216796875 262.904266357422 263.546173095703 262.836059570312 263.614471435547 261.468566894531 263.877716064453 269.864624023438 248.076293945312 206.159820556641 183.970840454102 181.277313232422 178.178375244141 170.860565185547 161.956405639648 153.013717651367 144.860656738281 136.875625610352 128.989974975586 125.5107421875 125.878730773926 128.270355224609 131.641036987305 135.977874755859 141.572891235352 147.193496704102 149.726181030273 146.745361328125 140.414596557617 132.171844482422 124.685028076172 122.249694824219 122.367393493652 129.944076538086 141.55339050293 157.915969848633 165.41081237793
-9999 -9999 -9999 -9999 -9999 -9999 -9999 -9999 -9999 -9999 -9999 -9999 -9999 -9999 299.985740661621 301.047607421875 327.579248428345 342.82453918457 339.206909179688 414.671630859375 490.3359375 455.188598632812 386.865447998047 333.862457275391 298.151062011719 277.431365966797 267.260620117188 266.317474365234 266.528991699219 266.252471923828 268.872467041016 271.318786621094 270.184204101562 269.408294677734 268.000396728516 265.656799316406 261.482086181641 257.689697265625 252.044799804688 253.222885131836 242.143936157227 210.834274291992 189.890411376953 186.798873901367 190.961868286133 192.428253173828 190.013031005859 186.492828369141 181.471878051758 174.970291137695 166.441055297852 154.769287109375 140.029006958008 125.452278137207 117.202606201172 113.438041687012 113.205688476562 115.472328186035 118.688629150391 117.8955078125 112.72673034668 107.593658447266 109.725402832031 117.151260375977 126.94409942627 137.03125 147.817855834961 155.283004760742 162.408630371094 162.751968383789
-9999 -9999 -9999 -9999 -9999 -9999 -9999 -9999 -9999 -9999 -9999 -9999 -9999 -9999 -9999 -9999 -9999 -9999 395.415596008301 410.740264892578 484.467590332031 441.060333251953 370.852752685547 313.885620117188 290.654754638672 277.783966064453 270.482299804688 267.892272949219 264.829742431641 259.033355712891 252.694946289062 248.735702514648 246.207946777344 243.625869750977 241.49919128418 240.178375244141 238.245346069336 235.616394042969 232.509628295898 223.9443359375 207.2001953125 195.246841430664 193.134872436523 194.396575927734 196.424743652344 197.900466918945 197.977462768555 197.634399414062 196.369171142578 193.340957641602 190.233139038086 187.968475341797 183.363723754883 170.691177368164 146.92138671875 117.208724975586 104.57878112793 103.856071472168 102.391304016113 100.139007568359 100.413154602051 103.084182739258 113.002265930176 125.584411621094 136.976974487305 147.302352905273 156.75309753418 161.828750610352 163.715835571289 160.218460083008
-9999 -9999 -9999 -9999 -9999 -9999 -9999 -9999 -9999 -9999 -9999 -9999 -9999 -9999 -9999 -9999 -9999 335.176574707031 401.056755065918 417.043579101562 469.389373779297 419.444213867188 357.069427490234 296.021148681641 281.255096435547 274.678802490234 268.724975585938 263.513854980469 260.913757324219 256.710357666016 250.866775512695 246.217544555664 241.555740356445 237.464340209961 235.805953979492 235.265975952148 233.501770019531 229.081741333008 223.872817993164 218.762359619141 216.226135253906 216.543319702148 217.425827026367 217.232284545898 214.84423828125 210.583526611328 204.420166015625 198.396453857422 194.992965698242 190.01725769043 188.224914550781 188.699310302734 191.74186706543 195.996398925781 194.947036743164 178.129028320312 148.796234130859 119.41529083252 103.483596801758 107.834213256836 119.33650970459 114.490158081055 117.019287109375 119.920791625977 124.836578369141 134.272277832031 147.618148803711 158.259506225586 160.003921508789 159.090972900391
-9999 -9999 -9999 -9999 -9999 -9999 -9999 -9999 -9999 -9999 -9999 -9999 -9999 314.664642333984 312.262179904514 -9999 321.250701904297 344.485893249512 335.176574707031 441.2666015625 429.783264160156 392.367156982422 340.639892578125 288.039916992188 274.031372070312 269.284851074219 262.950225830078 255.474319458008 252.605804443359 249.345108032227 244.909057617188 241.888107299805 240.370758056641 239.507690429688 239.269973754883 238.003112792969 237.208938598633 236.355850219727 235.926651000977 235.889923095703 236.459045410156 235.857315063477 233.841079711914 230.690200805664 224.347290039062 215.814605712891 206.384323120117 194.433929443359 182.373291015625 175.006851196289 173.499755859375 174.175933837891 173.317245483398 177.300323486328 183.092788696289 183.803100585938 179.653762817383 168.428344726562 144.948471069336 127.3466796875 123.501426696777 124.913803100586 137.74006652832 132.964050292969 127.392768859863 124.460121154785 126.396965026855 132.236221313477 139.781799316406 147.683975219727
-9999 -9999 -9999 -9999 -9999 -9999 -9999 -9999 -9999 -9999 -9999 -9999 -9999 -9999 314.664642333984 331.121988932292 290.999908447266 351.501495361328 400.265594482422 403.696990966797 379.377532958984 352.603668212891 329.603118896484 285.284027099609 268.136596679688 263.800048828125 257.883483886719 253.600051879883 252.785919189453 252.008346557617 248.204345703125 243.05876159668 241.162704467773 242.409088134766 243.715713500977 243.853057861328 244.039154052734 244.15739440918 245.246246337891 247.259994506836 248.258972167969 246.309020996094 240.461044311523 231.67643737793 218.417343139648 201.988876342773 185.488479614258 174.187698364258 161.511108398438 147.608642578125 142.348449707031 146.177200317383 150.182159423828 149.933319091797 151.784469604492 155.046020507812 157.941436767578 160.456329345703 160.369232177734 156.495208740234 150.104141235352 143.251266479492 142.666259765625 139.333953857422 135.331832885742 133.13801574707 131.626007080078 127.877250671387 123.587196350098 123.126098632812
-9999 -9999 -9999 -9999 -9999 -9999 -9999 -9999 -9999 -9999 -9999 -9999 -9999 -9999 301.266166687012 314.664642333984 387.701416015625 378.780181884766 356.364501953125 338.9775390625 318.083740234375 308.075012207031 302.868927001953 285.146209716797 268.726867675781 261.501159667969 255.917419433594 250.623962402344 248.950820922852 249.387069702148 250.768188476562 250.755157470703 247.873748779297 248.931564331055 253.770050048828 257.886260986328 261.156127929688 261.319671630859 259.061828613281 257.401306152344 255.715057373047 250.568862915039 241.990737915039 231.305740356445 215.304153442383 194.348556518555 174.225799560547 158.407791137695 142.225051879883 122.617942810059 107.852737426758 106.558090209961 112.195388793945 118.061683654785 121.633308410645 123.431350708008 123.478889465332 123.981727600098 126.65608215332 133.555236816406 143.209579467773 148.813659667969 149.773895263672 147.154067993164 141.977157592773 137.913665771484 134.169586181641 135.364044189453 128.895309448242 119.24893951416
-9999 -9999 -9999 -9999 -9999 -9999 -9999 -9999 -9999 -9999 -9999 278.670379638672 290.673034667969 297.396881103516 280.576080322266 312.427062988281 355.542114257812 333.360961914062 308.258636474609 290.457763671875 282.056427001953 279.377685546875 274.015563964844 267.734130859375 259.455230712891 252.072952270508 245.341934204102 242.815322875977 244.847412109375 247.691101074219 248.65559387207 249.977966308594 251.32292175293 253.702102661133 260.122650146484 267.646728515625 272.410491943359 273.265838623047 270.918884277344 267.427032470703 263.863586425781 258.956237792969 249.503845214844 237.144668579102 220.126831054688 197.577926635742 176.731689453125 156.011260986328 133.599456787109 106.446937561035 85.9812622070312 78.8218688964844 82.4161834716797 87.3896560668945 89.8277359008789 90.2331237792969 89.7321090698242 86.3434066772461 86.5992736816406 91.4782028198242 105.040573120117 123.584785461426 137.744110107422 143.25080871582 141.63720703125 137.289443969727 128.807189941406 125.402702331543 121.861389160156 114.217407226562
-9999 -9999 -9999 -9999 -9999 -9999 -9999 -9999 -9999 355.561279296875 295.456207275391 270.398529052734 278.013854980469 267.121185302734 273.813323974609 310.30615234375 318.808349609375 297.340423583984 285.734924316406 281.799957275391 268.934783935547 264.322601318359 260.454925537109 256.04150390625 250.834671020508 249.446990966797 248.754669189453 248.259094238281 247.332336425781 247.348587036133 246.503692626953 245.828735351562 247.600723266602 251.148956298828 257.069702148438 264.391143798828 269.993011474609 273.034362792969 273.335418701172 269.841583251953 264.681030273438 259.145050048828 248.916213989258 239.404922485352 226.784271240234 204.102020263672 182.204864501953 160.361907958984 132.116622924805 97.1708831787109 73.354850769043 64.7701034545898 62.2885246276855 61.3645324707031 60.449649810791 59.9494819641113 59.2059631347656 56.5346031188965 55.2616767883301 57.9999351501465 67.6629638671875 86.8482055664062 109.459541320801 126.577896118164 132.261520385742 131.018539428711 123.415084838867 111.619689941406 106.263061523438 101.20386505127
-9999 -9999 -9999 -9999 -9999 -9999 -9999 -9999 -9999 359.025512695312 302.755096435547 279.229034423828 276.729125976562 291.461883544922 298.61083984375 278.376525878906 274.121185302734 264.48681640625 256.513458251953 248.984222412109 240.853530883789 236.003921508789 235.840545654297 236.609893798828 240.052429199219 243.171340942383 242.878067016602 239.717956542969 234.175552368164 227.339157104492 220.736236572266 216.028671264648 215.597930908203 219.976425170898 227.817565917969 236.955871582031 245.153457641602 250.631332397461 253.970352172852 255.171295166016 254.830749511719 254.440902709961 249.683258056641 240.518829345703 230.149444580078 212.451263427734 192.581954956055 168.917098999023 135.669128417969 94.803581237793 65.860954284668 52.217342376709 45.1186180114746 43.1388969421387 41.8865509033203 40.115592956543 38.7800827026367 38.4250564575195 40.0379829406738 44.5339202880859 53.5704727172852 70.1507186889648 94.0336685180664 112.928817749023 121.484260559082 124.002136230469 117.697975158691 99.6756362915039 94.1141052246094 85.8565063476562
-9999 -9999 -9999 -9999 -9999 306.322486877441 342.972534179688 325.884735107422 327.551086425781 301.502197265625 292.364654541016 281.010406494141 290.338745117188 288.662719726562 256.345794677734 244.630004882812 237.841247558594 226.887939453125 214.883041381836 203.672103881836 195.43620300293 189.256118774414 186.5126953125 186.410736083984 187.722259521484 188.155792236328 186.087982177734 181.346633911133 174.818481445312 167.113403320312 160.063720703125 155.18212890625 153.144638061523 155.049896240234 160.89697265625 170.645858764648 183.043319702148 195.681137084961 206.9326171875 216.845245361328 226.105224609375 233.276840209961 237.003265380859 237.059036254883 231.124755859375 217.7236328125 199.197265625 175.130569458008 138.705307006836 95.8813323974609 62.030345916748 44.3860740661621 35.4104347229004 34.7499809265137 33.7139205932617 33.9099044799805 36.4787673950195 42.655689239502 55.641414642334 69.0096817016602 81.2439880371094 91.4580459594727 100.289848327637 105.789665222168 107.533638000488 107.785758972168 106.005210876465 93.6921768188477 85.3171997070312 76.2111740112305
-9999 -9999 -9999 -9999 303.558471679688 292.786865234375 285.972076416016 273.930725097656 276.709136962891 271.842193603516 264.945404052734 289.168090820312 266.781402587891 245.689971923828 228.828582763672 215.914016723633 200.354309082031 184.67985534668 164.004364013672 143.142349243164 127.886085510254 117.787040710449 111.118682861328 106.440307617188 102.653861999512 100.729461669922 100.437110900879 100.386772155762 99.1425704956055 96.1873321533203 92.5805282592773 89.267204284668 87.0553207397461 86.1366806030273 87.3878784179688 91.4207916259766 99.2530212402344 111.666664123535 127.664428710938 146.338500976562 167.063690185547 187.264556884766 205.675537109375 217.711959838867 221.53515625 216.972747802734 200.300003051758 174.7880859375 137.883743286133 94.5730133056641 60.0845565795898 41.0484046936035 31.8492488861084 33.1261825561523 34.9635047912598 43.1765518188477 55.3978385925293 65.6225051879883 70.7305450439453 71.8082046508789 72.0960006713867 70.7787628173828 70.0314559936523 69.3323211669922 67.4631500244141 67.4582290649414 74.9949111938477 82.5838165283203 81.3998641967773 73.7851791381836
-9999 -9999 -9999 282.538856506348 283.640167236328 268.062377929688 268.5205078125 263.547576904297 273.957824707031 261.010437011719 264.455627441406 241.491058349609 229.563598632812 215.327072143555 200.772903442383 176.045791625977 143.167526245117 111.542785644531 89.4237365722656 76.6389541625977 68.7741241455078 62.7779808044434 58.7089729309082 55.7505264282227 53.4756927490234 51.9740371704102 51.1967430114746 51.5536994934082 52.4904518127441 52.892765045166 52.4556579589844 51.3989372253418 50.0801239013672 49.1661071777344 49.2354011535645 50.8461303710938 54.2153778076172 60.0151786804199 69.8396911621094 84.7114486694336 104.488723754883 127.95645904541 152.948043823242 178.403564453125 198.974624633789 203.529006958008 189.464141845703 164.209442138672 128.518615722656 86.2690963745117 55.1351280212402 38.0418128967285 30.5867252349854 35.4933013916016 45.2349586486816 53.0799293518066 56.1701164245605 53.528621673584 46.2212181091309 38.4270324707031 33.3214378356934 31.2652931213379 31.4023036956787 32.2026672363281 32.4089851379395 31.7674674987793 33.0178680419922 44.4626960754395 61.580394744873 68.7561950683594
-9999 -9999 -9999 282.310668945312 260.646118164062 269.62060546875 293.408020019531 306.029754638672 286.427001953125 268.133911132812 238.042922973633 219.205337524414 208.148025512695 186.521774291992 156.765594482422 117.036605834961 84.4122695922852 65.0237731933594 54.5218963623047 48.2499771118164 44.4236755371094 41.994930267334 40.3820877075195 39.0761222839355 38.0788764953613 37.5932540893555 37.5745429992676 37.6891212463379 37.7451362609863 37.8438491821289 38.0510940551758 38.0292892456055 37.8259315490723 37.5458564758301 37.3155479431152 37.4235076904297 38.5883102416992 41.2341117858887 45.7261390686035 53.0117073059082 64.4144821166992 81.2730407714844 104.345390319824 132.050155639648 156.357772827148 168.866729736328 165.704223632812 147.424011230469 113.632446289062 75.6354293823242 48.0078010559082 33.5366020202637 31.2661838531494 38.673713684082 49.2527694702148 48.322509765625 42.0773239135742 34.7414131164551 29.2115287780762 27.0498676300049 26.8646850585938 27.3533725738525 29.1207847595215 30.4961700439453 30.5594291687012 30.1703872680664 29.8376197814941 29.8671112060547 34.2813720703125 44.9887924194336
