NCOLS 70 
NROWS 52 
XLLCORNER -80 
YLLCORNER 33 
CELLSIZE 0.25 
NODATA_value -9999 
-9999.000000000000000 -9999 -9999 -9999 -9999 -9999 -9999 -9999 -9999 -9999 -9999 -9999 -9999 -9999 -9999 -9999 -9999 -9999 -9999 -9999 -9999 -9999 -9999 -9999 -9999 -9999 -9999 -9999 -9999 -9999 -9999 -9999 -9999 -9999 -9999 -9999 -9999 -9999 -9999 -9999 -9999 -9999 -9999 -9999 -9999 -9999 -9999 -9999 -9999 -9999 -9999 -9999 -9999 -9999 -9999 -9999 -9999 -9999 -9999 -9999 -9999 -9999 -9999 -9999 -9999 -9999 -9999 -9999 -9999 -9999
-9999 -9999 -9999 -9999 -9999 -9999 -9999 -9999 -9999 -9999 -9999 -9999 -9999 -9999 -9999 -9999 -9999 -9999 -9999 -9999 -9999 -9999 -9999 -9999 -9999 -9999 -9999 -9999 -9999 -9999 -9999 -9999 -9999 -9999 -9999 -9999 -9999 -9999 -9999 -9999 -9999 -9999 -9999 -9999 -9999 -9999 -9999 -9999 -9999 -9999 -9999 -9999 -9999 -9999 -9999 -9999 -9999 -9999 -9999 -9999 -9999 -9999 -9999 -9999 -9999 -9999 -9999 -9999 -9999 -9999
-9999 -9999 -9999 -9999 -9999 -9999 -9999 -9999 -9999 -9999 -9999 -9999 -9999 -9999 -9999 -9999 -9999 -9999 -9999 -9999 -9999 -9999 -9999 -9999 -9999 -9999 -9999 -9999 -9999 -9999 -9999 -9999 -9999 -9999 -9999 -9999 -9999 -9999 -9999 -9999 -9999 -9999 -9999 -9999 -9999 -9999 -9999 -9999 -9999 -9999 -9999 -9999 -9999 -9999 -9999 -9999 -9999 -9999 -9999 189.498886108398 -9999 -9999 -9999 -9999 -9999 -9999 -9999 -9999 -9999 -9999
-9999 -9999 -9999 -9999 -9999 -9999 -9999 -9999 -9999 -9999 -9999 -9999 -9999 -9999 -9999 -9999 -9999 -9999 -9999 -9999 -9999 -9999 -9999 -9999 -9999 -9999 -9999 -9999 -9999 -9999 -9999 -9999 -9999 -9999 -9999 -9999 -9999 -9999 -9999 -9999 -9999 -9999 -9999 -9999 -9999 -9999 -9999 -9999 -9999 -9999 -9999 -9999 -9999 -9999 -9999 143.004135131836 141.080154418945 144.656951904297 157.643936157227 175.222366333008 -9999 -9999 -9999 -9999 -9999 -9999 -9999 -9999 -9999 -9999
-9999 -9999 -9999 -9999 -9999 -9999 -9999 -9999 -9999 -9999 -9999 -9999 -9999 -9999 -9999 -9999 -9999 -9999 -9999 -9999 -9999 -9999 -9999 -9999 -9999 -9999 -9999 -9999 -9999 -9999 -9999 -9999 -9999 -9999 -9999 -9999 -9999 -9999 -9999 -9999 -9999 -9999 -9999 -9999 -9999 -9999 -9999 -9999 -9999 -9999 -9999 -9999 114.524879455566 115.271842956543 117.600410461426 122.866638183594 124.456474304199 126.468887329102 -9999 -9999 -9999 -9999 -9999 -9999 -9999 -9999 -9999 -9999 -9999 -9999
-9999 -9999 -9999 -9999 -9999 -9999 -9999 -9999 -9999 -9999 -9999 -9999 -9999 -9999 -9999 -9999 -9999 -9999 -9999 -9999 -9999 -9999 -9999 -9999 -9999 -9999 -9999 -9999 -9999 -9999 -9999 -9999 -9999 -9999 -9999 -9999 -9999 -9999 -9999 -9999 -9999 -9999 -9999 -9999 -9999 -9999 -9999 -9999 -9999 -9999 123.236024475098 124.859268188477 112.940994262695 106.180152893066 108.16268157959 111.411888122559 -9999 -9999 -9999 -9999 -9999 -9999 -9999 -9999 -9999 -9999 -9999 84.5920079549154 84.1507701873779 90.6268463134766
-9999 -9999 -9999 -9999 -9999 -9999 -9999 -9999 -9999 -9999 -9999 -9999 -9999 -9999 -9999 -9999 -9999 -9999 -9999 -9999 -9999 -9999 -9999 -9999 -9999 -9999 -9999 -9999 -9999 -9999 -9999 -9999 -9999 -9999 -9999 -9999 -9999 -9999 -9999 -9999 -9999 -9999 -9999 -9999 176.191390991211 -9999 -9999 145.398811340332 139.350143432617 136.051406860352 126.162216186523 115.171157836914 107.170860290527 100.093544006348 97.5206909179688 -9999 -9999 -9999 -9999 -9999 -9999 -9999 -9999 98.4707412719727 92.1354598999023 89.5317687988281 87.5454559326172 85.0813217163086 81.1492462158203 79.7456665039062
-9999 -9999 -9999 -9999 -9999 -9999 -9999 -9999 -9999 -9999 -9999 -9999 -9999 -9999 -9999 -9999 -9999 -9999 -9999 -9999 -9999 -9999 -9999 -9999 -9999 -9999 -9999 -9999 -9999 -9999 -9999 -9999 -9999 -9999 -9999 -9999 -9999 -9999 -9999 -9999 -9999 -9999 -9999 -9999 175.948745727539 181.712463378906 169.219131469727 143.349853515625 129.676116943359 120.74040222168 108.435493469238 99.7342910766602 98.1625747680664 98.9895095825195 98.9493312835693 -9999 -9999 -9999 -9999 -9999 -9999 -9999 93.9361953735352 90.8387680053711 87.256706237793 84.7713928222656 80.9774169921875 77.1860122680664 75.6684799194336 75.608024597168
-9999 -9999 -9999 -9999 -9999 -9999 -9999 -9999 -9999 -9999 -9999 -9999 -9999 -9999 -9999 -9999 -9999 -9999 -9999 -9999 -9999 -9999 -9999 -9999 -9999 -9999 -9999 -9999 -9999 -9999 -9999 -9999 -9999 -9999 -9999 -9999 -9999 -9999 -9999 -9999 113.059033711751 118.762550354004 138.873745727539 157.879043579102 153.610794067383 140.024322509766 123.392066955566 109.044967651367 98.9260635375977 91.9743957519531 87.0929336547852 86.920166015625 92.5798187255859 99.1935806274414 102.353820800781 -9999 -9999 -9999 -9999 -9999 83.0292078653971 86.3772735595703 83.7916412353516 79.6792373657227 76.4872970581055 73.130241394043 70.7437515258789 71.0704879760742 71.4421005249023 70.713752746582
-9999 -9999 -9999 -9999 -9999 -9999 -9999 -9999 -9999 -9999 -9999 -9999 -9999 -9999 -9999 -9999 -9999 -9999 -9999 -9999 -9999 -9999 -9999 -9999 -9999 -9999 -9999 -9999 -9999 -9999 -9999 -9999 -9999 -9999 -9999 -9999 -9999 -9999 -9999 104.918930053711 113.290588378906 120.967582702637 122.029479980469 122.579658508301 120.060859680176 111.525329589844 99.6564178466797 89.7278213500977 84.8204345703125 84.0306549072266 86.5026245117188 91.4433898925781 96.2663726806641 101.153129577637 111.844612121582 100.588272094727 -9999 -9999 -9999 79.6625061035156 82.8861618041992 79.8241882324219 75.8009262084961 72.5713806152344 72.3541488647461 75.0074462890625 79.8480834960938 82.9334411621094 78.8243026733398 71.8124847412109
-9999 -9999 -9999 -9999 -9999 -9999 -9999 -9999 -9999 -9999 -9999 -9999 -9999 -9999 -9999 -9999 -9999 -9999 -9999 -9999 -9999 -9999 -9999 -9999 -9999 -9999 -9999 -9999 -9999 -9999 -9999 -9999 -9999 -9999 -9999 -9999 -9999 -9999 108.85199432373 115.652633666992 113.216896057129 110.429550170898 111.600006103516 114.327476501465 110.484489440918 98.9246139526367 86.5580902099609 80.2123107910156 81.2869644165039 86.2071228027344 92.0075607299805 97.1357727050781 98.9175796508789 100.591674804688 105.255271911621 103.09912109375 89.3052215576172 84.8527399698893 81.4282913208008 78.1451110839844 76.1904602050781 73.7461242675781 71.8847198486328 72.2509155273438 79.375732421875 91.1950149536133 101.650421142578 104.06649017334 94.079719543457 81.706657409668
-9999 -9999 -9999 -9999 -9999 -9999 -9999 -9999 -9999 -9999 -9999 -9999 -9999 -9999 -9999 -9999 -9999 -9999 -9999 -9999 -9999 -9999 -9999 -9999 -9999 -9999 -9999 -9999 -9999 -9999 -9999 -9999 -9999 -9999 -9999 -9999 -9999 104.896965026855 110.620346069336 108.171096801758 95.6554489135742 90.1915054321289 92.4673614501953 96.2537155151367 93.634033203125 84.2699737548828 76.9863433837891 78.6748046875 85.8506927490234 91.5873336791992 96.1147689819336 99.3612899780273 99.5777969360352 98.8377227783203 95.6962432861328 91.4987640380859 88.3434982299805 81.0457382202148 74.9012145996094 73.4419174194336 73.540641784668 73.815185546875 74.8789749145508 79.3017120361328 89.7016677856445 101.623672485352 110.199340820312 114.702766418457 110.314765930176 99.7796249389648
-9999 -9999 -9999 -9999 -9999 -9999 -9999 -9999 -9999 -9999 -9999 -9999 -9999 -9999 -9999 -9999 -9999 -9999 -9999 -9999 -9999 -9999 -9999 -9999 -9999 -9999 -9999 -9999 -9999 -9999 -9999 -9999 -9999 -9999 -9999 -9999 -9999 124.290870666504 115.175117492676 94.432502746582 75.8107833862305 69.3249435424805 71.1189880371094 74.5278396606445 75.3405914306641 73.9317092895508 75.4291152954102 82.7689208984375 88.9770050048828 92.2954559326172 94.8872451782227 95.9429016113281 94.4304046630859 92.7089920043945 90.8428421020508 88.8661804199219 85.3295669555664 80.6890029907227 77.9843292236328 75.8240966796875 74.1955184936523 74.5876235961914 77.8924179077148 85.0200958251953 95.671630859375 105.281280517578 114.931617736816 127.433708190918 132.703521728516 128.658676147461
-9999 -9999 -9999 -9999 -9999 -9999 -9999 -9999 -9999 -9999 -9999 -9999 -9999 -9999 -9999 -9999 -9999 -9999 -9999 -9999 -9999 -9999 -9999 -9999 -9999 -9999 -9999 -9999 -9999 -9999 -9999 -9999 -9999 -9999 -9999 -9999 -9999 144.565673828125 109.505157470703 81.2212066650391 65.9835739135742 62.709400177002 64.0613174438477 69.1702880859375 73.4673156738281 76.2475357055664 80.1810607910156 84.9878845214844 87.3740692138672 89.099006652832 92.0026016235352 94.9167175292969 95.8360061645508 93.9641799926758 94.3544464111328 96.7264251708984 96.8291397094727 94.8595428466797 91.7298202514648 87.3114929199219 83.3904037475586 82.8854598999023 86.8502960205078 90.6496429443359 94.4888153076172 100.453056335449 112.851013183594 129.422744750977 138.919738769531 133.583099365234
-9999 -9999 -9999 -9999 -9999 -9999 -9999 -9999 -9999 -9999 -9999 -9999 -9999 -9999 -9999 -9999 -9999 -9999 -9999 -9999 -9999 -9999 -9999 -9999 -9999 -9999 -9999 -9999 -9999 -9999 -9999 -9999 -9999 -9999 -9999 -9999 233.818954467773 172.410858154297 113.509719848633 89.2688217163086 82.2001037597656 76.6814346313477 72.7197341918945 75.7627410888672 80.3452377319336 83.5947952270508 86.2119445800781 88.2197265625 89.5610885620117 93.2299423217773 98.6408920288086 105.422050476074 111.057060241699 109.962455749512 111.417129516602 114.888595581055 119.350440979004 122.898872375488 123.577613830566 121.665420532227 120.712646484375 121.701370239258 125.529891967773 123.325187683105 121.610359191895 115.292510986328 118.075050354004 127.506210327148 133.198959350586 120.24284362793
-9999 -9999 -9999 -9999 -9999 -9999 -9999 -9999 -9999 -9999 -9999 -9999 -9999 -9999 -9999 -9999 -9999 -9999 -9999 -9999 -9999 -9999 -9999 -9999 -9999 -9999 -9999 -9999 -9999 -9999 -9999 -9999 -9999 -9999 -9999 -9999 -9999 160.408874511719 142.139602661133 121.603622436523 113.586303710938 102.538108825684 86.642692565918 80.3767013549805 83.358642578125 89.7235641479492 95.3970794677734 98.374137878418 101.072059631348 112.309951782227 122.343811035156 124.795364379883 127.738876342773 124.69987487793 127.523765563965 125.025947570801 145.508422851562 161.970016479492 163.751647949219 165.9345703125 163.184020996094 160.550888061523 156.076644897461 151.79638671875 156.552276611328 145.55989074707 134.660308837891 129.39436340332 126.045036315918 104.872604370117
-9999 -9999 -9999 -9999 -9999 -9999 -9999 -9999 -9999 -9999 -9999 -9999 -9999 -9999 -9999 -9999 -9999 -9999 -9999 -9999 -9999 -9999 -9999 -9999 -9999 -9999 -9999 -9999 -9999 -9999 -9999 -9999 -9999 -9999 -9999 -9999 -9999 -9999 172.467681884766 -9999 131.404876708984 117.091148376465 97.8769989013672 86.9315948486328 94.0174102783203 107.274391174316 116.162773132324 124.221557617188 132.93586730957 148.042266845703 155.796020507812 155.005950927734 153.905715942383 145.647430419922 138.068344116211 117.702239990234 155.483093261719 182.37092590332 174.853744506836 172.487350463867 163.437774658203 157.217437744141 147.763107299805 145.640274047852 141.663543701172 142.795852661133 137.192626953125 130.116271972656 120.301429748535 101.977935791016
-9999 -9999 -9999 -9999 -9999 -9999 -9999 -9999 -9999 -9999 -9999 -9999 -9999 -9999 -9999 -9999 -9999 -9999 -9999 -9999 -9999 -9999 -9999 -9999 -9999 -9999 -9999 -9999 -9999 -9999 -9999 -9999 -9999 -9999 -9999 -9999 -9999 -9999 -9999 -9999 118.077697753906 113.287284851074 99.3171691894531 97.7916717529297 113.782615661621 126.984741210938 137.366470336914 152.402557373047 165.757965087891 173.024993896484 178.777221679688 185.629104614258 187.417510986328 176.546615600586 148.711181640625 128.988189697266 155.318435668945 172.837631225586 176.134552001953 174.593734741211 166.526184082031 159.664093017578 151.915786743164 147.789169311523 140.988327026367 138.73649597168 129.520248413086 118.839218139648 116.018928527832 102.15990447998
-9999 -9999 -9999 -9999 -9999 -9999 -9999 -9999 -9999 -9999 -9999 -9999 -9999 -9999 -9999 -9999 -9999 -9999 -9999 -9999 -9999 -9999 -9999 -9999 -9999 -9999 -9999 -9999 -9999 -9999 -9999 -9999 -9999 -9999 164.611618041992 160.266342163086 143.796279907227 -9999 113.880065917969 106.585838317871 113.149917602539 111.502342224121 102.734153747559 112.208312988281 130.210678100586 148.128173828125 173.632461547852 179.088562011719 175.066162109375 184.239135742188 197.416519165039 200.500762939453 203.622863769531 188.802169799805 142.329727172852 146.941909790039 167.688842773438 179.334106445312 185.898666381836 181.019165039062 170.129180908203 159.341918945312 150.773010253906 144.206069946289 140.823928833008 139.871139526367 135.622787475586 120.503623962402 116.702415466309 103.90128326416
-9999 -9999 -9999 -9999 -9999 -9999 -9999 -9999 -9999 -9999 -9999 -9999 -9999 -9999 -9999 -9999 -9999 -9999 -9999 -9999 -9999 -9999 -9999 -9999 -9999 -9999 -9999 473.042266845703 473.042266845703 397.47509765625 312.281036376953 246.644561767578 193.530471801758 176.14697265625 166.27311706543 155.760040283203 137.701293945312 122.759773254395 113.46728515625 106.941139221191 107.974800109863 108.078544616699 110.762222290039 129.022796630859 148.442596435547 176.724090576172 192.803985595703 185.719711303711 180.881881713867 184.238357543945 192.935821533203 189.215927124023 179.571975708008 159.506622314453 138.165557861328 168.838119506836 184.643707275391 184.01676940918 177.34831237793 159.221221923828 144.369812011719 131.208740234375 121.55485534668 117.591262817383 119.415977478027 131.30842590332 132.438522338867 123.537986755371 117.973014831543 106.481605529785
-9999 -9999 -9999 -9999 -9999 -9999 -9999 -9999 -9999 -9999 -9999 -9999 -9999 -9999 -9999 -9999 -9999 -9999 -9999 -9999 -9999 -9999 -9999 -9999 -9999 -9999 -9999 -9999 -9999 -9999 218.206771850586 184.945755004883 162.574829101562 159.747711181641 156.654815673828 146.400924682617 132.068634033203 119.423851013184 112.186065673828 110.422401428223 110.177490234375 112.957832336426 123.107948303223 143.775497436523 166.673568725586 189.580001831055 192.268447875977 180.965240478516 175.682983398438 168.086135864258 157.958770751953 147.782958984375 142.7841796875 148.949401855469 176.403961181641 181.094665527344 172.568710327148 160.386489868164 149.183074951172 137.488784790039 124.810478210449 109.681800842285 96.4647903442383 89.2352066040039 92.50048828125 120.122627258301 127.929832458496 122.714790344238 118.598678588867 108.986671447754
-9999 -9999 -9999 -9999 -9999 -9999 -9999 -9999 -9999 -9999 -9999 -9999 -9999 -9999 -9999 -9999 -9999 -9999 -9999 -9999 -9999 -9999 -9999 -9999 -9999 270.553507486979 255.220662434896 244.594263712565 236.493877410889 219.774612426758 205.597320556641 189.720520019531 186.097229003906 189.227081298828 189.251968383789 181.138702392578 168.378814697266 153.814559936523 137.928039550781 127.631362915039 125.225296020508 131.222610473633 141.040664672852 156.421295166016 171.248886108398 170.787902832031 163.526321411133 150.967178344727 145.521942138672 133.303573608398 124.920921325684 119.680282592773 135.663467407227 168.454711914062 172.603210449219 159.975128173828 153.227188110352 147.074768066406 140.024230957031 133.713150024414 125.215591430664 111.343322753906 95.0486297607422 80.4341735839844 80.8309478759766 106.592994689941 122.904441833496 121.909629821777 119.838928222656 111.626136779785
-9999 -9999 -9999 -9999 -9999 -9999 -9999 -9999 -9999 -9999 -9999 -9999 -9999 -9999 -9999 -9999 -9999 -9999 -9999 -9999 -9999 -9999 -9999 -9999 286.906311035156 271.230407714844 253.523803710938 240.907775878906 239.351211547852 245.941909790039 248.342483520508 238.069229125977 227.766342163086 219.041091918945 212.240783691406 203.16015625 195.70768737793 188.613357543945 175.126068115234 161.613540649414 154.904403686523 154.899002075195 157.990997314453 165.678924560547 162.559463500977 144.626724243164 141.8916015625 148.148696899414 152.397201538086 147.306838989258 144.34162902832 145.974304199219 159.298934936523 158.618255615234 152.833358764648 150.899185180664 147.347381591797 141.366622924805 135.781555175781 130.830261230469 125.766960144043 117.600967407227 105.506622314453 87.362434387207 80.8265686035156 97.5193634033203 117.804092407227 120.931030273438 120.351272583008 113.760536193848
-9999 -9999 -9999 -9999 -9999 -9999 -9999 -9999 -9999 -9999 -9999 -9999 -9999 -9999 -9999 -9999 -9999 -9999 -9999 -9999 -9999 -9999 -9999 -9999 283.804107666016 245.40592956543 234.692520141602 246.418197631836 262.739227294922 273.093933105469 273.521728515625 263.737976074219 251.045471191406 237.248489379883 222.62516784668 202.055389404297 185.453674316406 176.886901855469 169.68603515625 165.215240478516 164.806625366211 164.843444824219 173.988021850586 185.992935180664 173.120620727539 166.823150634766 181.963363647461 190.36735534668 189.262832641602 184.779281616211 178.627655029297 172.91276550293 165.503082275391 158.368286132812 153.909622192383 150.231292724609 146.887252807617 141.939697265625 136.016326904297 131.28450012207 128.455307006836 125.35294342041 120.108772277832 109.375259399414 94.8504333496094 97.8072738647461 114.98511505127 118.910148620605 121.364143371582 116.708946228027
-9999 -9999 -9999 -9999 -9999 -9999 -9999 -9999 -9999 -9999 -9999 -9999 -9999 -9999 -9999 -9999 -9999 -9999 -9999 -9999 -9999 -9999 -9999 263.0758934021 272.039001464844 233.076583862305 223.862915039062 244.627014160156 270.057647705078 279.917663574219 274.572662353516 262.813659667969 251.373092651367 241.512268066406 224.498428344727 195.006896972656 168.947036743164 156.946716308594 152.014831542969 147.897491455078 150.21044921875 173.071578979492 204.447799682617 214.659851074219 203.280136108398 202.56819152832 206.219253540039 195.679534912109 183.434631347656 176.884857177734 172.405334472656 168.979965209961 165.021575927734 159.574432373047 155.503234863281 152.759292602539 149.565795898438 144.786331176758 139.04133605957 135.799911499023 133.886825561523 131.643157958984 129.545516967773 127.560409545898 120.936874389648 112.63207244873 115.874923706055 116.240142822266 122.483749389648 121.880661010742
-9999 -9999 -9999 -9999 -9999 -9999 -9999 -9999 -9999 -9999 -9999 -9999 -9999 -9999 -9999 -9999 -9999 -9999 -9999 -9999 -9999 -9999 -9999 248.954635620117 247.505828857422 225.351364135742 226.396697998047 253.373138427734 280.67578125 284.523315429688 271.995666503906 256.498931884766 246.483612060547 240.488494873047 231.549713134766 209.42170715332 183.264587402344 168.421722412109 160.810012817383 155.722686767578 164.796356201172 199.871765136719 221.737442016602 212.553817749023 200.778915405273 194.372940063477 185.8203125 177.158279418945 173.114364624023 170.863052368164 168.472503662109 167.286956787109 164.558792114258 159.995086669922 155.458602905273 152.377517700195 150.5419921875 147.558944702148 143.778411865234 140.166610717773 138.222213745117 137.537414550781 136.37467956543 133.517929077148 135.007476806641 133.06965637207 125.079513549805 117.31958770752 121.677642822266 125.871383666992
-9999 -9999 -9999 -9999 -9999 -9999 -9999 -9999 -9999 -9999 -9999 -9999 -9999 -9999 -9999 -9999 -9999 -9999 -9999 -9999 -9999 -9999 287.263732910156 250.910385131836 233.941543579102 232.955642700195 247.254364013672 274.925628662109 291.771240234375 286.030334472656 271.954406738281 257.208862304688 245.904632568359 238.997802734375 235.090728759766 229.518859863281 216.698120117188 197.086654663086 179.725769042969 175.503280639648 187.889602661133 203.718856811523 202.836761474609 192.827423095703 186.143569946289 181.418350219727 178.194580078125 174.22900390625 170.661590576172 168.024475097656 165.511337280273 163.596313476562 159.781280517578 153.823226928711 149.130569458008 146.475021362305 145.397033691406 144.412506103516 143.215362548828 140.874984741211 139.535736083984 139.306488037109 138.97314453125 136.539581298828 135.293472290039 138.905059814453 136.891860961914 128.297378540039 124.517440795898 128.048370361328
-9999 -9999 -9999 -9999 -9999 -9999 -9999 -9999 -9999 -9999 -9999 -9999 -9999 -9999 708.023793538411 -9999 -9999 -9999 -9999 492.6318359375 -9999 316.532348632812 278.099822998047 243.566955566406 240.326553344727 252.736785888672 267.969116210938 276.272552490234 284.130310058594 283.21142578125 271.064544677734 254.411682128906 239.898345947266 229.785293579102 223.907974243164 222.605422973633 224.165191650391 218.085983276367 200.27409362793 189.226623535156 192.961883544922 195.107025146484 189.365585327148 183.043045043945 178.569458007812 176.108871459961 176.119644165039 174.377410888672 170.925308227539 167.363510131836 163.846130371094 161.017135620117 156.035049438477 148.757186889648 144.123474121094 142.245132446289 141.582183837891 141.791625976562 141.630966186523 140.247024536133 139.349548339844 139.27473449707 139.114242553711 138.951278686523 137.864532470703 138.743896484375 142.373077392578 140.377716064453 133.386871337891 130.934005737305
-9999 -9999 -9999 -9999 -9999 -9999 -9999 -9999 -9999 -9999 -9999 -9999 -9999 -9999 704.445281982422 -9999 -9999 -9999 -9999 455.093963623047 361.467138671875 301.933319091797 248.938430786133 245.430053710938 263.915283203125 272.512298583984 271.874359130859 276.561706542969 291.805053710938 288.356719970703 268.356201171875 247.688919067383 231.027435302734 219.51530456543 212.039688110352 207.121063232422 206.385223388672 210.12760925293 207.364639282227 197.503112792969 192.763854980469 190.41242980957 184.389083862305 177.975341796875 173.933609008789 173.034057617188 175.321640014648 175.892883300781 172.549392700195 167.45751953125 162.724685668945 159.283508300781 153.911987304688 146.075790405273 141.378997802734 140.030349731445 140.147659301758 140.494216918945 139.545669555664 138.344146728516 137.617324829102 138.472747802734 139.752822875977 139.853271484375 139.288711547852 139.078384399414 142.129287719727 145.151290893555 142.641372680664 137.430084228516
-9999 -9999 -9999 -9999 -9999 -9999 -9999 -9999 -9999 -9999 -9999 -9999 -9999 -9999 720.548583984375 -9999 -9999 -9999 -9999 -9999 280.039371490479 278.682098388672 255.582473754883 277.377746582031 294.458251953125 293.513854980469 296.571441650391 309.665771484375 307.916961669922 285.392242431641 259.176086425781 239.209899902344 224.177627563477 212.853073120117 203.97053527832 196.584548950195 191.495574951172 192.198028564453 197.247268676758 199.581970214844 196.440200805664 190.254989624023 183.85986328125 178.574264526367 174.972305297852 173.807723999023 176.669937133789 178.396560668945 174.355209350586 167.814102172852 162.647918701172 159.377059936523 154.002777099609 146.340194702148 142.213348388672 141.195037841797 141.464462280273 141.407913208008 140.743789672852 140.584396362305 139.524887084961 140.156951904297 140.205230712891 138.136962890625 137.133361816406 137.147109985352 139.300033569336 144.097305297852 147.605178833008 146.786895751953
-9999 -9999 -9999 -9999 -9999 -9999 -9999 -9999 -9999 -9999 -9999 -9999 -9999 -9999 670.476135253906 -9999 656.135375976562 -9999 -9999 -9999 253.694686889648 285.847381591797 290.743560791016 306.535675048828 320.078430175781 338.426452636719 347.506713867188 332.592224121094 301.826354980469 270.392730712891 244.888488769531 226.476303100586 212.947525024414 202.773223876953 194.7763671875 188.124267578125 183.029678344727 180.986465454102 183.071441650391 188.756134033203 193.43489074707 192.619705200195 188.074737548828 182.696899414062 178.855087280273 177.121887207031 179.145202636719 179.504348754883 173.951965332031 167.345672607422 163.175811767578 160.57975769043 155.569213867188 148.617752075195 144.991333007812 143.792129516602 144.06201171875 145.348327636719 145.941345214844 145.97639465332 145.443954467773 145.062210083008 142.400268554688 136.869979858398 134.539703369141 135.749084472656 138.053939819336 141.404647827148 147.009002685547 150.827987670898
-9999 -9999 -9999 -9999 -9999 -9999 -9999 -9999 -9999 -9999 -9999 -9999 -9999 -9999 670.476135253906 620.403686523438 494.064239501953 -9999 -9999 266.006435394287 265.278045654297 309.432678222656 321.783843994141 333.379852294922 359.113342285156 376.243957519531 355.233337402344 318.397399902344 284.286285400391 255.314788818359 230.687438964844 212.227905273438 198.555969238281 187.972640991211 179.576858520508 173.018905639648 168.608551025391 166.653396606445 167.734283447266 171.944030761719 179.25456237793 185.814453125 187.722549438477 185.761306762695 182.896682739258 180.503311157227 181.342193603516 179.91487121582 173.394912719727 167.110336303711 163.800506591797 161.588439941406 157.457595825195 151.162094116211 147.592987060547 146.244857788086 147.155380249023 150.72216796875 152.458267211914 152.038101196289 152.116882324219 150.828384399414 147.030563354492 140.432327270508 136.358459472656 137.014953613281 139.430023193359 141.801223754883 146.553176879883 150.786804199219
-9999 -9999 -9999 -9999 -9999 -9999 -9999 -9999 -9999 -9999 -9999 -9999 -9999 -9999 -9999 440.429040527344 391.368835449219 -9999 291.556312561035 251.670135498047 293.382873535156 331.112487792969 354.374114990234 382.718597412109 394.469970703125 372.963317871094 332.063262939453 296.961456298828 267.332305908203 240.854873657227 217.635482788086 199.853668212891 185.416564941406 172.762710571289 162.391372680664 154.394119262695 149.802368164062 149.024108886719 151.535186767578 156.923614501953 163.8056640625 172.350433349609 179.514938354492 182.816207885742 182.755142211914 180.91130065918 181.676528930664 179.000137329102 172.077896118164 167.016525268555 164.443939208984 162.388870239258 159.850219726562 154.431991577148 149.837310791016 148.189178466797 149.500930786133 153.64421081543 155.657211303711 156.355194091797 158.91748046875 158.763336181641 155.050155639648 149.315170288086 143.754135131836 140.120056152344 140.692779541016 143.47477722168 148.654602050781 152.346817016602
-9999 -9999 -9999 -9999 -9999 -9999 -9999 -9999 -9999 -9999 -9999 -9999 -9999 -9999 -9999 356.546142578125 339.762298583984 -9999 231.988952636719 268.010894775391 313.211151123047 348.564422607422 388.7978515625 419.868591308594 401.599487304688 356.795349121094 315.979187011719 285.271789550781 257.229888916016 230.769470214844 207.553787231445 189.517028808594 174.841506958008 160.964889526367 149.468124389648 142.210830688477 138.765396118164 138.254455566406 139.83122253418 145.075241088867 152.517868041992 160.76025390625 169.434204101562 175.678619384766 178.059753417969 178.109085083008 179.960510253906 177.055969238281 169.846908569336 165.757186889648 164.394256591797 162.943206787109 163.480667114258 162.678024291992 155.750152587891 150.741653442383 150.429534912109 152.824981689453 153.962738037109 155.093765258789 160.067459106445 164.706314086914 164.261703491211 157.580871582031 153.596603393555 148.844589233398 142.848190307617 143.57177734375 147.781005859375 152.168914794922
-9999 -9999 -9999 -9999 -9999 -9999 -9999 -9999 -9999 -9999 -9999 -9999 -9999 -9999 -9999 336.177429199219 -9999 277.289276123047 262.9775390625 291.512390136719 331.541809082031 369.712097167969 413.255859375 427.47265625 388.813140869141 343.198150634766 306.365295410156 276.492919921875 247.926452636719 219.481536865234 194.918212890625 175.995880126953 160.847671508789 148.214721679688 139.207794189453 134.45149230957 132.642166137695 132.941848754883 133.842468261719 136.884643554688 144.256149291992 152.941513061523 161.340896606445 168.872024536133 173.264602661133 175.829177856445 178.642807006836 175.434478759766 167.719055175781 164.962509155273 165.491409301758 166.330291748047 168.079132080078 168.730010986328 167.192459106445 160.441741943359 154.97834777832 153.447448730469 153.837097167969 154.147491455078 159.771133422852 168.119247436523 172.022384643555 166.510162353516 160.535263061523 155.800064086914 151.093795776367 147.138610839844 147.63493347168 149.630630493164
-9999 -9999 -9999 -9999 -9999 -9999 -9999 -9999 -9999 -9999 -9999 -9999 -9999 -9999 336.177429199219 298.001963297526 259.919830322266 263.38671875 285.080963134766 317.013671875 373.979156494141 431.002044677734 444.164093017578 418.575286865234 374.419189453125 332.881042480469 296.282348632812 262.541534423828 229.470748901367 199.856964111328 176.856964111328 160.716567993164 146.32942199707 135.09440612793 129.111328125 127.794326782227 127.337547302246 128.253997802734 131.388671875 134.048156738281 139.087295532227 148.056350708008 157.697463989258 165.32633972168 170.236297607422 174.794937133789 177.045074462891 172.068588256836 165.004348754883 165.013763427734 167.726943969727 170.418533325195 170.951965332031 170.284698486328 174.79557800293 172.586486816406 165.163177490234 161.310775756836 161.114303588867 161.953231811523 167.449569702148 175.357666015625 179.23551940918 174.960220336914 166.893905639648 162.167007446289 161.1474609375 155.511459350586 152.336410522461 150.594543457031
-9999 -9999 -9999 -9999 -9999 -9999 -9999 -9999 -9999 -9999 -9999 -9999 -9999 -9999 -9999 -9999 274.439445495605 277.290008544922 293.050872802734 340.062591552734 426.319091796875 476.709228515625 456.241821289062 410.329986572266 367.775482177734 322.881805419922 280.686614990234 243.721832275391 210.865966796875 184.085357666016 165.394134521484 150.322540283203 136.936660766602 128.593658447266 124.328269958496 125.254089355469 127.163162231445 128.650909423828 132.833297729492 135.361602783203 138.357727050781 147.221969604492 158.009201049805 164.890869140625 169.5380859375 175.04866027832 175.972518920898 171.291427612305 166.809585571289 168.61279296875 172.14469909668 175.81086730957 176.679779052734 178.044158935547 179.513946533203 180.942733764648 177.771575927734 173.262847900391 171.561874389648 172.581878662109 176.993515014648 183.78483581543 186.418746948242 182.250335693359 172.994766235352 167.801239013672 166.786605834961 163.148620605469 157.319183349609 152.742828369141
-9999 -9999 -9999 -9999 -9999 -9999 -9999 -9999 -9999 -9999 -9999 -9999 -9999 -9999 -9999 -9999 287.225616455078 297.161224365234 325.291534423828 382.338745117188 463.263366699219 482.774078369141 453.199371337891 397.995391845703 351.377410888672 301.610961914062 258.002563476562 222.06657409668 192.166000366211 171.846664428711 159.126663208008 146.699371337891 135.089859008789 129.93147277832 128.209854125977 130.719711303711 134.056427001953 136.532440185547 139.328475952148 140.092758178711 142.731796264648 151.96923828125 162.995986938477 169.714538574219 174.231201171875 176.059036254883 176.239318847656 175.002944946289 173.629028320312 174.881011962891 177.176879882812 181.497894287109 182.058120727539 183.259780883789 180.848968505859 185.722427368164 187.841873168945 184.180526733398 181.919036865234 180.897766113281 182.695098876953 188.006149291992 190.361068725586 186.944610595703 177.944641113281 172.676422119141 170.049087524414 167.210403442383 160.274948120117 155.394622802734
-9999 -9999 -9999 -9999 -9999 -9999 -9999 -9999 -9999 -9999 -9999 -9999 -9999 -9999 -9999 -9999 -9999 325.583572387695 346.001312255859 420.527069091797 477.377990722656 459.86767578125 429.346282958984 372.549713134766 320.016967773438 270.952789306641 231.722595214844 199.057632446289 175.898040771484 166.616439819336 160.014358520508 149.689788818359 141.09782409668 138.127212524414 137.642395019531 140.724990844727 143.803588867188 145.203659057617 144.412612915039 145.396987915039 154.033737182617 164.783203125 172.259368896484 177.56852722168 178.995651245117 180.380233764648 182.613739013672 184.58854675293 182.638076782227 179.605041503906 181.628326416016 186.629699707031 185.566390991211 183.360488891602 182.284225463867 187.119049072266 192.442504882812 192.752380371094 187.896377563477 185.64794921875 186.858673095703 192.936141967773 192.126327514648 186.834503173828 182.386932373047 176.601287841797 173.067291259766 170.592895507812 164.147842407227 161.867050170898
-9999 -9999 -9999 -9999 -9999 -9999 -9999 -9999 -9999 -9999 -9999 -9999 -9999 -9999 294.677322387695 297.161224365234 324.141445159912 339.940765380859 333.880218505859 407.441009521484 461.378021240234 427.196441650391 392.366516113281 342.815155029297 290.029479980469 243.686813354492 207.892456054688 181.859191894531 168.87451171875 166.400665283203 163.361602783203 158.496963500977 154.611862182617 153.960586547852 154.627716064453 155.809753417969 156.985641479492 159.434005737305 161.988784790039 165.083755493164 171.254974365234 178.634658813477 184.057952880859 189.222702026367 191.948211669922 192.961318969727 197.004592895508 196.605239868164 191.584686279297 185.342849731445 185.092620849609 184.676849365234 184.61262512207 182.592483520508 177.007583618164 176.255477905273 187.118438720703 195.139892578125 193.959777832031 191.418029785156 192.20182800293 195.547027587891 189.0419921875 184.77848815918 182.138580322266 180.15657043457 179.090896606445 175.925476074219 171.289337158203 171.892135620117
-9999 -9999 -9999 -9999 -9999 -9999 -9999 -9999 -9999 -9999 -9999 -9999 -9999 -9999 -9999 -9999 -9999 -9999 375.721267700195 379.542602539062 428.804656982422 396.664672851562 356.877288818359 308.930053710938 258.306732177734 217.497497558594 190.335906982422 175.876419067383 169.850234985352 166.067657470703 162.300521850586 160.10969543457 158.521331787109 159.37678527832 161.398315429688 163.302276611328 166.830276489258 172.28483581543 177.101181030273 180.72216796875 186.463638305664 195.146728515625 201.177505493164 204.963806152344 209.455551147461 210.877090454102 208.370620727539 202.457885742188 197.056106567383 192.293258666992 183.521697998047 182.587524414062 188.564483642578 183.641326904297 164.562683105469 159.806243896484 175.800109863281 193.894332885742 197.960601806641 196.329925537109 196.80451965332 194.273849487305 186.75325012207 184.312652587891 178.6923828125 180.507232666016 182.776779174805 182.159423828125 182.070404052734 183.212890625
-9999 -9999 -9999 -9999 -9999 -9999 -9999 -9999 -9999 -9999 -9999 -9999 -9999 -9999 -9999 -9999 -9999 316.167663574219 376.365951538086 382.021240234375 413.905090332031 359.52294921875 319.752044677734 269.307922363281 223.551986694336 193.653030395508 181.962921142578 178.537582397461 175.065521240234 170.76594543457 168.03271484375 167.185775756836 167.880630493164 171.849548339844 177.445571899414 181.722106933594 185.670989990234 190.182250976562 193.9287109375 197.622146606445 203.962524414062 211.734375 217.791397094727 222.307907104492 225.403060913086 222.06086730957 212.22575378418 203.458236694336 199.224990844727 195.259262084961 187.688186645508 185.882736206055 193.174957275391 192.080718994141 173.250793457031 164.598556518555 178.276412963867 193.743667602539 201.664138793945 198.872406005859 196.650466918945 192.472808837891 188.698318481445 186.173370361328 181.973663330078 182.254699707031 184.898071289062 187.174575805664 187.462738037109 188.513626098633
-9999 -9999 -9999 -9999 -9999 -9999 -9999 -9999 -9999 -9999 -9999 -9999 -9999 296.241912841797 301.490098741319 -9999 320.506866455078 335.825004577637 316.167663574219 427.732299804688 388.159118652344 334.001312255859 295.513488769531 234.264923095703 200.034408569336 184.356750488281 182.691482543945 183.039215087891 182.482406616211 180.648590087891 180.935302734375 181.700958251953 183.519119262695 186.746154785156 189.668319702148 192.505737304688 195.300231933594 198.904907226562 203.64973449707 209.09130859375 214.827285766602 222.299407958984 229.866256713867 234.179718017578 230.836715698242 219.782928466797 207.518264770508 199.382598876953 199.114044189453 198.739624023438 197.221862792969 196.131652832031 200.294479370117 199.210586547852 192.991104125977 187.148849487305 189.475311279297 194.664520263672 201.032562255859 199.761154174805 197.632232666016 194.29020690918 193.031707763672 194.324401855469 195.079132080078 194.070404052734 193.453643798828 193.261764526367 191.628784179688 192.28678894043
-9999 -9999 -9999 -9999 -9999 -9999 -9999 -9999 -9999 -9999 -9999 -9999 -9999 -9999 296.241912841797 317.711232503255 290.517150878906 350.49658203125 386.118621826172 359.482635498047 343.792846679688 303.538940429688 255.561676025391 205.235107421875 192.524520874023 185.219512939453 187.336242675781 185.73405456543 185.641708374023 185.667282104492 186.846237182617 188.058258056641 189.796234130859 192.787185668945 195.96794128418 199.282272338867 202.811584472656 208.202529907227 214.509704589844 222.17951965332 227.343948364258 231.050811767578 237.277877807617 234.886947631836 222.052047729492 207.522918701172 196.879364013672 191.319213867188 193.115234375 203.50764465332 210.512298583984 214.174179077148 217.649383544922 212.233810424805 204.070617675781 199.9619140625 197.868637084961 197.885269165039 199.360382080078 199.18244934082 196.815689086914 194.068206787109 193.53369140625 194.843902587891 198.569381713867 201.80322265625 202.327331542969 203.953552246094 202.768341064453 182.434265136719
-9999 -9999 -9999 -9999 -9999 -9999 -9999 -9999 -9999 -9999 -9999 -9999 -9999 -9999 306.814407348633 296.241912841797 366.374633789062 400.3525390625 348.565643310547 332.006286621094 325.619415283203 275.080718994141 223.647018432617 200.747650146484 197.510955810547 195.449203491211 198.228622436523 193.359756469727 189.505523681641 186.486785888672 187.324264526367 189.324905395508 192.150314331055 195.977157592773 200.407897949219 205.057678222656 210.239318847656 218.351547241211 226.946166992188 233.59553527832 235.328887939453 235.842422485352 230.478134155273 209.889144897461 189.115112304688 181.239151000977 179.108444213867 179.147674560547 185.05143737793 205.668930053711 216.593246459961 221.309097290039 231.175338745117 233.820419311523 223.284393310547 215.836349487305 213.56120300293 210.497650146484 207.081741333008 203.395111083984 196.431655883789 184.420288085938 173.574523925781 168.1123046875 176.621063232422 195.001037597656 210.474197387695 218.434127807617 192.055282592773 142.170486450195
-9999 -9999 -9999 -9999 -9999 -9999 -9999 -9999 -9999 -9999 -9999 263.086486816406 283.774322509766 298.843780517578 286.279815673828 345.892120361328 411.278076171875 384.003692626953 332.925628662109 299.580780029297 250.288696289062 229.304718017578 214.213409423828 211.97673034668 205.641616821289 202.528884887695 205.107528686523 206.566513061523 209.271499633789 207.784378051758 200.006317138672 195.258392333984 198.381423950195 202.903244018555 208.247665405273 214.718276977539 221.597946166992 230.566635131836 236.405471801758 227.306411743164 211.554580688477 195.323348999023 170.190475463867 148.42121887207 151.200607299805 164.865188598633 169.447647094727 171.073425292969 178.535659790039 203.700592041016 218.495941162109 224.988662719727 231.436889648438 234.358352661133 231.565551757812 226.928970336914 221.132858276367 216.615219116211 206.889312744141 189.541793823242 171.448593139648 156.758209228516 147.233489990234 143.718521118164 161.568283081055 201.491561889648 221.680740356445 206.334671020508 155.460205078125 118.131385803223
-9999 -9999 -9999 -9999 -9999 -9999 -9999 -9999 -9999 333.766235351562 279.430084228516 277.243743896484 318.259826660156 319.319885253906 333.548614501953 407.519897460938 382.333282470703 329.198516845703 306.710296630859 257.638854980469 236.717971801758 234.757125854492 224.880676269531 222.378509521484 214.274307250977 207.406234741211 205.391967773438 204.198089599609 207.449081420898 215.976684570312 222.30046081543 221.086074829102 218.283920288086 217.197372436523 217.725891113281 220.556518554688 226.977386474609 237.638931274414 238.556137084961 220.944671630859 198.487899780273 170.926376342773 141.697021484375 134.953582763672 156.004913330078 170.514602661133 167.20735168457 166.022018432617 175.676025390625 202.203079223633 221.423522949219 231.899291992188 238.537750244141 236.507705688477 231.48796081543 222.960540771484 203.747589111328 175.813278198242 152.949356079102 139.690155029297 135.612197875977 133.910598754883 131.585189819336 145.40576171875 183.087142944336 215.447341918945 210.800231933594 168.07096862793 126.231826782227 112.247489929199
-9999 -9999 -9999 -9999 -9999 -9999 -9999 -9999 -9999 332.209686279297 305.842620849609 335.988647460938 356.448944091797 374.325927734375 380.376525878906 364.896850585938 349.364654541016 323.091888427734 289.369842529297 246.036041259766 238.263793945312 245.190521240234 240.115585327148 234.251998901367 229.384658813477 224.649398803711 223.001358032227 221.519897460938 220.224884033203 220.576889038086 223.820999145508 228.178375244141 232.305679321289 234.86540222168 235.082138061523 236.148574829102 239.989242553711 242.043487548828 240.686752319336 226.28694152832 200.312728881836 158.48274230957 125.915107727051 126.956214904785 152.118515014648 170.436645507812 171.207443237305 172.372802734375 181.997604370117 203.278854370117 221.920425415039 229.54670715332 231.113983154297 230.552749633789 208.920501708984 164.789520263672 122.076164245605 104.962776184082 108.110534667969 119.335708618164 129.523391723633 134.047790527344 143.789672851562 177.437301635742 205.898483276367 210.077407836914 183.61491394043 143.411514282227 126.76668548584 128.693069458008
-9999 -9999 -9999 -9999 -9999 288.208427429199 326.116271972656 311.051605224609 309.932556152344 285.859008789062 318.954742431641 380.314727783203 417.556518554688 418.117797851562 383.893768310547 358.250152587891 335.230072021484 312.341888427734 292.522186279297 277.689788818359 278.220001220703 270.357330322266 252.640594482422 240.115051269531 235.704376220703 232.516723632812 231.442260742188 231.572616577148 232.82878112793 234.507904052734 237.235336303711 240.417877197266 242.616653442383 244.672561645508 245.060424804688 245.622360229492 246.346115112305 244.98095703125 240.220397949219 227.431198120117 204.977920532227 154.232238769531 112.892631530762 107.36026763916 124.458030700684 154.98014831543 175.925262451172 182.766128540039 188.597152709961 200.205657958984 212.098876953125 218.66162109375 225.980255126953 203.977996826172 142.468200683594 94.1138916015625 83.4305267333984 95.4390106201172 114.185813903809 136.28515625 149.894302368164 155.906127929688 175.521438598633 202.875122070312 210.266204833984 196.480697631836 158.64714050293 132.984344482422 125.898933410645 132.173843383789
-9999 -9999 -9999 -9999 276.271057128906 268.459899902344 281.986480712891 294.873260498047 305.400299072266 311.179046630859 344.642700195312 434.488342285156 432.763122558594 381.371002197266 348.017761230469 329.850158691406 311.31640625 293.417327880859 290.431457519531 290.370880126953 284.757659912109 262.570861816406 245.756484985352 234.50715637207 227.328659057617 225.447296142578 226.123199462891 230.49153137207 235.236679077148 236.521881103516 238.32878112793 242.847991943359 247.601272583008 251.201461791992 252.791625976562 253.401840209961 252.106643676758 248.069427490234 242.5693359375 230.6904296875 211.751251220703 160.737701416016 111.479454040527 97.3617095947266 96.8706817626953 113.27059173584 146.844451904297 173.658264160156 185.688949584961 193.593841552734 203.078323364258 218.161071777344 207.483978271484 144.76708984375 88.7750854492188 75.9145202636719 85.8445205688477 102.239105224609 122.236320495605 140.452590942383 155.874176025391 171.533172607422 188.535888671875 201.448501586914 204.043060302734 191.04133605957 157.155227661133 134.910095214844 125.432823181152 124.913681030273
-9999 -9999 -9999 259.673320770264 259.735504150391 265.490295410156 315.09765625 344.519165039062 375.680145263672 395.194122314453 424.879211425781 415.285705566406 380.220397949219 337.687072753906 320.499084472656 310.632385253906 293.732696533203 286.676605224609 284.611297607422 280.691162109375 267.202362060547 253.379699707031 244.25358581543 241.331146240234 237.465698242188 230.531524658203 226.290435791016 228.359313964844 225.385314941406 222.158172607422 223.421371459961 228.473327636719 236.125045776367 244.347183227539 250.071685791016 253.342315673828 252.771881103516 247.623474121094 240.456817626953 229.762451171875 213.873123168945 167.589538574219 113.265968322754 96.5850067138672 90.5674514770508 87.7955703735352 101.480560302734 123.478485107422 144.815155029297 173.287445068359 201.026626586914 204.397613525391 151.30500793457 87.3963623046875 67.872932434082 73.3637619018555 84.4988632202148 97.6595687866211 111.745414733887 125.0029296875 140.804336547852 158.582138061523 175.135452270508 186.951553344727 192.475402832031 189.876693725586 174.845062255859 160.157119750977 150.690673828125 147.382843017578
-9999 -9999 -9999 256.421417236328 246.26530456543 308.657073974609 376.656066894531 458.322723388672 467.166442871094 447.235626220703 418.636535644531 382.287170410156 346.8466796875 325.879699707031 311.599853515625 300.825103759766 292.111236572266 282.745239257812 275.172424316406 267.528930664062 259.595153808594 250.67057800293 246.932952880859 246.76008605957 244.487060546875 238.141372680664 225.899765014648 208.465362548828 187.85693359375 175.460693359375 173.309997558594 176.669128417969 188.597854614258 207.287948608398 225.507171630859 236.743286132812 241.255569458008 240.306945800781 234.447769165039 227.466293334961 213.4033203125 168.360336303711 112.472366333008 93.6523590087891 89.159782409668 76.3063888549805 74.8022384643555 89.3762359619141 110.71484375 147.676467895508 185.442886352539 159.557571411133 92.6437606811523 62.771842956543 61.8352890014648 66.0640335083008 73.778205871582 84.1377029418945 94.108268737793 105.109390258789 117.376350402832 130.582244873047 142.134475708008 151.751281738281 159.221298217773 164.687606811523 166.177734375 164.111694335938 159.14453125 152.763031005859
