NCOLS 70 
NROWS 52 
XLLCORNER -80 
YLLCORNER 33 
CELLSIZE 0.25 
NODATA_value -9999 
-9999.000000000000000 -9999 -9999 -9999 -9999 -9999 -9999 -9999 -9999 -9999 -9999 -9999 -9999 -9999 -9999 -9999 -9999 -9999 -9999 -9999 -9999 -9999 -9999 -9999 -9999 -9999 -9999 -9999 -9999 -9999 -9999 -9999 -9999 -9999 -9999 -9999 -9999 -9999 -9999 -9999 -9999 -9999 -9999 -9999 -9999 -9999 -9999 -9999 -9999 -9999 -9999 -9999 -9999 -9999 -9999 -9999 -9999 -9999 -9999 -9999 -9999 -9999 -9999 -9999 -9999 -9999 -9999 -9999 -9999 -9999
-9999 -9999 -9999 -9999 -9999 -9999 -9999 -9999 -9999 -9999 -9999 -9999 -9999 -9999 -9999 -9999 -9999 -9999 -9999 -9999 -9999 -9999 -9999 -9999 -9999 -9999 -9999 -9999 -9999 -9999 -9999 -9999 -9999 -9999 -9999 -9999 -9999 -9999 -9999 -9999 -9999 -9999 -9999 -9999 -9999 -9999 -9999 -9999 -9999 -9999 -9999 -9999 -9999 -9999 -9999 -9999 -9999 -9999 -9999 -9999 -9999 -9999 -9999 -9999 -9999 -9999 -9999 -9999 -9999 -9999
-9999 -9999 -9999 -9999 -9999 -9999 -9999 -9999 -9999 -9999 -9999 -9999 -9999 -9999 -9999 -9999 -9999 -9999 -9999 -9999 -9999 -9999 -9999 -9999 -9999 -9999 -9999 -9999 -9999 -9999 -9999 -9999 -9999 -9999 -9999 -9999 -9999 -9999 -9999 -9999 -9999 -9999 -9999 -9999 -9999 -9999 -9999 -9999 -9999 -9999 -9999 -9999 -9999 -9999 -9999 -9999 -9999 -9999 -9999 219.326034545898 -9999 -9999 -9999 -9999 -9999 -9999 -9999 -9999 -9999 -9999
-9999 -9999 -9999 -9999 -9999 -9999 -9999 -9999 -9999 -9999 -9999 -9999 -9999 -9999 -9999 -9999 -9999 -9999 -9999 -9999 -9999 -9999 -9999 -9999 -9999 -9999 -9999 -9999 -9999 -9999 -9999 -9999 -9999 -9999 -9999 -9999 -9999 -9999 -9999 -9999 -9999 -9999 -9999 -9999 -9999 -9999 -9999 -9999 -9999 -9999 -9999 -9999 -9999 -9999 -9999 214.362808227539 187.334732055664 182.870025634766 196.139358520508 236.892471313477 -9999 -9999 -9999 -9999 -9999 -9999 -9999 -9999 -9999 -9999
-9999 -9999 -9999 -9999 -9999 -9999 -9999 -9999 -9999 -9999 -9999 -9999 -9999 -9999 -9999 -9999 -9999 -9999 -9999 -9999 -9999 -9999 -9999 -9999 -9999 -9999 -9999 -9999 -9999 -9999 -9999 -9999 -9999 -9999 -9999 -9999 -9999 -9999 -9999 -9999 -9999 -9999 -9999 -9999 -9999 -9999 -9999 -9999 -9999 -9999 -9999 -9999 354.067993164062 336.8642578125 280.500610351562 220.860717773438 191.265289306641 199.988952636719 -9999 -9999 -9999 -9999 -9999 -9999 -9999 -9999 -9999 -9999 -9999 -9999
-9999 -9999 -9999 -9999 -9999 -9999 -9999 -9999 -9999 -9999 -9999 -9999 -9999 -9999 -9999 -9999 -9999 -9999 -9999 -9999 -9999 -9999 -9999 -9999 -9999 -9999 -9999 -9999 -9999 -9999 -9999 -9999 -9999 -9999 -9999 -9999 -9999 -9999 -9999 -9999 -9999 -9999 -9999 -9999 -9999 -9999 -9999 -9999 -9999 -9999 164.173916625977 205.921752929688 178.096221923828 192.216873168945 229.167770385742 242.822616577148 -9999 -9999 -9999 -9999 -9999 -9999 -9999 -9999 -9999 -9999 -9999 78.6209360758464 78.0694437026978 100.660545349121
-9999 -9999 -9999 -9999 -9999 -9999 -9999 -9999 -9999 -9999 -9999 -9999 -9999 -9999 -9999 -9999 -9999 -9999 -9999 -9999 -9999 -9999 -9999 -9999 -9999 -9999 -9999 -9999 -9999 -9999 -9999 -9999 -9999 -9999 -9999 -9999 -9999 -9999 -9999 -9999 -9999 -9999 -9999 -9999 338.662129720052 -9999 -9999 179.776266098022 119.983680725098 125.324569702148 116.279602050781 105.549285888672 105.345718383789 154.090057373047 216.005294799805 -9999 -9999 -9999 -9999 -9999 -9999 -9999 -9999 141.770904541016 122.495292663574 103.373817443848 87.6271133422852 78.3136291503906 69.9220657348633 63.381534576416
-9999 -9999 -9999 -9999 -9999 -9999 -9999 -9999 -9999 -9999 -9999 -9999 -9999 -9999 -9999 -9999 -9999 -9999 -9999 -9999 -9999 -9999 -9999 -9999 -9999 -9999 -9999 -9999 -9999 -9999 -9999 -9999 -9999 -9999 -9999 -9999 -9999 -9999 -9999 -9999 -9999 -9999 -9999 -9999 345.314147949219 343.527648925781 274.612762451172 190.406280517578 134.102340698242 99.1032180786133 82.4262008666992 79.8460388183594 101.12899017334 156.954605102539 172.815162658691 -9999 -9999 -9999 -9999 -9999 -9999 -9999 120.651351928711 101.079780578613 86.4460830688477 76.2043762207031 67.6168365478516 63.3285751342773 61.7883453369141 60.2896766662598
-9999 -9999 -9999 -9999 -9999 -9999 -9999 -9999 -9999 -9999 -9999 -9999 -9999 -9999 -9999 -9999 -9999 -9999 -9999 -9999 -9999 -9999 -9999 -9999 -9999 -9999 -9999 -9999 -9999 -9999 -9999 -9999 -9999 -9999 -9999 -9999 -9999 -9999 -9999 -9999 267.897084554036 262.31825764974 267.556314086914 299.971893310547 246.110961914062 180.292724609375 141.320907592773 114.339653015137 90.579833984375 73.5363311767578 69.0808334350586 75.1398849487305 104.309532165527 164.210693359375 180.225204467773 -9999 -9999 -9999 -9999 -9999 126.246378580729 129.325653076172 103.250823974609 80.5092926025391 71.8706512451172 68.1754760742188 65.7293701171875 64.7676620483398 65.0341262817383 64.5161361694336
-9999 -9999 -9999 -9999 -9999 -9999 -9999 -9999 -9999 -9999 -9999 -9999 -9999 -9999 -9999 -9999 -9999 -9999 -9999 -9999 -9999 -9999 -9999 -9999 -9999 -9999 -9999 -9999 -9999 -9999 -9999 -9999 -9999 -9999 -9999 -9999 -9999 -9999 -9999 257.132507324219 272.051635742188 274.507110595703 240.396026611328 195.761947631836 163.985549926758 145.241775512695 128.71305847168 108.411148071289 86.5992965698242 70.9017562866211 70.118034362793 80.0691680908203 101.798736572266 160.083587646484 232.48486328125 187.392272949219 -9999 -9999 -9999 144.148920059204 144.311279296875 105.102203369141 82.215087890625 74.0105209350586 70.8929901123047 66.88134765625 62.3077125549316 61.2489204406738 63.8389015197754 65.5529937744141
-9999 -9999 -9999 -9999 -9999 -9999 -9999 -9999 -9999 -9999 -9999 -9999 -9999 -9999 -9999 -9999 -9999 -9999 -9999 -9999 -9999 -9999 -9999 -9999 -9999 -9999 -9999 -9999 -9999 -9999 -9999 -9999 -9999 -9999 -9999 -9999 -9999 -9999 182.04059753418 177.613265991211 153.419692993164 119.192497253418 105.291748046875 101.662483215332 103.676254272461 111.20573425293 116.344284057617 105.437599182129 84.5031051635742 70.2402801513672 68.5231170654297 78.1211395263672 95.0004653930664 128.543502807617 173.798538208008 180.565414428711 139.362060546875 141.11483891805 186.632736206055 141.891067504883 103.760597229004 82.8477096557617 75.3459396362305 73.8357620239258 72.1798934936523 66.6712646484375 60.8808174133301 61.0204467773438 64.2652206420898 67.7216186523438
-9999 -9999 -9999 -9999 -9999 -9999 -9999 -9999 -9999 -9999 -9999 -9999 -9999 -9999 -9999 -9999 -9999 -9999 -9999 -9999 -9999 -9999 -9999 -9999 -9999 -9999 -9999 -9999 -9999 -9999 -9999 -9999 -9999 -9999 -9999 -9999 -9999 185.670791625977 165.774871826172 124.01155090332 91.2593307495117 78.9874801635742 76.3985824584961 77.1755447387695 82.970085144043 95.5330657958984 105.317970275879 95.5608673095703 79.1179885864258 72.0714950561523 72.3958129882812 76.8218994140625 87.5448608398438 100.984069824219 112.955986022949 120.871551513672 126.950180053711 125.605369567871 114.20849609375 102.342147827148 88.5556335449219 77.1643676757812 72.2417602539062 71.0798034667969 70.0659103393555 65.8301086425781 63.2391624450684 65.3105392456055 67.0056915283203 68.939079284668
-9999 -9999 -9999 -9999 -9999 -9999 -9999 -9999 -9999 -9999 -9999 -9999 -9999 -9999 -9999 -9999 -9999 -9999 -9999 -9999 -9999 -9999 -9999 -9999 -9999 -9999 -9999 -9999 -9999 -9999 -9999 -9999 -9999 -9999 -9999 -9999 -9999 221.636093139648 177.843200683594 110.754516601562 81.577995300293 79.2763366699219 81.4897842407227 83.0365447998047 87.9733352661133 95.3821411132812 94.6363906860352 81.6376113891602 74.8999557495117 76.961311340332 80.1632461547852 82.905632019043 86.6000289916992 89.172721862793 88.8554458618164 88.0590057373047 86.570930480957 82.8000259399414 82.5461883544922 84.9721832275391 82.1300964355469 77.3674545288086 74.531982421875 72.9183502197266 71.0034027099609 69.0385665893555 69.4365158081055 70.6930618286133 70.786376953125 70.0331726074219
-9999 -9999 -9999 -9999 -9999 -9999 -9999 -9999 -9999 -9999 -9999 -9999 -9999 -9999 -9999 -9999 -9999 -9999 -9999 -9999 -9999 -9999 -9999 -9999 -9999 -9999 -9999 -9999 -9999 -9999 -9999 -9999 -9999 -9999 -9999 -9999 -9999 203.824066162109 142.851486206055 92.9064407348633 77.5704879760742 77.7168655395508 83.4610900878906 87.7001876831055 89.6784439086914 89.2304458618164 81.877311706543 75.6849670410156 76.6350173950195 79.9025955200195 81.3656921386719 81.9482727050781 80.57080078125 78.0364151000977 76.0729446411133 74.0744247436523 71.3505783081055 70.4790725708008 75.3695907592773 81.8545074462891 80.9158554077148 77.6339263916016 79.1402053833008 81.3496551513672 80.8534622192383 79.1410369873047 77.213134765625 76.5232849121094 76.4131011962891 76.1364364624023
-9999 -9999 -9999 -9999 -9999 -9999 -9999 -9999 -9999 -9999 -9999 -9999 -9999 -9999 -9999 -9999 -9999 -9999 -9999 -9999 -9999 -9999 -9999 -9999 -9999 -9999 -9999 -9999 -9999 -9999 -9999 -9999 -9999 -9999 -9999 -9999 289.858825683594 210.046646118164 119.050231933594 81.1565093994141 75.9240951538086 73.1437530517578 74.2773818969727 78.0879592895508 80.8252258300781 79.1546173095703 75.4979629516602 75.6085433959961 77.0956344604492 79.0649032592773 79.5798263549805 77.4731369018555 74.138298034668 71.5328598022461 72.4432601928711 74.5530319213867 75.7986450195312 78.999382019043 82.5642318725586 85.4882202148438 83.7111129760742 84.6641311645508 91.8032836914062 97.0970077514648 99.0770111083984 98.6296005249023 96.6978149414062 94.4597320556641 93.1124877929688 91.748908996582
-9999 -9999 -9999 -9999 -9999 -9999 -9999 -9999 -9999 -9999 -9999 -9999 -9999 -9999 -9999 -9999 -9999 -9999 -9999 -9999 -9999 -9999 -9999 -9999 -9999 -9999 -9999 -9999 -9999 -9999 -9999 -9999 -9999 -9999 -9999 -9999 -9999 154.636611938477 112.224884033203 78.7844467163086 82.2372589111328 78.7006683349609 73.4934539794922 71.9473724365234 72.9669494628906 74.305061340332 75.3751449584961 77.9452972412109 79.7881011962891 82.702033996582 83.5502395629883 81.7307205200195 79.352165222168 77.8786773681641 77.1445159912109 75.9741287231445 75.7329864501953 79.5144195556641 85.5839385986328 89.860954284668 94.9776229858398 100.018325805664 103.17707824707 106.237701416016 107.470336914062 107.573204040527 107.304588317871 106.470542907715 105.38451385498 103.75806427002
-9999 -9999 -9999 -9999 -9999 -9999 -9999 -9999 -9999 -9999 -9999 -9999 -9999 -9999 -9999 -9999 -9999 -9999 -9999 -9999 -9999 -9999 -9999 -9999 -9999 -9999 -9999 -9999 -9999 -9999 -9999 -9999 -9999 -9999 -9999 -9999 -9999 -9999 74.6709365844727 -9999 94.541130065918 89.558967590332 78.0434722900391 74.8808135986328 74.8895111083984 76.8941192626953 81.411506652832 87.1288986206055 91.4668960571289 92.7041397094727 89.6139678955078 85.3969955444336 82.8361129760742 85.1487350463867 84.0201721191406 80.0537872314453 77.3275299072266 86.4623489379883 98.3651657104492 102.347175598145 101.616477966309 100.64372253418 101.002258300781 104.313110351562 106.163841247559 106.53337097168 107.291603088379 108.03150177002 108.169052124023 107.231018066406
-9999 -9999 -9999 -9999 -9999 -9999 -9999 -9999 -9999 -9999 -9999 -9999 -9999 -9999 -9999 -9999 -9999 -9999 -9999 -9999 -9999 -9999 -9999 -9999 -9999 -9999 -9999 -9999 -9999 -9999 -9999 -9999 -9999 -9999 -9999 -9999 -9999 -9999 -9999 -9999 133.131713867188 111.044448852539 88.5579528808594 77.7233123779297 76.406852722168 80.499267578125 89.6837921142578 98.4601440429688 100.64599609375 96.7812957763672 89.7169723510742 85.8190078735352 86.9996490478516 92.5938110351562 89.3144302368164 84.6110305786133 81.0038299560547 96.0769882202148 103.711791992188 100.28946685791 96.0679168701172 96.3308410644531 97.671012878418 98.0748519897461 98.5556869506836 98.9541397094727 99.7051239013672 101.451889038086 103.350028991699 103.68724822998
-9999 -9999 -9999 -9999 -9999 -9999 -9999 -9999 -9999 -9999 -9999 -9999 -9999 -9999 -9999 -9999 -9999 -9999 -9999 -9999 -9999 -9999 -9999 -9999 -9999 -9999 -9999 -9999 -9999 -9999 -9999 -9999 -9999 -9999 188.95059967041 223.920303344727 212.224578857422 -9999 166.71452331543 150.822311401367 142.012573242188 133.165100097656 107.442558288574 84.4846343994141 79.0558166503906 84.6583786010742 94.368278503418 100.167831420898 97.5754470825195 94.0378341674805 90.4557113647461 86.4625473022461 91.5126800537109 95.7644195556641 96.5149993896484 89.9866333007812 90.6892776489258 105.529640197754 104.160606384277 97.3759002685547 96.4851608276367 96.9573974609375 97.1527633666992 98.0049362182617 98.4783248901367 98.0279083251953 96.6191558837891 96.3459167480469 97.6595611572266 97.3114929199219
-9999 -9999 -9999 -9999 -9999 -9999 -9999 -9999 -9999 -9999 -9999 -9999 -9999 -9999 -9999 -9999 -9999 -9999 -9999 -9999 -9999 -9999 -9999 -9999 -9999 -9999 -9999 688.856750488281 688.856750488281 559.599731445312 428.40625 316.524291992188 242.972671508789 203.536376953125 178.298309326172 150.047409057617 121.773063659668 115.167663574219 118.931480407715 114.774253845215 122.838249206543 136.722961425781 118.686943054199 92.2205429077148 85.3407897949219 90.5413131713867 96.7454528808594 97.2288360595703 91.8175277709961 85.3450317382812 83.9214401245117 84.1350860595703 87.4190368652344 89.3628311157227 94.7708206176758 90.5555267333984 97.9015426635742 106.149726867676 101.516288757324 98.7676620483398 98.6358108520508 96.5432968139648 97.2764053344727 100.141464233398 102.460800170898 103.37557220459 103.182563781738 102.561790466309 101.30126953125 97.1417007446289
-9999 -9999 -9999 -9999 -9999 -9999 -9999 -9999 -9999 -9999 -9999 -9999 -9999 -9999 -9999 -9999 -9999 -9999 -9999 -9999 -9999 -9999 -9999 -9999 -9999 -9999 -9999 -9999 -9999 -9999 278.988494873047 221.286560058594 166.242416381836 126.290756225586 109.643867492676 102.151260375977 101.258560180664 108.388328552246 109.3388671875 104.204216003418 116.891311645508 121.804290771484 107.757820129395 92.9186325073242 89.6594696044922 92.807991027832 93.4843063354492 91.2603912353516 86.0751037597656 84.0886001586914 84.0521926879883 84.4444885253906 86.5962295532227 87.7528076171875 87.4559326171875 93.9315643310547 101.235382080078 101.557678222656 99.5059127807617 99.3802261352539 96.5340805053711 95.314453125 100.057426452637 105.95637512207 109.439575195312 110.104644775391 108.759986877441 107.024719238281 105.647636413574 104.449317932129
-9999 -9999 -9999 -9999 -9999 -9999 -9999 -9999 -9999 -9999 -9999 -9999 -9999 -9999 -9999 -9999 -9999 -9999 -9999 -9999 -9999 -9999 -9999 -9999 -9999 424.419199625651 339.618723551432 267.961201985677 216.955146789551 222.45361328125 184.701950073242 158.59733581543 136.025375366211 119.637420654297 109.776138305664 104.617561340332 99.1841354370117 97.3648452758789 99.6939697265625 107.428558349609 111.265647888184 102.446449279785 96.3737564086914 97.6876983642578 99.4457321166992 98.9453659057617 96.6831741333008 93.1556625366211 90.1223678588867 89.524543762207 90.2177963256836 90.4703063964844 92.156623840332 91.1576995849609 86.7707824707031 92.7616653442383 99.2671890258789 100.551414489746 101.245445251465 99.5649337768555 94.264518737793 98.3199996948242 107.14330291748 113.620170593262 115.943550109863 114.597946166992 112.02710723877 110.428245544434 109.731903076172 109.647621154785
-9999 -9999 -9999 -9999 -9999 -9999 -9999 -9999 -9999 -9999 -9999 -9999 -9999 -9999 -9999 -9999 -9999 -9999 -9999 -9999 -9999 -9999 -9999 -9999 515.4072265625 428.880615234375 328.969757080078 261.005798339844 213.908050537109 170.453125 144.003707885742 129.862594604492 127.631469726562 130.463745117188 130.311447143555 126.792373657227 119.713806152344 109.240440368652 100.805068969727 99.0933303833008 98.7293930053711 93.9651412963867 93.7978057861328 99.3529739379883 102.455711364746 103.558494567871 104.665023803711 104.833992004395 103.649040222168 101.84285736084 98.9993209838867 96.0842590332031 94.8301315307617 90.8137588500977 87.5956878662109 89.4530563354492 93.8263702392578 99.6000366210938 104.586631774902 100.81290435791 97.6077651977539 103.834762573242 112.615631103516 117.099945068359 116.271606445312 112.188827514648 108.052703857422 105.316680908203 105.288734436035 106.642181396484
-9999 -9999 -9999 -9999 -9999 -9999 -9999 -9999 -9999 -9999 -9999 -9999 -9999 -9999 -9999 -9999 -9999 -9999 -9999 -9999 -9999 -9999 -9999 -9999 300.406585693359 209.577346801758 162.505340576172 148.641342163086 139.685440063477 136.974624633789 141.777603149414 147.632949829102 153.420532226562 155.358444213867 152.787200927734 150.041809082031 146.397048950195 137.771194458008 126.310531616211 119.020263671875 118.167594909668 118.627708435059 119.438140869141 120.955711364746 123.391456604004 126.892333984375 130.07341003418 133.32487487793 134.016326904297 130.633148193359 125.74178314209 118.813606262207 110.790557861328 102.295166015625 97.4810485839844 96.8353652954102 96.7515563964844 101.99715423584 105.983184814453 101.541572570801 100.713264465332 107.489288330078 114.313117980957 116.143699645996 112.764625549316 106.5166015625 101.262092590332 98.0611419677734 97.0464096069336 98.1170349121094
-9999 -9999 -9999 -9999 -9999 -9999 -9999 -9999 -9999 -9999 -9999 -9999 -9999 -9999 -9999 -9999 -9999 -9999 -9999 -9999 -9999 -9999 -9999 226.797077178955 222.315292358398 155.8154296875 147.504913330078 141.188079833984 151.28369140625 162.98649597168 167.393005371094 167.139709472656 165.802017211914 161.269897460938 154.341918945312 151.328567504883 152.517013549805 148.780319213867 139.799942016602 136.629287719727 141.290542602539 147.649688720703 153.141464233398 154.146560668945 152.238662719727 150.244445800781 147.754501342773 146.90739440918 146.018737792969 142.688751220703 141.615127563477 139.798477172852 135.527954101562 126.514503479004 115.780433654785 110.56266784668 110.379051208496 112.111572265625 109.117500305176 105.247756958008 105.451148986816 110.220062255859 114.074165344238 113.54997253418 108.527557373047 100.645278930664 94.7086181640625 92.5178909301758 92.6038055419922 94.0074615478516
-9999 -9999 -9999 -9999 -9999 -9999 -9999 -9999 -9999 -9999 -9999 -9999 -9999 -9999 -9999 -9999 -9999 -9999 -9999 -9999 -9999 -9999 -9999 206.030548095703 178.435882568359 135.911148071289 139.876480102539 153.916946411133 171.027725219727 172.448638916016 163.639907836914 155.642272949219 151.284164428711 147.763809204102 142.642517089844 139.361145019531 143.053436279297 144.134689331055 138.538146972656 137.607788085938 141.240386962891 145.633361816406 149.137542724609 147.321273803711 140.184539794922 131.539657592773 124.159446716309 118.69979095459 115.722869873047 115.307167053223 119.923561096191 126.999145507812 132.51904296875 135.586135864258 131.131088256836 122.507446289062 119.004898071289 118.689819335938 113.754608154297 110.494445800781 108.528129577637 109.594772338867 111.599540710449 110.829902648926 105.104103088379 96.3095703125 90.9240570068359 91.3013381958008 93.1017227172852 95.5390930175781
-9999 -9999 -9999 -9999 -9999 -9999 -9999 -9999 -9999 -9999 -9999 -9999 -9999 -9999 -9999 -9999 -9999 -9999 -9999 -9999 -9999 -9999 305.930023193359 216.456283569336 171.890182495117 158.080718994141 144.981063842773 156.609039306641 164.845184326172 162.426528930664 160.014663696289 159.160339355469 156.218872070312 150.134414672852 142.280532836914 137.074356079102 138.279083251953 138.624633789062 135.471954345703 135.59326171875 138.563781738281 142.389022827148 143.677856445312 137.295013427734 123.998344421387 110.745330810547 102.040603637695 97.4139938354492 95.3374710083008 95.3130798339844 97.61962890625 103.263732910156 111.416786193848 122.311363220215 130.475723266602 128.609802246094 124.385871887207 122.894943237305 118.14143371582 113.133560180664 108.137283325195 107.334732055664 109.759788513184 109.057228088379 102.589302062988 93.4157180786133 89.2890090942383 93.567741394043 95.7597274780273 99.3204116821289
-9999 -9999 -9999 -9999 -9999 -9999 -9999 -9999 -9999 -9999 -9999 -9999 -9999 -9999 695.646353827583 -9999 -9999 -9999 -9999 522.189270019531 -9999 267.099700927734 257.901733398438 204.256454467773 196.211624145508 179.767272949219 160.934066772461 161.046340942383 167.561767578125 173.166351318359 175.573837280273 173.549453735352 166.358367919922 155.471328735352 145.087051391602 141.004409790039 139.137893676758 133.520309448242 130.18766784668 131.761688232422 135.998657226562 141.089614868164 141.476593017578 130.579940795898 112.14274597168 98.1795349121094 92.3840942382812 90.5969009399414 89.7879028320312 89.501106262207 89.6464920043945 91.6220932006836 96.7776718139648 105.127494812012 117.435340881348 124.979034423828 125.943183898926 125.74040222168 121.341384887695 114.23413848877 106.421180725098 105.048080444336 108.414764404297 107.304130554199 100.619644165039 91.7829818725586 87.938362121582 96.369010925293 99.9382400512695 105.798263549805
-9999 -9999 -9999 -9999 -9999 -9999 -9999 -9999 -9999 -9999 -9999 -9999 -9999 -9999 692.049880981445 -9999 -9999 -9999 -9999 452.287841796875 331.460809326172 255.109512329102 205.177276611328 193.107833862305 183.36408996582 169.489227294922 165.818984985352 174.816955566406 185.028930664062 190.776626586914 191.282913208008 186.196838378906 175.424102783203 160.889907836914 147.589721679688 140.688812255859 136.058563232422 128.580749511719 125.685035705566 129.353302001953 134.221145629883 139.638259887695 139.670288085938 125.659645080566 104.59398651123 92.3925018310547 89.9465713500977 89.9616165161133 90.520378112793 90.7953186035156 89.7018585205078 88.6340255737305 89.4972076416016 94.0052871704102 103.739051818848 115.949729919434 123.85245513916 126.398048400879 122.478813171387 113.088989257812 103.736335754395 103.35684967041 107.568519592285 106.223266601562 100.152908325195 91.6768646240234 86.3695831298828 94.5321350097656 100.768592834473 106.794563293457
-9999 -9999 -9999 -9999 -9999 -9999 -9999 -9999 -9999 -9999 -9999 -9999 -9999 -9999 708.234008789062 -9999 -9999 -9999 -9999 -9999 212.848278045654 230.519149780273 207.115234375 193.549468994141 188.817047119141 192.068740844727 198.765670776367 206.765365600586 210.161758422852 208.829666137695 203.498870849609 195.465469360352 185.065383911133 171.540313720703 156.93391418457 145.296783447266 136.292633056641 127.287124633789 123.903877258301 128.33479309082 133.559326171875 138.230911254883 137.645309448242 122.522888183594 99.9827651977539 88.9230422973633 88.6149749755859 90.1053085327148 93.4878997802734 95.9580230712891 94.0856399536133 90.2291107177734 87.8811264038086 89.0421600341797 95.6173400878906 107.491302490234 118.492713928223 124.679008483887 122.253890991211 110.633193969727 100.826370239258 102.143424987793 106.840347290039 106.08512878418 101.006645202637 92.853759765625 86.1088333129883 88.5362854003906 97.6207733154297 104.814949035645
-9999 -9999 -9999 -9999 -9999 -9999 -9999 -9999 -9999 -9999 -9999 -9999 -9999 -9999 660.387359619141 -9999 643.497497558594 -9999 -9999 -9999 157.916030883789 207.848419189453 200.096176147461 199.254409790039 220.483932495117 233.412673950195 237.377975463867 233.936676025391 224.92805480957 213.326263427734 202.582077026367 194.253616333008 187.645202636719 179.737945556641 168.071990966797 155.357376098633 144.97021484375 137.182113647461 134.103652954102 134.862777709961 135.521148681641 137.031494140625 135.675582885742 121.119293212891 98.0953674316406 87.1172561645508 87.9040756225586 91.0880661010742 97.0273818969727 101.104011535645 99.2454986572266 93.2802658081055 88.1503829956055 86.9220352172852 91.1860580444336 100.517547607422 111.758941650391 121.465637207031 121.30835723877 108.133728027344 97.4598083496094 100.040748596191 105.348258972168 106.230133056641 102.217674255371 94.5369262695312 87.2013397216797 84.6146545410156 96.8543930053711 110.083625793457
-9999 -9999 -9999 -9999 -9999 -9999 -9999 -9999 -9999 -9999 -9999 -9999 -9999 -9999 660.387359619141 612.540710449219 491.759552001953 -9999 -9999 180.443031311035 179.289764404297 224.048355102539 205.581085205078 230.228469848633 256.359954833984 258.317596435547 243.425247192383 220.326354980469 196.904830932617 177.661361694336 165.774032592773 161.242828369141 162.096252441406 165.376617431641 166.03157043457 161.38720703125 154.093200683594 148.044677734375 145.034378051758 141.401550292969 136.883438110352 135.689178466797 134.026031494141 120.310531616211 96.8425140380859 85.569580078125 87.2814407348633 91.4330673217773 97.9080123901367 101.932662963867 99.9221801757812 93.7274780273438 87.7751846313477 85.6651077270508 88.6290130615234 96.3503952026367 107.010688781738 118.271781921387 120.279312133789 106.98876953125 94.9505844116211 97.0113754272461 102.7578125 105.686416625977 103.049339294434 96.0278854370117 88.5131759643555 84.1401977539062 89.0124740600586 101.853332519531
-9999 -9999 -9999 -9999 -9999 -9999 -9999 -9999 -9999 -9999 -9999 -9999 -9999 -9999 -9999 427.76123046875 388.830963134766 -9999 235.970695495605 178.363021850586 206.203308105469 230.218811035156 247.794708251953 286.105194091797 284.622467041016 242.921493530273 202.440063476562 164.561447143555 135.903091430664 119.19017791748 111.47745513916 110.457107543945 115.249351501465 125.793281555176 139.54443359375 150.030364990234 153.05598449707 150.593872070312 146.533279418945 141.520050048828 136.891464233398 135.082290649414 132.866012573242 119.388557434082 95.3456497192383 83.9525604248047 86.128059387207 90.0096130371094 95.910758972168 99.3313217163086 96.6623687744141 91.3544006347656 86.5247497558594 84.8685302734375 87.5133438110352 94.5236434936523 103.941879272461 114.990394592285 119.047546386719 107.362022399902 94.9407424926758 94.9259643554688 100.446006774902 104.985908508301 103.891830444336 97.259033203125 89.5868148803711 84.8596649169922 82.9404296875 91.6716537475586
-9999 -9999 -9999 -9999 -9999 -9999 -9999 -9999 -9999 -9999 -9999 -9999 -9999 -9999 -9999 331.387634277344 314.287292480469 -9999 165.484741210938 182.575881958008 206.085266113281 248.790451049805 306.833221435547 318.739532470703 262.220672607422 197.55322265625 148.367797851562 112.719757080078 94.5876846313477 87.3557052612305 84.7273406982422 84.2102279663086 86.0681610107422 92.5772018432617 105.849700927734 123.274681091309 137.46076965332 143.344375610352 142.729141235352 139.70295715332 136.465454101562 134.146408081055 131.064422607422 117.127738952637 92.2882690429688 81.8513107299805 84.3611221313477 86.754508972168 90.8382415771484 93.3916397094727 91.3004760742188 87.7938385009766 84.9955978393555 84.3751983642578 86.9730682373047 93.2692489624023 101.003921508789 110.800369262695 117.594108581543 110.497932434082 100.527641296387 98.5557174682617 102.639503479004 106.16136932373 104.299575805664 97.7571182250977 89.8794860839844 85.0775299072266 82.6988296508789 88.4634475708008
-9999 -9999 -9999 -9999 -9999 -9999 -9999 -9999 -9999 -9999 -9999 -9999 -9999 -9999 -9999 287.339935302734 -9999 216.169163295201 192.624710083008 187.426788330078 228.707702636719 298.233032226562 343.804046630859 301.196075439453 212.412841796875 151.388153076172 109.118064880371 89.0665817260742 82.9168701171875 81.2826995849609 80.4998397827148 80.0389022827148 79.83203125 80.7609939575195 85.088020324707 95.3318557739258 110.035087585449 123.481117248535 131.282104492188 133.7314453125 132.840560913086 130.452102661133 126.800811767578 112.198257446289 86.8984985351562 78.8580627441406 82.3293304443359 83.5514755249023 85.3136367797852 86.5891723632812 85.927734375 84.6762542724609 83.9178161621094 84.02734375 86.5121307373047 92.0908432006836 98.0774459838867 106.046035766602 115.316604614258 113.956954956055 108.937278747559 106.580528259277 107.695213317871 107.490814208984 103.591163635254 96.2339019775391 88.7604675292969 84.5316772460938 82.6866607666016 85.3212890625
-9999 -9999 -9999 -9999 -9999 -9999 -9999 -9999 -9999 -9999 -9999 -9999 -9999 -9999 287.339935302734 243.649078369141 196.887969970703 190.85090637207 206.329193115234 210.781066894531 269.261383056641 341.369720458984 341.136413574219 246.7587890625 162.1611328125 112.484474182129 88.5361557006836 82.7140579223633 81.0039672851562 80.4677963256836 79.9914703369141 79.7731781005859 79.575927734375 79.2558517456055 78.9777374267578 80.9244079589844 88.2010498046875 100.751052856445 113.449615478516 121.879180908203 124.941612243652 124.176788330078 121.021911621094 105.846855163574 81.1851654052734 75.8777618408203 80.6385803222656 82.3169708251953 83.5904388427734 84.3133773803711 84.2216415405273 83.9470520019531 83.7124252319336 83.6599502563477 85.8016662597656 90.6795654296875 95.2371673583984 100.623046875 108.981857299805 111.652404785156 110.034088134766 108.679229736328 107.923484802246 104.95238494873 99.1923828125 91.9355697631836 86.4834899902344 83.823112487793 82.1504211425781 82.1151504516602
-9999 -9999 -9999 -9999 -9999 -9999 -9999 -9999 -9999 -9999 -9999 -9999 -9999 -9999 -9999 -9999 198.447162628174 199.439483642578 181.038955688477 208.932266235352 286.494018554688 347.016387939453 300.515075683594 198.373931884766 131.501098632812 92.7379531860352 83.1212158203125 81.3396759033203 80.2397842407227 80.1852340698242 80.5183792114258 80.2399444580078 79.3225936889648 78.8807373046875 78.3183975219727 77.6766891479492 79.4099884033203 86.3595199584961 97.7198638916016 108.884559631348 115.285507202148 116.730377197266 114.40909576416 97.822509765625 75.6289749145508 72.8020858764648 77.9583206176758 80.4163970947266 82.0164184570312 82.9309234619141 83.2509536743164 83.1710891723633 82.7968673706055 82.8169860839844 84.6694793701172 88.5106887817383 91.7690277099609 94.6818542480469 98.9393768310547 102.179428100586 102.812881469727 102.232872009277 99.751091003418 95.6393508911133 90.6001586914062 86.3495941162109 84.742790222168 83.6434097290039 81.4567489624023 79.8703918457031
-9999 -9999 -9999 -9999 -9999 -9999 -9999 -9999 -9999 -9999 -9999 -9999 -9999 -9999 -9999 -9999 203.024887084961 206.610290527344 209.806167602539 238.856185913086 315.721252441406 353.935852050781 264.409606933594 168.787017822266 113.27027130127 85.219856262207 81.692512512207 79.9218521118164 79.8799591064453 81.1132049560547 83.052978515625 83.450927734375 81.7134628295898 79.6923141479492 78.5676574707031 77.4997024536133 76.9876556396484 79.5535278320312 87.4305419921875 98.6566467285156 106.902755737305 109.376861572266 106.956336975098 91.4345016479492 71.7517013549805 69.0387496948242 73.4428405761719 76.2148666381836 78.325080871582 79.5083160400391 80.2524795532227 80.6984176635742 81.0354766845703 81.9190139770508 83.6492462158203 86.0076904296875 88.0122756958008 89.560920715332 91.0070571899414 92.1564331054688 91.8333511352539 89.9068832397461 87.4230575561523 85.7978744506836 84.4549865722656 84.1501846313477 84.7651977539062 83.2473831176758 81.2235946655273 80.7379608154297
-9999 -9999 -9999 -9999 -9999 -9999 -9999 -9999 -9999 -9999 -9999 -9999 -9999 -9999 -9999 -9999 -9999 227.396781921387 245.341125488281 314.861114501953 383.338745117188 368.832916259766 231.538635253906 139.267578125 95.6022415161133 81.1896514892578 79.7894821166992 78.4511108398438 79.2993621826172 80.8232727050781 82.7250289916992 83.4428939819336 82.3310165405273 80.3988952636719 78.8527297973633 77.5187377929688 76.375732421875 77.4938278198242 83.7644424438477 93.941535949707 101.462303161621 102.963302612305 100.754600524902 89.3095703125 70.0251922607422 64.9006652832031 68.1161804199219 70.9556655883789 74.0627975463867 76.6046752929688 78.5113067626953 79.6910018920898 80.4329071044922 81.3722457885742 82.4476699829102 83.2475280761719 83.4369506835938 83.2008438110352 82.9342575073242 82.7550201416016 82.4056549072266 82.181640625 82.3263244628906 82.2886199951172 82.4113693237305 83.3182601928711 82.2670364379883 81.2120208740234 83.4999008178711 83.6447448730469
-9999 -9999 -9999 -9999 -9999 -9999 -9999 -9999 -9999 -9999 -9999 -9999 -9999 -9999 205.713939666748 206.610290527344 232.105487823486 246.585334777832 247.829544067383 353.649536132812 460.005065917969 369.984497070312 197.346466064453 113.608047485352 84.2301254272461 78.8688354492188 77.6459655761719 77.2024765014648 77.9838409423828 79.0052795410156 79.9840240478516 80.3265533447266 79.8214874267578 78.9021224975586 77.8931350708008 76.9669342041016 76.3974990844727 78.2382736206055 84.3234481811523 92.3698883056641 97.7048645019531 98.5441665649414 97.2147521972656 89.3706665039062 71.8115539550781 62.4645042419434 62.5615730285645 64.1757278442383 65.8682098388672 67.8420944213867 69.9749069213867 71.8137893676758 73.3082275390625 74.3445281982422 74.9297103881836 75.0294036865234 75.7286529541016 76.9001007080078 77.1101608276367 76.3745803833008 76.3382339477539 76.5805053710938 77.092041015625 78.6798629760742 80.8767776489258 80.2231140136719 79.4163970947266 82.5100250244141 85.7343444824219 85.5440368652344
-9999 -9999 -9999 -9999 -9999 -9999 -9999 -9999 -9999 -9999 -9999 -9999 -9999 -9999 -9999 -9999 -9999 -9999 341.968120574951 370.891326904297 482.398681640625 324.457672119141 168.003616333008 101.872886657715 82.3482437133789 78.8218994140625 76.0094909667969 75.2579956054688 75.39697265625 76.0927963256836 76.6462249755859 76.9958648681641 76.9060592651367 76.6901473999023 76.4407043457031 76.5068130493164 77.362678527832 80.3262634277344 85.5270767211914 91.0284881591797 94.5248260498047 94.6585540771484 92.0059432983398 85.6962356567383 76.2250518798828 68.0800628662109 64.5168304443359 63.9964256286621 64.4603424072266 65.3364028930664 66.3042526245117 66.9676055908203 67.236701965332 66.9669342041016 67.0653457641602 68.5394058227539 71.7573699951172 71.8120727539062 68.2702484130859 67.457649230957 70.0035705566406 73.5804214477539 77.6711273193359 81.9638595581055 81.3289794921875 79.6548385620117 80.9784240722656 83.6357879638672 83.7250061035156 83.6287689208984
-9999 -9999 -9999 -9999 -9999 -9999 -9999 -9999 -9999 -9999 -9999 -9999 -9999 -9999 -9999 -9999 -9999 318.500762939453 387.71159362793 395.502075195312 471.565093994141 272.225738525391 143.785903930664 96.1560134887695 84.4471588134766 81.3278427124023 77.6342086791992 75.9347076416016 73.9945220947266 73.245246887207 73.0797805786133 73.8822708129883 74.6982650756836 75.434814453125 76.0558090209961 77.0481185913086 78.7699432373047 81.6963577270508 85.4327087402344 88.9787902832031 91.3426513671875 91.5933685302734 89.2429656982422 84.2758331298828 78.9401397705078 74.437126159668 70.9421081542969 68.360595703125 66.3512878417969 65.9180450439453 66.8552474975586 68.2650527954102 69.3842239379883 68.9454879760742 67.6478958129883 68.3792190551758 73.3970718383789 73.3955383300781 65.5579223632812 66.0714797973633 71.2342376708984 77.7670822143555 81.7609634399414 81.5335006713867 80.2852172851562 80.8272323608398 81.0317230224609 80.7342758178711 81.1860427856445 81.2676162719727
-9999 -9999 -9999 -9999 -9999 -9999 -9999 -9999 -9999 -9999 -9999 -9999 -9999 271.563446044922 269.782979329427 -9999 317.861450195312 356.809349060059 318.500762939453 465.952209472656 408.736999511719 208.083145141602 107.870880126953 90.4773635864258 85.2899017333984 83.0303649902344 80.7477340698242 79.4566192626953 77.4411239624023 75.0740661621094 72.5478515625 71.1835784912109 70.8332672119141 71.97412109375 74.2084732055664 76.5591201782227 78.74951171875 81.2581176757812 83.7534255981445 86.0015106201172 87.6402435302734 88.4226684570312 88.2231063842773 86.5813446044922 84.0096206665039 81.0328903198242 77.7572402954102 74.3857574462891 71.4236602783203 69.7414855957031 69.8048553466797 71.0734405517578 72.1952667236328 71.8532409667969 70.1036605834961 69.2717514038086 72.3681945800781 71.1936416625977 60.522590637207 63.9959831237793 67.6218872070312 71.4494247436523 77.3073501586914 81.4905548095703 82.899055480957 80.8655776977539 78.1573791503906 79.4043884277344 82.1086120605469 84.2296371459961
-9999 -9999 -9999 -9999 -9999 -9999 -9999 -9999 -9999 -9999 -9999 -9999 -9999 -9999 271.563446044922 274.482635498047 263.302856445312 372.420043945312 473.013732910156 395.710510253906 245.572463989258 117.177909851074 95.580192565918 86.7147216796875 84.6380920410156 83.652458190918 83.1254959106445 82.6171951293945 81.7013092041016 80.1905746459961 78.4844055175781 76.444709777832 73.8353042602539 71.5229110717773 70.4267349243164 71.0864486694336 72.9706420898438 75.3883285522461 77.7899932861328 79.994987487793 81.8041305541992 83.1091537475586 83.7258834838867 82.8054046630859 80.7272262573242 78.470085144043 76.5340423583984 75.2736587524414 74.7352523803711 75.0291748046875 75.9074935913086 76.8344955444336 77.3636703491211 76.8896255493164 74.9064025878906 72.8578720092773 73.7800521850586 70.6607894897461 58.6403198242188 63.3310813903809 66.3918991088867 66.4655380249023 71.0285034179688 77.0519714355469 80.6688613891602 79.9704895019531 78.6733474731445 79.4363632202148 81.6893920898438 83.0079345703125
-9999 -9999 -9999 -9999 -9999 -9999 -9999 -9999 -9999 -9999 -9999 -9999 -9999 -9999 253.586017608643 271.563446044922 288.581604003906 277.666839599609 236.791290283203 179.672225952148 115.923324584961 92.0124435424805 85.9690704345703 81.232307434082 79.6695404052734 79.6754302978516 80.2476959228516 81.2946395874023 82.4636611938477 83.3659515380859 84.2047729492188 84.2167510986328 83.5284805297852 82.012580871582 80.2431488037109 78.0368041992188 75.2484588623047 73.0160064697266 72.486457824707 74.0765914916992 76.6147232055664 78.7089767456055 79.8116836547852 79.8325805664062 79.4376373291016 79.3418884277344 79.5571899414062 79.8422317504883 80.2971572875977 80.6988296508789 80.8060989379883 80.5036315917969 80.1644439697266 79.5633087158203 77.661865234375 75.217414855957 75.5426406860352 70.1690292358398 57.4940719604492 61.4024887084961 66.2945404052734 67.9205856323242 68.4577407836914 68.8794784545898 71.2130737304688 77.1874465942383 80.1990356445312 80.2976837158203 79.4948120117188 79.9993209838867
-9999 -9999 -9999 -9999 -9999 -9999 -9999 -9999 -9999 -9999 -9999 256.226928710938 259.637603759766 267.165405273438 242.881805419922 232.733413696289 222.468902587891 179.703536987305 134.370529174805 108.202880859375 91.2475814819336 81.8578414916992 75.2324829101562 71.9427108764648 70.4935073852539 70.4872207641602 71.7058410644531 73.5345764160156 75.2014846801758 76.6988372802734 78.3047485351562 80.3333740234375 82.5532455444336 84.0254669189453 84.8125839233398 84.2389907836914 80.7977523803711 73.1275253295898 63.8103981018066 59.0921974182129 60.1716461181641 63.8701210021973 66.9879760742188 69.002555847168 70.3621826171875 71.2165908813477 71.7922973632812 72.201286315918 72.423469543457 72.0392532348633 71.0932235717773 70.7158660888672 72.1006393432617 74.779541015625 75.7990646362305 74.9457702636719 75.9914932250977 68.5140609741211 55.6881866455078 57.0806159973145 61.7215614318848 66.3622436523438 69.4276962280273 69.6940612792969 68.7569351196289 70.7684783935547 76.3750991821289 80.322135925293 79.7713088989258 78.6999588012695
-9999 -9999 -9999 -9999 -9999 -9999 -9999 -9999 -9999 362.26513671875 288.837371826172 239.395370483398 225.655349731445 164.232131958008 177.276626586914 205.786560058594 161.947204589844 139.691345214844 115.298446655273 98.0511932373047 83.3630676269531 73.1216583251953 68.3224945068359 65.8423004150391 64.7527923583984 65.0920028686523 67.1049194335938 69.7714996337891 72.055046081543 73.3523483276367 73.7143096923828 74.4167861938477 76.2189483642578 78.6978607177734 81.6265029907227 84.1398391723633 85.2282485961914 81.7527389526367 69.5362396240234 56.1807632446289 54.6446151733398 60.925048828125 63.9801559448242 64.3909912109375 65.3893508911133 66.9232940673828 67.7436599731445 67.4414520263672 66.2651977539062 64.3156204223633 63.0997657775879 63.9588890075684 66.0259704589844 69.2395706176758 72.0427627563477 73.3698883056641 75.529052734375 65.5916442871094 53.0243988037109 52.7730865478516 56.689811706543 61.8185768127441 65.8276748657227 68.183219909668 69.7821350097656 70.0436706542969 70.5816192626953 74.1004791259766 78.6136856079102 79.7328491210938
-9999 -9999 -9999 -9999 -9999 -9999 -9999 -9999 -9999 362.894134521484 278.023162841797 202.667984008789 173.983749389648 172.204864501953 175.064422607422 142.589904785156 136.801528930664 117.790374755859 100.954254150391 90.8153228759766 79.055419921875 70.4611968994141 66.8516845703125 65.1732635498047 65.1370544433594 66.8641738891602 69.9119186401367 73.2813568115234 76.0801162719727 77.7895278930664 78.1214294433594 77.2053909301758 75.9116516113281 75.7856521606445 77.3742294311523 80.3673477172852 84.2765731811523 86.7804718017578 81.299560546875 64.2213516235352 56.0811424255371 61.0108604431152 63.5336151123047 62.4002151489258 63.8546333312988 66.0560073852539 65.5346298217773 63.1742210388184 62.1214408874512 62.7268180847168 64.0872039794922 65.6123199462891 66.0113143920898 67.4742965698242 69.9195098876953 72.5601654052734 73.4261779785156 61.8746223449707 51.983757019043 53.7202224731445 59.5025825500488 64.2719802856445 66.3371276855469 67.1262512207031 67.547477722168 68.9865036010742 69.8469085693359 69.0321578979492 70.9648666381836 75.8925247192383
-9999 -9999 -9999 -9999 -9999 293.159477233887 351.447448730469 318.961547851562 321.880126953125 274.003875732422 270.071441650391 206.105102539062 173.558685302734 181.265838623047 150.861282348633 137.125778198242 124.822700500488 108.846893310547 96.7004241943359 87.7005081176758 79.4299468994141 72.4746170043945 69.1811981201172 68.9848022460938 71.5044479370117 75.2688674926758 79.0405654907227 81.8667449951172 83.5815734863281 84.3100357055664 84.1421127319336 83.2684631347656 81.6132049560547 79.5057144165039 77.9453735351562 78.2588195800781 80.4998779296875 84.2096099853516 86.238166809082 73.144905090332 56.6642837524414 55.790210723877 58.1568489074707 56.524787902832 57.589786529541 60.5105972290039 62.7044563293457 64.1885833740234 65.19873046875 65.4204025268555 65.3772430419922 65.4300308227539 66.1158065795898 67.758659362793 69.4052429199219 70.7354583740234 69.2381439208984 59.7858390808105 58.1056060791016 63.4123878479004 67.8895492553711 69.90478515625 70.0503540039062 69.5088043212891 68.6305084228516 67.5681991577148 69.1770706176758 69.7880172729492 67.9033889770508 68.9176406860352
-9999 -9999 -9999 -9999 274.810729980469 277.366912841797 269.012817382812 216.433242797852 233.712982177734 234.785675048828 203.134887695312 191.784332275391 167.310989379883 145.100067138672 129.219772338867 118.822380065918 111.911926269531 106.31632232666 100.383285522461 93.6923141479492 87.1629333496094 82.2171936035156 80.8960647583008 82.5967407226562 85.4081726074219 87.9652633666992 89.6388778686523 90.1764602661133 89.7883224487305 88.9943466186523 87.9585266113281 86.8863067626953 85.6149215698242 83.8736801147461 81.6455993652344 79.6583099365234 79.0896453857422 80.8080444335938 84.905632019043 79.2232971191406 61.0706901550293 55.3747596740723 60.8350868225098 59.1408386230469 58.3710632324219 61.5818481445312 63.5157737731934 63.5240249633789 63.4632835388184 63.9025764465332 64.2245330810547 64.7245178222656 65.5704650878906 66.4851531982422 67.0185012817383 66.6927337646484 64.9199447631836 64.3193283081055 67.3079605102539 70.5429382324219 70.9722442626953 69.2074432373047 67.0842514038086 66.6931838989258 67.002326965332 66.2734909057617 65.9478149414062 68.6518096923828 69.6137161254883 68.3751373291016
-9999 -9999 -9999 251.561061859131 257.022064208984 232.568069458008 221.184143066406 186.969223022461 172.068954467773 130.915954589844 168.772369384766 144.123306274414 130.682250976562 119.835624694824 112.36833190918 107.619033813477 104.708381652832 102.507675170898 100.359077453613 98.3605728149414 96.0022964477539 93.845329284668 92.5590515136719 92.3933868408203 92.3953552246094 92.0410079956055 90.9412612915039 89.0766983032227 86.9855422973633 85.6940689086914 85.3434143066406 85.5332107543945 86.0525970458984 85.5649185180664 83.618049621582 81.5529098510742 79.7790832519531 79.3874740600586 82.0574493408203 79.3767852783203 64.0997695922852 56.7596092224121 57.7359199523926 59.6022872924805 59.615062713623 58.9337272644043 59.4954299926758 59.7030792236328 59.8812980651855 60.964412689209 62.1065940856934 62.9258651733398 63.5248718261719 63.7645606994629 63.8853340148926 63.8801383972168 65.3566360473633 67.4144668579102 68.4700546264648 66.4755249023438 62.8553009033203 59.5749359130859 58.2485275268555 58.4634666442871 60.3517456054688 61.8152198791504 61.7202796936035 62.7175903320312 66.4663925170898 68.3479080200195
-9999 -9999 -9999 254.852600097656 219.558853149414 230.857833862305 233.029937744141 207.344329833984 174.857635498047 146.638961791992 131.268295288086 123.461776733398 116.514579772949 110.884582519531 106.355453491211 102.676055908203 99.3414306640625 96.4895477294922 94.2207717895508 92.3621597290039 90.9242935180664 89.4908218383789 88.2675094604492 87.2745895385742 86.0210647583008 83.6656951904297 80.3878784179688 76.9265213012695 74.2034530639648 72.9092712402344 73.2389144897461 75.0542144775391 77.706657409668 80.1792602539062 81.3655776977539 80.5557327270508 78.8136367797852 77.9716949462891 79.9065704345703 77.212516784668 64.8237228393555 61.5440788269043 58.719554901123 58.9197692871094 60.2822875976562 58.1520652770996 58.466236114502 59.5932807922363 59.9419059753418 60.8080406188965 62.0402145385742 63.086296081543 63.8273620605469 64.4682922363281 65.1531143188477 65.5948028564453 65.1125183105469 62.4181976318359 58.7929725646973 55.6075553894043 53.9026336669922 53.6525573730469 54.3321838378906 55.4986610412598 57.8320083618164 60.3335380554199 60.921516418457 59.7600975036621 60.991626739502 64.1068878173828
