NCOLS 70 
NROWS 52 
XLLCORNER -80 
YLLCORNER 33 
CELLSIZE 0.25 
NODATA_value -9999 
-9999.000000000000000 -9999 -9999 -9999 -9999 -9999 -9999 -9999 -9999 -9999 -9999 -9999 -9999 -9999 -9999 -9999 -9999 -9999 -9999 -9999 -9999 -9999 -9999 -9999 -9999 -9999 -9999 -9999 -9999 -9999 -9999 -9999 -9999 -9999 -9999 -9999 -9999 -9999 -9999 -9999 -9999 -9999 -9999 -9999 -9999 -9999 -9999 -9999 -9999 -9999 -9999 -9999 -9999 -9999 -9999 -9999 -9999 -9999 -9999 -9999 -9999 -9999 -9999 -9999 -9999 -9999 -9999 -9999 -9999 -9999
-9999 -9999 -9999 -9999 -9999 -9999 -9999 -9999 -9999 -9999 -9999 -9999 -9999 -9999 -9999 -9999 -9999 -9999 -9999 -9999 -9999 -9999 -9999 -9999 -9999 -9999 -9999 -9999 -9999 -9999 -9999 -9999 -9999 -9999 -9999 -9999 -9999 -9999 -9999 -9999 -9999 -9999 -9999 -9999 -9999 -9999 -9999 -9999 -9999 -9999 -9999 -9999 -9999 -9999 -9999 -9999 -9999 -9999 -9999 -9999 -9999 -9999 -9999 -9999 -9999 -9999 -9999 -9999 -9999 -9999
-9999 -9999 -9999 -9999 -9999 -9999 -9999 -9999 -9999 -9999 -9999 -9999 -9999 -9999 -9999 -9999 -9999 -9999 -9999 -9999 -9999 -9999 -9999 -9999 -9999 -9999 -9999 -9999 -9999 -9999 -9999 -9999 -9999 -9999 -9999 -9999 -9999 -9999 -9999 -9999 -9999 -9999 -9999 -9999 -9999 -9999 -9999 -9999 -9999 -9999 -9999 -9999 -9999 -9999 -9999 -9999 -9999 -9999 -9999 265.056488037109 -9999 -9999 -9999 -9999 -9999 -9999 -9999 -9999 -9999 -9999
-9999 -9999 -9999 -9999 -9999 -9999 -9999 -9999 -9999 -9999 -9999 -9999 -9999 -9999 -9999 -9999 -9999 -9999 -9999 -9999 -9999 -9999 -9999 -9999 -9999 -9999 -9999 -9999 -9999 -9999 -9999 -9999 -9999 -9999 -9999 -9999 -9999 -9999 -9999 -9999 -9999 -9999 -9999 -9999 -9999 -9999 -9999 -9999 -9999 -9999 -9999 -9999 -9999 -9999 -9999 195.515609741211 173.246368408203 188.156051635742 236.681365966797 296.003845214844 -9999 -9999 -9999 -9999 -9999 -9999 -9999 -9999 -9999 -9999
-9999 -9999 -9999 -9999 -9999 -9999 -9999 -9999 -9999 -9999 -9999 -9999 -9999 -9999 -9999 -9999 -9999 -9999 -9999 -9999 -9999 -9999 -9999 -9999 -9999 -9999 -9999 -9999 -9999 -9999 -9999 -9999 -9999 -9999 -9999 -9999 -9999 -9999 -9999 -9999 -9999 -9999 -9999 -9999 -9999 -9999 -9999 -9999 -9999 -9999 -9999 -9999 307.092834472656 341.862762451172 288.214965820312 213.998153686523 185.136428833008 219.387298583984 -9999 -9999 -9999 -9999 -9999 -9999 -9999 -9999 -9999 -9999 -9999 -9999
-9999 -9999 -9999 -9999 -9999 -9999 -9999 -9999 -9999 -9999 -9999 -9999 -9999 -9999 -9999 -9999 -9999 -9999 -9999 -9999 -9999 -9999 -9999 -9999 -9999 -9999 -9999 -9999 -9999 -9999 -9999 -9999 -9999 -9999 -9999 -9999 -9999 -9999 -9999 -9999 -9999 -9999 -9999 -9999 -9999 -9999 -9999 -9999 -9999 -9999 158.97513885498 186.997360229492 157.73420715332 219.990615844727 263.321044921875 276.245330810547 -9999 -9999 -9999 -9999 -9999 -9999 -9999 -9999 -9999 -9999 -9999 121.594927469889 115.648979187012 161.078094482422
-9999 -9999 -9999 -9999 -9999 -9999 -9999 -9999 -9999 -9999 -9999 -9999 -9999 -9999 -9999 -9999 -9999 -9999 -9999 -9999 -9999 -9999 -9999 -9999 -9999 -9999 -9999 -9999 -9999 -9999 -9999 -9999 -9999 -9999 -9999 -9999 -9999 -9999 -9999 -9999 -9999 -9999 -9999 -9999 316.576548258464 -9999 -9999 175.582244873047 134.918228149414 135.547836303711 123.853706359863 109.807846069336 123.168571472168 226.678665161133 275.742004394531 -9999 -9999 -9999 -9999 -9999 -9999 -9999 -9999 220.097763061523 191.130783081055 168.119613647461 148.296524047852 119.770248413086 96.7180099487305 85.0295639038086
-9999 -9999 -9999 -9999 -9999 -9999 -9999 -9999 -9999 -9999 -9999 -9999 -9999 -9999 -9999 -9999 -9999 -9999 -9999 -9999 -9999 -9999 -9999 -9999 -9999 -9999 -9999 -9999 -9999 -9999 -9999 -9999 -9999 -9999 -9999 -9999 -9999 -9999 -9999 -9999 -9999 -9999 -9999 -9999 323.391052246094 312.253570556641 250.134353637695 179.094909667969 138.181488037109 116.061340332031 104.547904968262 100.158630371094 143.437896728516 224.424087524414 236.495910644531 -9999 -9999 -9999 -9999 -9999 -9999 -9999 187.534912109375 154.702072143555 128.928863525391 114.850959777832 99.2798461914062 83.5227584838867 71.2171096801758 63.793041229248
-9999 -9999 -9999 -9999 -9999 -9999 -9999 -9999 -9999 -9999 -9999 -9999 -9999 -9999 -9999 -9999 -9999 -9999 -9999 -9999 -9999 -9999 -9999 -9999 -9999 -9999 -9999 -9999 -9999 -9999 -9999 -9999 -9999 -9999 -9999 -9999 -9999 -9999 -9999 -9999 299.353800455729 278.179178873698 264.228604125977 271.683074951172 215.771148681641 163.509826660156 138.149566650391 122.105430603027 107.852630615234 94.4990310668945 87.7028656005859 88.3798141479492 133.358627319336 219.138885498047 235.637725830078 -9999 -9999 -9999 -9999 -9999 182.271326700846 190.004730224609 154.657760620117 120.757637023926 103.740478515625 94.0908508300781 82.6416320800781 68.9195022583008 60.8470001220703 58.0487213134766
-9999 -9999 -9999 -9999 -9999 -9999 -9999 -9999 -9999 -9999 -9999 -9999 -9999 -9999 -9999 -9999 -9999 -9999 -9999 -9999 -9999 -9999 -9999 -9999 -9999 -9999 -9999 -9999 -9999 -9999 -9999 -9999 -9999 -9999 -9999 -9999 -9999 -9999 -9999 310.593353271484 303.246124267578 284.221923828125 247.069488525391 204.083511352539 168.660720825195 140.103225708008 119.443305969238 103.504173278809 87.3234405517578 74.2694549560547 69.7094268798828 72.7287063598633 104.804763793945 193.493530273438 297.431488037109 243.700637817383 -9999 -9999 -9999 200.208522796631 199.239776611328 157.569473266602 125.280990600586 108.684715270996 99.0082855224609 91.0257186889648 80.8187103271484 68.6668548583984 60.765998840332 58.3437156677246
-9999 -9999 -9999 -9999 -9999 -9999 -9999 -9999 -9999 -9999 -9999 -9999 -9999 -9999 -9999 -9999 -9999 -9999 -9999 -9999 -9999 -9999 -9999 -9999 -9999 -9999 -9999 -9999 -9999 -9999 -9999 -9999 -9999 -9999 -9999 -9999 -9999 -9999 214.005828857422 203.43928527832 167.356842041016 118.28702545166 97.5626373291016 87.4575881958008 78.7649154663086 71.6843490600586 67.9133148193359 66.0904159545898 63.873348236084 61.1077995300293 60.2184257507324 63.0112838745117 81.0844421386719 141.175765991211 231.736267089844 289.098785400391 210.833984375 197.627586364746 262.929077148438 192.271438598633 146.393798828125 113.024108886719 90.8490142822266 80.4562835693359 78.857048034668 78.9280624389648 74.8270263671875 66.3540878295898 60.9270553588867 58.4598846435547
-9999 -9999 -9999 -9999 -9999 -9999 -9999 -9999 -9999 -9999 -9999 -9999 -9999 -9999 -9999 -9999 -9999 -9999 -9999 -9999 -9999 -9999 -9999 -9999 -9999 -9999 -9999 -9999 -9999 -9999 -9999 -9999 -9999 -9999 -9999 -9999 -9999 222.1611328125 196.015594482422 137.819778442383 88.4843063354492 67.5028533935547 61.0799446105957 59.0261459350586 59.2099761962891 60.1403770446777 61.8486862182617 63.0418815612793 62.5631866455078 61.4416732788086 61.1815643310547 62.7021675109863 69.2587738037109 93.5900039672852 136.5615234375 167.225646972656 180.625640869141 174.265213012695 153.377777099609 131.460861206055 107.046508789062 82.9082336425781 67.1248626708984 63.0000801086426 66.6456756591797 69.3154067993164 66.991081237793 63.6312026977539 64.0383605957031 62.33349609375
-9999 -9999 -9999 -9999 -9999 -9999 -9999 -9999 -9999 -9999 -9999 -9999 -9999 -9999 -9999 -9999 -9999 -9999 -9999 -9999 -9999 -9999 -9999 -9999 -9999 -9999 -9999 -9999 -9999 -9999 -9999 -9999 -9999 -9999 -9999 -9999 -9999 252.517333984375 201.903015136719 119.223587036133 76.3032379150391 65.2637710571289 60.7484397888184 58.1443710327148 59.6325149536133 62.3827171325684 63.6921081542969 64.3912658691406 65.4925308227539 66.7422103881836 66.1618347167969 65.1143493652344 67.1940536499023 73.0728607177734 84.6651458740234 101.205093383789 115.967170715332 116.829627990723 109.448081970215 99.1853332519531 86.3874588012695 71.3957138061523 64.0926055908203 62.7181854248047 63.1379127502441 61.8686790466309 61.2774810791016 64.9152450561523 67.6260299682617 68.444938659668
-9999 -9999 -9999 -9999 -9999 -9999 -9999 -9999 -9999 -9999 -9999 -9999 -9999 -9999 -9999 -9999 -9999 -9999 -9999 -9999 -9999 -9999 -9999 -9999 -9999 -9999 -9999 -9999 -9999 -9999 -9999 -9999 -9999 -9999 -9999 -9999 -9999 245.071166992188 171.314239501953 104.893218994141 79.0729751586914 72.3905487060547 67.229362487793 60.5012092590332 58.9147796630859 61.572624206543 63.7605171203613 64.754768371582 66.116096496582 68.3565292358398 69.7427139282227 70.2272033691406 73.1454925537109 76.3041000366211 78.5306167602539 80.3967666625977 84.5736236572266 84.1476135253906 80.1652984619141 81.2240142822266 81.4874725341797 74.4245452880859 72.3389358520508 71.5286865234375 69.7888946533203 67.0408096313477 65.2649688720703 64.9344482421875 64.932746887207 67.2110214233398
-9999 -9999 -9999 -9999 -9999 -9999 -9999 -9999 -9999 -9999 -9999 -9999 -9999 -9999 -9999 -9999 -9999 -9999 -9999 -9999 -9999 -9999 -9999 -9999 -9999 -9999 -9999 -9999 -9999 -9999 -9999 -9999 -9999 -9999 -9999 -9999 345.343292236328 257.867248535156 150.880096435547 99.6249542236328 89.3494262695312 82.1994476318359 74.3406372070312 64.6846771240234 58.8819808959961 58.5553550720215 60.1871871948242 61.7488136291504 63.294361114502 64.8056259155273 64.8855285644531 65.5450820922852 72.5537109375 79.2506256103516 83.9981842041016 86.6166839599609 91.5758895874023 92.8843383789062 84.1406707763672 84.8074645996094 86.8463897705078 86.7478332519531 87.569465637207 89.3520278930664 89.3235168457031 88.9393692016602 85.6764297485352 81.2656784057617 72.2815246582031 68.0478210449219
-9999 -9999 -9999 -9999 -9999 -9999 -9999 -9999 -9999 -9999 -9999 -9999 -9999 -9999 -9999 -9999 -9999 -9999 -9999 -9999 -9999 -9999 -9999 -9999 -9999 -9999 -9999 -9999 -9999 -9999 -9999 -9999 -9999 -9999 -9999 -9999 -9999 191.491714477539 145.126937866211 106.022773742676 103.385345458984 91.2685623168945 78.0459136962891 67.1719741821289 61.0070533752441 59.9971122741699 60.7087669372559 62.9617233276367 68.6791915893555 73.1067810058594 70.5630187988281 65.8946685791016 67.8355941772461 74.6045074462891 86.430290222168 91.4773559570312 87.4449234008789 93.156494140625 96.2675399780273 98.0165786743164 99.8406372070312 102.577461242676 103.236068725586 104.255516052246 103.081954956055 103.738693237305 102.459022521973 101.946174621582 92.2583541870117 79.5472412109375
-9999 -9999 -9999 -9999 -9999 -9999 -9999 -9999 -9999 -9999 -9999 -9999 -9999 -9999 -9999 -9999 -9999 -9999 -9999 -9999 -9999 -9999 -9999 -9999 -9999 -9999 -9999 -9999 -9999 -9999 -9999 -9999 -9999 -9999 -9999 -9999 -9999 -9999 103.627593994141 -9999 115.311386108398 98.2760009765625 80.4835357666016 69.7240829467773 64.3616790771484 64.6061553955078 66.331428527832 68.83447265625 81.5172119140625 88.5038223266602 82.7680435180664 75.2852172851562 71.7682189941406 79.153434753418 96.0186004638672 95.1740417480469 84.0676727294922 92.4021148681641 102.609153747559 106.460487365723 106.761108398438 106.498085021973 105.5576171875 105.466812133789 104.31787109375 103.910614013672 103.630302429199 103.416709899902 102.877342224121 94.6502838134766
-9999 -9999 -9999 -9999 -9999 -9999 -9999 -9999 -9999 -9999 -9999 -9999 -9999 -9999 -9999 -9999 -9999 -9999 -9999 -9999 -9999 -9999 -9999 -9999 -9999 -9999 -9999 -9999 -9999 -9999 -9999 -9999 -9999 -9999 -9999 -9999 -9999 -9999 -9999 -9999 123.328964233398 100.218048095703 85.15966796875 73.6761856079102 68.3384857177734 71.5309829711914 76.2895126342773 75.3836517333984 81.1543731689453 85.9047241210938 81.619758605957 76.210823059082 76.6364212036133 88.3781127929688 96.7845993041992 85.9181900024414 90.0287170410156 101.57356262207 109.097175598145 107.559432983398 106.344657897949 105.106513977051 105.489524841309 104.54377746582 104.889770507812 103.665542602539 105.424278259277 103.312522888184 105.163124084473 103.350227355957
-9999 -9999 -9999 -9999 -9999 -9999 -9999 -9999 -9999 -9999 -9999 -9999 -9999 -9999 -9999 -9999 -9999 -9999 -9999 -9999 -9999 -9999 -9999 -9999 -9999 -9999 -9999 -9999 -9999 -9999 -9999 -9999 -9999 -9999 242.362785339355 231.521453857422 202.252502441406 -9999 158.629501342773 152.827362060547 115.330825805664 90.8707809448242 87.8582916259766 77.8131408691406 77.4696884155273 83.0569534301758 88.1854858398438 83.3352737426758 77.9314880371094 85.9356536865234 84.7495574951172 76.9531097412109 85.8544387817383 92.1493225097656 91.7199630737305 93.3878555297852 103.809043884277 111.40168762207 110.626968383789 105.645797729492 105.716911315918 106.128128051758 106.46696472168 105.773880004883 106.510543823242 104.527191162109 106.565055847168 104.91529083252 105.297904968262 106.994216918945
-9999 -9999 -9999 -9999 -9999 -9999 -9999 -9999 -9999 -9999 -9999 -9999 -9999 -9999 -9999 -9999 -9999 -9999 -9999 -9999 -9999 -9999 -9999 -9999 -9999 -9999 -9999 627.008239746094 627.008239746094 524.290893554688 430.923431396484 383.924896240234 347.872772216797 286.958862304688 247.189102172852 203.781723022461 152.98046875 127.10001373291 113.77766418457 101.249366760254 87.460563659668 78.3052215576172 84.8805465698242 85.8682022094727 92.9195175170898 100.869850158691 98.2981338500977 90.4714279174805 86.2917633056641 83.5315017700195 82.4176712036133 82.3571395874023 84.6722030639648 88.2988357543945 99.3410339355469 109.904945373535 111.009231567383 112.567749023438 107.530586242676 105.911125183105 106.823844909668 107.909645080566 107.785842895508 107.840881347656 109.009101867676 107.743515014648 107.792274475098 107.336990356445 105.062370300293 109.660171508789
-9999 -9999 -9999 -9999 -9999 -9999 -9999 -9999 -9999 -9999 -9999 -9999 -9999 -9999 -9999 -9999 -9999 -9999 -9999 -9999 -9999 -9999 -9999 -9999 -9999 -9999 -9999 -9999 -9999 -9999 313.224487304688 298.636993408203 277.276916503906 234.400390625 204.017105102539 187.857681274414 175.417846679688 161.780670166016 133.709289550781 106.458908081055 104.112144470215 91.0822525024414 90.9541931152344 99.0463562011719 107.843704223633 111.040229797363 101.329261779785 96.3374710083008 91.2993392944336 87.6716613769531 93.9388961791992 101.56867980957 104.430351257324 111.22380065918 114.194450378418 112.427688598633 111.088348388672 109.961448669434 106.445281982422 106.232879638672 106.834930419922 108.488586425781 108.592872619629 109.500526428223 109.788673400879 109.637916564941 108.796501159668 109.221855163574 105.550796508789 110.546119689941
-9999 -9999 -9999 -9999 -9999 -9999 -9999 -9999 -9999 -9999 -9999 -9999 -9999 -9999 -9999 -9999 -9999 -9999 -9999 -9999 -9999 -9999 -9999 -9999 -9999 483.353322347005 367.979461669922 279.858144124349 231.675453186035 239.366470336914 220.856002807617 207.957748413086 199.471878051758 190.553848266602 178.38948059082 172.155120849609 171.001159667969 168.317153930664 155.107009887695 141.919342041016 136.125747680664 126.21134185791 117.501693725586 117.870628356934 120.499214172363 116.409599304199 107.954879760742 101.851860046387 95.9599075317383 92.2491302490234 103.989616394043 114.977928161621 123.828918457031 119.308837890625 112.074325561523 108.97713470459 108.892364501953 108.954734802246 107.734275817871 105.875793457031 106.413299560547 108.011825561523 108.591606140137 109.685401916504 110.152885437012 110.1591796875 109.498016357422 109.536331176758 106.487434387207 110.540634155273
-9999 -9999 -9999 -9999 -9999 -9999 -9999 -9999 -9999 -9999 -9999 -9999 -9999 -9999 -9999 -9999 -9999 -9999 -9999 -9999 -9999 -9999 -9999 -9999 608.273132324219 490.508148193359 351.278686523438 262.151550292969 226.144195556641 199.039596557617 182.73193359375 174.211181640625 172.623641967773 168.488098144531 162.275466918945 158.506149291992 162.090301513672 167.683563232422 161.559555053711 153.205688476562 147.820419311523 138.465408325195 131.599227905273 129.257522583008 124.227210998535 116.25235748291 110.034706115723 106.37279510498 101.841949462891 98.0018768310547 99.6923675537109 104.072593688965 108.130981445312 107.93399810791 105.16227722168 104.890121459961 107.366958618164 109.888206481934 109.695610046387 107.325401306152 106.368072509766 107.36457824707 107.988899230957 108.527435302734 109.02010345459 109.353935241699 109.042930603027 108.507202148438 107.413314819336 109.623321533203
-9999 -9999 -9999 -9999 -9999 -9999 -9999 -9999 -9999 -9999 -9999 -9999 -9999 -9999 -9999 -9999 -9999 -9999 -9999 -9999 -9999 -9999 -9999 -9999 446.422332763672 331.339965820312 230.10774230957 192.40217590332 181.48454284668 179.62272644043 175.514389038086 169.757965087891 164.202560424805 158.531494140625 152.484710693359 148.08805847168 148.829238891602 150.372619628906 148.369735717773 146.419357299805 144.348739624023 136.803466796875 129.024017333984 125.191017150879 121.165626525879 116.689300537109 114.139587402344 112.665054321289 111.934448242188 114.186752319336 115.609664916992 108.278678894043 101.478103637695 98.8473358154297 96.4038848876953 96.8782730102539 101.479965209961 107.600486755371 110.790733337402 109.637962341309 107.138618469238 106.78784942627 107.144592285156 107.344245910645 107.654678344727 107.87190246582 107.609100341797 107.139808654785 106.651969909668 106.167846679688
-9999 -9999 -9999 -9999 -9999 -9999 -9999 -9999 -9999 -9999 -9999 -9999 -9999 -9999 -9999 -9999 -9999 -9999 -9999 -9999 -9999 -9999 -9999 370.902099609375 394.316986083984 306.972900390625 236.590393066406 203.063858032227 189.920974731445 181.028991699219 173.960922241211 166.898300170898 160.23323059082 153.777633666992 147.451812744141 142.147018432617 137.580337524414 132.688461303711 127.449401855469 122.982696533203 119.966400146484 117.639633178711 116.164596557617 116.76203918457 117.983619689941 118.336090087891 117.901496887207 116.231857299805 115.515228271484 118.793632507324 125.82982635498 127.54801940918 120.71174621582 111.26927947998 102.043830871582 95.420166015625 94.4663314819336 99.6990127563477 106.6748046875 110.17684173584 109.886581420898 108.954711914062 108.451194763184 107.648239135742 106.408721923828 104.896766662598 104.089904785156 103.492309570312 102.413993835449 100.180328369141
-9999 -9999 -9999 -9999 -9999 -9999 -9999 -9999 -9999 -9999 -9999 -9999 -9999 -9999 -9999 -9999 -9999 -9999 -9999 -9999 -9999 -9999 -9999 312.351623535156 330.517456054688 283.114624023438 241.148941040039 210.195922851562 190.05517578125 177.880264282227 170.506591796875 164.794784545898 158.569000244141 151.523071289062 145.679473876953 140.976837158203 134.644836425781 123.982620239258 112.445159912109 105.079315185547 103.619827270508 105.982475280762 107.334381103516 107.101188659668 108.22110748291 110.674034118652 112.105682373047 111.732093811035 110.28076171875 108.772094726562 108.631881713867 116.693077087402 123.524314880371 126.541191101074 123.592948913574 113.843154907227 102.16032409668 95.5162734985352 97.232666015625 103.433685302734 107.839805603027 109.268943786621 109.74723815918 109.717544555664 108.949317932129 107.190795898438 104.996963500977 102.916831970215 101.12784576416 99.7046051025391
-9999 -9999 -9999 -9999 -9999 -9999 -9999 -9999 -9999 -9999 -9999 -9999 -9999 -9999 -9999 -9999 -9999 -9999 -9999 -9999 -9999 -9999 357.885406494141 311.693023681641 286.704132080078 262.835784912109 224.944610595703 203.540725708008 190.496917724609 181.924163818359 174.934600830078 168.13200378418 159.526382446289 150.801361083984 144.407577514648 139.902252197266 135.315902709961 126.548316955566 114.5029296875 105.13794708252 100.947967529297 99.5936813354492 99.2378616333008 100.043762207031 102.854385375977 106.669052124023 108.497703552246 107.452171325684 104.939750671387 102.443733215332 100.64387512207 100.147201538086 102.804176330566 112.130462646484 123.270729064941 126.632255554199 119.845878601074 107.438980102539 97.5600509643555 94.5497894287109 95.5583572387695 97.0463333129883 98.9858703613281 101.606269836426 104.126411437988 105.535446166992 105.484260559082 104.628051757812 103.876625061035 103.517021179199
-9999 -9999 -9999 -9999 -9999 -9999 -9999 -9999 -9999 -9999 -9999 -9999 -9999 -9999 679.649003770616 -9999 -9999 -9999 -9999 521.444213867188 -9999 320.298919677734 334.925048828125 305.446411132812 275.69384765625 236.928649902344 209.499496459961 197.791778564453 192.045333862305 185.928405761719 179.157836914062 171.801116943359 163.427749633789 154.489929199219 145.754501342773 138.733688354492 134.849792480469 132.221572875977 126.409957885742 117.697174072266 109.131744384766 103.375221252441 102.140007019043 103.761306762695 106.610176086426 109.129585266113 108.776924133301 105.37133026123 100.807060241699 96.4767684936523 92.9695053100586 90.78466796875 90.2485427856445 92.4205703735352 100.137367248535 110.282768249512 117.785415649414 118.617218017578 111.89476776123 102.216827392578 94.3354797363281 89.6633605957031 88.5900192260742 90.4255447387695 93.8200454711914 97.5002822875977 100.319793701172 101.722259521484 101.782035827637 100.709991455078
-9999 -9999 -9999 -9999 -9999 -9999 -9999 -9999 -9999 -9999 -9999 -9999 -9999 -9999 675.985748291016 -9999 -9999 -9999 -9999 465.144302368164 394.800476074219 357.40869140625 311.106140136719 270.154693603516 236.652481079102 212.757415771484 201.307479858398 196.636993408203 191.938385009766 185.86555480957 179.123687744141 171.788528442383 164.445602416992 157.499328613281 150.359970092773 143.291000366211 138.113830566406 135.68684387207 133.250717163086 128.750015258789 123.010696411133 117.654220581055 114.733139038086 114.085258483887 113.75422668457 111.756469726562 107.00658416748 100.492721557617 93.7364273071289 87.6423568725586 82.9507751464844 80.007682800293 78.8175582885742 79.2885284423828 81.6678466796875 87.3079528808594 97.0716171264648 109.033172607422 116.244338989258 114.484809875488 107.288101196289 99.8844985961914 95.4287261962891 94.6370391845703 96.2593994140625 98.4217758178711 99.6954650878906 99.3274383544922 97.3766708374023 94.5135192871094
-9999 -9999 -9999 -9999 -9999 -9999 -9999 -9999 -9999 -9999 -9999 -9999 -9999 -9999 692.470397949219 -9999 -9999 -9999 -9999 -9999 332.757789611816 366.006164550781 295.753509521484 250.284240722656 231.008743286133 214.833801269531 202.772262573242 194.503387451172 187.164474487305 179.575622558594 171.65119934082 163.597290039062 156.169372558594 150.271743774414 145.797729492188 142.138916015625 139.571105957031 138.522689819336 137.359771728516 134.043655395508 129.322174072266 125.024353027344 121.961601257324 119.228782653809 115.294975280762 109.08504486084 101.105751037598 92.6938400268555 84.7693939208984 78.5686569213867 74.673095703125 72.7473068237305 72.0595703125 72.3871841430664 73.7160949707031 76.0985794067383 80.6056900024414 89.2193832397461 100.27173614502 108.077178955078 109.671844482422 106.978507995605 103.508399963379 101.165084838867 99.9926834106445 99.2674789428711 97.8035125732422 95.004264831543 91.6209945678711 88.510612487793
-9999 -9999 -9999 -9999 -9999 -9999 -9999 -9999 -9999 -9999 -9999 -9999 -9999 -9999 647.435211181641 -9999 626.531799316406 -9999 -9999 -9999 272.906158447266 334.710144042969 274.980865478516 246.425888061523 229.840698242188 212.208602905273 195.713226318359 183.48762512207 173.768127441406 164.761642456055 156.11653137207 148.554977416992 142.544174194336 138.244918823242 135.431945800781 133.438522338867 132.572875976562 133.201568603516 133.666091918945 131.905975341797 128.416275024414 125.017738342285 121.806358337402 117.277702331543 110.418029785156 101.602127075195 92.4146041870117 83.5991363525391 76.4389190673828 72.3930206298828 70.9042510986328 71.0384216308594 71.3610000610352 71.5272521972656 72.2652435302734 73.5731964111328 75.1546325683594 77.6726150512695 82.4232864379883 88.7659912109375 94.0770797729492 96.8293838500977 97.1830062866211 95.8535385131836 93.7697906494141 92.0680618286133 90.2809677124023 88.0879516601562 85.8918151855469 83.944206237793
-9999 -9999 -9999 -9999 -9999 -9999 -9999 -9999 -9999 -9999 -9999 -9999 -9999 -9999 647.435211181641 602.400024414062 483.004425048828 -9999 -9999 319.422729492188 317.655822753906 334.702270507812 271.943267822266 240.499130249023 215.896743774414 191.950271606445 174.669799804688 162.859832763672 153.265670776367 144.491912841797 136.111862182617 129.07389831543 124.713874816895 123.506973266602 124.189064025879 124.624465942383 124.425132751465 124.513488769531 124.897773742676 124.61100769043 123.285385131836 121.58715057373 118.488311767578 112.127075195312 102.812042236328 93.1100158691406 84.1639175415039 75.8897323608398 70.9592971801758 69.9765625 70.5486831665039 73.0299377441406 74.7349319458008 73.1780700683594 71.7293319702148 72.2849578857422 73.7062759399414 74.8085479736328 75.7875061035156 77.4635620117188 80.0268325805664 82.8232955932617 84.7698211669922 85.4423065185547 85.2091293334961 84.6843948364258 84.0158996582031 83.3695068359375 82.5245208740234 81.3235855102539
-9999 -9999 -9999 -9999 -9999 -9999 -9999 -9999 -9999 -9999 -9999 -9999 -9999 -9999 -9999 438.866015625 399.104736328125 -9999 347.614349365234 336.983123779297 350.145812988281 301.202239990234 254.232070922852 219.783813476562 189.030334472656 166.125122070312 153.269714355469 144.629943847656 136.69026184082 127.983642578125 118.239624023438 109.757698059082 105.627670288086 106.245109558105 110.361351013184 115.096328735352 117.936424255371 118.591796875 118.025650024414 117.496116638184 117.499488830566 117.326507568359 114.612716674805 107.065238952637 96.6641311645508 87.5944213867188 79.2528762817383 71.7065887451172 68.9040069580078 70.0213317871094 71.212158203125 75.4049224853516 79.0679016113281 75.9345703125 71.4977493286133 70.2877044677734 71.7481689453125 73.4047241210938 74.1425323486328 74.5975570678711 75.200553894043 76.1397857666016 77.285758972168 78.3393707275391 79.2384185791016 79.8439712524414 80.1762313842773 80.071403503418 79.7954559326172 80.2603607177734
-9999 -9999 -9999 -9999 -9999 -9999 -9999 -9999 -9999 -9999 -9999 -9999 -9999 -9999 -9999 359.473510742188 350.347381591797 -9999 297.467926025391 334.144256591797 307.217071533203 262.193084716797 232.636825561523 194.551086425781 164.260482788086 150.953674316406 143.125244140625 136.348556518555 128.085983276367 116.835563659668 104.088920593262 94.0759353637695 89.5477447509766 89.94970703125 94.7096405029297 102.296836853027 109.518928527832 113.378364562988 113.553939819336 112.530830383301 112.598297119141 113.130989074707 110.921539306641 103.346031188965 93.0466995239258 84.5408020019531 76.3149185180664 69.5254440307617 68.2898178100586 70.4572830200195 71.4632873535156 74.9137649536133 78.2401962280273 77.2462005615234 74.7305526733398 73.5307540893555 73.2693328857422 73.6320266723633 73.9991912841797 74.1584854125977 74.465690612793 75.2583770751953 76.6377029418945 78.2717361450195 79.7764358520508 80.4364013671875 79.6735382080078 78.5234527587891 78.8840789794922 80.8878326416016
-9999 -9999 -9999 -9999 -9999 -9999 -9999 -9999 -9999 -9999 -9999 -9999 -9999 -9999 -9999 319.508880615234 -9999 320.10939679827 334.322235107422 312.30078125 276.195495605469 258.194610595703 220.806427001953 176.009628295898 152.947601318359 145.138244628906 138.451965332031 132.085739135742 122.02564239502 107.636993408203 93.0190963745117 82.9083404541016 78.4442749023438 77.7838439941406 80.4922943115234 86.9458618164062 96.018196105957 103.922401428223 107.49585723877 107.881652832031 108.124588012695 108.671936035156 107.081901550293 100.762031555176 91.0410232543945 82.5556182861328 74.3993377685547 68.2420196533203 67.8926086425781 70.3892517089844 70.5608673095703 72.3050537109375 74.4462509155273 76.0039596557617 77.5004730224609 78.4501190185547 78.3148574829102 78.0235977172852 78.3364562988281 78.4420166015625 78.0572280883789 76.920539855957 75.3007888793945 74.3107986450195 76.7334136962891 79.7846908569336 79.1575164794922 78.1382522583008 79.1382293701172 80.578010559082
-9999 -9999 -9999 -9999 -9999 -9999 -9999 -9999 -9999 -9999 -9999 -9999 -9999 -9999 319.508880615234 299.343770345052 277.747802734375 327.438812255859 352.6669921875 309.575622558594 287.141967773438 263.348937988281 209.782424926758 163.753524780273 145.238830566406 138.696990966797 133.945907592773 128.778335571289 117.891975402832 101.80110168457 87.0192184448242 77.7990493774414 74.5069885253906 73.7538375854492 73.9964370727539 76.8346786499023 83.8564300537109 92.9804153442383 99.6717071533203 102.592826843262 103.74471282959 104.331878662109 103.585487365723 98.9064788818359 89.8753509521484 81.4421920776367 73.5836639404297 67.6845703125 67.4406433105469 69.9103012084961 69.3908767700195 69.894645690918 70.6747283935547 70.588020324707 71.4329223632812 72.3645706176758 72.2048187255859 71.1310043334961 69.8268127441406 68.4551391601562 67.4509429931641 66.7816390991211 66.0986557006836 66.8833923339844 71.5096282958984 76.3110504150391 77.3407440185547 77.8163986206055 78.9179153442383 78.5821075439453
-9999 -9999 -9999 -9999 -9999 -9999 -9999 -9999 -9999 -9999 -9999 -9999 -9999 -9999 -9999 -9999 348.464653015137 368.359313964844 351.787841796875 335.005096435547 320.087188720703 269.179107666016 203.361938476562 155.355773925781 137.632797241211 131.983322143555 129.815841674805 127.248405456543 116.646125793457 99.5319366455078 84.2593307495117 75.0537872314453 72.4265823364258 72.7442932128906 72.7662353515625 73.2148895263672 77.2166748046875 84.9106369018555 92.4692306518555 96.9403228759766 98.9502258300781 99.8764038085938 100.031394958496 96.6469573974609 88.750862121582 80.7384796142578 73.2330017089844 67.4255981445312 66.4723587036133 67.4680252075195 66.2773590087891 66.0339431762695 67.0202865600586 66.5073089599609 64.5478820800781 63.1116371154785 61.9464645385742 61.3615226745605 61.1026000976562 61.3773193359375 61.9064826965332 62.2755508422852 62.8634033203125 65.4470062255859 69.8951263427734 73.9814300537109 76.0520706176758 77.4640655517578 78.2655868530273 77.1791610717773
-9999 -9999 -9999 -9999 -9999 -9999 -9999 -9999 -9999 -9999 -9999 -9999 -9999 -9999 -9999 -9999 394.335998535156 420.312683105469 427.240051269531 392.383941650391 354.579711914062 275.155059814453 199.951019287109 150.895233154297 130.608154296875 125.875160217285 127.692085266113 128.223663330078 116.824935913086 97.7832565307617 81.1241073608398 72.40283203125 72.5439453125 75.6373138427734 75.2104339599609 73.2827072143555 74.2337265014648 79.4883499145508 86.6671524047852 91.5462875366211 93.7534332275391 95.3415069580078 96.5695266723633 93.9436874389648 87.7248077392578 80.489013671875 73.284782409668 67.6296081542969 66.0888290405273 65.092170715332 63.8164939880371 63.4324493408203 65.0633926391602 66.8205261230469 65.3903579711914 61.5280876159668 59.4928588867188 59.7118797302246 60.1757507324219 60.939266204834 61.6996002197266 61.995361328125 62.8264465332031 65.8852310180664 69.7218246459961 72.9593734741211 75.4042816162109 77.2451171875 78.1501846313477 77.6728210449219
-9999 -9999 -9999 -9999 -9999 -9999 -9999 -9999 -9999 -9999 -9999 -9999 -9999 -9999 -9999 -9999 -9999 446.350692749023 472.270629882812 438.415161132812 369.324493408203 270.029602050781 190.476058959961 147.448287963867 129.212738037109 127.102912902832 131.737121582031 130.692321777344 116.206619262695 94.4449920654297 77.1313552856445 70.0239639282227 73.4938430786133 78.7740859985352 78.2360000610352 75.181282043457 73.7048416137695 76.9816360473633 83.4432220458984 88.1517486572266 89.9699096679688 91.7356567382812 93.5662307739258 91.5683822631836 87.0257568359375 80.7253570556641 73.7649230957031 68.3994293212891 67.4005508422852 66.4977035522461 66.3816528320312 65.6026229858398 66.3293151855469 68.2469482421875 67.3835144042969 62.8824653625488 61.2592353820801 61.4393920898438 61.2000694274902 61.4509010314941 62.1653251647949 62.5597152709961 63.2014122009277 66.1969604492188 69.8424682617188 72.555061340332 74.979621887207 76.9449996948242 78.3731994628906 78.8544387817383
-9999 -9999 -9999 -9999 -9999 -9999 -9999 -9999 -9999 -9999 -9999 -9999 -9999 -9999 413.818511962891 420.312683105469 450.29195022583 468.925018310547 465.579406738281 464.628234863281 379.190826416016 274.162170410156 193.271484375 154.746597290039 140.613327026367 136.72883605957 137.049240112305 130.802474975586 112.405448913574 89.4966049194336 74.1294784545898 68.8743515014648 74.2248306274414 80.0710754394531 79.3365478515625 76.4272003173828 74.6916961669922 77.0552062988281 82.5834808349609 86.9520111083984 88.1611785888672 89.8300399780273 91.6785507202148 89.5773696899414 85.6249313354492 81.0278091430664 74.7377395629883 69.499755859375 69.8533248901367 70.9335784912109 70.7259979248047 68.0192413330078 68.4018020629883 68.9132080078125 67.2608261108398 63.6825981140137 63.2232055664062 63.5031814575195 63.2462844848633 63.28466796875 63.7999114990234 64.2940826416016 64.3703994750977 66.5881500244141 69.9761581420898 72.3683242797852 74.4918365478516 76.2725067138672 77.8739547729492 79.1769561767578
-9999 -9999 -9999 -9999 -9999 -9999 -9999 -9999 -9999 -9999 -9999 -9999 -9999 -9999 -9999 -9999 -9999 -9999 455.394332885742 452.639068603516 385.575408935547 289.080352783203 209.642196655273 168.449340820312 151.505737304688 141.48420715332 135.738159179688 123.915153503418 102.89079284668 83.0524444580078 72.0794982910156 68.7194747924805 75.185173034668 80.5264358520508 78.9812774658203 77.017936706543 76.6910781860352 78.5708465576172 82.5918502807617 85.8418197631836 86.6486053466797 88.7516479492188 90.2854156494141 86.7769317626953 83.2738876342773 81.5236129760742 76.425407409668 70.1174240112305 70.5918960571289 72.3488235473633 70.8817443847656 68.1379013061523 69.4703598022461 70.0636444091797 67.5134887695312 64.4698867797852 65.1711273193359 66.564094543457 66.2182159423828 65.5368957519531 65.2957229614258 65.7599258422852 65.6740264892578 66.3825988769531 68.9890670776367 71.4740905761719 73.6602096557617 75.474609375 76.9134902954102 78.343635559082
-9999 -9999 -9999 -9999 -9999 -9999 -9999 -9999 -9999 -9999 -9999 -9999 -9999 -9999 -9999 -9999 -9999 418.198272705078 448.620506286621 438.730621337891 380.448547363281 291.793792724609 211.880767822266 168.598617553711 149.283233642578 134.96272277832 122.896446228027 108.111267089844 90.9570922851562 77.9061508178711 70.9100570678711 69.7032852172852 75.5558013916016 79.2532577514648 78.4289779663086 78.3718414306641 79.0660095214844 80.1620254516602 82.0985794067383 84.0675430297852 85.7843627929688 88.5063400268555 89.0072174072266 83.6360931396484 82.1009750366211 82.2631149291992 79.2149658203125 71.808723449707 73.8447570800781 78.3904571533203 73.9702835083008 70.5748977661133 70.1611328125 67.7660064697266 68.2563247680664 67.9017944335938 69.8735733032227 70.2426834106445 68.2722930908203 67.513671875 66.3317260742188 66.5061264038086 67.4780731201172 68.0415878295898 69.5522079467773 71.4793395996094 73.2289581298828 74.776969909668 76.0783538818359 77.1134185791016
-9999 -9999 -9999 -9999 -9999 -9999 -9999 -9999 -9999 -9999 -9999 -9999 -9999 305.658020019531 304.007097032335 -9999 365.599609375 424.171730041504 418.198272705078 484.9140625 369.375549316406 267.837432861328 192.904281616211 156.019775390625 136.362197875977 120.37776184082 106.354919433594 94.1087875366211 83.02001953125 74.7444458007812 70.618766784668 70.8287200927734 74.4599151611328 76.8048782348633 78.1928787231445 80.0819778442383 80.7676544189453 80.524528503418 81.0915069580078 82.9398040771484 85.7357635498047 88.3248138427734 87.3575744628906 82.0817565917969 82.5088043212891 82.5059967041016 83.1008224487305 75.1564865112305 79.7298049926758 90.9127883911133 86.3125686645508 80.5370864868164 80.1982269287109 74.3005294799805 72.9444885253906 72.1257247924805 70.979736328125 69.024299621582 67.9359359741211 68.2445297241211 66.718391418457 65.2895126342773 65.158561706543 65.7450485229492 67.0144958496094 69.0992736816406 71.2897415161133 73.0826034545898 75.18115234375 78.6566162109375
-9999 -9999 -9999 -9999 -9999 -9999 -9999 -9999 -9999 -9999 -9999 -9999 -9999 -9999 305.658020019531 307.234822591146 299.128448486328 432.070770263672 547.289428710938 451.059265136719 316.361419677734 202.494491577148 167.18083190918 139.603622436523 119.617309570312 105.532684326172 94.8845062255859 86.3938827514648 78.1968765258789 72.6212997436523 70.3362197875977 69.8298568725586 71.7107315063477 74.7480010986328 78.1100845336914 80.9451675415039 81.1651916503906 79.9625549316406 80.2093200683594 82.6131286621094 85.7905807495117 87.5480194091797 85.090705871582 82.3318557739258 83.6234970092773 82.2732543945312 86.0666580200195 78.7702560424805 78.4237060546875 92.0883331298828 90.8826446533203 84.6731796264648 81.4654769897461 77.5981292724609 74.0306167602539 70.9075698852539 70.5972290039062 71.388916015625 68.6044235229492 66.6308898925781 66.840950012207 68.2655715942383 69.8479843139648 70.5345230102539 70.2072677612305 70.340690612793 72.7576446533203 75.8439407348633 77.9303970336914 78.1805648803711
-9999 -9999 -9999 -9999 -9999 -9999 -9999 -9999 -9999 -9999 -9999 -9999 -9999 -9999 292.501258850098 305.658020019531 316.917999267578 297.389709472656 261.602569580078 224.349411010742 188.960037231445 156.245635986328 135.301620483398 116.178352355957 102.398208618164 92.9710159301758 85.1083679199219 78.1359558105469 72.7094268798828 70.3089294433594 69.4908905029297 67.7080993652344 69.1075134277344 73.0150680541992 76.8877258300781 79.4413299560547 79.4381713867188 78.5553970336914 79.4423828125 82.5531463623047 85.1594085693359 85.5029602050781 81.5666427612305 80.8218536376953 83.2235717773438 81.385986328125 83.8693084716797 79.7221069335938 72.6334228515625 82.2196960449219 89.9120559692383 91.2942886352539 83.2600173950195 72.7101364135742 72.1648330688477 75.9845123291016 72.1652450561523 73.4803466796875 73.3040161132812 71.0542449951172 69.6814193725586 69.2135620117188 70.8984298706055 74.2050704956055 76.0426483154297 75.8718185424805 75.5163955688477 74.6728286743164 71.6186370849609 67.0609130859375
-9999 -9999 -9999 -9999 -9999 -9999 -9999 -9999 -9999 -9999 -9999 296.093872070312 309.716522216797 311.343414306641 279.9951171875 273.008483886719 244.832122802734 208.566604614258 182.478668212891 170.379547119141 150.741485595703 128.297210693359 109.076194763184 96.4371109008789 87.5372772216797 79.6308441162109 73.2880554199219 69.6799087524414 67.7361145019531 68.5442962646484 69.1920928955078 66.6870269775391 68.0287322998047 71.2926940917969 74.2053680419922 75.8230819702148 76.1113357543945 76.6705322265625 78.7508544921875 82.1828002929688 84.0245971679688 83.1973571777344 78.6677017211914 79.7719802856445 83.2313842773438 80.6456527709961 80.2384719848633 78.8214263916016 70.2657623291016 72.8024368286133 80.0115737915039 84.341194152832 92.6699600219727 88.3753051757812 82.0122756958008 85.9372177124023 83.7911758422852 74.6536636352539 68.8080825805664 71.7224578857422 72.8892822265625 69.8875122070312 64.7763671875 63.6710090637207 68.1535873413086 70.9418411254883 71.7196578979492 69.9898910522461 66.0757446289062 64.5881042480469
-9999 -9999 -9999 -9999 -9999 -9999 -9999 -9999 -9999 402.481536865234 332.763427734375 282.706298828125 262.527801513672 201.49201965332 208.495544433594 221.68913269043 184.606811523438 175.630157470703 167.514007568359 151.796936035156 124.493804931641 100.855430603027 87.5492706298828 79.2079696655273 72.5437316894531 66.6310272216797 64.2868881225586 64.1513824462891 65.3091506958008 69.3721313476562 70.2654113769531 67.304557800293 68.0689010620117 69.9626922607422 72.0583801269531 73.1696090698242 73.8095092773438 75.3806076049805 78.0258560180664 80.9975433349609 82.2704162597656 81.1732788085938 78.9423828125 81.8489456176758 83.8929748535156 78.9004974365234 75.8865661621094 76.5921173095703 69.9768524169922 66.7857131958008 66.6888198852539 67.8578414916992 74.4085693359375 84.0667419433594 84.3831558227539 84.5807647705078 87.8121490478516 86.4086761474609 80.7202529907227 74.1581115722656 71.6977767944336 72.2791900634766 71.653434753418 72.0427703857422 70.8838043212891 66.7817687988281 67.9854354858398 67.7123718261719 66.2095413208008 67.7271041870117
-9999 -9999 -9999 -9999 -9999 -9999 -9999 -9999 -9999 405.416229248047 327.767517089844 256.041656494141 223.431213378906 202.543960571289 194.305267333984 166.398391723633 166.509521484375 162.876815795898 149.935394287109 121.874473571777 95.2221755981445 79.1103515625 69.5537109375 63.682544708252 60.3480834960938 59.5247573852539 61.6900405883789 63.434684753418 66.2331085205078 71.9761428833008 71.4838790893555 69.5478591918945 70.0621185302734 70.063720703125 71.0220336914062 71.8843994140625 72.8164367675781 74.578369140625 76.7919082641602 78.7774810791016 79.809928894043 79.2842483520508 79.7705154418945 83.5487365722656 82.5637893676758 74.6043472290039 71.0497589111328 73.6828765869141 70.5417404174805 66.7292785644531 64.1061630249023 64.8112945556641 67.5835800170898 71.9944763183594 76.0751037597656 77.1149826049805 76.3044738769531 77.2420272827148 81.9657592773438 82.9252471923828 79.1472473144531 74.2884292602539 69.5207443237305 68.2690811157227 72.9714736938477 76.4238510131836 75.569580078125 70.7115020751953 67.4730911254883 68.1259689331055
-9999 -9999 -9999 -9999 -9999 333.29044342041 391.074890136719 355.715789794922 363.233245849609 325.053070068359 321.684326171875 259.861877441406 214.509460449219 194.09440612793 172.064117431641 159.803344726562 156.11067199707 141.201400756836 113.695655822754 85.8192901611328 69.190315246582 61.6921119689941 56.9150390625 53.2554473876953 53.1932029724121 58.7244491577148 64.1773910522461 66.0504608154297 69.2984848022461 72.3339614868164 70.7238998413086 70.8666381835938 71.6606140136719 71.4956283569336 72.0672607421875 72.5410766601562 72.9945983886719 73.9104385375977 75.2704925537109 76.5953979492188 77.7296905517578 78.5271224975586 81.4746932983398 83.7949829101562 76.4968795776367 68.2986373901367 67.5411071777344 69.8445739746094 68.7038269042969 66.7878723144531 65.9807891845703 66.9742813110352 66.5836334228516 66.3412475585938 69.7213287353516 72.321662902832 70.025276184082 61.4914245605469 63.2642059326172 73.8740234375 79.8423690795898 79.2131729125977 75.3616180419922 71.7481002807617 72.2589111328125 75.9590606689453 79.6554946899414 77.954475402832 73.9657440185547 72.2352828979492
-9999 -9999 -9999 -9999 308.512756347656 319.874603271484 313.699523925781 260.990386962891 282.599029541016 289.833831787109 249.68489074707 240.033172607422 193.827301025391 174.261199951172 166.194091796875 154.774063110352 135.923828125 106.620483398438 77.9285736083984 61.4090805053711 55.2389640808105 54.9386100769043 53.5373649597168 52.0473899841309 55.0845336914062 62.2608528137207 67.1263046264648 68.8468170166016 69.8657379150391 68.7493362426758 67.7402114868164 68.9512176513672 69.9225311279297 71.0807495117188 72.5747833251953 73.1786041259766 73.3545913696289 73.7328948974609 74.4671173095703 75.4929885864258 76.7730712890625 78.8137435913086 82.4333953857422 78.1596755981445 65.4815826416016 63.7081871032715 66.6978378295898 67.0163803100586 66.6767120361328 67.4245529174805 67.7677688598633 66.0998840332031 63.3286666870117 65.0251235961914 69.3738784790039 72.6371307373047 70.4093017578125 60.9699821472168 60.8047981262207 59.759407043457 69.1051559448242 75.7737579345703 77.3938140869141 79.3206939697266 79.245979309082 76.8287582397461 77.813117980957 78.6022872924805 76.7185592651367 74.4300384521484
-9999 -9999 -9999 283.669845581055 280.434143066406 273.891571044922 282.733856201172 248.345977783203 238.75666809082 204.371017456055 242.686264038086 186.847900390625 169.268615722656 159.866470336914 148.725616455078 127.862968444824 99.742919921875 72.777099609375 56.8304100036621 50.0301895141602 50.5877838134766 54.7364768981934 56.7284317016602 58.2609252929688 61.5589828491211 64.0825271606445 65.0419692993164 65.9763641357422 66.1509475708008 65.0527267456055 65.6623764038086 67.0495147705078 67.6480178833008 68.8900680541992 70.7820281982422 71.5241851806641 71.8076858520508 72.6748504638672 73.452507019043 74.1765899658203 75.5801391601562 78.1535034179688 76.4839019775391 65.3720092773438 59.4738693237305 63.869930267334 66.0900192260742 65.7812042236328 65.407844543457 64.4377593994141 62.0661659240723 59.5951614379883 59.9916610717773 66.7209930419922 71.5773391723633 73.9140548706055 69.7318878173828 63.8337898254395 64.3916015625 60.2180442810059 59.0329093933105 67.6453399658203 76.5299835205078 82.1897506713867 79.2852783203125 71.5653610229492 71.086311340332 74.1540908813477 74.9899139404297 74.2843933105469
-9999 -9999 -9999 282.193786621094 263.538696289062 293.375701904297 307.542327880859 261.180053710938 228.706314086914 195.192138671875 178.7470703125 171.495010375977 166.776962280273 156.15690612793 135.214172363281 103.836006164551 73.8127593994141 57.6993370056152 50.4806938171387 47.3347969055176 50.0629844665527 54.7119064331055 56.3803024291992 57.1820755004883 58.8673095703125 59.1714286804199 60.4082489013672 62.7180023193359 63.4852714538574 64.0216751098633 65.5781097412109 66.9195404052734 67.3068923950195 67.6088714599609 67.4150085449219 66.4753036499023 66.4271087646484 67.5693817138672 68.0567779541016 68.2424011230469 68.8695373535156 67.6275787353516 61.8532485961914 55.8733291625977 54.9020729064941 54.0474739074707 52.2540435791016 51.3478202819824 51.0860366821289 50.9667282104492 51.0047302246094 51.6059799194336 53.5707550048828 62.1277618408203 71.2969360351562 74.2061462402344 70.7140045166016 68.0256729125977 66.542724609375 62.2330894470215 59.1976776123047 60.7351379394531 67.5873947143555 71.4644165039062 66.1397705078125 60.6145439147949 62.4489974975586 66.8116836547852 69.1675338745117 71.2136077880859
