NCOLS 70 
NROWS 52 
XLLCORNER -80 
YLLCORNER 33 
CELLSIZE 0.25 
NODATA_value -9999 
-9999.000000000000000 -9999 -9999 -9999 -9999 -9999 -9999 -9999 -9999 -9999 -9999 -9999 -9999 -9999 -9999 -9999 -9999 -9999 -9999 -9999 -9999 -9999 -9999 -9999 -9999 -9999 -9999 -9999 -9999 -9999 -9999 -9999 -9999 -9999 -9999 -9999 -9999 -9999 -9999 -9999 -9999 -9999 -9999 -9999 -9999 -9999 -9999 -9999 -9999 -9999 -9999 -9999 -9999 -9999 -9999 -9999 -9999 -9999 -9999 -9999 -9999 -9999 -9999 -9999 -9999 -9999 -9999 -9999 -9999 -9999
-9999 -9999 -9999 -9999 -9999 -9999 -9999 -9999 -9999 -9999 -9999 -9999 -9999 -9999 -9999 -9999 -9999 -9999 -9999 -9999 -9999 -9999 -9999 -9999 -9999 -9999 -9999 -9999 -9999 -9999 -9999 -9999 -9999 -9999 -9999 -9999 -9999 -9999 -9999 -9999 -9999 -9999 -9999 -9999 -9999 -9999 -9999 -9999 -9999 -9999 -9999 -9999 -9999 -9999 -9999 -9999 -9999 -9999 -9999 -9999 -9999 -9999 -9999 -9999 -9999 -9999 -9999 -9999 -9999 -9999
-9999 -9999 -9999 -9999 -9999 -9999 -9999 -9999 -9999 -9999 -9999 -9999 -9999 -9999 -9999 -9999 -9999 -9999 -9999 -9999 -9999 -9999 -9999 -9999 -9999 -9999 -9999 -9999 -9999 -9999 -9999 -9999 -9999 -9999 -9999 -9999 -9999 -9999 -9999 -9999 -9999 -9999 -9999 -9999 -9999 -9999 -9999 -9999 -9999 -9999 -9999 -9999 -9999 -9999 -9999 -9999 -9999 -9999 -9999 305.962951660156 -9999 -9999 -9999 -9999 -9999 -9999 -9999 -9999 -9999 -9999
-9999 -9999 -9999 -9999 -9999 -9999 -9999 -9999 -9999 -9999 -9999 -9999 -9999 -9999 -9999 -9999 -9999 -9999 -9999 -9999 -9999 -9999 -9999 -9999 -9999 -9999 -9999 -9999 -9999 -9999 -9999 -9999 -9999 -9999 -9999 -9999 -9999 -9999 -9999 -9999 -9999 -9999 -9999 -9999 -9999 -9999 -9999 -9999 -9999 -9999 -9999 -9999 -9999 -9999 -9999 215.164886474609 193.116638183594 204.895584106445 262.030487060547 337.849487304688 -9999 -9999 -9999 -9999 -9999 -9999 -9999 -9999 -9999 -9999
-9999 -9999 -9999 -9999 -9999 -9999 -9999 -9999 -9999 -9999 -9999 -9999 -9999 -9999 -9999 -9999 -9999 -9999 -9999 -9999 -9999 -9999 -9999 -9999 -9999 -9999 -9999 -9999 -9999 -9999 -9999 -9999 -9999 -9999 -9999 -9999 -9999 -9999 -9999 -9999 -9999 -9999 -9999 -9999 -9999 -9999 -9999 -9999 -9999 -9999 -9999 -9999 282.410369873047 270.805206298828 239.946472167969 200.390106201172 189.061065673828 220.856582641602 -9999 -9999 -9999 -9999 -9999 -9999 -9999 -9999 -9999 -9999 -9999 -9999
-9999 -9999 -9999 -9999 -9999 -9999 -9999 -9999 -9999 -9999 -9999 -9999 -9999 -9999 -9999 -9999 -9999 -9999 -9999 -9999 -9999 -9999 -9999 -9999 -9999 -9999 -9999 -9999 -9999 -9999 -9999 -9999 -9999 -9999 -9999 -9999 -9999 -9999 -9999 -9999 -9999 -9999 -9999 -9999 -9999 -9999 -9999 -9999 -9999 -9999 140.029537963867 202.376586914062 192.023468017578 190.475662231445 202.709396362305 218.638732910156 -9999 -9999 -9999 -9999 -9999 -9999 -9999 -9999 -9999 -9999 -9999 78.8301696777344 78.0194778442383 90.9642181396484
-9999 -9999 -9999 -9999 -9999 -9999 -9999 -9999 -9999 -9999 -9999 -9999 -9999 -9999 -9999 -9999 -9999 -9999 -9999 -9999 -9999 -9999 -9999 -9999 -9999 -9999 -9999 -9999 -9999 -9999 -9999 -9999 -9999 -9999 -9999 -9999 -9999 -9999 -9999 -9999 -9999 -9999 -9999 -9999 210.919840494792 -9999 -9999 113.785480499268 65.9074172973633 83.3763198852539 87.0283508300781 89.3874130249023 106.595695495605 170.34245300293 213.890823364258 -9999 -9999 -9999 -9999 -9999 -9999 -9999 -9999 97.7497482299805 91.0960159301758 89.7274169921875 83.8771133422852 79.2120742797852 73.4013214111328 68.5002975463867
-9999 -9999 -9999 -9999 -9999 -9999 -9999 -9999 -9999 -9999 -9999 -9999 -9999 -9999 -9999 -9999 -9999 -9999 -9999 -9999 -9999 -9999 -9999 -9999 -9999 -9999 -9999 -9999 -9999 -9999 -9999 -9999 -9999 -9999 -9999 -9999 -9999 -9999 -9999 -9999 -9999 -9999 -9999 -9999 214.289810180664 214.277755737305 174.083145141602 124.754127502441 90.3972320556641 71.4276504516602 63.5766716003418 65.9532470703125 95.4430389404297 146.967620849609 166.363174438477 -9999 -9999 -9999 -9999 -9999 -9999 -9999 83.7973327636719 81.2804183959961 78.2775573730469 73.4935913085938 68.9368133544922 66.1409759521484 64.2415161132812 62.5356369018555
-9999 -9999 -9999 -9999 -9999 -9999 -9999 -9999 -9999 -9999 -9999 -9999 -9999 -9999 -9999 -9999 -9999 -9999 -9999 -9999 -9999 -9999 -9999 -9999 -9999 -9999 -9999 -9999 -9999 -9999 -9999 -9999 -9999 -9999 -9999 -9999 -9999 -9999 -9999 -9999 172.691482543945 157.632675170898 150.198504638672 141.739959716797 104.821823120117 84.3855667114258 78.4704666137695 70.3279037475586 63.2599678039551 58.5874786376953 56.1368255615234 58.6559104919434 86.2009582519531 134.251800537109 134.856727600098 -9999 -9999 -9999 -9999 -9999 89.7292200724284 86.2851791381836 80.0651245117188 73.4881057739258 68.61962890625 65.880729675293 64.0336380004883 63.011100769043 62.1999588012695 61.2804374694824
-9999 -9999 -9999 -9999 -9999 -9999 -9999 -9999 -9999 -9999 -9999 -9999 -9999 -9999 -9999 -9999 -9999 -9999 -9999 -9999 -9999 -9999 -9999 -9999 -9999 -9999 -9999 -9999 -9999 -9999 -9999 -9999 -9999 -9999 -9999 -9999 -9999 -9999 -9999 183.473526000977 173.805847167969 160.795074462891 138.297103881836 105.96842956543 79.501335144043 65.0559616088867 59.9306640625 57.4579582214355 54.873477935791 53.5594787597656 53.3048553466797 54.2122993469238 69.4169769287109 109.232315063477 158.696166992188 125.135734558105 -9999 -9999 -9999 94.6707401275635 96.9134902954102 85.9889907836914 78.2898635864258 73.7387237548828 71.2882385253906 69.7482833862305 66.9732666015625 63.8570823669434 61.7539329528809 60.8041496276855
-9999 -9999 -9999 -9999 -9999 -9999 -9999 -9999 -9999 -9999 -9999 -9999 -9999 -9999 -9999 -9999 -9999 -9999 -9999 -9999 -9999 -9999 -9999 -9999 -9999 -9999 -9999 -9999 -9999 -9999 -9999 -9999 -9999 -9999 -9999 -9999 -9999 -9999 128.785249328613 139.882995605469 123.952850341797 102.304351806641 89.6383743286133 75.1784362792969 64.2741928100586 58.6994247436523 54.9683036804199 52.3935852050781 51.9412307739258 52.3700828552246 52.6016387939453 52.664722442627 57.6795501708984 80.849494934082 121.699317932129 128.44270324707 97.3017120361328 100.229334513346 109.514762878418 91.1271209716797 81.1275863647461 72.8166732788086 67.2932815551758 66.1142807006836 66.9412994384766 68.066780090332 66.7619094848633 64.4631576538086 63.4685134887695 63.5311470031738
-9999 -9999 -9999 -9999 -9999 -9999 -9999 -9999 -9999 -9999 -9999 -9999 -9999 -9999 -9999 -9999 -9999 -9999 -9999 -9999 -9999 -9999 -9999 -9999 -9999 -9999 -9999 -9999 -9999 -9999 -9999 -9999 -9999 -9999 -9999 -9999 -9999 116.725921630859 110.129577636719 93.714225769043 77.4209899902344 66.5308685302734 61.0408058166504 58.402099609375 55.528018951416 52.6265830993652 50.6502838134766 51.3936386108398 53.4970626831055 54.2284545898438 53.3402252197266 52.4925689697266 53.3865013122559 63.2581367492676 83.4852142333984 97.5529632568359 102.106979370117 96.390380859375 86.2739562988281 78.0503158569336 70.1769943237305 64.461669921875 62.7180137634277 64.4071731567383 66.0464401245117 66.9742813110352 66.8028106689453 66.7152786254883 67.2698364257812 67.1697845458984
-9999 -9999 -9999 -9999 -9999 -9999 -9999 -9999 -9999 -9999 -9999 -9999 -9999 -9999 -9999 -9999 -9999 -9999 -9999 -9999 -9999 -9999 -9999 -9999 -9999 -9999 -9999 -9999 -9999 -9999 -9999 -9999 -9999 -9999 -9999 -9999 -9999 144.845932006836 115.579399108887 79.7998733520508 64.9360961914062 59.5763397216797 57.3389930725098 54.7435722351074 51.863941192627 50.0331535339355 50.597541809082 53.468563079834 56.4784469604492 56.253719329834 54.2754058837891 52.9351463317871 52.5415267944336 56.1488418579102 66.3643035888672 73.3923645019531 74.3630447387695 72.1041259765625 70.5474472045898 69.6295928955078 68.7205810546875 67.6113052368164 66.7247161865234 66.2785034179688 66.2460403442383 66.4720001220703 66.7160568237305 67.3133010864258 66.6996536254883 65.3123321533203
-9999 -9999 -9999 -9999 -9999 -9999 -9999 -9999 -9999 -9999 -9999 -9999 -9999 -9999 -9999 -9999 -9999 -9999 -9999 -9999 -9999 -9999 -9999 -9999 -9999 -9999 -9999 -9999 -9999 -9999 -9999 -9999 -9999 -9999 -9999 -9999 -9999 175.202621459961 114.176002502441 72.2832641601562 61.0141143798828 58.5002555847168 56.6233444213867 53.9219360351562 51.1752815246582 50.9790992736816 52.3286666870117 53.9394454956055 55.8395042419434 56.8078994750977 56.1133804321289 54.6655158996582 54.1302833557129 56.2315216064453 60.0785255432129 61.364070892334 63.0814247131348 64.8411026000977 66.584358215332 69.4603576660156 71.3261413574219 70.5248489379883 70.615234375 69.7865982055664 67.8045196533203 66.3332824707031 65.6210403442383 66.1167907714844 66.4377288818359 66.9558486938477
-9999 -9999 -9999 -9999 -9999 -9999 -9999 -9999 -9999 -9999 -9999 -9999 -9999 -9999 -9999 -9999 -9999 -9999 -9999 -9999 -9999 -9999 -9999 -9999 -9999 -9999 -9999 -9999 -9999 -9999 -9999 -9999 -9999 -9999 -9999 -9999 281.787536621094 187.081085205078 102.776809692383 74.1673431396484 64.1107482910156 59.7812767028809 56.8902130126953 53.7152481079102 52.1046943664551 52.8392753601074 53.8746910095215 53.6859474182129 52.6366004943848 53.7907524108887 56.9211692810059 58.0246238708496 57.7174339294434 57.3945121765137 57.0835571289062 58.1924934387207 62.5718269348145 67.6001968383789 70.8011856079102 72.6085510253906 72.482177734375 74.233642578125 79.4303359985352 81.9200210571289 79.7899017333984 77.9944458007812 79.9704284667969 83.8136825561523 85.7398071289062 86.4097366333008
-9999 -9999 -9999 -9999 -9999 -9999 -9999 -9999 -9999 -9999 -9999 -9999 -9999 -9999 -9999 -9999 -9999 -9999 -9999 -9999 -9999 -9999 -9999 -9999 -9999 -9999 -9999 -9999 -9999 -9999 -9999 -9999 -9999 -9999 -9999 -9999 -9999 142.839141845703 121.757652282715 90.4812927246094 71.7299346923828 63.9039611816406 60.4199829101562 56.7598838806152 55.2560997009277 56.1159553527832 56.9687385559082 57.5173988342285 55.522045135498 56.0774078369141 59.7970352172852 62.0920715332031 61.7938537597656 60.7671394348145 60.6995468139648 61.6020698547363 62.1770401000977 66.1986618041992 71.429328918457 75.7211227416992 80.7723922729492 88.2288055419922 92.6156158447266 93.8995742797852 90.7014999389648 90.7941818237305 95.6570587158203 100.432289123535 101.976524353027 102.202438354492
-9999 -9999 -9999 -9999 -9999 -9999 -9999 -9999 -9999 -9999 -9999 -9999 -9999 -9999 -9999 -9999 -9999 -9999 -9999 -9999 -9999 -9999 -9999 -9999 -9999 -9999 -9999 -9999 -9999 -9999 -9999 -9999 -9999 -9999 -9999 -9999 -9999 -9999 123.751998901367 -9999 72.2429428100586 64.171142578125 63.1052589416504 62.6048278808594 62.1628570556641 64.9154510498047 67.5342102050781 66.7846069335938 63.7408027648926 61.0009613037109 67.8727874755859 72.3109130859375 65.3576507568359 64.9027099609375 66.1542739868164 66.2139129638672 66.0479888916016 75.7516021728516 86.0739440917969 90.9847030639648 94.3217086791992 97.9934844970703 97.5662994384766 99.8498992919922 101.297721862793 101.325531005859 100.280342102051 99.4927978515625 99.4093399047852 99.6782150268555
-9999 -9999 -9999 -9999 -9999 -9999 -9999 -9999 -9999 -9999 -9999 -9999 -9999 -9999 -9999 -9999 -9999 -9999 -9999 -9999 -9999 -9999 -9999 -9999 -9999 -9999 -9999 -9999 -9999 -9999 -9999 -9999 -9999 -9999 -9999 -9999 -9999 -9999 -9999 -9999 72.0426330566406 65.0405960083008 65.9521865844727 68.8919372558594 72.7631301879883 79.7982788085938 86.4319610595703 79.096549987793 63.1459465026855 50.0481605529785 58.8079643249512 69.2227020263672 66.2385635375977 71.3814926147461 72.1493072509766 68.951171875 73.1706619262695 87.8372116088867 96.1026840209961 97.8688659667969 97.426887512207 96.1719360351562 93.591438293457 91.0441818237305 89.0770263671875 88.1855545043945 88.65478515625 89.9664535522461 91.2890472412109 92.2887878417969
-9999 -9999 -9999 -9999 -9999 -9999 -9999 -9999 -9999 -9999 -9999 -9999 -9999 -9999 -9999 -9999 -9999 -9999 -9999 -9999 -9999 -9999 -9999 -9999 -9999 -9999 -9999 -9999 -9999 -9999 -9999 -9999 -9999 -9999 254.029193878174 236.308090209961 192.931091308594 -9999 116.977188110352 103.190605163574 85.7950439453125 82.0208892822266 83.2734527587891 85.3569107055664 93.9069900512695 101.946556091309 105.650459289551 87.1294784545898 57.4463043212891 60.8493003845215 76.3530426025391 74.3645629882812 81.9664306640625 89.9116668701172 83.8007507324219 76.7992248535156 84.6311492919922 96.1451187133789 98.1991958618164 95.4531097412109 90.6747055053711 84.9335861206055 80.6549224853516 78.4821243286133 78.2378692626953 79.4521636962891 81.5876312255859 83.5009689331055 84.9660415649414 85.6689224243164
-9999 -9999 -9999 -9999 -9999 -9999 -9999 -9999 -9999 -9999 -9999 -9999 -9999 -9999 -9999 -9999 -9999 -9999 -9999 -9999 -9999 -9999 -9999 -9999 -9999 -9999 -9999 489.220184326172 489.220184326172 402.212677001953 301.065795898438 266.023834228516 272.680480957031 267.96240234375 264.497314453125 247.348968505859 204.658798217773 167.438323974609 127.869705200195 94.9588928222656 101.269027709961 111.154579162598 110.945899963379 114.947204589844 119.793251037598 119.59058380127 108.304405212402 89.5064697265625 78.5024719238281 72.7530746459961 78.7469940185547 81.2413482666016 85.3720626831055 91.4976806640625 87.1087036132812 84.8549346923828 91.7882385253906 96.6684494018555 93.6098327636719 87.0251846313477 80.1661224365234 75.7162475585938 75.0209121704102 76.2881317138672 78.1664657592773 79.7058563232422 81.6206130981445 83.49072265625 84.0797576904297 82.7031784057617
-9999 -9999 -9999 -9999 -9999 -9999 -9999 -9999 -9999 -9999 -9999 -9999 -9999 -9999 -9999 -9999 -9999 -9999 -9999 -9999 -9999 -9999 -9999 -9999 -9999 -9999 -9999 -9999 -9999 -9999 279.46630859375 280.360473632812 274.680450439453 246.342575073242 232.061141967773 226.169509887695 230.308868408203 233.899597167969 188.833480834961 130.943511962891 140.027389526367 144.419067382812 139.002777099609 140.263870239258 132.199401855469 122.47770690918 101.979370117188 95.2458267211914 91.3483276367188 87.0075149536133 84.828742980957 84.9579467773438 85.7863540649414 85.4237442016602 84.8438262939453 88.197151184082 93.0120162963867 92.8952331542969 87.0343551635742 79.5207748413086 73.7261123657227 71.7862319946289 73.4136505126953 75.7255325317383 77.9427185058594 79.165885925293 80.3260040283203 82.4389953613281 82.4788436889648 80.3649520874023
-9999 -9999 -9999 -9999 -9999 -9999 -9999 -9999 -9999 -9999 -9999 -9999 -9999 -9999 -9999 -9999 -9999 -9999 -9999 -9999 -9999 -9999 -9999 -9999 -9999 448.300059000651 355.282969156901 285.525065104167 246.208889007568 268.704345703125 260.773559570312 245.80078125 218.507461547852 180.841430664062 164.745910644531 163.718368530273 177.57048034668 198.026062011719 202.111267089844 185.211700439453 178.121124267578 180.185577392578 174.154190063477 162.577575683594 145.087707519531 127.314079284668 115.256210327148 109.325439453125 106.271286010742 101.516456604004 96.8488922119141 94.2605819702148 92.9891815185547 92.267448425293 90.8231658935547 92.5959701538086 93.2468185424805 90.5021057128906 85.02685546875 78.7843399047852 73.7112426757812 71.3431396484375 71.4905395507812 72.8777694702148 75.1457977294922 76.5985107421875 77.0759735107422 77.8316497802734 77.8945007324219 79.3271942138672
-9999 -9999 -9999 -9999 -9999 -9999 -9999 -9999 -9999 -9999 -9999 -9999 -9999 -9999 -9999 -9999 -9999 -9999 -9999 -9999 -9999 -9999 -9999 -9999 553.524108886719 448.750671386719 342.625396728516 274.472839355469 239.476959228516 202.181411743164 177.092315673828 163.054046630859 156.536636352539 152.245239257812 148.238952636719 145.642059326172 144.60026550293 150.29460144043 166.555725097656 175.9755859375 176.567489624023 177.540939331055 174.421127319336 165.696563720703 152.479614257812 139.76628112793 130.958465576172 126.245948791504 123.698577880859 120.431358337402 116.458435058594 112.711235046387 111.025466918945 110.934516906738 108.743171691895 109.434066772461 108.425636291504 103.161834716797 94.5066604614258 86.7396850585938 81.3487548828125 77.9288864135742 75.8184127807617 74.7900314331055 74.8672714233398 74.8550338745117 74.6239318847656 75.3169937133789 79.0772323608398 87.3013381958008
-9999 -9999 -9999 -9999 -9999 -9999 -9999 -9999 -9999 -9999 -9999 -9999 -9999 -9999 -9999 -9999 -9999 -9999 -9999 -9999 -9999 -9999 -9999 -9999 349.343170166016 246.089279174805 211.427337646484 188.709121704102 175.423461914062 169.729400634766 167.300430297852 163.971084594727 158.530181884766 151.261123657227 144.622329711914 140.687713623047 139.056304931641 137.866744995117 137.074172973633 144.796844482422 154.769668579102 152.431838989258 146.59358215332 143.067230224609 138.949188232422 134.354675292969 129.54133605957 125.78165435791 123.508163452148 121.729736328125 120.024444580078 118.358276367188 116.675773620605 115.417686462402 115.641716003418 119.893104553223 122.307273864746 121.898895263672 116.266098022461 109.857536315918 102.86279296875 97.398551940918 93.2272415161133 89.5936431884766 86.6996765136719 85.0608596801758 85.5597610473633 89.0999450683594 95.7651290893555 103.849342346191
-9999 -9999 -9999 -9999 -9999 -9999 -9999 -9999 -9999 -9999 -9999 -9999 -9999 -9999 -9999 -9999 -9999 -9999 -9999 -9999 -9999 -9999 -9999 238.577365875244 243.168823242188 196.227783203125 204.576354980469 187.928192138672 184.891174316406 183.98210144043 178.302963256836 167.118270874023 156.650009155273 150.781677246094 147.037292480469 143.813507080078 141.893997192383 141.051406860352 139.109405517578 136.473739624023 134.146057128906 132.094299316406 131.033905029297 131.133316040039 131.226623535156 129.837646484375 127.582130432129 125.577041625977 123.654151916504 121.804733276367 119.913162231445 118.086357116699 116.621719360352 116.318725585938 116.853645324707 118.081756591797 120.247901916504 124.46898651123 127.540405273438 127.827751159668 124.133598327637 120.628440856934 118.706642150879 116.974365234375 114.013633728027 111.575630187988 111.185394287109 112.254867553711 113.410148620605 112.069213867188
-9999 -9999 -9999 -9999 -9999 -9999 -9999 -9999 -9999 -9999 -9999 -9999 -9999 -9999 -9999 -9999 -9999 -9999 -9999 -9999 -9999 -9999 -9999 172.151473999023 189.64599609375 193.336410522461 210.800186157227 204.325607299805 199.268005371094 192.269149780273 177.456817626953 158.643249511719 148.061538696289 147.539184570312 147.682983398438 145.575042724609 143.038696289062 140.690338134766 138.652038574219 136.970886230469 133.855804443359 128.642868041992 123.445945739746 118.793975830078 114.624755859375 110.876411437988 108.077865600586 106.637916564941 106.165802001953 106.405792236328 106.219390869141 105.756126403809 105.491539001465 106.141899108887 107.062438964844 107.640815734863 107.845748901367 107.584259033203 107.599159240723 107.892906188965 108.61302947998 109.944839477539 112.901847839355 116.087142944336 116.610305786133 115.962890625 114.099601745605 109.890579223633 104.522178649902 98.370002746582
-9999 -9999 -9999 -9999 -9999 -9999 -9999 -9999 -9999 -9999 -9999 -9999 -9999 -9999 -9999 -9999 -9999 -9999 -9999 -9999 -9999 -9999 244.415832519531 190.656555175781 203.011444091797 218.889923095703 217.63850402832 214.81086730957 206.366424560547 190.349700927734 169.282318115234 152.510894775391 144.661224365234 143.075408935547 141.081924438477 138.212387084961 135.912155151367 133.768096923828 131.294479370117 126.346748352051 117.424743652344 106.07536315918 94.5880432128906 85.310188293457 79.7081985473633 76.5948944091797 74.6805877685547 73.8124542236328 73.9870986938477 74.9144058227539 75.807746887207 76.8028411865234 77.8428192138672 78.7673797607422 79.4260787963867 79.4291229248047 78.953987121582 78.3171615600586 78.0287246704102 78.503662109375 79.7671432495117 81.5583114624023 84.1706390380859 86.9094467163086 88.5136413574219 89.5522689819336 88.8264312744141 86.1038436889648 83.5286560058594 80.6156234741211
-9999 -9999 -9999 -9999 -9999 -9999 -9999 -9999 -9999 -9999 -9999 -9999 -9999 -9999 644.369010077583 -9999 -9999 -9999 -9999 575.957214355469 -9999 275.322204589844 246.061279296875 228.742553710938 239.17741394043 230.636367797852 221.939529418945 220.138610839844 210.464538574219 186.931289672852 163.365142822266 150.11979675293 143.546661376953 139.342742919922 135.261978149414 131.726699829102 130.003219604492 129.660903930664 128.461654663086 122.673355102539 110.937240600586 96.5072860717773 81.6399078369141 71.7392272949219 69.505012512207 69.4221420288086 68.6058654785156 67.6178359985352 66.7868270874023 66.1457901000977 65.874626159668 66.2020263671875 66.8730087280273 67.7472305297852 68.44091796875 68.6677398681641 68.7207489013672 68.7764053344727 68.862060546875 69.0141448974609 69.2387924194336 69.6734924316406 70.2619781494141 70.7051391601562 71.1161804199219 71.6555709838867 72.3917007446289 74.765510559082 75.5792999267578 68.8208465576172
-9999 -9999 -9999 -9999 -9999 -9999 -9999 -9999 -9999 -9999 -9999 -9999 -9999 -9999 642.448806762695 -9999 -9999 -9999 -9999 499.429458618164 359.178698730469 264.001342773438 238.656372070312 242.326919555664 234.666885375977 226.449066162109 224.920684814453 222.600433349609 209.215576171875 185.128631591797 162.028533935547 147.892501831055 140.662155151367 135.449600219727 130.20588684082 126.324920654297 125.290809631348 126.561004638672 128.407424926758 127.159004211426 119.064300537109 106.289985656738 88.3730545043945 72.1917190551758 67.200309753418 66.25 64.8536987304688 64.2973251342773 64.1356201171875 63.6447334289551 62.8416404724121 61.7277412414551 60.7238693237305 61.9741973876953 65.204719543457 68.3099975585938 70.6807250976562 72.1240386962891 72.9183044433594 73.3726196289062 73.4470520019531 73.0037536621094 72.0004730224609 70.9046401977539 70.3292999267578 70.8376770019531 73.1468734741211 74.5732040405273 69.0254287719727 58.6399002075195
-9999 -9999 -9999 -9999 -9999 -9999 -9999 -9999 -9999 -9999 -9999 -9999 -9999 -9999 651.089721679688 -9999 -9999 -9999 -9999 -9999 246.492244720459 257.711029052734 253.003204345703 247.160903930664 243.416427612305 238.291854858398 230.216583251953 217.784530639648 201.701812744141 183.948257446289 165.939041137695 151.082183837891 141.015411376953 134.171813964844 128.676391601562 124.269821166992 122.425239562988 124.073265075684 127.511711120605 129.580139160156 125.519409179688 115.416381835938 96.342170715332 73.7534332275391 64.5066375732422 62.4849624633789 60.4604225158691 59.9576530456543 60.4828414916992 60.6519889831543 59.6628952026367 57.815071105957 58.3410186767578 62.6939392089844 67.5030288696289 71.5250244140625 74.5876693725586 76.088264465332 76.8875122070312 77.7771987915039 78.3046188354492 77.8406829833984 76.6502532958984 75.4247894287109 74.5288391113281 73.8790969848633 72.1677703857422 65.7154159545898 56.6692581176758 52.8514785766602
-9999 -9999 -9999 -9999 -9999 -9999 -9999 -9999 -9999 -9999 -9999 -9999 -9999 -9999 613.099456787109 -9999 616.526062011719 -9999 -9999 -9999 196.908706665039 267.347900390625 256.488677978516 252.26789855957 249.349243164062 236.821472167969 216.69352722168 196.639739990234 181.311599731445 170.114074707031 161.339904785156 153.585098266602 146.496246337891 140.408264160156 135.223663330078 130.522109985352 127.508377075195 127.352470397949 128.639831542969 129.886322021484 128.177017211914 121.083541870117 103.52961730957 78.6466293334961 66.023796081543 63.3426971435547 60.8302307128906 59.4866256713867 59.8743171691895 60.696662902832 61.1045455932617 61.4277191162109 63.780403137207 67.5405654907227 70.3426284790039 72.630973815918 74.4136505126953 75.4872436523438 76.7812347412109 78.5047607421875 79.5004653930664 79.0561141967773 77.760986328125 76.1503982543945 73.6719055175781 68.877555847168 60.6257171630859 52.1026802062988 48.0557403564453 47.9896965026855
-9999 -9999 -9999 -9999 -9999 -9999 -9999 -9999 -9999 -9999 -9999 -9999 -9999 -9999 613.099456787109 575.109191894531 498.589385986328 -9999 -9999 231.643348693848 225.533065795898 281.482666015625 256.265380859375 248.665145874023 233.957000732422 208.976318359375 183.153289794922 163.961303710938 152.181823730469 145.454483032227 142.114242553711 140.660461425781 139.936370849609 139.211791992188 138.111251831055 136.448226928711 134.540191650391 132.859512329102 131.325912475586 130.049682617188 128.389312744141 124.444160461426 110.443290710449 84.1648864746094 67.4945068359375 64.5463714599609 62.8226089477539 61.1609992980957 61.1368217468262 61.9535751342773 63.140438079834 64.3067398071289 65.6564636230469 67.393928527832 69.3534088134766 71.1787872314453 72.5394821166992 73.7808303833008 75.5587539672852 77.3265228271484 77.8434753417969 76.7124328613281 74.4428482055664 71.1815185546875 65.6652145385742 57.3924522399902 49.169506072998 45.0302734375 44.1049880981445 44.0120811462402
-9999 -9999 -9999 -9999 -9999 -9999 -9999 -9999 -9999 -9999 -9999 -9999 -9999 -9999 -9999 448.801165771484 424.027801513672 -9999 281.747150421143 231.359069824219 272.772552490234 274.123321533203 256.053070068359 237.341262817383 204.194366455078 169.694534301758 148.779220581055 137.719863891602 131.66569519043 127.789749145508 124.778221130371 123.647720336914 125.00122833252 127.161666870117 128.498443603516 129.497772216797 129.793167114258 128.909027099609 127.987640380859 127.170211791992 125.901733398438 124.343254089355 114.363143920898 87.8961334228516 67.5514755249023 64.7164154052734 64.9552383422852 63.2807159423828 62.3997001647949 62.3883857727051 63.2142295837402 64.3181457519531 65.5046081542969 66.7793884277344 67.8632125854492 68.7281799316406 69.6154708862305 70.752197265625 72.1023330688477 72.8794097900391 72.1671447753906 69.8972778320312 66.16845703125 60.7778472900391 53.9068450927734 47.568920135498 43.9923515319824 42.8300628662109 42.3232498168945 42.4354705810547
-9999 -9999 -9999 -9999 -9999 -9999 -9999 -9999 -9999 -9999 -9999 -9999 -9999 -9999 -9999 379.191864013672 367.087585449219 -9999 194.134552001953 253.731887817383 279.392883300781 260.977844238281 248.825439453125 216.225189208984 171.314788818359 142.609878540039 131.850997924805 124.750984191895 116.973014831543 109.851356506348 104.106567382812 102.327583312988 105.192863464355 109.407234191895 114.101173400879 118.451538085938 120.845420837402 121.805221557617 122.198684692383 121.733047485352 120.074089050293 118.856643676758 112.884620666504 88.3410034179688 65.7922515869141 63.4501113891602 66.0532073974609 65.3557815551758 64.664306640625 64.4686584472656 64.7153244018555 65.2042694091797 65.4819183349609 65.334358215332 65.0393676757812 64.9799652099609 65.4425354003906 66.2298049926758 66.762451171875 66.3953170776367 64.4485397338867 60.9075355529785 55.9592933654785 50.4563751220703 46.0385398864746 43.7758445739746 43.0280075073242 42.8126449584961 43.0704460144043 44.0944900512695
-9999 -9999 -9999 -9999 -9999 -9999 -9999 -9999 -9999 -9999 -9999 -9999 -9999 -9999 -9999 342.266510009766 -9999 258.750268118722 235.078598022461 269.038238525391 276.659362792969 265.746307373047 237.668609619141 191.155426025391 149.238494873047 130.651596069336 122.697044372559 111.547889709473 96.5712356567383 85.1603393554688 79.1316452026367 77.6248321533203 79.4724731445312 83.169189453125 89.0450134277344 96.4552841186523 103.674240112305 109.234016418457 112.576377868652 113.108100891113 112.025566101074 113.506446838379 109.816307067871 84.9232406616211 63.1837997436523 62.1250915527344 64.8317184448242 64.2537460327148 63.5404777526855 63.2292175292969 62.8942909240723 62.7760200500488 62.8230247497559 62.7098693847656 62.4078102111816 62.3220062255859 62.3611221313477 62.3903007507324 62.0463180541992 61.010196685791 58.7925605773926 55.3580093383789 51.1586608886719 47.2825698852539 45.0205535888672 44.4683074951172 44.6493606567383 45.5520782470703 47.3510322570801 50.0856475830078
-9999 -9999 -9999 -9999 -9999 -9999 -9999 -9999 -9999 -9999 -9999 -9999 -9999 -9999 342.266510009766 286.636901855469 220.58154296875 225.045501708984 272.261444091797 287.013397216797 294.203491210938 275.698028564453 217.409393310547 166.341171264648 136.825042724609 120.709037780762 107.953666687012 90.6365737915039 76.2359390258789 70.378547668457 68.9865112304688 69.0720977783203 69.5456085205078 70.3305587768555 72.3352127075195 77.0612564086914 85.2845840454102 95.1814117431641 102.343147277832 105.192596435547 106.993835449219 109.932579040527 102.681777954102 78.5020523071289 64.1040649414062 63.5232582092285 63.8759765625 63.4580879211426 63.2112083435059 62.8820343017578 61.8362846374512 60.6669921875 60.462776184082 61.1171493530273 61.927906036377 62.6171836853027 62.7437057495117 62.330810546875 61.5698928833008 60.2733497619629 58.2240447998047 55.6659774780273 52.9643898010254 50.7288246154785 49.5866584777832 49.8387908935547 51.2880096435547 54.1961517333984 58.3818778991699 62.3901252746582
-9999 -9999 -9999 -9999 -9999 -9999 -9999 -9999 -9999 -9999 -9999 -9999 -9999 -9999 -9999 -9999 238.561676025391 237.446685791016 278.934112548828 322.317535400391 327.602294921875 279.762329101562 197.973419189453 150.136947631836 129.482467651367 112.564727783203 95.0864639282227 76.7612762451172 67.8702011108398 68.9399337768555 71.1034469604492 71.7418746948242 71.4357299804688 70.9238128662109 70.6047058105469 72.1499328613281 77.7281646728516 87.056396484375 95.508918762207 101.02766418457 104.902336120605 104.431587219238 92.7087554931641 76.4386901855469 70.4096221923828 67.3396530151367 65.186882019043 65.4590911865234 66.290657043457 67.0253829956055 66.6950454711914 66.1580429077148 67.1963119506836 68.6289596557617 68.9869155883789 68.6057281494141 67.750373840332 66.7941513061523 65.8579254150391 64.563117980957 62.9005432128906 60.9717216491699 59.0597877502441 57.8092460632324 57.9420318603516 59.754566192627 63.7342758178711 70.0377502441406 74.2958602905273 74.6271591186523
-9999 -9999 -9999 -9999 -9999 -9999 -9999 -9999 -9999 -9999 -9999 -9999 -9999 -9999 -9999 -9999 254.309829711914 271.172973632812 356.738220214844 393.544555664062 353.569152832031 271.889007568359 178.258499145508 143.582702636719 125.51741027832 109.165016174316 90.8563461303711 73.7120895385742 67.6003112792969 70.9792633056641 73.0654449462891 72.1813583374023 70.7374114990234 70.0012664794922 70.634407043457 72.7888946533203 76.9740905761719 84.7091979980469 94.0551376342773 100.684188842773 101.146049499512 96.435661315918 89.6018295288086 84.9360427856445 80.7799987792969 76.0637969970703 73.9912414550781 73.3240127563477 73.0844192504883 74.4215698242188 76.4896697998047 77.8190994262695 78.7860717773438 78.9113006591797 78.1549835205078 77.2408142089844 76.3245391845703 75.3105316162109 73.6608276367188 71.4574279785156 69.3184661865234 68.1059951782227 67.756965637207 67.7380294799805 69.3454055786133 72.4423141479492 79.5306625366211 86.1634979248047 73.6778335571289 65.2249984741211
-9999 -9999 -9999 -9999 -9999 -9999 -9999 -9999 -9999 -9999 -9999 -9999 -9999 -9999 -9999 -9999 -9999 373.931594848633 427.515014648438 456.579132080078 357.247222900391 239.156768798828 155.292694091797 134.804962158203 121.68285369873 109.760696411133 93.5914535522461 77.4333343505859 70.065544128418 71.8227462768555 73.4382476806641 73.8921356201172 74.7242813110352 73.8552474975586 71.9951095581055 74.0040435791016 78.3881149291992 86.2078094482422 95.9042434692383 99.3394241333008 95.6938858032227 92.2668838500977 92.4578018188477 92.7458267211914 89.4479522705078 84.7245178222656 81.3092193603516 78.3741607666016 75.9047317504883 74.6799087524414 75.9744873046875 77.0827178955078 76.8388214111328 76.2676162719727 76.1024322509766 76.4954681396484 77.022834777832 77.2702102661133 76.3451766967773 74.4481964111328 72.9238204956055 74.1686248779297 76.3446807861328 77.4318389892578 84.7589263916016 85.890380859375 71.96337890625 66.4571838378906 59.5409202575684 56.4651412963867
-9999 -9999 -9999 -9999 -9999 -9999 -9999 -9999 -9999 -9999 -9999 -9999 -9999 -9999 266.957187652588 271.172973632812 379.82808303833 433.907592773438 440.300170898438 472.046478271484 346.403381347656 210.456756591797 146.879577636719 128.390899658203 119.872261047363 112.365440368652 99.3682327270508 84.2882308959961 74.9348983764648 72.348258972168 73.9659042358398 77.512825012207 83.3825988769531 83.6459503173828 76.5647735595703 75.4625854492188 79.7701416015625 88.2571563720703 96.7746505737305 96.3639068603516 91.4744873046875 89.9238891601562 90.7406311035156 90.9715728759766 91.0051651000977 89.8617095947266 86.1883850097656 81.9601364135742 78.4973754882812 74.9979858398438 71.8953247070312 69.5103454589844 67.863166809082 67.0305557250977 67.6886825561523 70.2672805786133 73.1935577392578 75.0508575439453 75.1912307739258 73.2047653198242 71.1230773925781 72.6769180297852 73.3914642333984 70.8538284301758 67.944709777832 63.3604774475098 55.7439308166504 53.5102005004883 53.867000579834 55.0159072875977
-9999 -9999 -9999 -9999 -9999 -9999 -9999 -9999 -9999 -9999 -9999 -9999 -9999 -9999 -9999 -9999 -9999 -9999 465.031211853027 465.302093505859 346.678161621094 201.077926635742 150.192031860352 126.48705291748 118.176368713379 112.872032165527 102.843185424805 89.0585021972656 79.3249740600586 74.267448425293 75.2172546386719 80.8530654907227 85.3665390014648 82.5743789672852 76.8252258300781 77.4408721923828 81.9106216430664 89.8949584960938 95.6818466186523 92.73681640625 88.1920623779297 86.5066223144531 85.8179626464844 86.6336135864258 88.6123886108398 89.9078903198242 89.0357284545898 86.2315673828125 83.1259689331055 80.1451644897461 76.5088043212891 71.8816833496094 66.8735885620117 63.5629081726074 63.5080833435059 66.7183456420898 71.2448577880859 74.4772872924805 75.2792816162109 73.16259765625 70.0212936401367 70.5432434082031 66.4894180297852 59.0651054382324 53.3371238708496 51.3286895751953 50.568531036377 51.6724815368652 52.7021865844727 53.0862045288086
-9999 -9999 -9999 -9999 -9999 -9999 -9999 -9999 -9999 -9999 -9999 -9999 -9999 -9999 -9999 -9999 -9999 437.876007080078 474.648902893066 482.476104736328 355.822204589844 204.905502319336 149.967315673828 123.816032409668 116.886360168457 112.993530273438 106.065856933594 93.6073150634766 82.1475677490234 75.6151657104492 72.6882171630859 77.4667510986328 80.8823165893555 78.3967971801758 76.3885116577148 79.364631652832 84.0470962524414 90.3472137451172 93.1227264404297 89.1813735961914 85.240234375 83.3760757446289 83.9738693237305 87.0096054077148 89.3403091430664 89.9466171264648 88.9411468505859 86.598991394043 84.3143463134766 82.6379852294922 81.3181381225586 78.7160263061523 75.4084243774414 72.7351150512695 71.8011322021484 73.096076965332 75.2748184204102 76.5197296142578 76.1310729980469 73.3693695068359 69.6469345092773 70.7436065673828 64.6842575073242 55.1965522766113 50.9463386535645 48.7697715759277 50.0314445495605 50.6647682189941 50.6206970214844 50.3208389282227
-9999 -9999 -9999 -9999 -9999 -9999 -9999 -9999 -9999 -9999 -9999 -9999 -9999 242.046905517578 246.57460530599 -9999 318.199096679688 392.639533996582 437.876007080078 512.94140625 358.578887939453 212.627166748047 141.06233215332 120.515892028809 115.579620361328 113.848892211914 109.638740539551 97.8415374755859 83.7233657836914 75.188117980957 70.0778961181641 72.2902145385742 74.7886810302734 75.1303558349609 76.6188125610352 80.3142623901367 84.6361312866211 89.1143264770508 90.0702743530273 86.5022201538086 83.3839797973633 83.1518402099609 86.0708618164062 89.4716415405273 90.4693603515625 89.2995147705078 86.3664474487305 82.76171875 80.3557052612305 79.9824676513672 80.8773727416992 81.6816558837891 81.8555374145508 81.5058364868164 80.6288604736328 79.6177825927734 78.316520690918 76.4103393554688 74.0674057006836 70.5315780639648 67.6420288085938 70.3608245849609 64.9993438720703 54.3392639160156 49.0895690917969 48.2467079162598 49.8482475280762 49.5598564147949 48.869758605957 48.2599601745605
-9999 -9999 -9999 -9999 -9999 -9999 -9999 -9999 -9999 -9999 -9999 -9999 -9999 -9999 242.046905517578 254.005523681641 243.67138671875 392.726806640625 496.283935546875 437.603179931641 301.026000976562 170.747024536133 133.042541503906 118.790802001953 115.837463378906 115.910736083984 113.007102966309 100.559326171875 84.7078399658203 74.3743362426758 69.4120864868164 70.4095840454102 72.1459350585938 73.9944305419922 76.924201965332 80.4624633789062 83.9682235717773 86.4862060546875 86.0696182250977 83.9501953125 83.0067672729492 85.0942153930664 88.6185989379883 89.8006820678711 88.574951171875 86.0500030517578 81.6677474975586 76.6862335205078 74.2068252563477 74.4189834594727 76.1820602416992 78.162109375 79.201545715332 78.6787872314453 76.6801910400391 73.6681823730469 70.1216659545898 67.5154342651367 65.7645797729492 63.1379013061523 63.9561996459961 69.0165252685547 64.6235046386719 52.3420333862305 46.9519348144531 48.5732154846191 49.3779678344727 48.108154296875 46.8790016174316 45.9010391235352
-9999 -9999 -9999 -9999 -9999 -9999 -9999 -9999 -9999 -9999 -9999 -9999 -9999 -9999 221.93860244751 242.046905517578 276.298278808594 263.077941894531 237.206039428711 198.858200073242 163.726013183594 140.367874145508 127.293632507324 120.349960327148 118.63005065918 118.778717041016 114.093406677246 100.746917724609 84.6616287231445 72.7849273681641 68.1539154052734 70.3005905151367 72.1017761230469 74.1605682373047 77.3205184936523 81.0850982666016 84.2693405151367 85.4708938598633 84.1070251464844 83.0652542114258 84.474967956543 87.1304168701172 88.5927429199219 87.8983306884766 85.9403305053711 81.7794418334961 72.2985763549805 62.965202331543 59.1653060913086 58.065544128418 57.6802101135254 57.9668083190918 58.2420349121094 58.4414482116699 58.1567878723145 57.2638359069824 56.1789817810059 55.6124114990234 54.9932708740234 56.0188179016113 63.073860168457 67.8796157836914 61.371826171875 49.2484092712402 46.9746475219727 49.6627388000488 49.1420745849609 46.9188270568848 45.4219589233398 44.2096328735352
-9999 -9999 -9999 -9999 -9999 -9999 -9999 -9999 -9999 -9999 -9999 257.711517333984 246.891891479492 225.260406494141 201.920684814453 218.526412963867 211.576889038086 182.67204284668 156.608291625977 140.889694213867 132.582580566406 128.313003540039 124.645439147949 123.037864685059 122.034896850586 117.181251525879 107.25203704834 95.3701705932617 83.7245254516602 71.2625885009766 65.9770660400391 68.9061584472656 70.8857879638672 73.0388107299805 76.5680770874023 81.1313247680664 85.227912902832 87.3898391723633 87.1861114501953 86.9221725463867 87.9545440673828 88.2474746704102 86.7748641967773 84.0792694091797 78.983268737793 68.6854400634766 57.2184944152832 52.0102958679199 50.137580871582 48.3765296936035 47.2042922973633 47.2505302429199 48.0972328186035 48.6930847167969 49.531005859375 50.222110748291 50.0562744140625 49.7018280029297 51.0591583251953 57.4473838806152 65.6319198608398 65.367073059082 56.0542640686035 47.0281600952148 48.4996948242188 51.434627532959 50.4742126464844 47.5800132751465 45.8704948425293 44.9071617126465
-9999 -9999 -9999 -9999 -9999 -9999 -9999 -9999 -9999 394.993927001953 291.299133300781 227.425354003906 208.329025268555 154.95735168457 165.470352172852 190.683959960938 155.354248046875 146.961837768555 139.041976928711 133.129272460938 129.474548339844 127.825088500977 126.508682250977 121.537536621094 114.300170898438 105.724998474121 95.1461715698242 88.3309783935547 82.4400482177734 70.3720779418945 64.2511291503906 66.6700057983398 67.7783813476562 69.5774459838867 72.7279891967773 76.8843383789062 81.5861587524414 84.9394302368164 85.6559524536133 85.1067886352539 83.7252655029297 80.6324005126953 76.6241149902344 72.3864517211914 66.7961196899414 57.8027610778809 50.1315231323242 47.2820434570312 46.4737739562988 47.0277519226074 48.536994934082 49.1211280822754 48.9626502990723 48.0686531066895 47.4740791320801 47.8076515197754 48.3668365478516 50.7729797363281 57.0302658081055 63.7753524780273 63.8305320739746 57.9338340759277 49.7782135009766 46.5875205993652 48.5945739746094 49.4695320129395 49.9387130737305 49.2266693115234 48.0627136230469 47.3920478820801
-9999 -9999 -9999 -9999 -9999 -9999 -9999 -9999 -9999 394.250061035156 282.050659179688 211.273468017578 188.222137451172 182.28678894043 170.499938964844 146.189254760742 136.797103881836 134.258712768555 131.253967285156 129.104736328125 126.865982055664 121.990867614746 113.410820007324 104.445533752441 95.6574325561523 88.3143615722656 83.1239700317383 83.3238830566406 81.3049697875977 69.1164779663086 65.1385269165039 67.4267959594727 67.8926162719727 68.0432662963867 67.775146484375 68.0723114013672 69.3007888793945 70.7677383422852 71.3611145019531 70.4128952026367 68.4809722900391 66.8190383911133 66.6824340820312 65.6726913452148 58.5328025817871 48.9167251586914 44.908447265625 45.1021041870117 46.4030227661133 48.0352935791016 49.2433624267578 48.8690414428711 47.9156303405762 47.7126388549805 48.688362121582 50.959659576416 54.4773139953613 58.9464492797852 61.6254959106445 59.9495239257812 55.0830039978027 49.7563819885254 45.9809455871582 46.8152122497559 48.4686050415039 49.3095397949219 48.9474067687988 48.6197776794434 48.3566627502441 48.1817779541016
-9999 -9999 -9999 -9999 -9999 334.957382202148 390.796447753906 354.94189453125 345.048767089844 299.888549804688 279.949768066406 216.510299682617 181.897445678711 165.550003051758 146.11750793457 139.12434387207 136.074523925781 131.429260253906 124.363792419434 116.108039855957 106.363670349121 95.531982421875 85.6832275390625 78.2400131225586 72.9756393432617 70.6204147338867 72.9549865722656 81.0404891967773 79.552116394043 67.2285308837891 65.4842987060547 66.0103988647461 65.6861724853516 65.9019393920898 65.8196182250977 64.9329833984375 63.4147758483887 61.9008598327637 60.9279098510742 60.8376846313477 61.9484558105469 64.8529586791992 66.4072418212891 59.4951362609863 47.8614921569824 42.8468437194824 43.2907867431641 44.5917320251465 46.0849189758301 47.9317436218262 50.1298332214355 51.4560966491699 51.9837989807129 52.963565826416 54.6426391601562 56.7346687316895 58.3875389099121 58.0632095336914 55.1842918395996 51.3195419311523 48.8518447875977 47.3777809143066 46.2600059509277 46.1955642700195 46.0910949707031 46.5256576538086 47.694408416748 48.6788330078125 49.0519638061523 49.1376571655273
-9999 -9999 -9999 -9999 323.74169921875 319.203674316406 306.087707519531 235.385864257812 233.451904296875 230.134384155273 203.260543823242 188.767639160156 165.917022705078 148.378204345703 143.530624389648 136.126205444336 128.191131591797 118.092964172363 102.69563293457 88.3507766723633 75.1236724853516 64.7742309570312 58.3241271972656 55.4516830444336 55.1885108947754 57.8716735839844 67.1438369750977 79.2723617553711 76.3110733032227 64.3269500732422 61.8418464660645 60.5774955749512 60.5409164428711 62.108341217041 63.8648643493652 64.5376281738281 63.202449798584 61.2600631713867 60.9103660583496 62.446891784668 65.1025390625 67.0114517211914 61.5991439819336 48.9966278076172 41.3168296813965 40.8655853271484 42.2137031555176 43.9521255493164 45.6968803405762 47.3047332763672 49.7179222106934 52.2241706848145 53.801383972168 54.763671875 55.5163879394531 55.4772682189941 53.9894752502441 51.2588691711426 49.0228042602539 48.8174133300781 50.265438079834 49.6196517944336 48.1395683288574 46.6819839477539 45.5545234680176 44.7284812927246 44.5450096130371 45.5936965942383 47.2591400146484 48.4804496765137
-9999 -9999 -9999 294.867889404297 302.563171386719 276.931762695312 251.04948425293 193.594909667969 175.099792480469 145.523681640625 177.125961303711 154.08332824707 142.228408813477 133.890274047852 129.433013916016 123.227798461914 111.153244018555 93.2361679077148 74.9488677978516 60.8296813964844 52.4230041503906 48.8875045776367 47.9208106994629 48.6955528259277 49.9914207458496 53.412914276123 64.6844024658203 76.7443313598633 73.6944351196289 62.830192565918 58.604866027832 56.3566398620605 56.3980102539062 58.5735130310059 61.5154685974121 63.6633644104004 63.5024261474609 62.601863861084 61.7494850158691 62.8809280395508 65.2022094726562 62.3046264648438 51.8497467041016 42.2283592224121 40.4314384460449 40.7954406738281 41.3572959899902 43.0559272766113 45.2961158752441 46.6624565124512 47.6515846252441 49.5129280090332 51.236011505127 51.9497680664062 51.5959129333496 50.3199348449707 48.9231758117676 48.0613250732422 48.2014045715332 49.5197563171387 50.6377029418945 49.6005783081055 47.4356460571289 45.9825325012207 45.3925857543945 44.9886016845703 44.5850563049316 43.648796081543 43.5503807067871 44.7086868286133
-9999 -9999 -9999 293.773864746094 259.392822265625 244.783477783203 229.137786865234 207.079254150391 184.827774047852 163.507232666016 152.537689208984 142.660949707031 136.940490722656 129.869049072266 123.302070617676 109.776954650879 87.4233093261719 67.1662521362305 54.083080291748 48.5359420776367 47.2017021179199 47.2044410705566 47.478702545166 48.5055923461914 50.2513999938965 53.1038856506348 63.3564376831055 73.5377578735352 71.254020690918 62.1456680297852 56.8126487731934 54.4133834838867 54.7061424255371 57.0600395202637 60.479907989502 63.0128593444824 63.2256278991699 62.8139915466309 61.0292472839355 59.2195243835449 57.414680480957 52.0972709655762 45.2142028808594 43.912281036377 44.2667388916016 42.2732162475586 41.4455375671387 41.7575416564941 42.9715042114258 45.1129722595215 46.5664825439453 47.001163482666 47.4907302856445 48.102108001709 48.1894226074219 47.8099670410156 47.1181488037109 46.352409362793 46.3364486694336 47.1389617919922 47.0901222229004 45.7136688232422 44.4343566894531 44.3358688354492 43.9312286376953 42.8223304748535 42.8537330627441 42.3265228271484 40.6993598937988 44.0718040466309
