NCOLS 70 
NROWS 52 
XLLCORNER -80 
YLLCORNER 33 
CELLSIZE 0.25 
NODATA_value -9999 
-9999.000000000000000 -9999 -9999 -9999 -9999 -9999 -9999 -9999 -9999 -9999 -9999 -9999 -9999 -9999 -9999 -9999 -9999 -9999 -9999 -9999 -9999 -9999 -9999 -9999 -9999 -9999 -9999 -9999 -9999 -9999 -9999 -9999 -9999 -9999 -9999 -9999 -9999 -9999 -9999 -9999 -9999 -9999 -9999 -9999 -9999 -9999 -9999 -9999 -9999 -9999 -9999 -9999 -9999 -9999 -9999 -9999 -9999 -9999 -9999 -9999 -9999 -9999 -9999 -9999 -9999 -9999 -9999 -9999 -9999 -9999
-9999 -9999 -9999 -9999 -9999 -9999 -9999 -9999 -9999 -9999 -9999 -9999 -9999 -9999 -9999 -9999 -9999 -9999 -9999 -9999 -9999 -9999 -9999 -9999 -9999 -9999 -9999 -9999 -9999 -9999 -9999 -9999 -9999 -9999 -9999 -9999 -9999 -9999 -9999 -9999 -9999 -9999 -9999 -9999 -9999 -9999 -9999 -9999 -9999 -9999 -9999 -9999 -9999 -9999 -9999 -9999 -9999 -9999 -9999 -9999 -9999 -9999 -9999 -9999 -9999 -9999 -9999 -9999 -9999 -9999
-9999 -9999 -9999 -9999 -9999 -9999 -9999 -9999 -9999 -9999 -9999 -9999 -9999 -9999 -9999 -9999 -9999 -9999 -9999 -9999 -9999 -9999 -9999 -9999 -9999 -9999 -9999 -9999 -9999 -9999 -9999 -9999 -9999 -9999 -9999 -9999 -9999 -9999 -9999 -9999 -9999 -9999 -9999 -9999 -9999 -9999 -9999 -9999 -9999 -9999 -9999 -9999 -9999 -9999 -9999 -9999 -9999 -9999 -9999 343.512451171875 -9999 -9999 -9999 -9999 -9999 -9999 -9999 -9999 -9999 -9999
-9999 -9999 -9999 -9999 -9999 -9999 -9999 -9999 -9999 -9999 -9999 -9999 -9999 -9999 -9999 -9999 -9999 -9999 -9999 -9999 -9999 -9999 -9999 -9999 -9999 -9999 -9999 -9999 -9999 -9999 -9999 -9999 -9999 -9999 -9999 -9999 -9999 -9999 -9999 -9999 -9999 -9999 -9999 -9999 -9999 -9999 -9999 -9999 -9999 -9999 -9999 -9999 -9999 -9999 -9999 292.451171875 280.413482666016 279.374603271484 295.313262939453 316.39697265625 -9999 -9999 -9999 -9999 -9999 -9999 -9999 -9999 -9999 -9999
-9999 -9999 -9999 -9999 -9999 -9999 -9999 -9999 -9999 -9999 -9999 -9999 -9999 -9999 -9999 -9999 -9999 -9999 -9999 -9999 -9999 -9999 -9999 -9999 -9999 -9999 -9999 -9999 -9999 -9999 -9999 -9999 -9999 -9999 -9999 -9999 -9999 -9999 -9999 -9999 -9999 -9999 -9999 -9999 -9999 -9999 -9999 -9999 -9999 -9999 -9999 -9999 251.835601806641 264.810363769531 279.269714355469 296.42431640625 301.595733642578 297.362243652344 -9999 -9999 -9999 -9999 -9999 -9999 -9999 -9999 -9999 -9999 -9999 -9999
-9999 -9999 -9999 -9999 -9999 -9999 -9999 -9999 -9999 -9999 -9999 -9999 -9999 -9999 -9999 -9999 -9999 -9999 -9999 -9999 -9999 -9999 -9999 -9999 -9999 -9999 -9999 -9999 -9999 -9999 -9999 -9999 -9999 -9999 -9999 -9999 -9999 -9999 -9999 -9999 -9999 -9999 -9999 -9999 -9999 -9999 -9999 -9999 -9999 -9999 227.542666625977 236.285461425781 231.69482421875 220.528930664062 210.418319702148 217.417724609375 -9999 -9999 -9999 -9999 -9999 -9999 -9999 -9999 -9999 -9999 -9999 103.745114644368 102.603185653687 119.632537841797
-9999 -9999 -9999 -9999 -9999 -9999 -9999 -9999 -9999 -9999 -9999 -9999 -9999 -9999 -9999 -9999 -9999 -9999 -9999 -9999 -9999 -9999 -9999 -9999 -9999 -9999 -9999 -9999 -9999 -9999 -9999 -9999 -9999 -9999 -9999 -9999 -9999 -9999 -9999 -9999 -9999 -9999 -9999 -9999 233.886540730794 -9999 -9999 223.411224365234 233.985977172852 230.671905517578 222.495574951172 205.744033813477 181.495620727539 159.043807983398 152.139770507812 -9999 -9999 -9999 -9999 -9999 -9999 -9999 -9999 124.081558227539 119.901245117188 118.15860748291 111.735984802246 103.018501281738 96.4808578491211 91.2808456420898
-9999 -9999 -9999 -9999 -9999 -9999 -9999 -9999 -9999 -9999 -9999 -9999 -9999 -9999 -9999 -9999 -9999 -9999 -9999 -9999 -9999 -9999 -9999 -9999 -9999 -9999 -9999 -9999 -9999 -9999 -9999 -9999 -9999 -9999 -9999 -9999 -9999 -9999 -9999 -9999 -9999 -9999 -9999 -9999 232.548095703125 235.990463256836 233.355026245117 218.045791625977 208.258102416992 194.132202148438 176.013046264648 162.134628295898 151.293395996094 143.57177734375 148.203365325928 -9999 -9999 -9999 -9999 -9999 -9999 -9999 114.249732971191 111.352066040039 105.851661682129 99.940544128418 92.1088256835938 83.6850967407227 79.4392013549805 77.6515655517578
-9999 -9999 -9999 -9999 -9999 -9999 -9999 -9999 -9999 -9999 -9999 -9999 -9999 -9999 -9999 -9999 -9999 -9999 -9999 -9999 -9999 -9999 -9999 -9999 -9999 -9999 -9999 -9999 -9999 -9999 -9999 -9999 -9999 -9999 -9999 -9999 -9999 -9999 -9999 -9999 210.106862386068 204.079676310221 210.128915405273 232.558532714844 220.728668212891 201.233795166016 186.266708374023 174.173889160156 159.448852539062 144.564605712891 138.684524536133 140.472442626953 140.729751586914 138.05810546875 137.427044677734 -9999 -9999 -9999 -9999 -9999 113.031845092773 114.187042236328 106.423950195312 97.6429901123047 91.6122512817383 85.6950759887695 81.6603393554688 80.0730819702148 77.6159286499023 75.3510055541992
-9999 -9999 -9999 -9999 -9999 -9999 -9999 -9999 -9999 -9999 -9999 -9999 -9999 -9999 -9999 -9999 -9999 -9999 -9999 -9999 -9999 -9999 -9999 -9999 -9999 -9999 -9999 -9999 -9999 -9999 -9999 -9999 -9999 -9999 -9999 -9999 -9999 -9999 -9999 210.019287109375 213.897888183594 206.403411865234 191.937728881836 186.623840332031 182.401321411133 175.37809753418 167.337646484375 155.629867553711 138.546081542969 124.792778015137 122.620750427246 128.563949584961 133.272613525391 134.246307373047 142.990921020508 128.268112182617 -9999 -9999 -9999 117.54549407959 115.534690856934 109.373802185059 99.8448104858398 95.1359405517578 96.2373733520508 96.3071365356445 98.0602188110352 98.6557769775391 94.448356628418 88.4426651000977
-9999 -9999 -9999 -9999 -9999 -9999 -9999 -9999 -9999 -9999 -9999 -9999 -9999 -9999 -9999 -9999 -9999 -9999 -9999 -9999 -9999 -9999 -9999 -9999 -9999 -9999 -9999 -9999 -9999 -9999 -9999 -9999 -9999 -9999 -9999 -9999 -9999 -9999 228.579190063477 220.713363647461 203.520324707031 175.419403076172 148.681304931641 138.657638549805 142.314514160156 148.616058349609 146.633758544922 132.135559082031 115.101165771484 109.463729858398 113.474952697754 120.352798461914 125.93537902832 130.217178344727 134.540420532227 132.979858398438 119.077835083008 123.72162882487 130.140548706055 116.377891540527 108.128845214844 103.725700378418 98.9622497558594 99.7206420898438 108.28564453125 115.102882385254 119.710670471191 123.473922729492 122.273323059082 113.580177307129
-9999 -9999 -9999 -9999 -9999 -9999 -9999 -9999 -9999 -9999 -9999 -9999 -9999 -9999 -9999 -9999 -9999 -9999 -9999 -9999 -9999 -9999 -9999 -9999 -9999 -9999 -9999 -9999 -9999 -9999 -9999 -9999 -9999 -9999 -9999 -9999 -9999 249.895782470703 248.830001831055 213.437515258789 157.248931884766 117.055419921875 97.2068328857422 95.9019317626953 106.744598388672 115.540710449219 114.01082611084 105.039031982422 100.050323486328 102.837608337402 110.876495361328 118.105110168457 122.930381774902 127.530006408691 128.81559753418 127.25513458252 126.44197845459 123.78263092041 120.133781433105 116.618591308594 115.188034057617 115.341522216797 113.279678344727 115.053131103516 123.566062927246 131.205505371094 137.528579711914 148.645492553711 148.423934936523 134.565856933594
-9999 -9999 -9999 -9999 -9999 -9999 -9999 -9999 -9999 -9999 -9999 -9999 -9999 -9999 -9999 -9999 -9999 -9999 -9999 -9999 -9999 -9999 -9999 -9999 -9999 -9999 -9999 -9999 -9999 -9999 -9999 -9999 -9999 -9999 -9999 -9999 -9999 253.701873779297 231.680435180664 167.344024658203 108.098388671875 90.2303695678711 91.0688858032227 94.4387817382812 97.0167541503906 94.7592391967773 90.0655746459961 87.6156387329102 90.0022048950195 96.4148483276367 105.03434753418 111.548210144043 117.726379394531 122.755500793457 126.150459289551 127.582817077637 126.974723815918 126.73876953125 128.368377685547 129.233520507812 133.149017333984 137.865844726562 139.172576904297 139.349899291992 144.047576904297 152.511444091797 168.660888671875 190.227325439453 184.053970336914 158.391799926758
-9999 -9999 -9999 -9999 -9999 -9999 -9999 -9999 -9999 -9999 -9999 -9999 -9999 -9999 -9999 -9999 -9999 -9999 -9999 -9999 -9999 -9999 -9999 -9999 -9999 -9999 -9999 -9999 -9999 -9999 -9999 -9999 -9999 -9999 -9999 -9999 -9999 268.613525390625 213.601303100586 138.898406982422 90.0031433105469 81.8675231933594 86.1171569824219 88.0076675415039 87.1514205932617 84.9627532958984 85.897590637207 90.5839309692383 94.2136764526367 95.0545654296875 95.8502655029297 97.4830093383789 103.684257507324 112.005340576172 119.614929199219 128.992874145508 139.119705200195 141.756210327148 153.800872802734 153.493499755859 158.96809387207 169.748764038086 179.056732177734 179.6611328125 179.675979614258 185.538101196289 198.769119262695 212.637191772461 194.8544921875 163.810913085938
-9999 -9999 -9999 -9999 -9999 -9999 -9999 -9999 -9999 -9999 -9999 -9999 -9999 -9999 -9999 -9999 -9999 -9999 -9999 -9999 -9999 -9999 -9999 -9999 -9999 -9999 -9999 -9999 -9999 -9999 -9999 -9999 -9999 -9999 -9999 -9999 338.869934082031 281.229370117188 206.075744628906 146.545791625977 104.360359191895 85.887077331543 81.822639465332 79.6122512817383 80.0516357421875 85.4309158325195 99.080451965332 116.260612487793 121.58137512207 112.152732849121 100.779632568359 96.7671432495117 103.420364379883 113.798324584961 124.931465148926 138.496658325195 157.727462768555 155.753890991211 176.322235107422 178.828369140625 191.676620483398 202.093856811523 211.160186767578 219.975677490234 224.771621704102 224.875610351562 223.875244140625 211.627426147461 184.914611816406 144.300704956055
-9999 -9999 -9999 -9999 -9999 -9999 -9999 -9999 -9999 -9999 -9999 -9999 -9999 -9999 -9999 -9999 -9999 -9999 -9999 -9999 -9999 -9999 -9999 -9999 -9999 -9999 -9999 -9999 -9999 -9999 -9999 -9999 -9999 -9999 -9999 -9999 -9999 247.695785522461 219.286087036133 180.735137939453 146.427810668945 112.156608581543 90.5696868896484 80.514762878418 79.4404678344727 88.6742553710938 111.506561279297 141.091720581055 158.844299316406 154.920669555664 136.96842956543 125.574325561523 130.830017089844 143.306564331055 158.175811767578 169.088134765625 193.701614379883 208.153778076172 213.326690673828 214.135314941406 219.620956420898 220.021881103516 222.768936157227 228.125213623047 230.455657958984 230.171539306641 216.714202880859 186.188552856445 144.707870483398 113.055732727051
-9999 -9999 -9999 -9999 -9999 -9999 -9999 -9999 -9999 -9999 -9999 -9999 -9999 -9999 -9999 -9999 -9999 -9999 -9999 -9999 -9999 -9999 -9999 -9999 -9999 -9999 -9999 -9999 -9999 -9999 -9999 -9999 -9999 -9999 -9999 -9999 -9999 -9999 224.475997924805 -9999 182.187316894531 143.863555908203 109.055198669434 92.4253158569336 90.8159484863281 103.397232055664 131.728103637695 169.093719482422 197.37776184082 202.813735961914 183.748123168945 165.873886108398 160.563537597656 163.806304931641 184.292449951172 192.572006225586 223.71826171875 242.950012207031 241.813858032227 237.850463867188 234.250518798828 231.081237792969 230.831130981445 229.220291137695 220.102813720703 212.227493286133 180.38786315918 135.329605102539 111.07788848877 115.497917175293
-9999 -9999 -9999 -9999 -9999 -9999 -9999 -9999 -9999 -9999 -9999 -9999 -9999 -9999 -9999 -9999 -9999 -9999 -9999 -9999 -9999 -9999 -9999 -9999 -9999 -9999 -9999 -9999 -9999 -9999 -9999 -9999 -9999 -9999 -9999 -9999 -9999 -9999 -9999 -9999 170.126556396484 157.43928527832 127.036148071289 110.057861328125 114.220726013184 141.459808349609 189.396026611328 228.734649658203 238.349548339844 224.676605224609 200.265960693359 189.209518432617 186.987335205078 189.056915283203 197.530090332031 217.402954101562 239.038391113281 253.032409667969 247.512313842773 243.89778137207 239.858932495117 237.859680175781 237.544830322266 231.664932250977 210.069534301758 168.333801269531 123.73828125 99.0996780395508 103.179588317871 120.974082946777
-9999 -9999 -9999 -9999 -9999 -9999 -9999 -9999 -9999 -9999 -9999 -9999 -9999 -9999 -9999 -9999 -9999 -9999 -9999 -9999 -9999 -9999 -9999 -9999 -9999 -9999 -9999 -9999 -9999 -9999 -9999 -9999 -9999 -9999 228.975997924805 193.745330810547 174.41520690918 -9999 143.071258544922 137.771499633789 156.800704956055 163.334442138672 145.336395263672 131.591567993164 151.423843383789 209.101287841797 271.498687744141 282.934112548828 260.895782470703 242.702209472656 231.262298583984 225.819961547852 224.028656005859 225.432708740234 207.79377746582 239.15544128418 256.382751464844 256.242736816406 249.449584960938 245.752975463867 243.236907958984 242.860061645508 241.088134765625 229.138824462891 189.808792114258 131.314849853516 94.0912017822266 83.8876953125 93.8596420288086 120.630310058594
-9999 -9999 -9999 -9999 -9999 -9999 -9999 -9999 -9999 -9999 -9999 -9999 -9999 -9999 -9999 -9999 -9999 -9999 -9999 -9999 -9999 -9999 -9999 -9999 -9999 -9999 -9999 521.094116210938 521.094116210938 443.078796386719 356.496124267578 299.099365234375 265.406768798828 249.717102050781 240.557968139648 231.883590698242 203.941390991211 179.806304931641 163.280349731445 151.423202514648 160.896057128906 172.979690551758 164.461502075195 159.139526367188 206.582855224609 277.020080566406 312.396392822266 304.515563964844 287.712646484375 279.220397949219 269.233520507812 255.110214233398 242.711883544922 232.846817016602 222.852157592773 256.953155517578 265.992584228516 259.760589599609 252.951400756836 246.189682006836 244.549362182617 243.204254150391 241.985748291016 232.083740234375 177.295013427734 118.374549865723 80.947395324707 71.7412948608398 79.9917297363281 124.666374206543
-9999 -9999 -9999 -9999 -9999 -9999 -9999 -9999 -9999 -9999 -9999 -9999 -9999 -9999 -9999 -9999 -9999 -9999 -9999 -9999 -9999 -9999 -9999 -9999 -9999 -9999 -9999 -9999 -9999 -9999 329.424224853516 330.040557861328 329.704193115234 326.458374023438 317.256225585938 305.22412109375 275.201782226562 244.910293579102 217.362426757812 197.956192016602 194.942733764648 193.098297119141 184.743408203125 199.517471313477 254.042572021484 302.282623291016 316.322235107422 302.261901855469 288.259857177734 277.272308349609 259.205352783203 244.436859130859 237.417327880859 237.935195922852 258.645782470703 265.86181640625 260.935241699219 249.47932434082 240.876129150391 237.178909301758 239.804534912109 241.826019287109 246.347396850586 241.298736572266 184.764755249023 124.604217529297 81.6873245239258 69.5092391967773 75.4066467285156 121.63143157959
-9999 -9999 -9999 -9999 -9999 -9999 -9999 -9999 -9999 -9999 -9999 -9999 -9999 -9999 -9999 -9999 -9999 -9999 -9999 -9999 -9999 -9999 -9999 -9999 -9999 444.655466715495 395.364990234375 381.350392659505 383.528816223145 349.980285644531 371.356536865234 377.211730957031 377.087066650391 375.141845703125 365.859008789062 357.392181396484 342.369842529297 314.332458496094 274.853057861328 247.701461791992 235.110702514648 224.801574707031 224.512512207031 254.089569091797 288.924346923828 286.632904052734 272.790069580078 254.018966674805 246.36897277832 232.572982788086 230.841720581055 233.569610595703 245.181884765625 258.921417236328 265.563110351562 261.793151855469 249.293960571289 237.739486694336 230.096878051758 228.115097045898 231.88703918457 238.033233642578 250.142379760742 250.505859375 204.874099731445 145.312103271484 103.412857055664 89.6008682250977 99.1929321289062 140.931442260742
-9999 -9999 -9999 -9999 -9999 -9999 -9999 -9999 -9999 -9999 -9999 -9999 -9999 -9999 -9999 -9999 -9999 -9999 -9999 -9999 -9999 -9999 -9999 -9999 518.102722167969 437.432678222656 378.430999755859 370.231292724609 395.388885498047 418.514801025391 435.962127685547 433.465881347656 413.555084228516 391.50927734375 369.081298828125 349.575836181641 348.2001953125 341.078796386719 320.355163574219 304.526275634766 285.424468994141 270.950531005859 273.142303466797 292.039733886719 294.641174316406 257.480621337891 237.301223754883 241.337432861328 251.80403137207 247.983474731445 251.900115966797 256.566223144531 263.843902587891 269.694000244141 267.119018554688 269.260986328125 260.998199462891 253.352142333984 243.586044311523 236.947875976562 234.602188110352 241.078659057617 255.065872192383 256.430847167969 224.405136108398 180.799530029297 149.646011352539 139.072570800781 156.415985107422 198.317520141602
-9999 -9999 -9999 -9999 -9999 -9999 -9999 -9999 -9999 -9999 -9999 -9999 -9999 -9999 -9999 -9999 -9999 -9999 -9999 -9999 -9999 -9999 -9999 -9999 434.539581298828 355.062164306641 374.967834472656 432.888000488281 466.411010742188 470.698760986328 464.884643554688 448.745697021484 414.683349609375 377.469024658203 350.403625488281 325.623168945312 314.979675292969 310.152587890625 309.639770507812 310.881286621094 301.720794677734 293.686889648438 291.193420410156 293.630584716797 298.069671630859 287.614166259766 285.077453613281 293.174377441406 294.362152099609 289.490173339844 283.313903808594 280.349334716797 278.453063964844 276.181396484375 271.922271728516 274.959655761719 274.251434326172 273.099548339844 262.260467529297 254.708297729492 249.771942138672 253.195907592773 263.079620361328 264.135040283203 245.668014526367 223.733963012695 210.507263183594 214.723083496094 233.224517822266 253.407806396484
-9999 -9999 -9999 -9999 -9999 -9999 -9999 -9999 -9999 -9999 -9999 -9999 -9999 -9999 -9999 -9999 -9999 -9999 -9999 -9999 -9999 -9999 -9999 368.643508911133 387.565734863281 351.734405517578 391.045837402344 448.254974365234 474.074615478516 467.027954101562 442.272033691406 408.314483642578 373.768615722656 348.117614746094 336.895080566406 332.350311279297 325.086547851562 313.845458984375 303.473327636719 291.523681640625 285.094024658203 294.454742431641 303.443206787109 303.850952148438 313.131072998047 313.636993408203 306.372375488281 295.727935791016 281.519622802734 271.694732666016 266.803680419922 266.126678466797 266.670471191406 266.374481201172 264.481018066406 265.386138916016 267.199462890625 268.258209228516 264.169464111328 261.484222412109 261.913360595703 265.454895019531 273.270568847656 279.051513671875 277.814758300781 270.663238525391 270.271942138672 273.830108642578 280.3896484375 285.279754638672
-9999 -9999 -9999 -9999 -9999 -9999 -9999 -9999 -9999 -9999 -9999 -9999 -9999 -9999 -9999 -9999 -9999 -9999 -9999 -9999 -9999 -9999 -9999 315.685821533203 336.782897949219 335.986358642578 371.049682617188 418.352355957031 448.309417724609 437.751831054688 406.170379638672 367.939971923828 338.117889404297 326.477020263672 334.288513183594 343.211883544922 339.924163818359 331.299163818359 322.372528076172 309.473175048828 300.911407470703 306.144287109375 312.141906738281 312.345703125 306.141357421875 288.115417480469 271.058074951172 261.647766113281 257.035278320312 255.396072387695 253.800323486328 252.133117675781 252.212249755859 253.969314575195 254.766082763672 255.048965454102 256.064697265625 256.888885498047 256.147705078125 255.302688598633 257.568756103516 261.895324707031 270.162963867188 279.338745117188 285.629028320312 287.078002929688 287.49755859375 283.293243408203 284.668701171875 279.673980712891
-9999 -9999 -9999 -9999 -9999 -9999 -9999 -9999 -9999 -9999 -9999 -9999 -9999 -9999 -9999 -9999 -9999 -9999 -9999 -9999 -9999 -9999 327.150451660156 313.715270996094 328.837310791016 357.533538818359 393.441802978516 436.067199707031 452.32568359375 423.191772460938 380.631805419922 348.929931640625 329.932189941406 325.984619140625 334.632080078125 340.917816162109 338.460632324219 332.463836669922 325.379730224609 317.929534912109 312.501129150391 305.976806640625 297.630462646484 289.689788818359 277.903137207031 265.64453125 255.941146850586 251.210418701172 251.867614746094 252.730224609375 250.254547119141 245.288604736328 241.53303527832 240.703308105469 240.906875610352 242.117630004883 245.210418701172 248.192855834961 250.392639160156 252.576553344727 254.7822265625 256.153381347656 259.452178955078 264.818908691406 268.762969970703 273.606567382812 274.074035644531 273.401153564453 271.104675292969 259.061492919922
-9999 -9999 -9999 -9999 -9999 -9999 -9999 -9999 -9999 -9999 -9999 -9999 -9999 -9999 627.524659898546 -9999 -9999 -9999 -9999 538.925415039062 -9999 345.606170654297 331.319000244141 329.967498779297 363.117706298828 404.587066650391 438.853088378906 449.657196044922 436.088836669922 406.154083251953 383.817657470703 379.266815185547 374.421905517578 363.984039306641 353.147491455078 346.203369140625 341.454986572266 334.550689697266 325.760559082031 318.317504882812 311.372772216797 300.723541259766 288.901062011719 278.281311035156 267.096221923828 256.863403320312 249.879959106445 251.917526245117 258.096588134766 258.637878417969 252.597061157227 242.844131469727 232.201629638672 225.721130371094 223.732818603516 221.83073425293 222.066436767578 227.571914672852 235.226928710938 241.475036621094 246.152740478516 249.951614379883 253.822723388672 259.041595458984 263.695129394531 265.568817138672 264.686126708984 260.990661621094 253.614318847656 243.041122436523
-9999 -9999 -9999 -9999 -9999 -9999 -9999 -9999 -9999 -9999 -9999 -9999 -9999 -9999 624.723129272461 -9999 -9999 -9999 -9999 490.824279785156 407.708093261719 357.193359375 336.499145507812 351.063354492188 379.517883300781 406.718353271484 421.014770507812 413.587860107422 404.657928466797 396.396240234375 394.270050048828 398.892150878906 400.120208740234 395.287780761719 383.854400634766 369.115997314453 354.653564453125 340.387634277344 326.316772460938 314.179260253906 303.005004882812 291.497619628906 281.375274658203 272.153350830078 262.619201660156 256.504730224609 257.861450195312 265.660491943359 270.136901855469 264.448425292969 252.956466674805 240.18505859375 226.223739624023 215.478668212891 211.671112060547 205.678436279297 197.388595581055 198.963714599609 208.812469482422 218.479064941406 225.963928222656 232.048568725586 237.995147705078 244.472869873047 248.92610168457 250.781097412109 250.036560058594 244.94059753418 235.842208862305 228.557495117188
-9999 -9999 -9999 -9999 -9999 -9999 -9999 -9999 -9999 -9999 -9999 -9999 -9999 -9999 637.330017089844 -9999 -9999 -9999 -9999 -9999 346.104591369629 354.092376708984 360.444122314453 385.324554443359 399.899444580078 397.058990478516 403.075561523438 407.674438476562 403.822631835938 399.19677734375 389.355041503906 381.265350341797 376.991821289062 377.9013671875 378.822875976562 373.427368164062 362.982849121094 348.004730224609 330.925201416016 316.270141601562 303.358581542969 291.983673095703 281.303680419922 270.434783935547 262.644775390625 264.314056396484 273.867492675781 280.134094238281 275.387329101562 261.809906005859 246.491348266602 233.516510009766 222.911010742188 213.588973999023 208.878005981445 201.617614746094 187.012451171875 180.732421875 186.287689208984 193.774795532227 199.981857299805 204.554702758789 208.204986572266 211.06022644043 212.350601196289 214.067291259766 216.511138916016 216.450286865234 216.691543579102 215.152191162109
-9999 -9999 -9999 -9999 -9999 -9999 -9999 -9999 -9999 -9999 -9999 -9999 -9999 -9999 599.027465820312 -9999 586.902465820312 -9999 -9999 -9999 303.316101074219 369.816528320312 399.705810546875 415.307739257812 426.620452880859 426.852294921875 424.109649658203 411.722137451172 386.101287841797 364.583374023438 347.511077880859 337.808288574219 333.655334472656 334.789611816406 338.54052734375 340.479675292969 340.167297363281 336.051635742188 327.695648193359 318.611511230469 309.77978515625 300.09765625 287.839813232422 274.442657470703 268.859100341797 275.818817138672 285.253692626953 282.822326660156 268.244354248047 250.606826782227 236.233276367188 226.466232299805 221.180053710938 216.284759521484 210.615768432617 200.196441650391 182.252227783203 171.326477050781 173.869232177734 181.682312011719 188.23876953125 190.737380981445 189.333633422852 186.654144287109 183.439147949219 181.679214477539 187.836715698242 199.652069091797 209.319900512695 195.535385131836
-9999 -9999 -9999 -9999 -9999 -9999 -9999 -9999 -9999 -9999 -9999 -9999 -9999 -9999 599.027465820312 560.724914550781 461.331634521484 -9999 -9999 335.350257873535 330.457305908203 404.861511230469 425.363922119141 422.240356445312 427.517639160156 430.583374023438 398.996978759766 357.253082275391 317.812866210938 290.189025878906 274.063262939453 266.955017089844 266.956298828125 272.642730712891 282.376647949219 294.288940429688 304.529052734375 310.379150390625 311.463684082031 309.818176269531 305.911865234375 300.087310791016 291.066345214844 280.914672851562 279.153503417969 284.996948242188 285.369750976562 273.320953369141 253.461883544922 236.91845703125 227.7255859375 223.752471923828 222.252868652344 219.109710693359 211.222503662109 196.233459472656 176.628494262695 168.038436889648 175.382690429688 185.235580444336 190.478942871094 188.745056152344 183.291015625 177.044952392578 171.988739013672 174.431167602539 188.957275390625 203.683258056641 197.783538818359 159.19743347168
-9999 -9999 -9999 -9999 -9999 -9999 -9999 -9999 -9999 -9999 -9999 -9999 -9999 -9999 -9999 424.289923095703 383.874755859375 -9999 346.053489685059 326.222412109375 381.405212402344 426.065582275391 433.338134765625 427.254547119141 406.110260009766 375.229309082031 329.181060791016 286.722045898438 257.123748779297 238.432403564453 227.992202758789 222.888519287109 221.605606079102 223.323883056641 230.383102416992 245.365936279297 264.840148925781 282.409881591797 293.130859375 296.231811523438 295.333648681641 293.539215087891 289.207702636719 284.701507568359 284.462860107422 285.210052490234 278.178649902344 260.834625244141 239.490676879883 226.565872192383 223.027267456055 223.246490478516 221.927734375 216.446182250977 204.838027954102 187.363311767578 171.839263916016 172.870315551758 182.968460083008 187.496353149414 188.547943115234 184.868621826172 179.176605224609 177.27604675293 180.607955932617 190.777877807617 201.382171630859 191.596130371094 153.711807250977 110.634002685547
-9999 -9999 -9999 -9999 -9999 -9999 -9999 -9999 -9999 -9999 -9999 -9999 -9999 -9999 -9999 363.064331054688 352.453979492188 -9999 297.673400878906 361.692016601562 424.062072753906 452.020538330078 451.545227050781 419.161987304688 375.930419921875 316.652282714844 271.3955078125 243.639343261719 228.156997680664 217.244079589844 210.671234130859 206.028305053711 203.582763671875 202.707458496094 204.512741088867 212.551162719727 228.621841430664 250.393920898438 270.071990966797 280.774291992188 283.347808837891 281.603057861328 277.898376464844 276.987640380859 280.90478515625 280.549987792969 268.382232666016 246.250122070312 224.745864868164 216.355834960938 215.997482299805 215.236083984375 210.044479370117 200.656845092773 187.950729370117 175.367980957031 169.686218261719 178.148406982422 184.127182006836 184.331390380859 186.763290405273 188.134872436523 188.349563598633 192.023361206055 198.646530151367 202.299560546875 185.680038452148 143.233932495117 99.3504943847656 76.9013977050781
-9999 -9999 -9999 -9999 -9999 -9999 -9999 -9999 -9999 -9999 -9999 -9999 -9999 -9999 -9999 342.769409179688 -9999 322.101313999721 333.819427490234 393.945495605469 457.179534912109 486.042266845703 456.173645019531 390.8857421875 335.222717285156 275.736541748047 242.145370483398 224.005432128906 217.618087768555 207.568664550781 199.138153076172 190.931625366211 187.551773071289 189.173858642578 192.670654296875 195.698928833008 202.325180053711 218.340255737305 240.602844238281 260.123382568359 269.176849365234 267.801239013672 262.364776611328 262.690490722656 271.013397216797 271.160705566406 253.656494140625 227.006072998047 207.617904663086 202.492858886719 201.510681152344 196.245132446289 187.230102539062 177.625442504883 171.220245361328 168.10498046875 171.340805053711 183.546676635742 188.123382568359 189.875091552734 195.272796630859 198.185440063477 199.386108398438 201.470336914062 200.497512817383 186.15852355957 147.252227783203 101.181129455566 73.5446853637695 65.6561813354492
-9999 -9999 -9999 -9999 -9999 -9999 -9999 -9999 -9999 -9999 -9999 -9999 -9999 -9999 342.769409179688 315.573923746745 284.800323486328 311.343933105469 355.466094970703 408.885925292969 464.623352050781 479.671142578125 411.940765380859 349.200408935547 297.108764648438 256.320465087891 232.307556152344 216.525146484375 211.886962890625 200.849349975586 190.043487548828 177.942169189453 170.412414550781 170.365447998047 177.769912719727 184.628982543945 188.58349609375 199.030624389648 218.256362915039 239.57763671875 252.774917602539 253.316818237305 247.675186157227 247.420211791992 257.57275390625 257.074005126953 235.706329345703 209.0693359375 193.567794799805 189.074844360352 186.025527954102 178.250366210938 171.450881958008 166.668365478516 166.222137451172 169.858001708984 179.027938842773 192.149017333984 195.725112915039 196.960983276367 201.060516357422 202.328689575195 201.4931640625 198.757141113281 186.95182800293 158.858444213867 119.543655395508 89.3108673095703 74.9336547851562 67.2639389038086
-9999 -9999 -9999 -9999 -9999 -9999 -9999 -9999 -9999 -9999 -9999 -9999 -9999 -9999 -9999 -9999 316.45393371582 324.627166748047 355.311553955078 403.378387451172 467.274871826172 467.540863037109 377.391448974609 326.255584716797 289.546783447266 258.188415527344 234.688903808594 218.340179443359 212.200134277344 202.44612121582 193.227584838867 181.018585205078 170.698120117188 165.849853515625 169.586380004883 176.825439453125 182.406341552734 190.48908996582 206.159317016602 225.3701171875 237.843353271484 238.984893798828 233.801956176758 233.744812011719 246.432220458984 242.548461914062 220.478713989258 199.573928833008 186.663482666016 176.641647338867 171.735061645508 169.439758300781 169.249450683594 169.6279296875 171.703125 177.039947509766 186.702651977539 197.933578491211 201.960708618164 203.63459777832 206.7080078125 208.327453613281 204.634170532227 196.626449584961 182.895370483398 154.517776489258 119.925369262695 95.6968154907227 83.6761932373047 74.1308975219727
-9999 -9999 -9999 -9999 -9999 -9999 -9999 -9999 -9999 -9999 -9999 -9999 -9999 -9999 -9999 -9999 334.835739135742 345.044311523438 384.283599853516 436.561828613281 491.255737304688 464.069091796875 374.869781494141 329.574920654297 296.715545654297 273.055908203125 252.982849121094 234.527801513672 223.099761962891 211.653869628906 204.358688354492 195.477249145508 187.232421875 181.004409790039 178.952255249023 180.688186645508 185.739334106445 193.786026000977 205.231307983398 218.562240600586 226.735137939453 225.954254150391 223.135101318359 231.286682128906 244.088226318359 233.418197631836 218.071807861328 206.620147705078 193.983520507812 180.937698364258 173.810455322266 172.637710571289 173.836349487305 175.960586547852 179.027786254883 185.31526184082 192.513519287109 198.622787475586 200.403900146484 200.9423828125 201.689147949219 207.101806640625 213.309112548828 212.611236572266 200.989944458008 180.740264892578 155.850143432617 126.687393188477 100.762268066406 85.4218521118164
-9999 -9999 -9999 -9999 -9999 -9999 -9999 -9999 -9999 -9999 -9999 -9999 -9999 -9999 -9999 -9999 -9999 382.715270996094 408.282379150391 478.835113525391 510.512847900391 445.176239013672 374.784942626953 343.023468017578 310.241821289062 297.049591064453 284.655517578125 270.214874267578 255.977111816406 241.832489013672 230.234252929688 219.421279907227 210.592208862305 204.735076904297 200.851654052734 199.609924316406 202.064987182617 206.413391113281 212.234283447266 219.651947021484 223.300140380859 222.128356933594 225.589614868164 245.836380004883 249.138397216797 234.680587768555 227.333465576172 222.338912963867 214.982666015625 204.430709838867 191.729431152344 180.560699462891 174.540924072266 178.572402954102 186.275436401367 190.812683105469 193.510818481445 194.811325073242 193.224243164062 186.608367919922 173.89143371582 166.027404785156 177.834594726562 196.392700195312 205.994613647461 206.251449584961 193.680969238281 171.679351806641 146.699844360352 122.43083190918
-9999 -9999 -9999 -9999 -9999 -9999 -9999 -9999 -9999 -9999 -9999 -9999 -9999 -9999 342.492168426514 345.044311523438 380.444240570068 400.766586303711 393.250793457031 482.867156982422 524.976379394531 406.011566162109 352.520599365234 339.494750976562 313.072296142578 305.632415771484 302.441864013672 296.279083251953 285.175933837891 272.990081787109 260.532592773438 248.556716918945 237.901336669922 230.302551269531 223.966918945312 219.717315673828 218.471237182617 218.668869018555 220.740859985352 224.280227661133 226.917282104492 228.413192749023 239.649307250977 261.870941162109 257.425201416016 240.471176147461 236.713562011719 239.870620727539 238.815414428711 234.067169189453 226.177398681641 213.462417602539 204.365875244141 201.769622802734 202.744018554688 203.464965820312 204.779754638672 203.986953735352 199.551956176758 185.088500976562 158.392852783203 121.755554199219 108.677772521973 119.449905395508 142.693359375 171.739761352539 192.458282470703 195.460205078125 185.30696105957 169.078918457031
-9999 -9999 -9999 -9999 -9999 -9999 -9999 -9999 -9999 -9999 -9999 -9999 -9999 -9999 -9999 -9999 -9999 -9999 455.376388549805 469.926879882812 518.372253417969 388.554107666016 326.042785644531 314.304504394531 291.20263671875 278.990661621094 280.777221679688 285.075347900391 285.46142578125 280.944732666016 275.187072753906 268.793579101562 261.181671142578 255.027954101562 249.447189331055 244.773376464844 241.77409362793 239.035308837891 238.425354003906 239.593948364258 241.460037231445 246.08039855957 264.257232666016 273.906066894531 267.356964111328 253.296371459961 247.642395019531 253.033996582031 255.143310546875 251.924179077148 243.976303100586 235.46923828125 233.136779785156 233.609375 232.7109375 228.696990966797 227.626861572266 225.251861572266 220.166107177734 199.668853759766 164.365463256836 109.430320739746 78.2859039306641 74.1113204956055 79.4713973999023 97.7851791381836 136.413238525391 174.54638671875 190.288360595703 189.499420166016
-9999 -9999 -9999 -9999 -9999 -9999 -9999 -9999 -9999 -9999 -9999 -9999 -9999 -9999 -9999 -9999 -9999 363.766479492188 451.585060119629 475.460723876953 517.386657714844 381.836883544922 298.739318847656 276.052429199219 253.386428833008 239.51416015625 242.699905395508 253.566162109375 262.550048828125 266.668182373047 270.155792236328 272.046142578125 269.648864746094 266.993835449219 265.313995361328 264.071990966797 263.353485107422 262.614318847656 262.718963623047 262.982025146484 262.940338134766 264.047729492188 272.220397949219 275.075988769531 273.491577148438 265.669586181641 260.172119140625 264.061218261719 265.234558105469 260.264556884766 252.376266479492 244.380187988281 239.670486450195 244.626358032227 251.608871459961 248.018798828125 243.447219848633 237.765838623047 232.686462402344 210.249313354492 175.254699707031 110.1162109375 70.5360412597656 65.406364440918 62.5159187316895 64.2877044677734 85.6076431274414 127.555229187012 164.90510559082 180.828857421875
-9999 -9999 -9999 -9999 -9999 -9999 -9999 -9999 -9999 -9999 -9999 -9999 -9999 337.183044433594 342.916439480252 -9999 367.014465332031 384.815528869629 363.766479492188 497.186157226562 465.084381103516 359.903961181641 273.085052490234 241.406158447266 218.627304077148 205.658111572266 208.708755493164 226.312744140625 242.311798095703 252.479705810547 258.251556396484 262.491271972656 267.889373779297 275.646850585938 280.733673095703 280.791748046875 281.055236816406 280.328063964844 279.807373046875 280.061706542969 279.729156494141 280.271118164062 280.962646484375 281.209228515625 280.994079589844 277.740997314453 273.000518798828 269.126007080078 265.897338867188 262.507537841797 256.505401611328 248.352981567383 240.793746948242 239.034896850586 245.23893737793 248.56867980957 249.047439575195 242.789505004883 231.500762939453 210.080749511719 178.599304199219 110.947616577148 66.8638381958008 61.2684745788574 56.211555480957 56.1618881225586 64.3297805786133 92.2298812866211 130.815948486328 157.392303466797
-9999 -9999 -9999 -9999 -9999 -9999 -9999 -9999 -9999 -9999 -9999 -9999 -9999 -9999 337.183044433594 357.965108235677 333.601165771484 400.427764892578 441.466705322266 453.874114990234 409.352661132812 329.494323730469 266.426849365234 229.218536376953 207.627517700195 198.685958862305 203.365707397461 217.814529418945 231.799987792969 241.482406616211 249.257019042969 256.906524658203 259.595428466797 263.918975830078 270.745361328125 276.692779541016 283.549377441406 286.497894287109 285.089263916016 281.020385742188 275.560791015625 272.565093994141 273.853363037109 277.791015625 280.867126464844 281.504669189453 277.484771728516 273.0048828125 267.829711914062 261.475250244141 255.65071105957 248.975204467773 239.502532958984 235.852020263672 236.591278076172 238.016159057617 236.783447265625 231.677200317383 220.028533935547 204.436813354492 176.095184326172 104.225769042969 65.8536071777344 61.8301696777344 55.041690826416 54.2998657226562 61.8048934936523 83.197883605957 113.25048828125 139.133087158203
-9999 -9999 -9999 -9999 -9999 -9999 -9999 -9999 -9999 -9999 -9999 -9999 -9999 -9999 330.563285827637 337.183044433594 403.111114501953 432.677459716797 407.751403808594 387.91015625 348.176513671875 312.686309814453 280.592437744141 252.101593017578 238.592041015625 235.422271728516 240.613235473633 248.368927001953 254.239501953125 257.260650634766 259.684906005859 261.093139648438 259.564514160156 258.514495849609 257.719909667969 258.984039306641 263.818389892578 268.01025390625 269.714904785156 268.142639160156 266.094360351562 264.878234863281 266.612152099609 269.075378417969 271.347015380859 272.738800048828 271.44677734375 269.061889648438 263.313598632812 257.504577636719 254.18733215332 245.180145263672 230.605590820312 216.562271118164 208.928985595703 211.105072021484 214.633514404297 215.34228515625 209.468521118164 199.681137084961 169.218078613281 89.4419479370117 67.7136917114258 68.699951171875 63.5101776123047 61.3078079223633 72.2846374511719 94.2933883666992 118.842208862305 130.917663574219
-9999 -9999 -9999 -9999 -9999 -9999 -9999 -9999 -9999 -9999 -9999 282.119995117188 309.329284667969 320.674499511719 306.611694335938 357.783905029297 410.988525390625 393.251892089844 374.835662841797 356.62744140625 331.316619873047 308.067474365234 292.498687744141 282.99609375 279.07861328125 278.297271728516 278.824127197266 279.268646240234 279.543090820312 279.354919433594 278.875854492188 277.820648193359 275.700714111328 273.278137207031 269.913177490234 265.755676269531 261.326263427734 256.418365478516 252.256149291992 248.197784423828 245.794021606445 247.284210205078 252.064331054688 257.578887939453 261.442260742188 262.141479492188 261.798889160156 265.360382080078 261.30615234375 256.592437744141 250.358184814453 230.289093017578 198.837524414062 176.551940917969 168.206512451172 171.296798706055 177.740737915039 181.839828491211 184.140640258789 186.301773071289 152.81575012207 76.1140747070312 70.5988311767578 77.7461624145508 80.0582962036133 86.3844757080078 95.6446990966797 104.829345703125 108.961334228516 100.655204772949
-9999 -9999 -9999 -9999 -9999 -9999 -9999 -9999 -9999 345.547241210938 295.44189453125 290.638885498047 318.365875244141 312.703643798828 323.537353515625 379.529571533203 374.712677001953 348.850524902344 326.710113525391 303.274261474609 282.730499267578 265.218231201172 250.070816040039 239.252380371094 233.837188720703 231.312698364258 229.81494140625 227.448791503906 224.947204589844 223.149780273438 221.299163818359 220.314666748047 219.351837158203 216.763534545898 210.965698242188 203.634384155273 196.252975463867 187.319961547852 179.201095581055 173.722442626953 172.867034912109 179.113815307617 192.071594238281 212.114196777344 232.749801635742 247.015045166016 255.604553222656 259.781951904297 256.9169921875 251.707992553711 229.173568725586 186.334899902344 153.444610595703 140.183486938477 134.898376464844 138.638870239258 146.234893798828 152.580825805664 161.524963378906 171.708511352539 124.331039428711 67.3964385986328 65.0521774291992 74.2617263793945 78.4613189697266 82.5871505737305 83.8824615478516 79.6487503051758 69.1701202392578 53.8969764709473
-9999 -9999 -9999 -9999 -9999 -9999 -9999 -9999 -9999 360.120513916016 319.35009765625 318.94580078125 324.065399169922 336.152191162109 347.849334716797 334.891052246094 310.520874023438 285.309539794922 255.074325561523 223.968704223633 198.051376342773 179.254516601562 162.97184753418 149.661529541016 139.21061706543 130.47492980957 123.213859558105 117.332504272461 112.978393554688 110.620216369629 109.213401794434 107.458801269531 105.200675964355 102.187438964844 97.6690902709961 92.6029586791992 87.7437438964844 83.02197265625 79.3501510620117 77.8045654296875 80.0088806152344 88.2368316650391 104.854553222656 132.423858642578 169.573226928711 204.345947265625 228.025680541992 242.676132202148 242.47412109375 225.011978149414 180.444473266602 138.470794677734 133.602722167969 134.675155639648 128.2626953125 127.146591186523 133.924072265625 142.35432434082 148.573104858398 153.87629699707 93.9561386108398 51.2859535217285 47.0967597961426 50.9057083129883 52.5714340209961 52.3600196838379 49.5258369445801 43.0249214172363 37.2607917785645 33.9545745849609
-9999 -9999 -9999 -9999 -9999 325.204238891602 361.275939941406 336.106964111328 331.896911621094 311.096038818359 323.226684570312 325.939392089844 334.498809814453 345.593414306641 313.444091796875 288.767242431641 255.375335693359 213.307052612305 169.126327514648 133.137756347656 107.782073974609 89.7734069824219 77.1293106079102 68.3877792358398 62.4307746887207 58.3448448181152 55.8520584106445 54.1118278503418 52.2147979736328 51.0080909729004 50.207202911377 49.1632919311523 47.8891220092773 46.7191276550293 45.5370712280273 44.3472480773926 43.1629295349121 42.1343421936035 41.395580291748 41.4041023254395 42.7891731262207 46.4839210510254 55.6541557312012 75.9217987060547 112.468200683594 156.95036315918 194.066192626953 219.505035400391 221.01123046875 187.144760131836 133.156372070312 117.362449645996 138.466934204102 140.055297851562 130.020065307617 128.17236328125 136.355728149414 141.64338684082 139.368545532227 135.241455078125 77.0300216674805 42.7392921447754 38.0296287536621 37.9124069213867 37.4083404541016 36.1824645996094 34.2743606567383 32.0661201477051 30.7203693389893 29.6982269287109
-9999 -9999 -9999 -9999 310.155029296875 308.849914550781 320.536071777344 316.264709472656 320.444274902344 317.548614501953 313.099090576172 343.857818603516 338.194671630859 308.977661132812 283.027099609375 234.452713012695 172.604736328125 122.7255859375 86.7645797729492 64.6538009643555 53.0969161987305 47.0684547424316 43.8455200195312 42.1450042724609 41.0492134094238 40.3108978271484 39.9616241455078 39.8610801696777 39.6656112670898 39.1474075317383 38.71337890625 38.3177604675293 38.1207542419434 38.0221290588379 37.8582344055176 37.3578796386719 36.7338256835938 36.1778450012207 35.6354942321777 35.2906494140625 35.4959373474121 36.9996757507324 41.6754455566406 55.531867980957 86.3198165893555 130.659912109375 174.276611328125 201.413314819336 195.986206054688 145.187957763672 99.327033996582 111.461975097656 138.156188964844 140.065216064453 134.239868164062 136.618469238281 143.810012817383 138.410720825195 133.285202026367 125.395164489746 80.8229904174805 44.9326095581055 37.7216262817383 38.7359619140625 39.4468650817871 40.3712158203125 39.8814582824707 38.5599975585938 37.0686454772949 35.3280410766602
-9999 -9999 -9999 297.549301147461 299.827667236328 299.050567626953 321.267974853516 326.35595703125 335.278961181641 334.440460205078 349.369689941406 330.0546875 299.439697265625 258.542755126953 207.968597412109 140.079879760742 86.7502517700195 60.0224761962891 49.5948028564453 44.2578239440918 41.44384765625 39.7389183044434 38.3927268981934 37.1793022155762 36.1022872924805 35.443187713623 35.1702270507812 35.0585823059082 35.3076019287109 35.374626159668 35.4317741394043 36.6055755615234 38.6816368103027 39.6138076782227 38.7454605102539 37.1855049133301 35.9929313659668 35.3045387268066 34.9131011962891 34.7273139953613 34.7419853210449 35.6458740234375 39.9216957092285 52.6804580688477 82.2966842651367 126.021110534668 167.955047607422 192.387100219727 164.731536865234 100.802886962891 68.1396713256836 85.6529693603516 120.14656829834 138.005126953125 137.614120483398 141.185836791992 144.740982055664 138.674407958984 131.889038085938 130.188461303711 105.738136291504 69.3552551269531 48.8290023803711 41.4832191467285 40.845588684082 41.8652572631836 44.0362510681152 45.5080947875977 46.4466247558594 46.4453353881836
-9999 -9999 -9999 296.722839355469 283.491668701172 316.082550048828 339.292114257812 366.155059814453 350.741424560547 334.568664550781 299.554077148438 277.193237304688 248.986358642578 188.248931884766 116.47193145752 72.5974426269531 53.830883026123 48.9565620422363 46.1612930297852 42.2699546813965 39.3391914367676 37.3174057006836 35.7361869812012 34.3816299438477 33.4133682250977 32.7915496826172 32.683219909668 33.2959823608398 34.8595237731934 37.3723793029785 41.1400375366211 45.1578750610352 46.0515251159668 42.6592826843262 38.0708885192871 35.2771873474121 34.6757774353027 34.9305725097656 34.9993705749512 34.9061889648438 35.338020324707 37.7860145568848 44.4518051147461 61.0038909912109 94.6713256835938 138.095336914062 172.164703369141 177.159393310547 114.834564208984 58.275333404541 43.9923820495605 50.2795944213867 72.1434860229492 101.264144897461 121.892066955566 132.794403076172 138.58869934082 134.017684936523 128.196975708008 125.683540344238 123.05158996582 104.089988708496 78.1681900024414 57.048225402832 44.9981346130371 41.2753524780273 45.0644721984863 49.9755630493164 49.4054489135742 47.0118827819824
