NCOLS 70 
NROWS 52 
XLLCORNER -80 
YLLCORNER 33 
CELLSIZE 0.25 
NODATA_value -9999 
-9999.000000000000000 -9999 -9999 -9999 -9999 -9999 -9999 -9999 -9999 -9999 -9999 -9999 -9999 -9999 -9999 -9999 -9999 -9999 -9999 -9999 -9999 -9999 -9999 -9999 -9999 -9999 -9999 -9999 -9999 -9999 -9999 -9999 -9999 -9999 -9999 -9999 -9999 -9999 -9999 -9999 -9999 -9999 -9999 -9999 -9999 -9999 -9999 -9999 -9999 -9999 -9999 -9999 -9999 -9999 -9999 -9999 -9999 -9999 -9999 -9999 -9999 -9999 -9999 -9999 -9999 -9999 -9999 -9999 -9999 -9999
-9999 -9999 -9999 -9999 -9999 -9999 -9999 -9999 -9999 -9999 -9999 -9999 -9999 -9999 -9999 -9999 -9999 -9999 -9999 -9999 -9999 -9999 -9999 -9999 -9999 -9999 -9999 -9999 -9999 -9999 -9999 -9999 -9999 -9999 -9999 -9999 -9999 -9999 -9999 -9999 -9999 -9999 -9999 -9999 -9999 -9999 -9999 -9999 -9999 -9999 -9999 -9999 -9999 -9999 -9999 -9999 -9999 -9999 -9999 -9999 -9999 -9999 -9999 -9999 -9999 -9999 -9999 -9999 -9999 -9999
-9999 -9999 -9999 -9999 -9999 -9999 -9999 -9999 -9999 -9999 -9999 -9999 -9999 -9999 -9999 -9999 -9999 -9999 -9999 -9999 -9999 -9999 -9999 -9999 -9999 -9999 -9999 -9999 -9999 -9999 -9999 -9999 -9999 -9999 -9999 -9999 -9999 -9999 -9999 -9999 -9999 -9999 -9999 -9999 -9999 -9999 -9999 -9999 -9999 -9999 -9999 -9999 -9999 -9999 -9999 -9999 -9999 -9999 -9999 197.299346923828 -9999 -9999 -9999 -9999 -9999 -9999 -9999 -9999 -9999 -9999
-9999 -9999 -9999 -9999 -9999 -9999 -9999 -9999 -9999 -9999 -9999 -9999 -9999 -9999 -9999 -9999 -9999 -9999 -9999 -9999 -9999 -9999 -9999 -9999 -9999 -9999 -9999 -9999 -9999 -9999 -9999 -9999 -9999 -9999 -9999 -9999 -9999 -9999 -9999 -9999 -9999 -9999 -9999 -9999 -9999 -9999 -9999 -9999 -9999 -9999 -9999 -9999 -9999 -9999 -9999 193.566818237305 207.58268737793 213.927230834961 204.472625732422 148.927459716797 -9999 -9999 -9999 -9999 -9999 -9999 -9999 -9999 -9999 -9999
-9999 -9999 -9999 -9999 -9999 -9999 -9999 -9999 -9999 -9999 -9999 -9999 -9999 -9999 -9999 -9999 -9999 -9999 -9999 -9999 -9999 -9999 -9999 -9999 -9999 -9999 -9999 -9999 -9999 -9999 -9999 -9999 -9999 -9999 -9999 -9999 -9999 -9999 -9999 -9999 -9999 -9999 -9999 -9999 -9999 -9999 -9999 -9999 -9999 -9999 -9999 -9999 193.578491210938 189.555633544922 196.855895996094 221.130981445312 217.86083984375 191.950866699219 -9999 -9999 -9999 -9999 -9999 -9999 -9999 -9999 -9999 -9999 -9999 -9999
-9999 -9999 -9999 -9999 -9999 -9999 -9999 -9999 -9999 -9999 -9999 -9999 -9999 -9999 -9999 -9999 -9999 -9999 -9999 -9999 -9999 -9999 -9999 -9999 -9999 -9999 -9999 -9999 -9999 -9999 -9999 -9999 -9999 -9999 -9999 -9999 -9999 -9999 -9999 -9999 -9999 -9999 -9999 -9999 -9999 -9999 -9999 -9999 -9999 -9999 222.553915405273 217.412979125977 227.722427368164 235.204315185547 243.17448425293 249.2265625 -9999 -9999 -9999 -9999 -9999 -9999 -9999 -9999 -9999 -9999 -9999 143.587595621745 140.661987304688 147.329956054688
-9999 -9999 -9999 -9999 -9999 -9999 -9999 -9999 -9999 -9999 -9999 -9999 -9999 -9999 -9999 -9999 -9999 -9999 -9999 -9999 -9999 -9999 -9999 -9999 -9999 -9999 -9999 -9999 -9999 -9999 -9999 -9999 -9999 -9999 -9999 -9999 -9999 -9999 -9999 -9999 -9999 -9999 -9999 -9999 191.837819417318 -9999 -9999 232.684146881104 247.345764160156 238.626617431641 234.663696289062 225.575103759766 235.849945068359 220.195449829102 219.427291870117 -9999 -9999 -9999 -9999 -9999 -9999 -9999 -9999 148.619827270508 145.772567749023 147.130889892578 148.325988769531 144.697067260742 137.739730834961 132.881195068359
-9999 -9999 -9999 -9999 -9999 -9999 -9999 -9999 -9999 -9999 -9999 -9999 -9999 -9999 -9999 -9999 -9999 -9999 -9999 -9999 -9999 -9999 -9999 -9999 -9999 -9999 -9999 -9999 -9999 -9999 -9999 -9999 -9999 -9999 -9999 -9999 -9999 -9999 -9999 -9999 -9999 -9999 -9999 -9999 186.546539306641 206.575897216797 224.977844238281 227.820693969727 230.59228515625 231.665573120117 231.178939819336 225.672088623047 216.826614379883 192.645751953125 201.703914642334 -9999 -9999 -9999 -9999 -9999 -9999 -9999 143.04150390625 143.930877685547 146.888137817383 146.885208129883 142.919952392578 137.668029785156 132.966979980469 129.642425537109
-9999 -9999 -9999 -9999 -9999 -9999 -9999 -9999 -9999 -9999 -9999 -9999 -9999 -9999 -9999 -9999 -9999 -9999 -9999 -9999 -9999 -9999 -9999 -9999 -9999 -9999 -9999 -9999 -9999 -9999 -9999 -9999 -9999 -9999 -9999 -9999 -9999 -9999 -9999 -9999 155.877375284831 165.915049235026 182.112750244141 208.15315246582 205.196762084961 201.109268188477 202.035064697266 203.653915405273 203.579925537109 206.228546142578 211.222702026367 209.876953125 197.24169921875 174.547164916992 173.159912109375 -9999 -9999 -9999 -9999 -9999 139.923329671224 140.604187011719 144.204666137695 146.723876953125 146.366470336914 143.855850219727 139.879959106445 135.462036132812 132.0078125 130.103454589844
-9999 -9999 -9999 -9999 -9999 -9999 -9999 -9999 -9999 -9999 -9999 -9999 -9999 -9999 -9999 -9999 -9999 -9999 -9999 -9999 -9999 -9999 -9999 -9999 -9999 -9999 -9999 -9999 -9999 -9999 -9999 -9999 -9999 -9999 -9999 -9999 -9999 -9999 -9999 143.488861083984 155.807083129883 168.336181640625 173.60188293457 178.081512451172 180.396408081055 178.199813842773 169.824203491211 154.808029174805 143.528411865234 147.800216674805 168.505020141602 189.994812011719 188.934829711914 167.629730224609 163.979415893555 166.997497558594 -9999 -9999 -9999 141.25365447998 136.877059936523 142.28874206543 145.680084228516 144.345932006836 139.799560546875 135.331344604492 133.780181884766 134.52197265625 134.690383911133 134.432495117188
-9999 -9999 -9999 -9999 -9999 -9999 -9999 -9999 -9999 -9999 -9999 -9999 -9999 -9999 -9999 -9999 -9999 -9999 -9999 -9999 -9999 -9999 -9999 -9999 -9999 -9999 -9999 -9999 -9999 -9999 -9999 -9999 -9999 -9999 -9999 -9999 -9999 -9999 141.20764465332 149.355285644531 155.50602722168 157.833221435547 153.648086547852 158.932266235352 168.503311157227 158.037612915039 130.235733032227 116.414512634277 117.978614807129 119.849876403809 133.243423461914 163.263885498047 173.345932006836 154.727691650391 146.340316772461 168.237426757812 171.314025878906 152.873285929362 148.430633544922 139.388656616211 140.318267822266 143.000091552734 140.72492980957 133.456832885742 125.96703338623 123.61563873291 125.537528991699 128.338958740234 129.96533203125 129.847106933594
-9999 -9999 -9999 -9999 -9999 -9999 -9999 -9999 -9999 -9999 -9999 -9999 -9999 -9999 -9999 -9999 -9999 -9999 -9999 -9999 -9999 -9999 -9999 -9999 -9999 -9999 -9999 -9999 -9999 -9999 -9999 -9999 -9999 -9999 -9999 -9999 -9999 137.963836669922 140.382659912109 134.847579956055 122.941108703613 119.33772277832 125.238334655762 138.246932983398 144.62744140625 127.724197387695 112.677589416504 123.849021911621 140.916763305664 145.789367675781 149.967910766602 163.583267211914 160.598846435547 139.214752197266 132.171234130859 138.651168823242 144.573028564453 139.298126220703 134.0556640625 136.263320922852 139.058013916016 137.335876464844 130.983703613281 123.605735778809 120.135856628418 119.101493835449 119.533218383789 120.440048217773 119.561737060547 118.972732543945
-9999 -9999 -9999 -9999 -9999 -9999 -9999 -9999 -9999 -9999 -9999 -9999 -9999 -9999 -9999 -9999 -9999 -9999 -9999 -9999 -9999 -9999 -9999 -9999 -9999 -9999 -9999 -9999 -9999 -9999 -9999 -9999 -9999 -9999 -9999 -9999 -9999 139.133117675781 128.159851074219 115.043502807617 111.147407531738 114.471717834473 118.957717895508 118.54150390625 111.175933837891 106.610160827637 118.140632629395 140.783782958984 160.626922607422 170.633407592773 171.951141357422 165.046371459961 147.07942199707 131.947296142578 130.204803466797 131.648513793945 129.788482666016 128.859603881836 130.949905395508 131.739562988281 130.70654296875 128.830123901367 129.973999023438 129.162811279297 124.113655090332 120.732757568359 119.612205505371 121.705543518066 125.368278503418 129.227691650391
-9999 -9999 -9999 -9999 -9999 -9999 -9999 -9999 -9999 -9999 -9999 -9999 -9999 -9999 -9999 -9999 -9999 -9999 -9999 -9999 -9999 -9999 -9999 -9999 -9999 -9999 -9999 -9999 -9999 -9999 -9999 -9999 -9999 -9999 -9999 -9999 -9999 135.373611450195 113.085746765137 103.984466552734 103.150337219238 103.474021911621 102.186813354492 101.473495483398 104.666313171387 113.793663024902 128.578018188477 147.593566894531 163.309860229492 168.022018432617 163.310455322266 151.876937866211 135.763916015625 129.396606445312 131.675521850586 133.236343383789 129.403945922852 126.065856933594 125.135780334473 122.77294921875 126.595733642578 145.973785400391 169.066635131836 161.352264404297 150.822219848633 145.973190307617 145.144149780273 151.479797363281 156.146545410156 158.92138671875
-9999 -9999 -9999 -9999 -9999 -9999 -9999 -9999 -9999 -9999 -9999 -9999 -9999 -9999 -9999 -9999 -9999 -9999 -9999 -9999 -9999 -9999 -9999 -9999 -9999 -9999 -9999 -9999 -9999 -9999 -9999 -9999 -9999 -9999 -9999 -9999 193.265808105469 159.03369140625 122.062065124512 108.934829711914 112.177955627441 118.261360168457 113.948768615723 109.502548217773 114.640922546387 122.442649841309 131.48503112793 144.384353637695 155.004577636719 156.218597412109 150.558486938477 140.85578918457 130.62646484375 127.045562744141 131.936630249023 135.145233154297 130.97038269043 124.827781677246 124.495086669922 130.900512695312 150.489791870117 168.37956237793 168.825744628906 128.84716796875 123.631828308105 130.353210449219 131.30207824707 137.596649169922 137.80598449707 137.92839050293
-9999 -9999 -9999 -9999 -9999 -9999 -9999 -9999 -9999 -9999 -9999 -9999 -9999 -9999 -9999 -9999 -9999 -9999 -9999 -9999 -9999 -9999 -9999 -9999 -9999 -9999 -9999 -9999 -9999 -9999 -9999 -9999 -9999 -9999 -9999 -9999 -9999 174.146896362305 161.589233398438 145.540298461914 139.970657348633 145.569320678711 133.747817993164 117.670875549316 119.236450195312 123.11026763916 126.203712463379 135.768600463867 146.044158935547 148.859268188477 148.29621887207 143.680892944336 136.003158569336 129.9970703125 132.528564453125 142.339202880859 151.451538085938 153.926452636719 156.158401489258 168.172225952148 171.201416015625 129.67546081543 85.7230377197266 80.0632781982422 82.3940887451172 92.1922378540039 90.6128921508789 82.8609237670898 77.2117767333984 76.7784805297852
-9999 -9999 -9999 -9999 -9999 -9999 -9999 -9999 -9999 -9999 -9999 -9999 -9999 -9999 -9999 -9999 -9999 -9999 -9999 -9999 -9999 -9999 -9999 -9999 -9999 -9999 -9999 -9999 -9999 -9999 -9999 -9999 -9999 -9999 -9999 -9999 -9999 -9999 208.820892333984 -9999 168.479888916016 156.62565612793 141.405120849609 124.931205749512 125.257904052734 125.456283569336 126.140487670898 134.317840576172 143.112335205078 146.835906982422 152.581085205078 156.563339233398 149.072067260742 138.148788452148 137.199142456055 158.881805419922 192.404037475586 205.424652099609 193.640747070312 167.073013305664 119.605590820312 79.2765121459961 73.1325149536133 69.4183578491211 71.673095703125 75.1443099975586 77.1283416748047 78.1711273193359 78.4544296264648 80.8144683837891
-9999 -9999 -9999 -9999 -9999 -9999 -9999 -9999 -9999 -9999 -9999 -9999 -9999 -9999 -9999 -9999 -9999 -9999 -9999 -9999 -9999 -9999 -9999 -9999 -9999 -9999 -9999 -9999 -9999 -9999 -9999 -9999 -9999 -9999 -9999 -9999 -9999 -9999 -9999 -9999 171.254684448242 162.141250610352 145.056121826172 133.147735595703 133.847061157227 133.797027587891 139.423736572266 150.581451416016 157.798736572266 163.73876953125 173.42707824707 180.903228759766 169.009994506836 152.07292175293 153.39289855957 187.304443359375 216.620254516602 199.686660766602 155.634643554688 106.560890197754 87.5916366577148 79.7156143188477 76.5670547485352 71.5107727050781 71.3744735717773 76.3549270629883 83.0241851806641 85.2506484985352 85.3083724975586 87.5593414306641
-9999 -9999 -9999 -9999 -9999 -9999 -9999 -9999 -9999 -9999 -9999 -9999 -9999 -9999 -9999 -9999 -9999 -9999 -9999 -9999 -9999 -9999 -9999 -9999 -9999 -9999 -9999 -9999 -9999 -9999 -9999 -9999 -9999 -9999 170.098148345947 180.092681884766 166.203720092773 -9999 151.009338378906 173.858108520508 196.050872802734 183.60710144043 149.702728271484 137.127075195312 141.631805419922 149.227005004883 165.152404785156 180.884948730469 190.194580078125 200.431060791016 211.537521362305 211.495407104492 196.947692871094 180.8701171875 175.235427856445 201.575088500977 182.90998840332 137.506103515625 116.666900634766 94.3324203491211 88.1332244873047 81.3283615112305 75.3927993774414 73.3836441040039 74.8616409301758 85.8572769165039 96.1856994628906 101.463989257812 102.36865234375 100.770782470703
-9999 -9999 -9999 -9999 -9999 -9999 -9999 -9999 -9999 -9999 -9999 -9999 -9999 -9999 -9999 -9999 -9999 -9999 -9999 -9999 -9999 -9999 -9999 -9999 -9999 -9999 -9999 415.489868164062 415.489868164062 384.04638671875 320.8505859375 239.88525390625 184.981811523438 167.957000732422 166.437866210938 165.905044555664 156.661270141602 151.027603149414 157.146087646484 180.76286315918 208.889175415039 197.464126586914 157.672180175781 145.235443115234 154.417404174805 168.749542236328 187.79931640625 202.333908081055 215.195678710938 225.860748291016 229.159439086914 219.672790527344 206.274215698242 189.551315307617 170.584381103516 174.065292358398 143.907135009766 111.944244384766 99.8583068847656 87.1015243530273 82.1840286254883 78.3493728637695 75.0320129394531 84.2050094604492 99.3454437255859 119.17098236084 126.435577392578 130.273513793945 130.664947509766 123.31226348877
-9999 -9999 -9999 -9999 -9999 -9999 -9999 -9999 -9999 -9999 -9999 -9999 -9999 -9999 -9999 -9999 -9999 -9999 -9999 -9999 -9999 -9999 -9999 -9999 -9999 -9999 -9999 -9999 -9999 -9999 238.166000366211 199.094909667969 168.624984741211 158.700088500977 158.290618896484 159.700531005859 162.329177856445 171.449203491211 181.36051940918 200.786193847656 212.102493286133 195.212463378906 165.333847045898 155.468536376953 163.399887084961 177.559448242188 187.80061340332 189.819976806641 196.112014770508 197.029983520508 198.353973388672 187.882431030273 175.701538085938 166.251800537109 157.85920715332 147.253814697266 132.602020263672 113.280403137207 97.5593795776367 83.3363571166992 78.5959854125977 79.0050354003906 87.6799774169922 111.683059692383 141.4765625 164.950820922852 168.81413269043 164.928695678711 161.131088256836 147.81184387207
-9999 -9999 -9999 -9999 -9999 -9999 -9999 -9999 -9999 -9999 -9999 -9999 -9999 -9999 -9999 -9999 -9999 -9999 -9999 -9999 -9999 -9999 -9999 -9999 -9999 309.925913492839 250.168360392253 207.214889526367 185.28413772583 170.392303466797 175.897232055664 184.31184387207 193.681823730469 206.762435913086 222.902587890625 221.087448120117 207.534286499023 201.445739746094 198.915939331055 203.718231201172 202.805236816406 190.497573852539 174.120056152344 169.442276000977 176.269607543945 182.104873657227 179.841445922852 169.074371337891 165.37841796875 155.722396850586 148.267318725586 168.560577392578 160.638946533203 147.630828857422 132.633926391602 115.873458862305 100.173896789551 85.1672210693359 80.4984130859375 74.2253723144531 74.07861328125 87.1525268554688 119.297996520996 157.074249267578 176.599044799805 201.543441772461 208.249084472656 198.930267333984 190.232345581055 170.239120483398
-9999 -9999 -9999 -9999 -9999 -9999 -9999 -9999 -9999 -9999 -9999 -9999 -9999 -9999 -9999 -9999 -9999 -9999 -9999 -9999 -9999 -9999 -9999 -9999 377.237182617188 312.921997070312 239.618560791016 197.96452331543 184.061584472656 188.718139648438 205.499496459961 227.067962646484 247.300674438477 264.050659179688 283.647216796875 281.497436523438 258.950103759766 241.68782043457 229.435760498047 220.19123840332 215.398025512695 211.920989990234 203.558959960938 197.236373901367 190.295608520508 176.355499267578 158.94026184082 149.349624633789 160.67903137207 173.225952148438 164.73583984375 191.533996582031 170.082489013672 133.614593505859 120.84839630127 117.03596496582 101.804229736328 80.0160217285156 77.2213592529297 80.4972915649414 90.6759796142578 122.330383300781 170.637359619141 197.599716186523 198.948257446289 216.518020629883 231.892852783203 221.34455871582 204.905822753906 179.909164428711
-9999 -9999 -9999 -9999 -9999 -9999 -9999 -9999 -9999 -9999 -9999 -9999 -9999 -9999 -9999 -9999 -9999 -9999 -9999 -9999 -9999 -9999 -9999 -9999 351.207946777344 259.55224609375 198.416488647461 190.187133789062 202.405715942383 228.614654541016 259.539184570312 292.142120361328 308.268157958984 290.789001464844 286.962799072266 299.835144042969 291.897094726562 269.851165771484 252.80029296875 243.249114990234 232.206024169922 207.557846069336 196.61784362793 205.328186035156 206.393798828125 204.576354980469 204.701324462891 216.478744506836 238.559616088867 259.846313476562 262.701873779297 243.046417236328 203.657958984375 176.242828369141 169.649032592773 162.561386108398 145.126190185547 120.910789489746 113.507591247559 116.969711303711 132.960647583008 163.592102050781 196.927734375 192.80810546875 191.391235351562 217.521987915039 235.800064086914 224.167816162109 202.323425292969 180.125137329102
-9999 -9999 -9999 -9999 -9999 -9999 -9999 -9999 -9999 -9999 -9999 -9999 -9999 -9999 -9999 -9999 -9999 -9999 -9999 -9999 -9999 -9999 -9999 324.038421630859 331.201995849609 250.02571105957 204.615142822266 210.751922607422 258.427642822266 335.763427734375 379.419494628906 400.973815917969 409.068267822266 372.867492675781 347.0029296875 344.180023193359 316.427429199219 275.705352783203 248.378402709961 243.614974975586 224.143981933594 183.358795166016 190.378799438477 234.413986206055 265.872131347656 286.136749267578 306.892730712891 331.241119384766 336.309753417969 337.349273681641 324.990081787109 311.788940429688 284.716979980469 254.225814819336 228.151779174805 210.02099609375 194.499465942383 160.189758300781 131.201217651367 127.976707458496 145.485427856445 165.656494140625 178.385025024414 175.336227416992 184.189758300781 220.764572143555 236.227783203125 222.192489624023 199.799392700195 181.916168212891
-9999 -9999 -9999 -9999 -9999 -9999 -9999 -9999 -9999 -9999 -9999 -9999 -9999 -9999 -9999 -9999 -9999 -9999 -9999 -9999 -9999 -9999 -9999 317.825988769531 295.917755126953 244.102600097656 232.935043334961 271.649017333984 364.295562744141 463.946380615234 488.472015380859 475.381195068359 459.748779296875 423.902099609375 389.716339111328 355.352905273438 310.038604736328 280.545227050781 273.034637451172 276.731109619141 262.309417724609 259.067291259766 285.041381835938 303.106048583984 303.879943847656 299.034393310547 297.997772216797 302.016326904297 302.3662109375 308.022644042969 308.996368408203 305.401000976562 296.733306884766 285.011993408203 265.242156982422 247.914321899414 235.25505065918 213.062072753906 185.275131225586 153.683898925781 149.98014831543 162.772277832031 179.722640991211 187.760589599609 200.888046264648 232.248443603516 240.667938232422 223.145782470703 204.505737304688 191.220840454102
-9999 -9999 -9999 -9999 -9999 -9999 -9999 -9999 -9999 -9999 -9999 -9999 -9999 -9999 -9999 -9999 -9999 -9999 -9999 -9999 -9999 -9999 302.867614746094 289.731964111328 267.747253417969 256.779113769531 281.517944335938 343.128692626953 436.963134765625 502.795593261719 505.221923828125 492.301116943359 475.991821289062 431.922698974609 376.162231445312 321.624145507812 286.493682861328 291.700805664062 315.299560546875 322.985198974609 316.246917724609 315.609313964844 315.964813232422 298.981719970703 275.829376220703 261.850952148438 254.997772216797 249.533187866211 247.896438598633 254.371978759766 263.747100830078 269.446746826172 267.978637695312 264.743347167969 254.106689453125 244.210266113281 239.70539855957 237.452117919922 236.656158447266 207.373138427734 185.83056640625 185.712814331055 195.868316650391 206.295715332031 219.973052978516 227.185882568359 221.246154785156 221.511108398438 215.947326660156 192.761077880859
-9999 -9999 -9999 -9999 -9999 -9999 -9999 -9999 -9999 -9999 -9999 -9999 -9999 -9999 954.55630323622 -9999 -9999 -9999 -9999 592.065979003906 -9999 364.983551025391 291.911102294922 261.256408691406 261.508575439453 283.461395263672 333.420013427734 412.416839599609 497.564514160156 533.270629882812 517.103820800781 483.432006835938 431.872650146484 381.641204833984 354.080230712891 323.257385253906 299.016784667969 316.543426513672 339.701629638672 346.00146484375 352.154113769531 345.746917724609 324.653076171875 294.224151611328 270.004730224609 259.548248291016 251.190826416016 240.542984008789 232.447509765625 231.128860473633 236.376068115234 240.755386352539 239.565704345703 236.313873291016 227.968475341797 224.278396606445 221.739501953125 211.17594909668 209.25407409668 205.725769042969 196.365539550781 189.993896484375 184.975463867188 190.932525634766 194.084533691406 195.558868408203 214.493988037109 224.340774536133 188.431243896484 142.866668701172
-9999 -9999 -9999 -9999 -9999 -9999 -9999 -9999 -9999 -9999 -9999 -9999 -9999 -9999 950.351547241211 -9999 -9999 -9999 -9999 554.151794433594 437.3060546875 369.567657470703 270.671325683594 259.913604736328 292.625 336.951721191406 397.169586181641 472.993438720703 527.248046875 538.508117675781 528.151184082031 471.258911132812 358.827758789062 280.627014160156 277.003845214844 292.091552734375 303.20849609375 328.599487304688 349.009582519531 366.704772949219 385.643341064453 393.001495361328 372.615295410156 325.443054199219 292.353881835938 278.643951416016 261.686126708984 240.031814575195 222.253601074219 212.309494018555 212.976364135742 215.134658813477 210.987503051758 205.469024658203 197.361343383789 190.649566650391 186.248947143555 179.8935546875 176.031188964844 170.023880004883 163.682754516602 158.660583496094 154.062622070312 155.297119140625 166.927230834961 201.724838256836 213.478225708008 172.011901855469 123.559646606445 92.8858489990234
-9999 -9999 -9999 -9999 -9999 -9999 -9999 -9999 -9999 -9999 -9999 -9999 -9999 -9999 969.27294921875 -9999 -9999 -9999 -9999 -9999 351.42578125 343.675476074219 253.279830932617 277.723999023438 338.16162109375 393.64697265625 434.274536132812 477.742950439453 501.022521972656 492.542419433594 478.522552490234 463.684356689453 431.3125 381.209991455078 324.334716796875 286.182891845703 294.17529296875 331.1572265625 365.373931884766 393.053009033203 405.494232177734 413.079681396484 397.538543701172 344.545196533203 307.479705810547 288.741943359375 260.976654052734 228.803970336914 203.773071289062 188.550201416016 185.875045776367 187.955230712891 183.688018798828 176.973266601562 169.983352661133 164.892715454102 164.684783935547 167.313064575195 169.624984741211 168.375091552734 163.796829223633 159.946624755859 162.299957275391 176.68115234375 202.592758178711 202.228897094727 154.157333374023 110.491004943848 96.1688690185547 86.3774108886719
-9999 -9999 -9999 -9999 -9999 -9999 -9999 -9999 -9999 -9999 -9999 -9999 -9999 -9999 901.781005859375 -9999 893.587341308594 -9999 -9999 -9999 368.322052001953 324.137939453125 259.138702392578 311.841979980469 399.926696777344 465.375305175781 499.064117431641 521.670227050781 514.214965820312 477.069580078125 430.341278076172 402.164947509766 407.4541015625 433.194915771484 430.515472412109 391.194213867188 361.905914306641 362.084777832031 379.630767822266 399.843841552734 406.200500488281 413.325988769531 403.832061767578 350.523681640625 311.041534423828 286.5693359375 245.750991821289 201.415328979492 169.55256652832 154.68701171875 153.987106323242 157.248092651367 157.184143066406 157.512405395508 162.616561889648 173.97282409668 192.054138183594 206.374267578125 208.023681640625 202.035675048828 188.594619750977 182.291229248047 198.008850097656 212.484344482422 188.136138916016 138.19694519043 108.941291809082 103.674705505371 104.185333251953 99.1454238891602
-9999 -9999 -9999 -9999 -9999 -9999 -9999 -9999 -9999 -9999 -9999 -9999 -9999 -9999 901.781005859375 834.2890625 693.6611328125 -9999 -9999 332.668830871582 349.328460693359 296.060302734375 273.618591308594 346.126678466797 446.713287353516 498.523956298828 498.147338867188 485.141021728516 456.526794433594 424.778198242188 394.386291503906 364.77001953125 349.168182373047 361.844055175781 389.978668212891 409.802703857422 410.55615234375 408.841735839844 411.834838867188 412.077117919922 406.091522216797 410.425903320312 399.676330566406 346.426452636719 308.106719970703 280.405853271484 226.876220703125 173.013122558594 138.468963623047 125.869697570801 124.327171325684 126.302444458008 134.672027587891 159.077117919922 198.495300292969 225.111541748047 226.692413330078 219.649276733398 205.949630737305 194.677505493164 183.420639038086 187.341339111328 200.192810058594 175.424911499023 125.511779785156 104.236534118652 105.647644042969 107.655838012695 109.431060791016 110.825546264648
-9999 -9999 -9999 -9999 -9999 -9999 -9999 -9999 -9999 -9999 -9999 -9999 -9999 -9999 -9999 577.989624023438 528.690490722656 -9999 354.521110534668 300.900573730469 312.124237060547 292.712188720703 334.679260253906 432.450500488281 488.316192626953 485.113677978516 459.591156005859 442.704833984375 426.749267578125 411.500762939453 397.034820556641 384.095886230469 371.100891113281 359.647827148438 358.536437988281 372.903778076172 389.659362792969 402.431030273438 420.333099365234 429.914825439453 417.797729492188 414.644866943359 395.1875 337.536071777344 300.539764404297 271.066253662109 209.121917724609 159.258712768555 129.274398803711 114.202453613281 109.942100524902 123.350608825684 164.366363525391 212.198776245117 233.383529663086 219.775360107422 188.638153076172 171.237503051758 169.422164916992 169.525588989258 165.648590087891 167.556549072266 152.772262573242 121.80647277832 107.48218536377 113.265419006348 116.973480224609 116.852409362793 114.56037902832 112.500518798828
-9999 -9999 -9999 -9999 -9999 -9999 -9999 -9999 -9999 -9999 -9999 -9999 -9999 -9999 -9999 413.464752197266 419.842681884766 -9999 268.760192871094 283.855316162109 298.19677734375 334.079467773438 424.03466796875 496.740234375 492.786895751953 476.812561035156 466.889617919922 456.172149658203 435.643829345703 410.171813964844 381.092041015625 357.268402099609 342.687377929688 338.101745605469 342.565460205078 348.295013427734 363.524963378906 380.300201416016 393.590881347656 407.693969726562 400.347351074219 387.519348144531 353.421722412109 303.549133300781 286.548217773438 263.568756103516 197.981628417969 161.066436767578 148.670944213867 143.354751586914 155.853439331055 187.167251586914 223.930877685547 223.727172851562 180.091003417969 148.157119750977 135.800445556641 139.501281738281 148.002532958984 149.206634521484 142.301086425781 131.585891723633 116.459648132324 107.277053833008 109.283767700195 114.89282989502 125.735244750977 135.353637695312 135.829238891602 127.891876220703
-9999 -9999 -9999 -9999 -9999 -9999 -9999 -9999 -9999 -9999 -9999 -9999 -9999 -9999 -9999 370.917877197266 -9999 307.943171909877 278.525299072266 280.720153808594 317.923828125 384.536895751953 472.970672607422 498.369537353516 482.5771484375 476.150329589844 460.040618896484 416.940460205078 351.628936767578 290.653442382812 247.231201171875 222.757293701172 214.423889160156 218.251800537109 232.675750732422 258.284149169922 296.165374755859 335.978790283203 362.733978271484 374.009460449219 363.989715576172 340.291717529297 305.491271972656 275.361053466797 279.818908691406 264.475677490234 196.710678100586 175.511825561523 179.795013427734 178.763702392578 193.069610595703 207.446548461914 196.256622314453 147.463470458984 113.898551940918 111.193046569824 119.989685058594 129.213012695312 133.395034790039 129.955780029297 124.992752075195 113.883438110352 110.51530456543 109.515518188477 109.537704467773 110.858169555664 117.05908203125 128.871917724609 141.420211791992 144.253555297852
-9999 -9999 -9999 -9999 -9999 -9999 -9999 -9999 -9999 -9999 -9999 -9999 -9999 -9999 370.917877197266 333.95448811849 285.660308837891 278.171295166016 279.357147216797 294.688446044922 346.153778076172 423.787261962891 489.462799072266 489.764282226562 489.297180175781 467.962524414062 403.696990966797 316.072479248047 244.809494018555 191.874710083008 150.569213867188 122.727920532227 111.620559692383 119.170013427734 139.227767944336 180.203216552734 224.459365844727 274.167633056641 324.335479736328 346.498107910156 337.324401855469 305.789031982422 271.856109619141 251.556076049805 269.568969726562 263.923797607422 202.186080932617 202.773849487305 198.25895690918 164.454406738281 137.335464477539 124.948135375977 115.056419372559 98.3313598632812 98.3519058227539 107.581665039062 116.240242004395 121.38028717041 122.903930664062 119.719497680664 117.982223510742 112.882385253906 111.68017578125 112.377044677734 113.496337890625 112.751853942871 112.654006958008 117.590950012207 128.023239135742 135.843414306641
-9999 -9999 -9999 -9999 -9999 -9999 -9999 -9999 -9999 -9999 -9999 -9999 -9999 -9999 -9999 -9999 266.510517120361 262.324981689453 244.887329101562 286.122436523438 353.98291015625 445.849975585938 505.360137939453 497.752319335938 490.858367919922 439.467163085938 337.33544921875 233.599975585938 172.694458007812 135.118347167969 107.589950561523 85.8131790161133 74.9231338500977 77.2116317749023 92.5538558959961 134.647232055664 179.978820800781 231.649017333984 284.679016113281 314.114318847656 315.425872802734 289.160552978516 257.198944091797 242.566970825195 277.841094970703 277.065979003906 193.392242431641 181.793518066406 161.960174560547 117.98673248291 91.5331497192383 86.9345779418945 91.2467269897461 96.0714111328125 102.964981079102 110.433746337891 116.052658081055 119.129051208496 120.136985778809 120.092132568359 120.308403015137 118.46019744873 117.79842376709 118.519004821777 119.301887512207 117.847648620605 115.993797302246 117.215972900391 121.390953063965 125.86710357666
-9999 -9999 -9999 -9999 -9999 -9999 -9999 -9999 -9999 -9999 -9999 -9999 -9999 -9999 -9999 -9999 251.10523223877 239.885482788086 241.214767456055 285.020141601562 367.481170654297 478.835723876953 509.707214355469 499.843566894531 472.212982177734 383.452789306641 255.749160766602 177.157241821289 142.159057617188 118.94701385498 91.7248916625977 68.2247085571289 59.4643592834473 59.5586585998535 71.2105255126953 108.874794006348 153.174774169922 198.782669067383 243.271179199219 276.605987548828 285.587677001953 269.931335449219 245.177886962891 244.554443359375 290.110900878906 262.930053710938 160.599304199219 127.446472167969 112.277313232422 91.2741775512695 88.5652542114258 93.9919509887695 99.9173965454102 106.10733795166 111.03636932373 115.019470214844 118.863746643066 122.496299743652 125.007347106934 126.182983398438 126.789268493652 126.569786071777 126.130493164062 125.355812072754 124.911575317383 123.712089538574 121.778694152832 120.938331604004 121.979988098145 123.135795593262
-9999 -9999 -9999 -9999 -9999 -9999 -9999 -9999 -9999 -9999 -9999 -9999 -9999 -9999 -9999 -9999 -9999 241.893184661865 243.257583618164 308.203186035156 408.776245117188 489.340881347656 487.953399658203 491.494873046875 435.156311035156 310.961151123047 191.664916992188 154.228713989258 141.317306518555 126.178932189941 97.0829544067383 69.1647491455078 61.203914642334 61.154842376709 70.4499588012695 101.421104431152 143.557281494141 181.575088500977 216.714294433594 249.696365356445 258.691131591797 250.805938720703 238.39338684082 255.651260375977 303.236694335938 261.379241943359 182.313568115234 154.725692749023 132.136535644531 108.756744384766 104.320747375488 107.81192779541 110.495429992676 116.926086425781 124.296318054199 126.450828552246 127.650611877441 129.065765380859 129.899078369141 130.955215454102 132.350250244141 133.166076660156 133.821746826172 134.154647827148 134.251907348633 133.646743774414 131.795883178711 130.059310913086 130.125289916992 129.65544128418
-9999 -9999 -9999 -9999 -9999 -9999 -9999 -9999 -9999 -9999 -9999 -9999 -9999 -9999 242.690420150757 239.885482788086 242.057454109192 243.23624420166 243.214904785156 336.842315673828 467.761138916016 488.918121337891 473.707672119141 447.000640869141 371.466949462891 256.340789794922 163.484909057617 153.908798217773 153.257934570312 143.456207275391 118.658660888672 90.2945938110352 81.2974014282227 90.8367919921875 107.81046295166 135.904632568359 165.03564453125 190.734237670898 217.813583374023 242.732437133789 245.878173828125 242.958084106445 244.237915039062 278.73828125 321.974853515625 274.722076416016 204.115600585938 207.270950317383 206.364608764648 187.969802856445 163.963623046875 149.880249023438 139.276992797852 132.595092773438 138.264572143555 143.215469360352 144.325073242188 146.155395507812 146.627868652344 147.058212280273 146.70344543457 145.55859375 144.756698608398 144.363021850586 144.453079223633 145.224456787109 143.990966796875 138.985122680664 137.316146850586 138.109848022461
-9999 -9999 -9999 -9999 -9999 -9999 -9999 -9999 -9999 -9999 -9999 -9999 -9999 -9999 -9999 -9999 -9999 -9999 339.858779907227 366.795318603516 479.456848144531 451.298522949219 443.904296875 403.435150146484 322.185668945312 224.54801940918 165.022186279297 167.014099121094 173.40185546875 173.076126098633 158.651443481445 137.201248168945 129.314147949219 136.391311645508 151.019439697266 173.031829833984 190.88427734375 204.825622558594 223.125381469727 238.006149291992 238.65234375 245.083389282227 248.298751831055 281.554107666016 313.449035644531 282.915954589844 227.131912231445 214.094100952148 209.759552001953 216.163681030273 243.514846801758 236.590515136719 199.060958862305 169.197006225586 157.774719238281 157.890548706055 157.939758300781 158.216369628906 155.210647583008 151.819549560547 151.050170898438 148.855514526367 147.136917114258 146.875640869141 146.94743347168 149.152923583984 148.758163452148 144.406036376953 140.10481262207 141.223556518555
-9999 -9999 -9999 -9999 -9999 -9999 -9999 -9999 -9999 -9999 -9999 -9999 -9999 -9999 -9999 -9999 -9999 332.565307617188 402.972381591797 412.582580566406 500.190734863281 425.500122070312 424.60205078125 398.689147949219 323.974365234375 220.431228637695 173.83967590332 174.189971923828 180.995742797852 187.058166503906 193.140090942383 195.055160522461 198.82145690918 204.990295410156 211.219131469727 217.908432006836 222.750610351562 224.953826904297 235.701904296875 244.14485168457 245.33283996582 259.577789306641 255.893112182617 275.306274414062 302.122802734375 296.764434814453 269.793395996094 243.400527954102 217.579284667969 198.780853271484 224.838317871094 251.461959838867 244.254104614258 211.908294677734 180.029891967773 169.651657104492 166.050003051758 164.109786987305 159.636978149414 156.476226806641 154.073883056641 150.844116210938 149.452133178711 148.267318725586 148.486679077148 149.547241210938 150.907638549805 149.788131713867 144.610458374023 143.018814086914
-9999 -9999 -9999 -9999 -9999 -9999 -9999 -9999 -9999 -9999 -9999 -9999 -9999 290.716064453125 293.0546875 -9999 306.097396850586 342.856147766113 332.565307617188 499.946319580078 499.849029541016 443.813110351562 425.514312744141 412.814117431641 341.777435302734 223.022384643555 179.493347167969 174.689361572266 176.591995239258 180.662750244141 189.55632019043 199.811019897461 210.425689697266 219.21907043457 227.21955871582 234.946472167969 242.357788085938 244.667251586914 246.924560546875 246.291351318359 254.591354370117 273.0341796875 269.448303222656 269.982574462891 279.345886230469 280.630706787109 271.683471679688 258.959289550781 241.942184448242 227.425674438477 220.686599731445 239.767150878906 255.769012451172 242.062591552734 211.099472045898 186.909973144531 175.979919433594 171.143341064453 164.523895263672 158.081527709961 153.117340087891 152.672470092773 153.890197753906 154.951721191406 153.426834106445 152.708206176758 154.610641479492 155.090606689453 151.206741333008 146.009658813477
-9999 -9999 -9999 -9999 -9999 -9999 -9999 -9999 -9999 -9999 -9999 -9999 -9999 -9999 290.716064453125 316.226470947266 272.221527099609 339.973266601562 426.664489746094 470.492462158203 447.488800048828 418.653625488281 429.85400390625 439.432403564453 391.296783447266 273.613891601562 209.596557617188 191.145126342773 187.485626220703 182.17301940918 186.985687255859 189.142028808594 192.931655883789 195.913635253906 197.987075805664 200.386489868164 204.347015380859 207.287399291992 216.451232910156 237.596969604492 274.686828613281 301.357727050781 289.018371582031 267.577270507812 251.533157348633 237.010665893555 221.275283813477 216.532073974609 210.117248535156 214.897537231445 209.893310546875 218.901977539062 247.231384277344 262.804962158203 249.239898681641 215.835952758789 190.255722045898 178.414993286133 168.43180847168 159.251022338867 156.867218017578 161.918609619141 166.087097167969 167.033630371094 165.117233276367 161.314651489258 159.357574462891 159.367156982422 157.860977172852 153.546188354492
-9999 -9999 -9999 -9999 -9999 -9999 -9999 -9999 -9999 -9999 -9999 -9999 -9999 -9999 297.6318359375 290.716064453125 385.741821289062 439.580352783203 471.460418701172 453.337585449219 429.082580566406 417.505615234375 413.249053955078 438.112609863281 433.773895263672 372.499816894531 300.063568115234 266.734893798828 267.552734375 254.379104614258 249.397766113281 243.878265380859 240.677963256836 238.478317260742 229.960983276367 215.827301025391 208.357620239258 209.355361938477 225.034210205078 268.961364746094 332.617156982422 354.97119140625 326.648742675781 293.114135742188 268.240356445312 248.355041503906 228.616806030273 218.141708374023 208.734588623047 212.881332397461 210.005294799805 206.754608154297 228.942321777344 261.797302246094 268.446533203125 246.356750488281 212.905334472656 191.478378295898 175.389053344727 166.626235961914 170.175155639648 178.935180664062 182.474029541016 181.901550292969 176.247634887695 170.732086181641 164.819320678711 161.858993530273 162.928283691406 161.440887451172
-9999 -9999 -9999 -9999 -9999 -9999 -9999 -9999 -9999 -9999 -9999 253.484008789062 272.626251220703 269.628631591797 258.158843994141 372.023803710938 528.083129882812 488.917053222656 461.0078125 434.411376953125 419.080230712891 419.761291503906 408.110778808594 416.498413085938 426.249298095703 423.40380859375 417.407318115234 406.5810546875 422.594940185547 420.487915039062 404.074157714844 384.481231689453 348.714447021484 306.028930664062 282.731353759766 271.820526123047 272.784088134766 273.156402587891 287.245635986328 323.196594238281 381.457672119141 400.863403320312 364.701690673828 316.131683349609 280.042419433594 259.519714355469 241.644805908203 232.42301940918 226.417907714844 224.047790527344 219.892440795898 207.329299926758 212.354965209961 255.114074707031 273.07421875 264.896362304688 236.654251098633 211.564300537109 189.172225952148 182.920761108398 188.683944702148 194.412307739258 193.736312866211 193.144638061523 188.467819213867 179.726089477539 169.625381469727 165.056671142578 167.120223999023 170.886291503906
-9999 -9999 -9999 -9999 -9999 -9999 -9999 -9999 -9999 397.428894042969 268.899932861328 244.775573730469 282.5751953125 272.820922851562 304.179351806641 440.168426513672 502.738800048828 474.919372558594 432.487365722656 410.719848632812 419.924285888672 419.532165527344 407.901397705078 407.102844238281 410.817138671875 405.899566650391 405.073516845703 404.935729980469 415.001556396484 428.309692382812 424.869018554688 420.673919677734 421.491912841797 407.771575927734 384.340576171875 361.559722900391 347.116546630859 341.884857177734 350.366943359375 374.930816650391 408.294860839844 409.688323974609 371.072875976562 323.318328857422 283.254150390625 257.341461181641 243.025268554688 236.994445800781 234.676910400391 231.988327026367 229.678680419922 217.641662597656 214.726821899414 251.645797729492 271.267639160156 267.934326171875 250.449264526367 221.6728515625 205.950149536133 207.542251586914 212.165390014648 213.82438659668 212.062301635742 207.530197143555 198.471420288086 182.752853393555 174.196731567383 179.134368896484 191.088775634766 205.391632080078
-9999 -9999 -9999 -9999 -9999 -9999 -9999 -9999 -9999 372.431488037109 267.432098388672 292.041015625 328.617431640625 332.678161621094 398.204498291016 488.339813232422 490.973785400391 462.227478027344 439.188873291016 424.993072509766 425.210113525391 415.780395507812 412.810394287109 417.006072998047 427.807342529297 428.478485107422 407.566558837891 412.327239990234 424.37060546875 421.459686279297 411.632446289062 407.390411376953 402.432708740234 396.412384033203 399.309173583984 402.540985107422 399.989562988281 401.116271972656 406.247619628906 406.455810546875 392.527160644531 382.079040527344 359.193237304688 312.605773925781 264.143951416016 246.429809570312 245.311279296875 242.237991333008 239.787826538086 237.314208984375 232.036712646484 217.614929199219 220.516387939453 249.652145385742 270.154357910156 268.205352783203 246.682022094727 222.317901611328 231.211959838867 232.436325073242 230.58088684082 228.350875854492 224.42497253418 218.940063476562 198.848281860352 186.845748901367 197.58219909668 211.564636230469 227.479339599609 237.798706054688
-9999 -9999 -9999 -9999 -9999 301.375465393066 395.090545654297 355.573699951172 339.492004394531 267.604095458984 279.653900146484 339.153381347656 415.132781982422 463.695526123047 460.779296875 463.101440429688 464.843444824219 449.451873779297 438.710327148438 429.964599609375 422.911254882812 417.020843505859 413.207885742188 416.632110595703 414.981170654297 425.626403808594 420.72119140625 403.95654296875 401.729705810547 405.146240234375 409.643859863281 419.833740234375 418.913513183594 403.747833251953 384.788879394531 375.696716308594 363.040496826172 349.143463134766 358.837829589844 370.412445068359 361.134368896484 363.275634765625 333.074645996094 281.264831542969 252.408981323242 253.030838012695 252.313888549805 246.092468261719 241.694961547852 237.110748291016 231.524353027344 223.761138916016 238.130462646484 260.833740234375 268.652404785156 248.585220336914 228.185882568359 242.370620727539 255.932250976562 248.983444213867 241.819686889648 239.646377563477 234.701675415039 221.053405761719 207.180648803711 215.347793579102 224.85383605957 236.451400756836 247.027740478516 242.203735351562
-9999 -9999 -9999 -9999 279.5791015625 268.571655273438 262.260559082031 263.129211425781 271.091186523438 272.072509765625 290.066375732422 389.489349365234 436.524383544922 434.351928710938 458.480316162109 441.664367675781 429.047912597656 422.133453369141 422.021697998047 419.775909423828 411.106201171875 400.045104980469 384.642944335938 376.904876708984 376.019409179688 397.283325195312 422.833740234375 412.838134765625 376.998931884766 370.978210449219 398.881195068359 422.022735595703 426.707641601562 407.5205078125 380.757690429688 359.874664306641 335.024291992188 323.602233886719 339.972229003906 360.924255371094 366.824340820312 342.015258789062 307.796203613281 275.387115478516 267.369506835938 268.011322021484 263.727416992188 251.942855834961 242.663192749023 238.815948486328 233.822814941406 230.885360717773 238.02409362793 251.643310546875 243.591461181641 236.508697509766 251.097961425781 264.041076660156 249.860748291016 247.907348632812 247.258636474609 247.264923095703 237.469848632812 225.770141601562 227.77116394043 226.239486694336 237.248504638672 248.745254516602 248.623580932617 235.988494873047
-9999 -9999 -9999 255.891616821289 258.279937744141 237.607727050781 282.209167480469 310.935882568359 320.726928710938 368.487030029297 387.696533203125 419.936614990234 462.070983886719 454.328552246094 443.098937988281 427.729339599609 418.11181640625 420.686645507812 412.409027099609 397.284454345703 384.219635009766 364.370086669922 347.895751953125 344.182922363281 346.343597412109 368.247680664062 398.6533203125 424.043273925781 426.469573974609 425.923889160156 429.424224853516 426.370880126953 420.074859619141 407.457153320312 384.744262695312 369.784881591797 324.5126953125 294.339874267578 322.821594238281 342.1787109375 334.494537353516 308.176788330078 291.071228027344 286.58203125 287.572967529297 287.291625976562 279.136779785156 268.231353759766 257.205291748047 249.157989501953 241.724914550781 237.21662902832 240.622375488281 247.256195068359 251.103790283203 257.709259033203 258.274688720703 249.149261474609 252.604049682617 257.047729492188 259.049407958984 252.149871826172 244.550933837891 240.625259399414 240.824172973633 244.216506958008 257.807800292969 262.910064697266 256.840881347656 250.591125488281
-9999 -9999 -9999 254.319061279297 231.388366699219 290.398559570312 362.540710449219 421.066223144531 432.979675292969 445.687530517578 464.414306640625 453.424621582031 426.651977539062 400.838165283203 389.034149169922 387.867889404297 378.471374511719 386.005950927734 372.891540527344 359.270629882812 336.516174316406 316.446472167969 325.713500976562 338.088684082031 338.330505371094 344.420684814453 359.550628662109 375.329132080078 388.168243408203 395.277465820312 400.056030273438 398.328979492188 396.382904052734 399.731079101562 389.550354003906 365.207214355469 315.000244140625 296.360290527344 313.427337646484 311.61865234375 300.150909423828 292.875946044922 289.056671142578 285.964965820312 292.451019287109 299.641204833984 298.37646484375 291.906219482422 284.235687255859 277.880157470703 272.661956787109 273.28271484375 275.004150390625 266.418243408203 242.665298461914 238.31005859375 250.224380493164 256.779663085938 261.495727539062 267.139923095703 272.715118408203 266.029418945312 256.66015625 252.01301574707 251.386932373047 258.892425537109 272.790374755859 276.922607421875 272.839752197266 268.266693115234
