NCOLS 70 
NROWS 52 
XLLCORNER -80 
YLLCORNER 33 
CELLSIZE 0.25 
NODATA_value -9999 
-9999.000000000000000 -9999 -9999 -9999 -9999 -9999 -9999 -9999 -9999 -9999 -9999 -9999 -9999 -9999 -9999 -9999 -9999 -9999 -9999 -9999 -9999 -9999 -9999 -9999 -9999 -9999 -9999 -9999 -9999 -9999 -9999 -9999 -9999 -9999 -9999 -9999 -9999 -9999 -9999 -9999 -9999 -9999 -9999 -9999 -9999 -9999 -9999 -9999 -9999 -9999 -9999 -9999 -9999 -9999 -9999 -9999 -9999 -9999 -9999 -9999 -9999 -9999 -9999 -9999 -9999 -9999 -9999 -9999 -9999 -9999
-9999 -9999 -9999 -9999 -9999 -9999 -9999 -9999 -9999 -9999 -9999 -9999 -9999 -9999 -9999 -9999 -9999 -9999 -9999 -9999 -9999 -9999 -9999 -9999 -9999 -9999 -9999 -9999 -9999 -9999 -9999 -9999 -9999 -9999 -9999 -9999 -9999 -9999 -9999 -9999 -9999 -9999 -9999 -9999 -9999 -9999 -9999 -9999 -9999 -9999 -9999 -9999 -9999 -9999 -9999 -9999 -9999 -9999 -9999 -9999 -9999 -9999 -9999 -9999 -9999 -9999 -9999 -9999 -9999 -9999
-9999 -9999 -9999 -9999 -9999 -9999 -9999 -9999 -9999 -9999 -9999 -9999 -9999 -9999 -9999 -9999 -9999 -9999 -9999 -9999 -9999 -9999 -9999 -9999 -9999 -9999 -9999 -9999 -9999 -9999 -9999 -9999 -9999 -9999 -9999 -9999 -9999 -9999 -9999 -9999 -9999 -9999 -9999 -9999 -9999 -9999 -9999 -9999 -9999 -9999 -9999 -9999 -9999 -9999 -9999 -9999 -9999 -9999 -9999 226.619674682617 -9999 -9999 -9999 -9999 -9999 -9999 -9999 -9999 -9999 -9999
-9999 -9999 -9999 -9999 -9999 -9999 -9999 -9999 -9999 -9999 -9999 -9999 -9999 -9999 -9999 -9999 -9999 -9999 -9999 -9999 -9999 -9999 -9999 -9999 -9999 -9999 -9999 -9999 -9999 -9999 -9999 -9999 -9999 -9999 -9999 -9999 -9999 -9999 -9999 -9999 -9999 -9999 -9999 -9999 -9999 -9999 -9999 -9999 -9999 -9999 -9999 -9999 -9999 -9999 -9999 257.977691650391 227.383926391602 208.14973449707 208.899307250977 243.555908203125 -9999 -9999 -9999 -9999 -9999 -9999 -9999 -9999 -9999 -9999
-9999 -9999 -9999 -9999 -9999 -9999 -9999 -9999 -9999 -9999 -9999 -9999 -9999 -9999 -9999 -9999 -9999 -9999 -9999 -9999 -9999 -9999 -9999 -9999 -9999 -9999 -9999 -9999 -9999 -9999 -9999 -9999 -9999 -9999 -9999 -9999 -9999 -9999 -9999 -9999 -9999 -9999 -9999 -9999 -9999 -9999 -9999 -9999 -9999 -9999 -9999 -9999 328.063385009766 280.047912597656 272.708618164062 236.928359985352 208.454895019531 203.691925048828 -9999 -9999 -9999 -9999 -9999 -9999 -9999 -9999 -9999 -9999 -9999 -9999
-9999 -9999 -9999 -9999 -9999 -9999 -9999 -9999 -9999 -9999 -9999 -9999 -9999 -9999 -9999 -9999 -9999 -9999 -9999 -9999 -9999 -9999 -9999 -9999 -9999 -9999 -9999 -9999 -9999 -9999 -9999 -9999 -9999 -9999 -9999 -9999 -9999 -9999 -9999 -9999 -9999 -9999 -9999 -9999 -9999 -9999 -9999 -9999 -9999 -9999 189.014259338379 268.831359863281 237.915496826172 202.984924316406 199.715545654297 190.361053466797 -9999 -9999 -9999 -9999 -9999 -9999 -9999 -9999 -9999 -9999 -9999 115.379854838053 114.097570419312 155.020706176758
-9999 -9999 -9999 -9999 -9999 -9999 -9999 -9999 -9999 -9999 -9999 -9999 -9999 -9999 -9999 -9999 -9999 -9999 -9999 -9999 -9999 -9999 -9999 -9999 -9999 -9999 -9999 -9999 -9999 -9999 -9999 -9999 -9999 -9999 -9999 -9999 -9999 -9999 -9999 -9999 -9999 -9999 -9999 -9999 282.156311035156 -9999 -9999 156.165941238403 103.356880187988 110.717308044434 106.089401245117 104.758239746094 113.922874450684 157.311157226562 175.273559570312 -9999 -9999 -9999 -9999 -9999 -9999 -9999 -9999 184.130096435547 169.832962036133 154.216751098633 134.204345703125 111.832901000977 100.102317810059 89.4343566894531
-9999 -9999 -9999 -9999 -9999 -9999 -9999 -9999 -9999 -9999 -9999 -9999 -9999 -9999 -9999 -9999 -9999 -9999 -9999 -9999 -9999 -9999 -9999 -9999 -9999 -9999 -9999 -9999 -9999 -9999 -9999 -9999 -9999 -9999 -9999 -9999 -9999 -9999 -9999 -9999 -9999 -9999 -9999 -9999 286.851959228516 285.750579833984 238.716674804688 169.356094360352 113.234115600586 79.9650955200195 64.9771881103516 59.8135795593262 72.5808715820312 110.06356048584 134.513250350952 -9999 -9999 -9999 -9999 -9999 -9999 -9999 169.296615600586 140.138961791992 114.753433227539 97.8323822021484 82.1232376098633 72.4483642578125 70.5387268066406 70.5386962890625
-9999 -9999 -9999 -9999 -9999 -9999 -9999 -9999 -9999 -9999 -9999 -9999 -9999 -9999 -9999 -9999 -9999 -9999 -9999 -9999 -9999 -9999 -9999 -9999 -9999 -9999 -9999 -9999 -9999 -9999 -9999 -9999 -9999 -9999 -9999 -9999 -9999 -9999 -9999 -9999 231.716557820638 216.227676391602 207.488647460938 200.072174072266 154.259323120117 128.448425292969 126.119293212891 114.01286315918 92.9513854980469 73.9848480224609 61.3217620849609 55.8338394165039 66.8581008911133 95.4047241210938 96.5947494506836 -9999 -9999 -9999 -9999 -9999 156.303092956543 175.920394897461 138.818832397461 97.8705825805664 75.7758712768555 64.0262603759766 57.5374870300293 55.7493591308594 55.8845443725586 58.3770866394043
-9999 -9999 -9999 -9999 -9999 -9999 -9999 -9999 -9999 -9999 -9999 -9999 -9999 -9999 -9999 -9999 -9999 -9999 -9999 -9999 -9999 -9999 -9999 -9999 -9999 -9999 -9999 -9999 -9999 -9999 -9999 -9999 -9999 -9999 -9999 -9999 -9999 -9999 -9999 236.576721191406 236.559448242188 222.01350402832 190.110076904297 151.381088256836 113.814170837402 92.0630187988281 88.5791091918945 88.3154754638672 80.2428665161133 68.5889205932617 58.851936340332 54.4792137145996 61.719898223877 83.9168395996094 111.524749755859 82.0638732910156 -9999 -9999 -9999 119.430807113647 167.632186889648 125.35669708252 90.825065612793 77.6992568969727 70.114128112793 61.5110969543457 55.8709526062012 55.4159126281738 55.0313873291016 53.337890625
-9999 -9999 -9999 -9999 -9999 -9999 -9999 -9999 -9999 -9999 -9999 -9999 -9999 -9999 -9999 -9999 -9999 -9999 -9999 -9999 -9999 -9999 -9999 -9999 -9999 -9999 -9999 -9999 -9999 -9999 -9999 -9999 -9999 -9999 -9999 -9999 -9999 -9999 167.985585021973 166.665603637695 153.526245117188 129.457153320312 109.488243103027 88.3055648803711 72.8841094970703 66.6499862670898 65.1294937133789 64.412467956543 62.8930244445801 60.064826965332 55.4851188659668 52.2180023193359 55.9821624755859 68.6338958740234 85.7446975708008 73.7387771606445 63.1726837158203 79.1423199971517 117.731231689453 108.184349060059 84.1754608154297 68.7845916748047 65.7303237915039 66.9146347045898 67.0107040405273 62.9540367126465 58.2668151855469 59.0294075012207 59.0395851135254 56.4634170532227
-9999 -9999 -9999 -9999 -9999 -9999 -9999 -9999 -9999 -9999 -9999 -9999 -9999 -9999 -9999 -9999 -9999 -9999 -9999 -9999 -9999 -9999 -9999 -9999 -9999 -9999 -9999 -9999 -9999 -9999 -9999 -9999 -9999 -9999 -9999 -9999 -9999 164.100051879883 151.324111938477 121.261436462402 96.5605545043945 87.6774368286133 77.2040405273438 65.754524230957 59.5424346923828 56.6666069030762 56.5775527954102 58.846923828125 60.8097267150879 59.3747978210449 54.4084701538086 50.6137313842773 51.6075134277344 56.3926811218262 63.8050422668457 68.1571502685547 70.8735961914062 73.9677810668945 72.9014282226562 66.7155532836914 60.7905235290527 58.1436538696289 59.6393127441406 62.0988922119141 63.4430923461914 62.2284812927246 60.3692474365234 61.9524993896484 63.7282905578613 62.9151611328125
-9999 -9999 -9999 -9999 -9999 -9999 -9999 -9999 -9999 -9999 -9999 -9999 -9999 -9999 -9999 -9999 -9999 -9999 -9999 -9999 -9999 -9999 -9999 -9999 -9999 -9999 -9999 -9999 -9999 -9999 -9999 -9999 -9999 -9999 -9999 -9999 -9999 194.106597900391 164.272277832031 119.077125549316 89.6029968261719 74.8703231811523 67.5475311279297 62.8057403564453 59.4306526184082 57.0360527038574 56.6674957275391 59.6849403381348 62.3085517883301 61.0850791931152 56.7607040405273 53.1192779541016 52.4303932189941 53.8962821960449 55.1124458312988 56.3702239990234 57.7002410888672 58.6968421936035 59.3037567138672 59.2425880432129 56.661434173584 54.963005065918 56.1964492797852 59.2299385070801 61.5174179077148 62.5481605529785 63.0738830566406 63.3659934997559 65.5695724487305 66.160285949707
-9999 -9999 -9999 -9999 -9999 -9999 -9999 -9999 -9999 -9999 -9999 -9999 -9999 -9999 -9999 -9999 -9999 -9999 -9999 -9999 -9999 -9999 -9999 -9999 -9999 -9999 -9999 -9999 -9999 -9999 -9999 -9999 -9999 -9999 -9999 -9999 -9999 206.242141723633 149.093353271484 112.745071411133 93.7730712890625 78.2305450439453 68.9137496948242 64.1326904296875 60.2767295837402 57.3719215393066 58.5686798095703 62.6537666320801 64.9246444702148 63.8735198974609 61.1565895080566 58.796817779541 57.3840026855469 57.1512489318848 57.5832977294922 59.3211135864258 59.581111907959 59.023567199707 58.9298248291016 59.3522033691406 58.2219123840332 56.4026489257812 55.6763610839844 57.198616027832 60.1160202026367 63.2509765625 65.1997451782227 66.4678344726562 67.4163208007812 68.3291625976562
-9999 -9999 -9999 -9999 -9999 -9999 -9999 -9999 -9999 -9999 -9999 -9999 -9999 -9999 -9999 -9999 -9999 -9999 -9999 -9999 -9999 -9999 -9999 -9999 -9999 -9999 -9999 -9999 -9999 -9999 -9999 -9999 -9999 -9999 -9999 -9999 321.859924316406 230.799163818359 136.834014892578 100.313652038574 99.0969543457031 94.0798797607422 78.6418991088867 67.2373428344727 61.5744895935059 58.8771858215332 60.5186347961426 64.4749145507812 67.1020126342773 66.3023834228516 64.1089782714844 62.1349639892578 60.8147506713867 60.6541519165039 62.1631317138672 64.1685180664062 65.0375213623047 65.0878524780273 64.8075408935547 64.3595504760742 64.4570541381836 65.9172286987305 65.6716842651367 64.2263031005859 62.3688735961914 63.3640060424805 65.6159439086914 68.691032409668 71.4776916503906 73.8531875610352
-9999 -9999 -9999 -9999 -9999 -9999 -9999 -9999 -9999 -9999 -9999 -9999 -9999 -9999 -9999 -9999 -9999 -9999 -9999 -9999 -9999 -9999 -9999 -9999 -9999 -9999 -9999 -9999 -9999 -9999 -9999 -9999 -9999 -9999 -9999 -9999 -9999 195.925079345703 148.935028076172 103.499069213867 99.3236846923828 101.030166625977 89.7500762939453 73.3061981201172 65.0288543701172 61.4461669921875 60.5080413818359 64.3100204467773 71.0512542724609 72.9350051879883 70.1117553710938 67.1957092285156 64.9397888183594 63.3342170715332 63.5107078552246 64.1471481323242 63.4195899963379 64.6770248413086 67.8595352172852 68.6239242553711 70.7018508911133 76.4615020751953 75.3424072265625 72.9762573242188 69.0462417602539 66.5215606689453 68.0625915527344 71.3713989257812 76.5658187866211 82.5105819702148
-9999 -9999 -9999 -9999 -9999 -9999 -9999 -9999 -9999 -9999 -9999 -9999 -9999 -9999 -9999 -9999 -9999 -9999 -9999 -9999 -9999 -9999 -9999 -9999 -9999 -9999 -9999 -9999 -9999 -9999 -9999 -9999 -9999 -9999 -9999 -9999 -9999 -9999 136.694961547852 -9999 107.52734375 99.015998840332 87.7536697387695 75.2045364379883 67.279541015625 64.2417831420898 64.515998840332 70.0180587768555 79.7450790405273 81.8229827880859 76.1746597290039 72.9957504272461 69.5625 66.4165954589844 65.4525604248047 66.4026794433594 65.343376159668 70.4620513916016 79.5132522583008 82.1527786254883 80.2068939208984 82.3103103637695 79.8864517211914 77.315803527832 72.074836730957 71.4983901977539 73.7794570922852 79.7381439208984 88.1724243164062 94.5930709838867
-9999 -9999 -9999 -9999 -9999 -9999 -9999 -9999 -9999 -9999 -9999 -9999 -9999 -9999 -9999 -9999 -9999 -9999 -9999 -9999 -9999 -9999 -9999 -9999 -9999 -9999 -9999 -9999 -9999 -9999 -9999 -9999 -9999 -9999 -9999 -9999 -9999 -9999 -9999 -9999 106.143890380859 93.0135116577148 80.7138824462891 71.6426849365234 66.5446319580078 66.5927734375 73.8581619262695 81.7149505615234 85.3453598022461 82.1371688842773 73.9639282226562 72.9260787963867 72.1333160400391 71.4989242553711 69.7631225585938 70.4469985961914 70.7767105102539 78.8301467895508 87.7762451171875 89.6026153564453 86.2115249633789 87.5778350830078 89.7515335083008 87.6799163818359 77.3039627075195 76.7031707763672 80.4173583984375 90.6988906860352 99.6023941040039 101.544891357422
-9999 -9999 -9999 -9999 -9999 -9999 -9999 -9999 -9999 -9999 -9999 -9999 -9999 -9999 -9999 -9999 -9999 -9999 -9999 -9999 -9999 -9999 -9999 -9999 -9999 -9999 -9999 -9999 -9999 -9999 -9999 -9999 -9999 -9999 220.979686737061 243.695220947266 217.700546264648 -9999 147.992034912109 125.691986083984 102.114624023438 86.7102203369141 75.719596862793 68.1553497314453 67.0203857421875 72.609375 82.1929931640625 86.7958450317383 83.5638122558594 84.8114547729492 82.1041030883789 79.2430191040039 81.4466934204102 82.2443466186523 77.2499084472656 75.9689636230469 79.7217483520508 90.0264511108398 96.2782440185547 95.0478744506836 93.0037536621094 96.3551712036133 99.6639938354492 94.3858642578125 83.4538497924805 80.0680236816406 82.9265518188477 89.1940002441406 94.3443374633789 95.0300827026367
-9999 -9999 -9999 -9999 -9999 -9999 -9999 -9999 -9999 -9999 -9999 -9999 -9999 -9999 -9999 -9999 -9999 -9999 -9999 -9999 -9999 -9999 -9999 -9999 -9999 -9999 -9999 566.271423339844 566.271423339844 450.257843017578 360.907073974609 302.180511474609 273.411651611328 247.701568603516 218.543609619141 173.97834777832 128.987457275391 111.956314086914 106.328628540039 97.2314605712891 82.0858154296875 72.9910507202148 70.7543869018555 67.7564010620117 70.9109420776367 79.8676605224609 87.4033279418945 89.5205993652344 89.1581420898438 87.9378356933594 86.7085800170898 84.7178192138672 83.9576034545898 83.8653030395508 81.8707885742188 84.9739837646484 93.5748596191406 101.31925201416 103.188774108887 101.483665466309 102.032890319824 103.406959533691 100.741577148438 95.6268081665039 88.0311737060547 84.2306594848633 85.380744934082 88.7548828125 89.3589172363281 88.8029556274414
-9999 -9999 -9999 -9999 -9999 -9999 -9999 -9999 -9999 -9999 -9999 -9999 -9999 -9999 -9999 -9999 -9999 -9999 -9999 -9999 -9999 -9999 -9999 -9999 -9999 -9999 -9999 -9999 -9999 -9999 228.498901367188 208.486419677734 181.072006225586 141.37109375 116.608551025391 98.4526290893555 88.2475814819336 88.5665969848633 85.3759460449219 77.1149368286133 75.2341613769531 68.9523849487305 69.1472549438477 71.749885559082 77.6341857910156 86.1319885253906 90.039794921875 91.3208312988281 89.4932098388672 89.0554046630859 86.9605941772461 84.2019653320312 83.9885482788086 86.0694046020508 91.3911209106445 100.122734069824 105.510276794434 106.971038818359 105.775436401367 104.947410583496 104.649635314941 102.633026123047 99.4148635864258 97.6938934326172 96.756706237793 98.3029022216797 101.842300415039 104.48055267334 103.609046936035 102.638717651367
-9999 -9999 -9999 -9999 -9999 -9999 -9999 -9999 -9999 -9999 -9999 -9999 -9999 -9999 -9999 -9999 -9999 -9999 -9999 -9999 -9999 -9999 -9999 -9999 -9999 422.797454833984 332.189366658529 244.424911499023 173.833667755127 158.020172119141 138.038223266602 128.583724975586 111.934951782227 96.3678283691406 88.2305526733398 84.8519439697266 82.0812454223633 81.3305740356445 82.4576187133789 80.4279937744141 80.7439193725586 80.9194564819336 78.2080230712891 79.0471801757812 83.8815536499023 88.4641342163086 89.3975219726562 88.1878128051758 88.4175415039062 89.6543350219727 88.4246368408203 87.3138580322266 91.067497253418 98.3546905517578 105.816993713379 109.073600769043 107.790481567383 106.267158508301 104.285041809082 103.075996398926 101.451766967773 100.378356933594 102.036331176758 104.226203918457 105.29354095459 106.26579284668 107.632217407227 109.56803894043 110.024978637695 110.599098205566
-9999 -9999 -9999 -9999 -9999 -9999 -9999 -9999 -9999 -9999 -9999 -9999 -9999 -9999 -9999 -9999 -9999 -9999 -9999 -9999 -9999 -9999 -9999 -9999 506.029327392578 435.264282226562 327.098754882812 234.205062866211 171.970916748047 131.138519287109 113.168075561523 103.347030639648 96.6799926757812 93.0444793701172 91.3550262451172 89.740608215332 86.5866394042969 83.0975112915039 81.0854797363281 79.7103500366211 79.0302658081055 79.8280410766602 81.4627151489258 83.032096862793 84.0588989257812 85.1962814331055 86.0675735473633 86.3033599853516 88.0243072509766 89.7502593994141 92.2771224975586 97.2024536132812 104.241088867188 110.084060668945 111.015769958496 107.520530700684 104.993583679199 102.402122497559 99.9293212890625 97.3275756835938 96.0775299072266 97.0288314819336 98.8110046386719 99.7450790405273 97.7550659179688 95.092155456543 94.7249526977539 97.2821350097656 99.3046340942383 101.798515319824
-9999 -9999 -9999 -9999 -9999 -9999 -9999 -9999 -9999 -9999 -9999 -9999 -9999 -9999 -9999 -9999 -9999 -9999 -9999 -9999 -9999 -9999 -9999 -9999 276.132019042969 201.227966308594 149.299621582031 125.574340820312 111.488891601562 102.682754516602 99.845344543457 98.4745712280273 98.8559646606445 102.195625305176 107.218078613281 109.827125549316 107.065467834473 101.506744384766 96.3663940429688 91.2044830322266 86.3567810058594 83.4943618774414 82.5824508666992 82.0039138793945 83.2106246948242 87.2166900634766 91.9162826538086 93.5568161010742 91.8796691894531 91.1356964111328 99.6063003540039 107.760688781738 110.870079040527 110.254364013672 106.138916015625 102.996185302734 101.484298706055 98.2350845336914 96.0135650634766 94.7814559936523 94.1675872802734 95.2164840698242 96.6401443481445 96.7438659667969 95.0917205810547 93.6734619140625 93.8398361206055 96.4537200927734 98.5217361450195 100.730186462402
-9999 -9999 -9999 -9999 -9999 -9999 -9999 -9999 -9999 -9999 -9999 -9999 -9999 -9999 -9999 -9999 -9999 -9999 -9999 -9999 -9999 -9999 -9999 186.002792358398 176.128463745117 130.712219238281 120.340950012207 108.564064025879 104.98738861084 105.518455505371 106.847045898438 107.339912414551 112.376319885254 124.652847290039 138.401763916016 146.510208129883 147.495864868164 144.461898803711 138.088348388672 127.097999572754 113.964881896973 102.000625610352 92.9660034179688 88.5281677246094 92.1064453125 101.835891723633 110.877723693848 112.691139221191 105.526809692383 98.2123794555664 103.580619812012 108.163864135742 107.208969116211 104.49787902832 101.992919921875 100.101318359375 98.0368041992188 96.7593688964844 96.9150924682617 98.485481262207 99.7273025512695 101.147842407227 102.842895507812 103.973587036133 103.821434020996 104.236595153809 105.102355957031 106.629981994629 108.325469970703 109.401557922363
-9999 -9999 -9999 -9999 -9999 -9999 -9999 -9999 -9999 -9999 -9999 -9999 -9999 -9999 -9999 -9999 -9999 -9999 -9999 -9999 -9999 -9999 -9999 158.408706665039 133.341979980469 103.374610900879 106.852478027344 111.271469116211 118.075088500977 130.86067199707 139.087997436523 139.753158569336 141.914260864258 148.589370727539 155.174713134766 157.638900756836 156.313705444336 155.468322753906 154.443222045898 152.138519287109 150.666778564453 143.948318481445 126.853622436523 109.772430419922 107.932594299316 118.248321533203 128.32258605957 130.863403320312 123.506309509277 110.305168151855 104.164039611816 104.196495056152 102.254219055176 99.3263854980469 97.6032562255859 95.3766632080078 93.7675704956055 95.5826416015625 100.348243713379 105.45426940918 109.13166809082 111.352531433105 111.844230651855 111.878555297852 112.310874938965 113.826225280762 115.808097839355 117.335250854492 118.197143554688 116.720710754395
-9999 -9999 -9999 -9999 -9999 -9999 -9999 -9999 -9999 -9999 -9999 -9999 -9999 -9999 -9999 -9999 -9999 -9999 -9999 -9999 -9999 -9999 280.146881103516 179.466735839844 135.513107299805 119.49454498291 115.12622833252 130.922058105469 149.594863891602 164.014190673828 168.459335327148 166.660614013672 162.667434692383 157.907531738281 152.582931518555 145.792236328125 138.032165527344 133.875839233398 134.895629882812 140.062881469727 149.167877197266 155.356964111328 148.288558959961 127.997116088867 116.428634643555 122.674842834473 130.506103515625 134.313400268555 132.306747436523 121.807067871094 111.794044494629 106.868705749512 103.221466064453 100.574409484863 99.6753387451172 99.6802749633789 102.110107421875 107.132049560547 112.862030029297 116.230621337891 116.51513671875 115.708633422852 114.30818939209 112.892570495605 112.878402709961 113.633148193359 113.209365844727 110.894966125488 108.085258483887 104.309158325195
-9999 -9999 -9999 -9999 -9999 -9999 -9999 -9999 -9999 -9999 -9999 -9999 -9999 -9999 657.506688435872 -9999 -9999 -9999 -9999 541.927001953125 -9999 302.534210205078 269.739990234375 194.744842529297 163.056655883789 145.476013183594 143.402465820312 165.70881652832 187.411560058594 188.138687133789 181.450241088867 177.135528564453 171.534912109375 164.503326416016 156.774551391602 148.037414550781 137.929626464844 128.626510620117 124.81282043457 126.803451538086 131.298629760742 138.852569580078 148.38249206543 138.58967590332 120.234336853027 120.037155151367 124.417129516602 124.764366149902 123.746673583984 118.742820739746 113.101898193359 110.285415649414 109.346214294434 109.759834289551 111.387161254883 113.826644897461 116.70532989502 118.166656494141 117.785186767578 116.174385070801 113.570465087891 111.152442932129 109.559257507324 108.459777832031 107.893592834473 106.252586364746 102.181869506836 96.9538345336914 92.9176177978516 90.5688934326172
-9999 -9999 -9999 -9999 -9999 -9999 -9999 -9999 -9999 -9999 -9999 -9999 -9999 -9999 653.106552124023 -9999 -9999 -9999 -9999 480.446838378906 362.396649169922 287.264465332031 223.445724487305 185.60383605957 163.518630981445 155.041320800781 170.00390625 201.073165893555 210.472351074219 200.449295043945 192.068908691406 184.06462097168 174.853302001953 165.738983154297 158.048553466797 151.81022644043 144.910430908203 135.668380737305 127.508476257324 125.050163269043 126.886131286621 133.227035522461 146.072113037109 145.472351074219 128.241546630859 118.273468017578 117.187530517578 114.512168884277 111.733215332031 109.79280090332 107.437492370605 106.515647888184 107.03182220459 108.271629333496 109.827285766602 110.81063079834 110.574462890625 109.340957641602 107.665077209473 106.385528564453 105.544097900391 104.71183013916 103.495903015137 102.177024841309 101.402824401855 98.3664016723633 93.3815994262695 89.3335494995117 85.3380737304688 82.7672882080078
-9999 -9999 -9999 -9999 -9999 -9999 -9999 -9999 -9999 -9999 -9999 -9999 -9999 -9999 672.907165527344 -9999 -9999 -9999 -9999 -9999 259.134609222412 261.290893554688 213.164611816406 190.560943603516 179.016464233398 179.921203613281 198.473495483398 216.407165527344 213.23942565918 203.872253417969 194.575729370117 183.079223632812 172.135040283203 161.284591674805 150.247695922852 142.402008056641 138.603057861328 135.291442871094 130.723541259766 127.101768493652 126.218421936035 129.841979980469 137.421997070312 141.554244995117 134.527130126953 121.0654296875 113.830917358398 111.333442687988 109.456451416016 107.702255249023 105.978996276855 104.30094909668 102.946334838867 102.30525970459 101.974151611328 101.535469055176 100.817932128906 100.513916015625 100.768867492676 100.930633544922 100.721885681152 99.7929992675781 98.3145523071289 98.1354446411133 96.8442916870117 90.053108215332 84.5299835205078 81.6498336791992 77.4235534667969 77.1787109375
-9999 -9999 -9999 -9999 -9999 -9999 -9999 -9999 -9999 -9999 -9999 -9999 -9999 -9999 622.288055419922 -9999 593.704711914062 -9999 -9999 -9999 231.692672729492 256.290405273438 217.891677856445 202.393997192383 201.37353515625 208.166519165039 217.157897949219 220.363922119141 216.984680175781 209.844039916992 198.227783203125 186.899551391602 178.538650512695 169.354690551758 155.342254638672 140.70817565918 131.344650268555 127.020896911621 124.602783203125 122.602699279785 121.66780090332 123.388618469238 126.77791595459 131.787902832031 133.138809204102 123.876647949219 116.728210449219 114.619789123535 112.192413330078 108.90348815918 106.101913452148 103.89794921875 102.279525756836 101.173225402832 100.315444946289 99.6572723388672 99.1181030273438 98.6962203979492 98.2796783447266 97.8198394775391 97.0810394287109 95.5896682739258 94.5214462280273 95.0458068847656 89.787239074707 81.1008605957031 81.5136795043945 79.9662170410156 75.056884765625 75.0254287719727
-9999 -9999 -9999 -9999 -9999 -9999 -9999 -9999 -9999 -9999 -9999 -9999 -9999 -9999 622.288055419922 571.6689453125 451.518676757812 -9999 -9999 249.228691101074 254.229461669922 268.357360839844 221.299682617188 214.084259033203 224.17155456543 236.728286743164 241.04296875 237.372894287109 229.044677734375 216.994689941406 203.850463867188 193.401733398438 186.542694091797 180.896850585938 171.148239135742 155.263092041016 138.011825561523 124.623672485352 117.011810302734 113.272758483887 111.729667663574 112.696403503418 115.229141235352 118.709159851074 121.048286437988 117.970031738281 114.521995544434 112.268630981445 109.279472351074 105.976692199707 103.199630737305 101.081993103027 99.5063095092773 98.2235641479492 97.1221618652344 96.2623901367188 95.700927734375 95.3921279907227 95.1471710205078 94.7710800170898 93.8138961791992 92.252067565918 91.8022842407227 91.2673034667969 83.726806640625 78.90771484375 84.2244338989258 82.8622436523438 79.3130722045898 78.7929229736328
-9999 -9999 -9999 -9999 -9999 -9999 -9999 -9999 -9999 -9999 -9999 -9999 -9999 -9999 -9999 403.807678222656 362.161102294922 -9999 269.399360656738 250.345565795898 260.647064208984 248.463119506836 229.145614624023 244.745162963867 263.481750488281 266.686279296875 253.658004760742 232.070495605469 211.126892089844 194.045288085938 182.179138183594 175.49153137207 172.876556396484 172.689117431641 171.016784667969 162.694152832031 147.504928588867 130.05046081543 116.861724853516 109.788505554199 106.208305358887 105.013442993164 107.42423248291 111.17748260498 112.91576385498 111.748870849609 108.961883544922 105.53636932373 101.779678344727 98.1721267700195 94.9550323486328 92.1864852905273 89.9607391357422 88.4345397949219 87.5647735595703 87.3260345458984 87.8240661621094 88.9102325439453 90.2236862182617 90.9555053710938 90.6204299926758 89.415901184082 88.025260925293 85.5532608032227 78.4156875610352 76.5230102539062 78.4754791259766 75.9613342285156 78.2026138305664 80.1076965332031
-9999 -9999 -9999 -9999 -9999 -9999 -9999 -9999 -9999 -9999 -9999 -9999 -9999 -9999 -9999 329.184204101562 304.505462646484 -9999 207.181091308594 234.105087280273 231.115585327148 231.093307495117 256.165344238281 285.975280761719 290.434448242188 261.492401123047 224.05696105957 189.1787109375 162.849609375 145.734481811523 137.579238891602 136.680389404297 140.486221313477 147.291702270508 154.172515869141 155.170059204102 147.535858154297 134.412719726562 120.524879455566 110.087898254395 103.27311706543 102.347557067871 107.75333404541 112.100959777832 111.197128295898 106.433441162109 99.9347686767578 93.5353393554688 88.1346969604492 84.1261520385742 81.252067565918 79.2697525024414 78.0801315307617 77.7340087890625 78.0396881103516 78.6910705566406 80.0170974731445 82.340446472168 85.0960311889648 86.9868316650391 87.5067520141602 86.468994140625 84.5390853881836 81.7594909667969 78.4170150756836 80.9683227539062 80.3003616333008 77.538688659668 75.0751876831055 71.7285385131836
-9999 -9999 -9999 -9999 -9999 -9999 -9999 -9999 -9999 -9999 -9999 -9999 -9999 -9999 -9999 296.682952880859 -9999 241.093176705497 228.015274047852 218.210601806641 229.794647216797 251.675567626953 292.089263916016 306.498626708984 277.986724853516 218.626968383789 169.137664794922 134.018920898438 112.766494750977 101.983039855957 98.099723815918 99.1126556396484 104.180740356445 113.917198181152 127.377410888672 138.375946044922 140.263412475586 133.42106628418 121.370933532715 109.186317443848 103.60147857666 108.419624328613 114.768943786621 113.354103088379 104.869087219238 93.9240646362305 84.6777038574219 78.789680480957 75.7875137329102 74.5639724731445 74.1579437255859 74.2051010131836 74.6600036621094 75.2494659423828 75.5842361450195 75.7886962890625 76.7546081542969 79.2066268920898 82.3202209472656 84.5184020996094 85.2091064453125 84.6903381347656 83.7330169677734 80.5374145507812 78.8945159912109 79.6384353637695 79.1211700439453 81.1678161621094 82.0139312744141 78.4045257568359
-9999 -9999 -9999 -9999 -9999 -9999 -9999 -9999 -9999 -9999 -9999 -9999 -9999 -9999 296.682952880859 256.346033732096 219.256240844727 226.874114990234 248.721145629883 242.77604675293 257.467620849609 293.395629882812 323.993347167969 300.959350585938 233.92170715332 165.035690307617 119.112701416016 94.725227355957 85.8195495605469 82.787239074707 82.2193222045898 82.7365646362305 84.3871231079102 89.5464248657227 101.259788513184 118.132514953613 130.210418701172 131.2724609375 123.154327392578 113.67333984375 113.153350830078 119.066665649414 118.096954345703 107.007698059082 91.9147644042969 80.0883026123047 74.2898101806641 72.8922424316406 73.3335418701172 73.7492294311523 73.6725616455078 73.8139724731445 75.1037750244141 76.1416931152344 76.0434265136719 75.4666290283203 76.2482070922852 78.8420791625977 81.7383728027344 83.4062652587891 83.5474624633789 82.9690093994141 80.8966064453125 76.4481353759766 74.3516616821289 73.2216644287109 74.2134780883789 77.2338714599609 80.3531036376953 81.8648986816406
-9999 -9999 -9999 -9999 -9999 -9999 -9999 -9999 -9999 -9999 -9999 -9999 -9999 -9999 -9999 -9999 240.874389648438 249.926284790039 227.487182617188 236.423767089844 288.008239746094 344.508972167969 351.866394042969 281.632934570312 189.371047973633 124.567481994629 91.2193832397461 81.4553451538086 80.0056457519531 79.9049072265625 80.3572616577148 80.8827819824219 80.8152923583984 81.4952011108398 87.0307998657227 100.90828704834 117.49178314209 126.648872375488 125.759567260742 121.388732910156 121.253852844238 119.873725891113 108.952598571777 92.5393218994141 79.2307281494141 73.1502838134766 72.3804168701172 73.5156478881836 74.1239700317383 73.4337768554688 72.90380859375 73.9742279052734 75.5927886962891 75.6569747924805 74.9503555297852 75.1483306884766 77.1460266113281 79.8408889770508 81.47607421875 81.6685638427734 80.9432678222656 79.2059860229492 75.3286437988281 71.5203857421875 70.6392440795898 71.45751953125 74.2384033203125 76.5753021240234 77.542724609375 78.2574996948242
-9999 -9999 -9999 -9999 -9999 -9999 -9999 -9999 -9999 -9999 -9999 -9999 -9999 -9999 -9999 -9999 258.683601379395 267.44091796875 268.442993164062 276.502014160156 354.408172607422 422.682434082031 365.120147705078 251.994094848633 153.689025878906 100.336250305176 81.8537902832031 79.2441177368164 79.1371841430664 79.0020904541016 79.4132080078125 80.4038314819336 80.4882202148438 79.5722503662109 80.6523742675781 88.5092620849609 103.407676696777 116.353424072266 121.297836303711 120.190864562988 117.395561218262 108.820465087891 93.5918884277344 79.5589828491211 72.7129898071289 71.7468338012695 72.3216094970703 73.3897857666016 73.8759460449219 73.6146392822266 73.6501541137695 74.3027267456055 74.3425369262695 73.8378067016602 74.4144287109375 76.4661483764648 78.9523391723633 80.1318206787109 79.6587371826172 78.5518264770508 76.9534454345703 74.2286605834961 70.5990676879883 69.8661651611328 71.2307357788086 74.014045715332 77.2738647460938 78.4215698242188 77.1656799316406 75.624885559082
-9999 -9999 -9999 -9999 -9999 -9999 -9999 -9999 -9999 -9999 -9999 -9999 -9999 -9999 -9999 -9999 -9999 297.700836181641 322.017242431641 375.840759277344 467.547332763672 504.916564941406 357.847625732422 207.241806030273 121.846420288086 88.2036285400391 79.771614074707 78.3244552612305 78.4910659790039 78.7139434814453 78.7813720703125 78.9473342895508 78.7649765014648 77.8623352050781 77.4610824584961 81.7384643554688 93.2098846435547 105.767799377441 112.000778198242 111.933769226074 107.168357849121 95.8917846679688 81.9869995117188 72.8935546875 70.7790374755859 71.1835479736328 71.7246475219727 72.8332595825195 73.5774230957031 73.7077255249023 73.7093276977539 73.6288452148438 73.5041351318359 74.0571517944336 75.5727005004883 77.2935485839844 78.0422668457031 77.1447906494141 75.7077941894531 74.7906646728516 73.8682861328125 72.7237014770508 72.1785507202148 73.2164077758789 75.1028747558594 77.985595703125 79.7297897338867 77.7344741821289 73.3893203735352 70.6642150878906
-9999 -9999 -9999 -9999 -9999 -9999 -9999 -9999 -9999 -9999 -9999 -9999 -9999 -9999 265.251588821411 267.44091796875 306.375915527344 327.459716796875 332.902191162109 443.553253173828 559.385681152344 544.229370117188 327.160949707031 163.750579833984 101.711097717285 85.9429626464844 79.7660522460938 77.8846817016602 77.7222518920898 77.7590408325195 77.1582336425781 76.6107330322266 76.3014068603516 75.9252166748047 76.1627807617188 79.9130706787109 88.9204177856445 99.1799926757812 103.865760803223 103.360855102539 97.3381881713867 85.7992324829102 75.0980987548828 70.0692138671875 70.1350936889648 70.8114471435547 71.1544876098633 71.8815536499023 72.4991836547852 72.8468551635742 72.9442977905273 72.8508529663086 72.8886260986328 73.3885040283203 73.9241409301758 73.9202575683594 73.3781204223633 72.8791580200195 73.4971237182617 75.1470794677734 76.5254287719727 76.9427871704102 77.1117401123047 77.3375930786133 78.6221313476562 80.1763458251953 78.2938385009766 71.9706344604492 66.5324935913086 65.7273559570312
-9999 -9999 -9999 -9999 -9999 -9999 -9999 -9999 -9999 -9999 -9999 -9999 -9999 -9999 -9999 -9999 -9999 -9999 434.207595825195 454.270751953125 580.867309570312 511.943298339844 279.640808105469 136.106307983398 98.0609588623047 89.7021713256836 83.0330352783203 80.3278579711914 78.7773056030273 77.8012390136719 76.5408172607422 75.6474075317383 75.2638092041016 75.7273788452148 77.4795684814453 81.7967529296875 88.8224334716797 95.8045425415039 98.4058609008789 95.0226821899414 86.6248321533203 76.6849365234375 69.8288803100586 68.4363479614258 69.9315719604492 70.83642578125 71.1342391967773 71.542594909668 71.7981414794922 71.8279724121094 71.6528549194336 71.3085479736328 71.0344390869141 71.0251922607422 71.3490142822266 71.9794616699219 73.1180648803711 75.1211395263672 77.5963439941406 79.4570770263672 80.1239700317383 79.7199325561523 78.7864685058594 78.8060073852539 79.41162109375 78.0625305175781 71.5746078491211 64.7377090454102 63.4722938537598 62.8514709472656
-9999 -9999 -9999 -9999 -9999 -9999 -9999 -9999 -9999 -9999 -9999 -9999 -9999 -9999 -9999 -9999 -9999 445.406860351562 502.138977050781 506.104187011719 580.228820800781 433.211853027344 223.841705322266 118.79175567627 101.94499206543 97.0620269775391 92.8502731323242 90.4636764526367 87.9311981201172 86.6045608520508 85.5773773193359 85.2152557373047 85.0272750854492 85.4584808349609 86.6096343994141 88.7163696289062 90.7642593383789 90.4459381103516 85.9726867675781 80.6634979248047 76.765022277832 73.1503524780273 69.6417465209961 68.5872268676758 69.4050750732422 70.2403259277344 70.7039947509766 71.2211532592773 71.4953994750977 71.3325653076172 70.9347305297852 70.5025100708008 70.3177108764648 70.5297164916992 71.5439834594727 73.8618927001953 76.8445434570312 79.1306533813477 80.3587265014648 80.1088485717773 78.9852066040039 77.65869140625 77.4870147705078 77.607063293457 76.2164001464844 70.9291458129883 64.6229400634766 62.7969627380371 62.7114028930664 63.3075904846191
-9999 -9999 -9999 -9999 -9999 -9999 -9999 -9999 -9999 -9999 -9999 -9999 -9999 340.206176757812 340.343071831597 -9999 411.408401489258 468.563484191895 445.406860351562 602.774108886719 505.869354248047 296.607879638672 147.836349487305 112.086616516113 106.554946899414 104.193222045898 103.004028320312 102.86075592041 102.182403564453 101.36173248291 99.4144897460938 97.3915100097656 95.7286148071289 94.6767425537109 93.7283325195312 92.5222854614258 89.958251953125 86.093620300293 81.5865631103516 78.4469146728516 77.558464050293 77.0905303955078 75.0139465332031 72.0078201293945 70.1028060913086 69.7540283203125 70.2413864135742 70.8256454467773 71.1867370605469 71.3842163085938 71.4192504882812 71.3231582641602 71.5526123046875 72.3389663696289 74.1157073974609 76.7160263061523 78.6194763183594 78.5691833496094 77.065803527832 75.3401794433594 74.4824676513672 74.6097717285156 73.859245300293 70.5228881835938 66.1349945068359 64.3975372314453 64.8576126098633 63.6163024902344 63.6376609802246 67.8246917724609
-9999 -9999 -9999 -9999 -9999 -9999 -9999 -9999 -9999 -9999 -9999 -9999 -9999 -9999 340.206176757812 348.646708170573 332.176330566406 490.640472412109 606.0302734375 511.303375244141 328.951507568359 158.211486816406 121.443565368652 111.508125305176 108.719337463379 108.056701660156 109.438186645508 111.244941711426 112.924034118652 114.095329284668 114.240699768066 113.733337402344 112.932563781738 112.208656311035 111.492904663086 110.614181518555 109.057075500488 106.395767211914 101.996337890625 95.6345596313477 88.9694595336914 86.1835861206055 86.1906509399414 84.6522827148438 81.1396255493164 76.802490234375 73.3947143554688 72.0228805541992 72.2307586669922 72.9508743286133 73.5380325317383 73.9872894287109 74.618034362793 75.6616134643555 77.138053894043 78.2241058349609 77.5551071166992 74.64306640625 71.4663238525391 69.9850158691406 68.6546096801758 66.2178268432617 63.1381530761719 60.9789886474609 62.9569931030273 67.0693130493164 64.7817840576172 63.114086151123 66.2739944458008 70.2152557373047
-9999 -9999 -9999 -9999 -9999 -9999 -9999 -9999 -9999 -9999 -9999 -9999 -9999 -9999 313.05167388916 340.206176757812 373.5576171875 357.352966308594 321.717163085938 234.483779907227 164.743225097656 124.353462219238 114.291374206543 107.855812072754 104.665321350098 103.805595397949 104.496238708496 105.907379150391 107.892532348633 109.997352600098 112.204147338867 114.508407592773 116.648750305176 118.558166503906 120.064437866211 120.905990600586 120.981956481934 120.217918395996 118.766151428223 116.741928100586 112.047996520996 99.0979690551758 89.915657043457 89.3141632080078 89.3484649658203 87.2630081176758 83.0566940307617 78.2673416137695 74.3464126586914 72.2273635864258 71.5798873901367 71.5874404907227 71.6952438354492 71.1276702880859 70.916130065918 70.7127151489258 68.7802429199219 65.2676162719727 64.8645172119141 64.8935470581055 62.7437858581543 60.1720428466797 60.1732215881348 61.1576080322266 65.6941146850586 63.1312828063965 61.28857421875 63.7256813049316 67.4109649658203 69.441276550293
-9999 -9999 -9999 -9999 -9999 -9999 -9999 -9999 -9999 -9999 -9999 309.457000732422 322.861663818359 323.318084716797 292.933227539062 295.749206542969 269.402069091797 223.83479309082 182.883209228516 159.038223266602 139.466583251953 120.96516418457 111.544708251953 107.311531066895 104.909027099609 103.351028442383 101.912704467773 100.551422119141 99.2241668701172 98.3632202148438 98.593017578125 100.533813476562 103.550392150879 106.782188415527 110.31307220459 113.401107788086 115.834266662598 117.43741607666 117.908447265625 117.953094482422 119.860511779785 116.292129516602 100.396217346191 91.8224868774414 92.8558197021484 91.3048324584961 87.2986450195312 83.2938613891602 78.4901504516602 74.1684799194336 71.4145278930664 69.5740051269531 68.3025970458984 67.5009613037109 68.267333984375 68.8356781005859 65.7228088378906 62.3853759765625 63.7481994628906 65.2900009155273 64.0785217285156 61.195182800293 61.0324478149414 60.0335273742676 60.8868217468262 60.3712158203125 61.6208648681641 64.3677978515625 67.2077178955078 69.0586853027344
-9999 -9999 -9999 -9999 -9999 -9999 -9999 -9999 -9999 402.572235107422 368.314697265625 313.568359375 295.696228027344 229.548217773438 237.272689819336 247.358535766602 187.102783203125 171.55158996582 158.628829956055 143.365661621094 129.221817016602 118.094230651855 110.988403320312 107.486198425293 106.069877624512 106.105117797852 106.594032287598 106.445487976074 104.426940917969 101.803413391113 99.68212890625 98.1061401367188 96.1647186279297 94.4505081176758 95.86328125 99.0405883789062 102.140846252441 105.816276550293 108.556167602539 109.862968444824 111.784065246582 117.951240539551 114.503944396973 103.116195678711 100.980583190918 100.752044677734 96.1614303588867 91.4067077636719 87.423942565918 83.1972961425781 78.4557495117188 73.9202728271484 70.5746078491211 69.1930313110352 69.4977111816406 66.9414520263672 60.1218338012695 61.1796836853027 64.5548629760742 64.7046966552734 63.3132095336914 61.2013664245605 59.9175224304199 59.4443359375 59.8054122924805 60.4197235107422 61.8040237426758 63.6618995666504 66.3839874267578 69.512825012207
-9999 -9999 -9999 -9999 -9999 -9999 -9999 -9999 -9999 419.935180664062 364.556640625 279.059814453125 234.904205322266 215.356628417969 207.01921081543 170.924682617188 157.567337036133 153.340484619141 146.703491210938 137.076309204102 128.662017822266 122.508979797363 118.117683410645 114.558647155762 112.034996032715 110.78311920166 110.244483947754 110.206062316895 110.190940856934 110.272483825684 109.897026062012 108.940895080566 107.489723205566 105.247917175293 103.119812011719 101.697471618652 101.770843505859 103.617874145508 106.274948120117 108.341621398926 109.570411682129 113.238525390625 116.000717163086 110.356491088867 105.381546020508 103.547607421875 100.7392578125 97.7064971923828 94.5427856445312 91.2167129516602 87.3534469604492 81.1354370117188 74.6501083374023 70.6927642822266 65.0683059692383 57.2179260253906 56.2607192993164 58.7791709899902 58.8018646240234 58.031623840332 58.7829360961914 61.0176277160645 63.4603996276855 64.5327987670898 64.4513168334961 64.0392913818359 64.0945739746094 64.9759368896484 66.9083557128906 69.6576309204102
-9999 -9999 -9999 -9999 -9999 391.88404083252 436.815368652344 393.033050537109 394.418334960938 358.836822509766 352.983795166016 268.845275878906 227.75373840332 201.817581176758 176.117706298828 163.897491455078 157.530364990234 153.356582641602 149.958358764648 146.421844482422 142.931213378906 139.831756591797 137.616668701172 136.171875 134.905044555664 133.705337524414 132.789260864258 132.33837890625 132.65168762207 133.583206176758 133.963333129883 133.022537231445 130.25325012207 126.53702545166 122.944473266602 119.864799499512 117.87801361084 116.994476318359 117.030860900879 116.833923339844 115.985893249512 114.933776855469 115.860511779785 112.934341430664 105.416847229004 100.644958496094 98.4217529296875 96.1181030273438 93.1510543823242 90.4901275634766 90.1778793334961 87.8426132202148 79.4896011352539 70.366584777832 61.6366004943848 58.755298614502 64.1676483154297 68.4784622192383 70.1042556762695 70.9732437133789 71.0502090454102 68.4324264526367 63.0303802490234 59.5301513671875 61.3095436096191 63.8686790466309 64.9935607910156 65.717529296875 66.5254135131836 67.5568923950195
-9999 -9999 -9999 -9999 354.033233642578 388.306396484375 388.381164550781 323.681427001953 334.583801269531 333.289916992188 281.296844482422 256.047729492188 210.418930053711 178.954574584961 169.165023803711 163.615509033203 161.02214050293 158.759033203125 154.874481201172 149.753021240234 144.608840942383 140.430084228516 137.590606689453 135.832550048828 134.207183837891 132.534225463867 130.874496459961 129.478652954102 128.858688354492 129.05126953125 129.51936340332 129.807113647461 129.768798828125 129.386123657227 128.607604980469 127.113098144531 125.695648193359 124.645011901855 122.699234008789 119.884750366211 116.553176879883 112.420379638672 110.392692565918 107.676078796387 101.240882873535 96.7311096191406 94.8884658813477 92.0494232177734 87.712646484375 82.7707366943359 83.6231536865234 89.7976379394531 85.5210037231445 68.4134826660156 62.0401802062988 69.6008682250977 74.0194931030273 76.4041442871094 77.6886215209961 77.9922180175781 78.5532531738281 79.2407608032227 78.809440612793 75.1455535888672 69.2317733764648 63.5181579589844 60.9508934020996 60.512508392334 60.4437980651855 59.937801361084
-9999 -9999 -9999 358.464393615723 358.165985107422 354.162567138672 353.339050292969 300.657196044922 262.573608398438 229.750595092773 230.05810546875 192.383743286133 176.70637512207 168.603179931641 165.558181762695 162.994842529297 156.804565429688 147.428192138672 136.583892822266 125.643333435059 116.814765930176 110.218559265137 106.181098937988 103.697708129883 101.851196289062 100.200820922852 98.7239227294922 97.8277435302734 97.6895446777344 98.0264205932617 98.7579498291016 100.015983581543 101.882034301758 104.229713439941 106.425422668457 108.226280212402 109.476768493652 109.566162109375 108.271659851074 105.874816894531 102.880805969238 99.755485534668 98.5631484985352 97.3641815185547 93.5362930297852 91.0514602661133 90.5913925170898 88.3721084594727 83.3498916625977 75.6085357666016 72.3501739501953 85.6798248291016 88.7508316040039 72.6646423339844 65.9778213500977 72.3644104003906 73.6643371582031 70.6681823730469 67.3637771606445 67.5585327148438 69.9012451171875 72.6282730102539 75.2464752197266 77.3681640625 77.4311599731445 76.0695343017578 72.1930618286133 67.4911956787109 65.4437713623047 66.0044631958008
-9999 -9999 -9999 369.440979003906 352.217376708984 383.367431640625 343.885864257812 283.392517089844 217.447128295898 180.809295654297 171.56672668457 173.502868652344 173.656311035156 170.234832763672 162.831100463867 151.132675170898 135.448684692383 116.810028076172 99.6691360473633 87.2267303466797 79.0746994018555 73.8042602539062 70.4185409545898 68.1072387695312 66.4167861938477 65.4274063110352 64.91552734375 64.7228088378906 65.0075988769531 66.0216903686523 67.4360580444336 69.0682373046875 71.008918762207 73.1925430297852 75.4290618896484 77.6820678710938 79.6336288452148 80.9501113891602 81.5642318725586 81.7368240356445 82.0770034790039 82.6988677978516 84.4195022583008 85.9913177490234 85.1954116821289 85.6627731323242 86.6872482299805 84.6335601806641 79.7294998168945 72.3183822631836 64.9754943847656 75.018669128418 84.3469161987305 78.3021850585938 74.596435546875 72.8221664428711 67.9994506835938 63.4124183654785 61.0192375183105 63.6774444580078 66.8489685058594 69.2708053588867 72.0131454467773 74.683967590332 75.6155319213867 75.2506408691406 71.6528396606445 64.6459197998047 62.3122100830078 62.9147872924805
