NCOLS 70 
NROWS 52 
XLLCORNER -80 
YLLCORNER 33 
CELLSIZE 0.25 
NODATA_value -9999 
-9999.000000000000000 -9999 -9999 -9999 -9999 -9999 -9999 -9999 -9999 -9999 -9999 -9999 -9999 -9999 -9999 -9999 -9999 -9999 -9999 -9999 -9999 -9999 -9999 -9999 -9999 -9999 -9999 -9999 -9999 -9999 -9999 -9999 -9999 -9999 -9999 -9999 -9999 -9999 -9999 -9999 -9999 -9999 -9999 -9999 -9999 -9999 -9999 -9999 -9999 -9999 -9999 -9999 -9999 -9999 -9999 -9999 -9999 -9999 -9999 -9999 -9999 -9999 -9999 -9999 -9999 -9999 -9999 -9999 -9999 -9999
-9999 -9999 -9999 -9999 -9999 -9999 -9999 -9999 -9999 -9999 -9999 -9999 -9999 -9999 -9999 -9999 -9999 -9999 -9999 -9999 -9999 -9999 -9999 -9999 -9999 -9999 -9999 -9999 -9999 -9999 -9999 -9999 -9999 -9999 -9999 -9999 -9999 -9999 -9999 -9999 -9999 -9999 -9999 -9999 -9999 -9999 -9999 -9999 -9999 -9999 -9999 -9999 -9999 -9999 -9999 -9999 -9999 -9999 -9999 -9999 -9999 -9999 -9999 -9999 -9999 -9999 -9999 -9999 -9999 -9999
-9999 -9999 -9999 -9999 -9999 -9999 -9999 -9999 -9999 -9999 -9999 -9999 -9999 -9999 -9999 -9999 -9999 -9999 -9999 -9999 -9999 -9999 -9999 -9999 -9999 -9999 -9999 -9999 -9999 -9999 -9999 -9999 -9999 -9999 -9999 -9999 -9999 -9999 -9999 -9999 -9999 -9999 -9999 -9999 -9999 -9999 -9999 -9999 -9999 -9999 -9999 -9999 -9999 -9999 -9999 -9999 -9999 -9999 -9999 285.841217041016 -9999 -9999 -9999 -9999 -9999 -9999 -9999 -9999 -9999 -9999
-9999 -9999 -9999 -9999 -9999 -9999 -9999 -9999 -9999 -9999 -9999 -9999 -9999 -9999 -9999 -9999 -9999 -9999 -9999 -9999 -9999 -9999 -9999 -9999 -9999 -9999 -9999 -9999 -9999 -9999 -9999 -9999 -9999 -9999 -9999 -9999 -9999 -9999 -9999 -9999 -9999 -9999 -9999 -9999 -9999 -9999 -9999 -9999 -9999 -9999 -9999 -9999 -9999 -9999 -9999 181.853103637695 167.785903930664 174.254638671875 216.091781616211 252.184280395508 -9999 -9999 -9999 -9999 -9999 -9999 -9999 -9999 -9999 -9999
-9999 -9999 -9999 -9999 -9999 -9999 -9999 -9999 -9999 -9999 -9999 -9999 -9999 -9999 -9999 -9999 -9999 -9999 -9999 -9999 -9999 -9999 -9999 -9999 -9999 -9999 -9999 -9999 -9999 -9999 -9999 -9999 -9999 -9999 -9999 -9999 -9999 -9999 -9999 -9999 -9999 -9999 -9999 -9999 -9999 -9999 -9999 -9999 -9999 -9999 -9999 -9999 249.338043212891 212.675765991211 188.691986083984 174.486175537109 168.855438232422 181.860717773438 -9999 -9999 -9999 -9999 -9999 -9999 -9999 -9999 -9999 -9999 -9999 -9999
-9999 -9999 -9999 -9999 -9999 -9999 -9999 -9999 -9999 -9999 -9999 -9999 -9999 -9999 -9999 -9999 -9999 -9999 -9999 -9999 -9999 -9999 -9999 -9999 -9999 -9999 -9999 -9999 -9999 -9999 -9999 -9999 -9999 -9999 -9999 -9999 -9999 -9999 -9999 -9999 -9999 -9999 -9999 -9999 -9999 -9999 -9999 -9999 -9999 -9999 271.371691894531 286.406982421875 233.404663085938 184.577209472656 172.864303588867 172.547470092773 -9999 -9999 -9999 -9999 -9999 -9999 -9999 -9999 -9999 -9999 -9999 72.7115097045898 67.1042470932007 82.0132064819336
-9999 -9999 -9999 -9999 -9999 -9999 -9999 -9999 -9999 -9999 -9999 -9999 -9999 -9999 -9999 -9999 -9999 -9999 -9999 -9999 -9999 -9999 -9999 -9999 -9999 -9999 -9999 -9999 -9999 -9999 -9999 -9999 -9999 -9999 -9999 -9999 -9999 -9999 -9999 -9999 -9999 -9999 -9999 -9999 184.629577636719 -9999 -9999 218.795639038086 264.694580078125 273.078796386719 272.771789550781 247.297882080078 210.175415039062 198.086135864258 192.949279785156 -9999 -9999 -9999 -9999 -9999 -9999 -9999 -9999 96.6053314208984 95.5957641601562 93.189826965332 85.58203125 71.9955368041992 60.5569610595703 53.8512840270996
-9999 -9999 -9999 -9999 -9999 -9999 -9999 -9999 -9999 -9999 -9999 -9999 -9999 -9999 -9999 -9999 -9999 -9999 -9999 -9999 -9999 -9999 -9999 -9999 -9999 -9999 -9999 -9999 -9999 -9999 -9999 -9999 -9999 -9999 -9999 -9999 -9999 -9999 -9999 -9999 -9999 -9999 -9999 -9999 181.083450317383 198.886474609375 211.001403808594 203.360885620117 196.125686645508 181.211227416992 160.067031860352 149.486938476562 158.906387329102 186.965866088867 187.549549102783 -9999 -9999 -9999 -9999 -9999 -9999 -9999 89.1037292480469 85.4803085327148 79.0674209594727 73.0609436035156 66.3720016479492 58.1312789916992 52.4547538757324 50.4502601623535
-9999 -9999 -9999 -9999 -9999 -9999 -9999 -9999 -9999 -9999 -9999 -9999 -9999 -9999 -9999 -9999 -9999 -9999 -9999 -9999 -9999 -9999 -9999 -9999 -9999 -9999 -9999 -9999 -9999 -9999 -9999 -9999 -9999 -9999 -9999 -9999 -9999 -9999 -9999 -9999 178.800643920898 175.240478515625 170.310424804688 176.897338867188 169.536987304688 159.436218261719 148.482955932617 128.732421875 102.728080749512 80.7703475952148 69.9264221191406 81.1246032714844 120.270645141602 172.196914672852 171.369030761719 -9999 -9999 -9999 -9999 -9999 95.0243377685547 91.9998245239258 80.7918319702148 67.491569519043 63.7794380187988 66.9862442016602 66.5496826171875 61.4558219909668 57.0060386657715 54.9038200378418
-9999 -9999 -9999 -9999 -9999 -9999 -9999 -9999 -9999 -9999 -9999 -9999 -9999 -9999 -9999 -9999 -9999 -9999 -9999 -9999 -9999 -9999 -9999 -9999 -9999 -9999 -9999 -9999 -9999 -9999 -9999 -9999 -9999 -9999 -9999 -9999 -9999 -9999 -9999 177.894241333008 180.760864257812 177.746826171875 167.213745117188 155.775405883789 140.900756835938 122.405708312988 102.191543579102 80.4967727661133 62.481086730957 53.1485939025879 53.1041679382324 67.3831100463867 107.741065979004 160.630599975586 190.38703918457 146.664733886719 -9999 -9999 -9999 105.260934829712 105.054443359375 88.0187454223633 68.1108245849609 58.8206176757812 65.1933746337891 76.2855682373047 75.6341094970703 62.6322021484375 53.5970420837402 49.6809883117676
-9999 -9999 -9999 -9999 -9999 -9999 -9999 -9999 -9999 -9999 -9999 -9999 -9999 -9999 -9999 -9999 -9999 -9999 -9999 -9999 -9999 -9999 -9999 -9999 -9999 -9999 -9999 -9999 -9999 -9999 -9999 -9999 -9999 -9999 -9999 -9999 -9999 -9999 155.699014282227 168.172149658203 162.089065551758 144.300506591797 129.164794921875 120.178062438965 109.120162963867 90.3463973999023 69.8293228149414 55.0367088317871 47.5327911376953 47.4729423522949 53.8642921447754 67.7774963378906 96.8530807495117 136.462936401367 158.169799804688 137.359222412109 107.130233764648 105.125835418701 114.90007019043 105.549812316895 95.5394134521484 85.3327713012695 74.8438034057617 66.4980239868164 66.6533279418945 72.5044403076172 72.6520080566406 65.9355545043945 59.5902252197266 53.2266960144043
-9999 -9999 -9999 -9999 -9999 -9999 -9999 -9999 -9999 -9999 -9999 -9999 -9999 -9999 -9999 -9999 -9999 -9999 -9999 -9999 -9999 -9999 -9999 -9999 -9999 -9999 -9999 -9999 -9999 -9999 -9999 -9999 -9999 -9999 -9999 -9999 -9999 156.072906494141 150.471939086914 125.883834838867 92.0125198364258 71.320182800293 69.3020324707031 76.4735870361328 79.8679428100586 72.6872787475586 59.3266906738281 47.9722633361816 43.0067329406738 45.7360649108887 54.2367286682129 66.2192153930664 83.0582885742188 104.235786437988 115.320182800293 109.238739013672 102.218765258789 96.5865707397461 91.8412628173828 85.8691177368164 81.193977355957 82.8289413452148 85.9872741699219 86.0453262329102 82.3859024047852 80.0284576416016 79.900260925293 79.5364227294922 77.1343841552734 70.6675491333008
-9999 -9999 -9999 -9999 -9999 -9999 -9999 -9999 -9999 -9999 -9999 -9999 -9999 -9999 -9999 -9999 -9999 -9999 -9999 -9999 -9999 -9999 -9999 -9999 -9999 -9999 -9999 -9999 -9999 -9999 -9999 -9999 -9999 -9999 -9999 -9999 -9999 188.035415649414 152.345855712891 91.6951141357422 56.8608779907227 48.0140075683594 50.0834884643555 57.1175079345703 61.9928970336914 57.8593444824219 47.8031730651855 40.316520690918 38.7446174621582 42.0958709716797 48.1729278564453 54.8352928161621 65.4795761108398 80.7213821411133 89.3611068725586 88.8935546875 82.2039794921875 74.361213684082 69.3113708496094 65.3922271728516 64.654296875 71.0952072143555 84.3004608154297 92.1948089599609 94.5984954833984 94.315071105957 93.6384124755859 92.0215072631836 89.7914657592773 88.2045974731445
-9999 -9999 -9999 -9999 -9999 -9999 -9999 -9999 -9999 -9999 -9999 -9999 -9999 -9999 -9999 -9999 -9999 -9999 -9999 -9999 -9999 -9999 -9999 -9999 -9999 -9999 -9999 -9999 -9999 -9999 -9999 -9999 -9999 -9999 -9999 -9999 -9999 208.064498901367 136.909362792969 75.0187225341797 50.472728729248 44.940788269043 45.2862854003906 48.379524230957 49.9285774230957 45.7430419921875 39.937629699707 37.5300102233887 37.7957534790039 39.3421669006348 42.2384834289551 49.4602165222168 74.2811508178711 107.702453613281 115.386344909668 102.547660827637 84.8582077026367 74.2594604492188 70.7664260864258 69.2394104003906 70.852294921875 83.0029983520508 102.087326049805 103.739059448242 98.5696411132812 95.6648635864258 96.9263610839844 99.3852157592773 103.943267822266 107.59130859375
-9999 -9999 -9999 -9999 -9999 -9999 -9999 -9999 -9999 -9999 -9999 -9999 -9999 -9999 -9999 -9999 -9999 -9999 -9999 -9999 -9999 -9999 -9999 -9999 -9999 -9999 -9999 -9999 -9999 -9999 -9999 -9999 -9999 -9999 -9999 -9999 318.507507324219 220.807891845703 123.000701904297 78.3990097045898 58.9235076904297 49.6366729736328 45.9411735534668 44.3403968811035 42.6582374572754 40.0875549316406 39.2954330444336 40.2317390441895 40.8725128173828 40.4822959899902 41.1260871887207 50.0361938476562 91.3358993530273 153.470062255859 177.363647460938 157.146377563477 132.710403442383 121.629104614258 118.32152557373 117.566329956055 117.513999938965 126.24006652832 124.175300598145 115.963302612305 112.793182373047 113.450065612793 120.685623168945 133.371841430664 150.122177124023 160.131408691406
-9999 -9999 -9999 -9999 -9999 -9999 -9999 -9999 -9999 -9999 -9999 -9999 -9999 -9999 -9999 -9999 -9999 -9999 -9999 -9999 -9999 -9999 -9999 -9999 -9999 -9999 -9999 -9999 -9999 -9999 -9999 -9999 -9999 -9999 -9999 -9999 -9999 175.39079284668 142.915069580078 103.618988037109 80.8713607788086 61.8313903808594 50.6156883239746 45.49853515625 43.2480697631836 43.3501243591309 45.8903656005859 50.2017097473145 52.2428970336914 54.8223457336426 66.8378067016602 86.2421722412109 131.7177734375 185.25 208.715896606445 195.65461730957 198.237945556641 202.575180053711 196.513122558594 188.556045532227 182.341735839844 173.909317016602 154.322036743164 136.190795898438 137.272094726562 147.119094848633 153.74250793457 160.910537719727 167.669692993164 175.395111083984
-9999 -9999 -9999 -9999 -9999 -9999 -9999 -9999 -9999 -9999 -9999 -9999 -9999 -9999 -9999 -9999 -9999 -9999 -9999 -9999 -9999 -9999 -9999 -9999 -9999 -9999 -9999 -9999 -9999 -9999 -9999 -9999 -9999 -9999 -9999 -9999 -9999 -9999 165.802352905273 -9999 98.4557189941406 76.1347427368164 58.7602233886719 53.2952690124512 54.1765747070312 59.6891822814941 68.4188232421875 76.0128631591797 76.0804138183594 81.8258666992188 116.004096984863 158.704681396484 196.003189086914 217.37451171875 224.85905456543 205.470153808594 228.675018310547 247.196517944336 242.031341552734 231.433471679688 216.573211669922 200.621704101562 180.032806396484 150.284637451172 146.332122802734 145.178695678711 144.712112426758 147.888732910156 154.545211791992 166.000030517578
-9999 -9999 -9999 -9999 -9999 -9999 -9999 -9999 -9999 -9999 -9999 -9999 -9999 -9999 -9999 -9999 -9999 -9999 -9999 -9999 -9999 -9999 -9999 -9999 -9999 -9999 -9999 -9999 -9999 -9999 -9999 -9999 -9999 -9999 -9999 -9999 -9999 -9999 -9999 -9999 100.411880493164 85.2133407592773 71.5987854003906 73.2273178100586 88.3676071166992 103.845855712891 111.267997741699 103.658958435059 90.2129592895508 88.575553894043 113.745887756348 157.470184326172 200.225204467773 238.420043945312 249.323532104492 232.766189575195 245.973724365234 251.573791503906 245.249282836914 240.363189697266 228.956665039062 211.748565673828 196.597946166992 153.7734375 135.012298583984 124.578796386719 121.755126953125 126.098342895508 136.36994934082 155.450729370117
-9999 -9999 -9999 -9999 -9999 -9999 -9999 -9999 -9999 -9999 -9999 -9999 -9999 -9999 -9999 -9999 -9999 -9999 -9999 -9999 -9999 -9999 -9999 -9999 -9999 -9999 -9999 -9999 -9999 -9999 -9999 -9999 -9999 -9999 215.664939880371 211.823654174805 196.38557434082 -9999 150.831192016602 122.819412231445 106.162368774414 99.2308044433594 98.7355880737305 125.73673248291 170.054138183594 182.634063720703 155.297134399414 113.254211425781 94.0886840820312 102.81356048584 134.060440063477 171.011383056641 213.39485168457 256.275054931641 245.026840209961 256.141143798828 258.537963867188 256.820678710938 254.205673217773 250.865356445312 238.606811523438 215.474395751953 202.702529907227 160.911056518555 126.697250366211 108.608444213867 103.568756103516 110.850868225098 122.83625793457 142.197875976562
-9999 -9999 -9999 -9999 -9999 -9999 -9999 -9999 -9999 -9999 -9999 -9999 -9999 -9999 -9999 -9999 -9999 -9999 -9999 -9999 -9999 -9999 -9999 -9999 -9999 -9999 -9999 520.3076171875 520.3076171875 427.754425048828 329.182739257812 282.457122802734 252.086471557617 230.10285949707 216.802429199219 203.930816650391 183.85661315918 169.759902954102 154.384994506836 132.659332275391 121.68482208252 125.545791625977 140.276824951172 203.100570678711 262.166961669922 259.744323730469 203.774108886719 151.175491333008 141.460632324219 155.400665283203 187.312210083008 231.845718383789 255.570983886719 262.702117919922 238.489669799805 260.869354248047 269.761932373047 273.465972900391 272.210571289062 270.192077636719 259.669097900391 235.650741577148 209.779708862305 184.788284301758 136.691909790039 103.633232116699 96.1308822631836 104.627166748047 115.023025512695 128.618743896484
-9999 -9999 -9999 -9999 -9999 -9999 -9999 -9999 -9999 -9999 -9999 -9999 -9999 -9999 -9999 -9999 -9999 -9999 -9999 -9999 -9999 -9999 -9999 -9999 -9999 -9999 -9999 -9999 -9999 -9999 307.634582519531 305.332214355469 298.734466552734 286.037658691406 257.888366699219 224.184127807617 198.630401611328 186.963134765625 172.8681640625 152.839065551758 145.428329467773 150.858993530273 173.424377441406 248.238677978516 306.629241943359 314.977172851562 275.48681640625 235.727920532227 225.716888427734 227.271957397461 236.041015625 260.899291992188 261.199737548828 249.177291870117 265.459167480469 285.414123535156 294.764343261719 295.595001220703 292.873901367188 288.677398681641 281.282958984375 270.118316650391 237.680648803711 221.14518737793 181.912216186523 131.33708190918 107.622367858887 106.346992492676 111.660346984863 121.617790222168
-9999 -9999 -9999 -9999 -9999 -9999 -9999 -9999 -9999 -9999 -9999 -9999 -9999 -9999 -9999 -9999 -9999 -9999 -9999 -9999 -9999 -9999 -9999 -9999 -9999 513.591430664062 448.545694986979 416.811360677083 398.805816650391 344.522705078125 365.607482910156 372.174285888672 377.442047119141 376.7861328125 355.183227539062 317.19287109375 285.242462158203 268.049255371094 249.235321044922 220.943756103516 205.097793579102 206.302780151367 229.485763549805 286.79833984375 331.109375 333.662536621094 318.146759033203 283.177886962891 260.807800292969 240.653121948242 238.564788818359 247.081161499023 252.646087646484 273.297882080078 297.276519775391 305.590911865234 304.720031738281 296.961090087891 292.727355957031 291.729217529297 286.616363525391 280.516662597656 274.689910888672 258.750366210938 239.089553833008 200.666961669922 158.854156494141 134.818283081055 123.366996765137 124.320938110352
-9999 -9999 -9999 -9999 -9999 -9999 -9999 -9999 -9999 -9999 -9999 -9999 -9999 -9999 -9999 -9999 -9999 -9999 -9999 -9999 -9999 -9999 -9999 -9999 598.239196777344 510.489166259766 432.045928955078 403.101989746094 415.286163330078 432.312408447266 446.743530273438 441.375671386719 423.977416992188 410.322906494141 398.50146484375 374.940490722656 359.821197509766 355.330810546875 346.846740722656 329.305908203125 310.532745361328 299.650787353516 306.5771484375 325.204132080078 329.993713378906 302.538452148438 283.421752929688 266.1845703125 258.454010009766 247.581039428711 249.285720825195 251.549545288086 267.366027832031 287.576507568359 299.045349121094 296.441528320312 290.95458984375 286.891906738281 284.443023681641 283.233673095703 281.981414794922 276.902923583984 275.147552490234 274.089813232422 270.772277832031 260.285003662109 231.596908569336 198.014343261719 165.065048217773 145.640533447266
-9999 -9999 -9999 -9999 -9999 -9999 -9999 -9999 -9999 -9999 -9999 -9999 -9999 -9999 -9999 -9999 -9999 -9999 -9999 -9999 -9999 -9999 -9999 -9999 469.512237548828 399.127319335938 411.1171875 454.731597900391 492.075378417969 502.961578369141 487.85205078125 450.880035400391 414.42431640625 384.691131591797 367.55078125 352.649261474609 340.017852783203 332.304107666016 328.302795410156 329.789306640625 331.565093994141 328.100677490234 319.194427490234 311.847686767578 299.183227539062 283.71435546875 276.851287841797 273.281005859375 268.579650878906 263.304138183594 258.937774658203 258.758514404297 273.868011474609 286.299987792969 287.841796875 287.807464599609 285.854736328125 283.569976806641 280.842102050781 277.961853027344 274.647247314453 269.461700439453 265.058563232422 261.773498535156 260.541229248047 265.351440429688 260.93603515625 242.374649047852 215.670211791992 186.889877319336
-9999 -9999 -9999 -9999 -9999 -9999 -9999 -9999 -9999 -9999 -9999 -9999 -9999 -9999 -9999 -9999 -9999 -9999 -9999 -9999 -9999 -9999 -9999 365.146331787109 389.436309814453 389.030914306641 446.336090087891 495.545318603516 518.597473144531 496.888610839844 444.603851318359 390.290588378906 353.948913574219 332.458831787109 317.715515136719 307.728485107422 300.55615234375 293.337799072266 286.143493652344 281.687652587891 281.316589355469 280.82177734375 281.983947753906 284.409759521484 285.019958496094 289.221496582031 289.623046875 285.488098144531 282.761352539062 278.74609375 273.558929443359 270.507171630859 277.878356933594 288.073699951172 290.973022460938 294.198608398438 294.857421875 290.281127929688 285.248504638672 279.2919921875 271.428680419922 262.32470703125 255.669372558594 249.658187866211 246.235824584961 248.915496826172 256.006622314453 256.736389160156 248.027359008789 224.968185424805
-9999 -9999 -9999 -9999 -9999 -9999 -9999 -9999 -9999 -9999 -9999 -9999 -9999 -9999 -9999 -9999 -9999 -9999 -9999 -9999 -9999 -9999 -9999 282.209899902344 319.426879882812 358.620361328125 423.810363769531 477.787780761719 493.795684814453 446.504699707031 374.087524414062 326.632293701172 307.643707275391 299.151031494141 294.287719726562 290.6162109375 287.046691894531 282.602600097656 278.299468994141 277.726715087891 282.308502197266 291.180969238281 301.622344970703 306.816802978516 307.730987548828 309.012512207031 304.952453613281 298.551910400391 295.554809570312 292.480072021484 288.823181152344 283.211669921875 281.669036865234 290.109069824219 296.412475585938 301.014739990234 303.072479248047 296.58642578125 288.799560546875 280.469482421875 269.615509033203 257.409545898438 248.353973388672 240.741409301758 236.014450073242 237.108734130859 243.446990966797 253.600006103516 257.536437988281 247.182373046875
-9999 -9999 -9999 -9999 -9999 -9999 -9999 -9999 -9999 -9999 -9999 -9999 -9999 -9999 -9999 -9999 -9999 -9999 -9999 -9999 -9999 -9999 325.919250488281 294.855621337891 323.382354736328 379.182464599609 430.561126708984 462.987854003906 445.726654052734 385.264190673828 335.824737548828 319.392120361328 311.560821533203 300.378753662109 292.056945800781 287.517120361328 285.36474609375 287.669921875 296.858337402344 308.807098388672 319.041717529297 326.696441650391 328.773162841797 324.134918212891 316.242858886719 306.919494628906 298.361053466797 292.313659667969 288.427551269531 286.259887695312 285.562103271484 283.809722900391 281.453399658203 282.424072265625 284.663818359375 285.893768310547 287.848724365234 285.107421875 279.936401367188 272.199310302734 261.71337890625 251.885345458984 242.900634765625 234.115188598633 228.56982421875 229.266677856445 236.491027832031 246.73095703125 256.211486816406 258.125915527344
-9999 -9999 -9999 -9999 -9999 -9999 -9999 -9999 -9999 -9999 -9999 -9999 -9999 -9999 644.461013793945 -9999 -9999 -9999 -9999 590.59716796875 -9999 366.520233154297 348.121459960938 344.70556640625 392.125518798828 441.087188720703 454.417449951172 421.600128173828 375.118316650391 343.022369384766 333.166961669922 332.574066162109 324.218414306641 308.194610595703 292.808197021484 283.799346923828 283.243072509766 296.859130859375 319.819885253906 333.279113769531 332.623962402344 323.879425048828 312.985260009766 303.741973876953 295.494079589844 290.138946533203 289.253723144531 289.613555908203 289.375274658203 288.560272216797 287.295684814453 284.583221435547 280.695922851562 278.051025390625 276.734985351562 274.099761962891 272.648773193359 270.940399169922 267.225006103516 260.893920898438 253.414413452148 246.869125366211 237.77864074707 225.566513061523 217.400207519531 218.001800537109 229.219482421875 244.422210693359 254.822494506836 263.506683349609
-9999 -9999 -9999 -9999 -9999 -9999 -9999 -9999 -9999 -9999 -9999 -9999 -9999 -9999 641.558883666992 -9999 -9999 -9999 -9999 531.561004638672 440.899768066406 387.214019775391 377.687194824219 407.401977539062 441.083374023438 438.641723632812 398.238159179688 351.075836181641 335.38037109375 335.830078125 340.323608398438 343.703063964844 339.329742431641 327.556823730469 310.576049804688 294.351013183594 288.519836425781 302.228271484375 320.714202880859 318.689178466797 301.498962402344 286.673431396484 280.355255126953 281.496124267578 286.207366943359 292.602478027344 298.68994140625 301.206024169922 299.159423828125 293.008575439453 285.538787841797 278.78857421875 273.873229980469 270.878387451172 268.686279296875 266.884796142578 264.924621582031 262.462768554688 259.420867919922 255.157897949219 250.065658569336 242.343673706055 229.090377807617 212.644668579102 201.018661499023 201.099716186523 216.682815551758 240.302993774414 255.689208984375 266.352844238281
-9999 -9999 -9999 -9999 -9999 -9999 -9999 -9999 -9999 -9999 -9999 -9999 -9999 -9999 654.618469238281 -9999 -9999 -9999 -9999 -9999 364.734535217285 387.642578125 397.493804931641 399.245788574219 391.142639160156 372.910369873047 353.471496582031 347.243591308594 351.864990234375 354.309814453125 352.917236328125 352.791900634766 352.772644042969 352.013946533203 347.535278320312 334.016479492188 315.888916015625 310.409576416016 312.137542724609 297.719055175781 273.713317871094 261.349548339844 265.175231933594 278.085906982422 291.682647705078 301.356872558594 305.911590576172 304.609100341797 296.212829589844 281.348083496094 267.114105224609 257.441650390625 251.046203613281 247.466522216797 245.855819702148 246.603225708008 248.482803344727 249.331390380859 249.249420166016 248.078720092773 244.028305053711 232.559112548828 213.214080810547 193.318756103516 180.445739746094 179.691055297852 196.855392456055 229.131652832031 256.544067382812 270.374206542969
-9999 -9999 -9999 -9999 -9999 -9999 -9999 -9999 -9999 -9999 -9999 -9999 -9999 -9999 614.273986816406 -9999 602.380126953125 -9999 -9999 -9999 310.776763916016 373.304779052734 369.826477050781 349.419128417969 349.032165527344 362.439666748047 368.688262939453 364.764068603516 352.900390625 341.342010498047 333.418182373047 330.988525390625 334.033569335938 342.248565673828 353.876220703125 361.471160888672 353.048309326172 334.726226806641 318.254333496094 298.182159423828 277.396728515625 268.156280517578 274.094207763672 289.683990478516 301.731536865234 306.592071533203 306.131317138672 296.444213867188 276.474334716797 254.426193237305 237.123336791992 224.428192138672 215.660491943359 211.887878417969 213.054458618164 217.768508911133 224.442108154297 231.431716918945 236.904144287109 239.876922607422 234.316146850586 214.030136108398 189.730743408203 173.016235351562 163.054550170898 162.495132446289 178.609619140625 215.813293457031 255.055099487305 274.725646972656
-9999 -9999 -9999 -9999 -9999 -9999 -9999 -9999 -9999 -9999 -9999 -9999 -9999 -9999 614.273986816406 573.929504394531 471.712646484375 -9999 -9999 326.596237182617 330.043884277344 365.406036376953 344.939270019531 350.333404541016 373.288330078125 380.418304443359 360.265014648438 331.254455566406 304.733337402344 287.825744628906 279.593231201172 277.192932128906 280.888305664062 291.018859863281 308.253173828125 332.019805908203 351.469879150391 353.711120605469 340.733612060547 320.291809082031 300.077392578125 289.480163574219 291.909149169922 302.570007324219 309.267242431641 308.862823486328 301.618316650391 280.742340087891 249.065643310547 225.960983276367 209.385147094727 194.99462890625 185.08903503418 181.770141601562 187.041915893555 197.205001831055 207.728805541992 218.876754760742 229.677474975586 235.747253417969 221.919845581055 190.362640380859 168.079376220703 160.621505737305 158.183258056641 158.107116699219 170.189758300781 204.209274291992 249.106307983398 277.513885498047
-9999 -9999 -9999 -9999 -9999 -9999 -9999 -9999 -9999 -9999 -9999 -9999 -9999 -9999 -9999 435.585729980469 393.9521484375 -9999 339.863334655762 324.921173095703 340.643127441406 350.543273925781 364.044036865234 383.701843261719 376.287994384766 347.729339599609 310.420776367188 278.799652099609 254.147842407227 237.103851318359 226.313674926758 221.221282958984 223.022048950195 233.049957275391 250.78971862793 275.790283203125 307.671173095703 336.637878417969 345.645568847656 336.878082275391 320.711700439453 308.874420166016 309.689025878906 314.757598876953 313.901519775391 306.544555664062 291.6064453125 262.349365234375 229.538040161133 211.352630615234 196.211013793945 182.180709838867 174.115539550781 172.960266113281 178.235870361328 190.28727722168 203.965972900391 218.517593383789 230.282516479492 226.833953857422 196.349151611328 162.015380859375 149.648498535156 156.003875732422 162.976867675781 161.48420715332 168.446838378906 194.166976928711 239.799240112305 276.807373046875
-9999 -9999 -9999 -9999 -9999 -9999 -9999 -9999 -9999 -9999 -9999 -9999 -9999 -9999 -9999 375.942199707031 362.392150878906 -9999 295.856781005859 322.535003662109 330.762268066406 363.783874511719 401.037475585938 391.822052001953 350.492645263672 310.324371337891 275.126586914062 245.593505859375 218.322006225586 194.969085693359 177.589691162109 168.133850097656 167.727691650391 177.666137695312 197.709838867188 225.092529296875 257.808563232422 295.521667480469 322.859283447266 330.106628417969 324.92138671875 318.565246582031 318.785125732422 317.469970703125 309.891632080078 296.689758300781 276.111114501953 247.526092529297 220.224533081055 206.002563476562 195.322540283203 186.80419921875 182.960220336914 185.347198486328 192.670257568359 204.75163269043 218.025131225586 227.165405273438 222.863677978516 196.50129699707 162.962188720703 141.495712280273 134.339447021484 145.014587402344 162.602828979492 168.421051025391 171.91032409668 192.54069519043 233.788604736328 272.853820800781
-9999 -9999 -9999 -9999 -9999 -9999 -9999 -9999 -9999 -9999 -9999 -9999 -9999 -9999 -9999 358.053924560547 -9999 319.652191162109 318.1376953125 320.927368164062 346.809906005859 389.417175292969 405.887664794922 367.376922607422 325.375152587891 290.751190185547 257.129028320312 223.281723022461 188.844619750977 161.592681884766 142.496383666992 129.878021240234 125.64631652832 129.353408813477 142.551681518555 166.513488769531 199.635894775391 239.129348754883 277.842498779297 300.893188476562 307.833801269531 310.579803466797 314.778106689453 311.158905029297 300.573944091797 282.548889160156 259.534515380859 239.322036743164 218.407775878906 205.815948486328 202.292724609375 201.993148803711 203.485992431641 209.078979492188 216.429428100586 222.921432495117 223.867462158203 213.434097290039 189.794342041016 164.20361328125 149.108337402344 133.887115478516 121.895202636719 129.353469848633 149.617858886719 168.866226196289 181.784423828125 204.25358581543 235.65641784668 267.70361328125
-9999 -9999 -9999 -9999 -9999 -9999 -9999 -9999 -9999 -9999 -9999 -9999 -9999 -9999 358.053924560547 325.827168782552 290.323272705078 313.023223876953 328.727905273438 328.166137695312 362.573120117188 396.709197998047 386.362854003906 345.353576660156 314.118133544922 283.502532958984 250.250289916992 209.844009399414 170.40348815918 143.463485717773 126.20092010498 114.727149963379 111.511138916016 111.019821166992 112.763450622559 122.950958251953 146.22492980957 181.83366394043 225.128631591797 260.996398925781 280.299468994141 290.911712646484 300.630065917969 300.736755371094 291.885528564453 270.530853271484 247.622955322266 236.132400512695 221.788055419922 210.430038452148 208.458557128906 210.935989379883 213.77409362793 216.531478881836 216.730194091797 212.601303100586 201.872573852539 186.885147094727 174.185638427734 168.534454345703 163.403167724609 146.284729003906 123.677421569824 116.916000366211 129.028457641602 150.470962524414 171.139785766602 196.010848999023 227.343002319336 255.045715332031
-9999 -9999 -9999 -9999 -9999 -9999 -9999 -9999 -9999 -9999 -9999 -9999 -9999 -9999 -9999 -9999 313.003768920898 321.077819824219 313.846649169922 325.133758544922 372.942077636719 400.832458496094 373.417846679688 340.948699951172 314.873321533203 286.252136230469 252.912857055664 209.008361816406 167.329803466797 140.350875854492 123.762840270996 113.165153503418 111.426208496094 111.935302734375 109.810852050781 109.654251098633 119.884002685547 144.951171875 182.618927001953 222.858200073242 252.394760131836 270.696929931641 284.583831787109 288.190185546875 279.997467041016 257.980651855469 236.802001953125 231.783935546875 228.098709106445 220.730438232422 215.183609008789 211.599899291992 209.410949707031 207.562622070312 204.407501220703 201.226287841797 198.514724731445 198.22575378418 199.920318603516 198.791854858398 196.260971069336 190.944122314453 174.254638671875 143.994842529297 116.539527893066 118.390129089355 141.742752075195 165.324966430664 192.932556152344 221.548797607422
-9999 -9999 -9999 -9999 -9999 -9999 -9999 -9999 -9999 -9999 -9999 -9999 -9999 -9999 -9999 -9999 324.334289550781 327.590759277344 317.977874755859 337.250671386719 389.776641845703 403.608032226562 360.888336181641 338.704254150391 317.124237060547 294.322570800781 265.304656982422 219.577713012695 173.244750976562 144.943435668945 128.981994628906 117.351188659668 115.385566711426 118.058815002441 115.014709472656 110.358215332031 112.778381347656 126.907173156738 154.109176635742 190.921478271484 225.493469238281 251.626480102539 269.635803222656 275.204284667969 266.409698486328 244.291259765625 225.118087768555 220.144088745117 224.25178527832 227.547897338867 228.697372436523 224.510314941406 209.188461303711 190.572509765625 181.758865356445 183.387619018555 193.50471496582 207.291549682617 216.637054443359 217.800491333008 215.500411987305 218.215606689453 219.330474853516 201.088928222656 159.821716308594 115.663398742676 109.161666870117 135.87663269043 160.900253295898 186.843215942383
-9999 -9999 -9999 -9999 -9999 -9999 -9999 -9999 -9999 -9999 -9999 -9999 -9999 -9999 -9999 -9999 -9999 324.23722076416 330.532104492188 362.349517822266 406.097290039062 395.07763671875 346.979797363281 334.014709472656 318.295623779297 301.764556884766 280.174957275391 237.321166992188 185.585540771484 153.628463745117 139.294769287109 124.516754150391 119.412322998047 126.996528625488 124.216133117676 114.478843688965 112.609413146973 121.717071533203 143.626678466797 177.804382324219 213.719757080078 243.415908813477 262.208343505859 265.615509033203 252.684494018555 230.792251586914 215.65998840332 210.379379272461 214.389419555664 223.288009643555 230.696350097656 232.95654296875 227.848556518555 203.031921386719 175.489334106445 164.396087646484 172.676055908203 188.403076171875 204.170928955078 215.063354492188 219.84375 223.460494995117 230.205612182617 229.505020141602 197.648788452148 142.321044921875 102.14672088623 104.939590454102 133.748825073242 159.915496826172
-9999 -9999 -9999 -9999 -9999 -9999 -9999 -9999 -9999 -9999 -9999 -9999 -9999 -9999 326.776641845703 327.590759277344 324.591562271118 325.690124511719 320.84814453125 371.857574462891 419.521514892578 385.290618896484 336.164154052734 328.472381591797 316.961334228516 304.216674804688 290.328979492188 254.704605102539 199.998764038086 162.422409057617 149.720764160156 132.423919677734 115.694145202637 118.331581115723 118.840927124023 112.523323059082 112.052459716797 124.287010192871 149.38850402832 185.068725585938 220.064071655273 246.346221923828 260.269744873047 258.452972412109 239.250076293945 221.194564819336 211.826934814453 209.010284423828 211.173706054688 215.278091430664 221.283477783203 229.266265869141 235.801788330078 229.799209594727 205.628601074219 183.627593994141 173.03694152832 176.383316040039 190.787353515625 205.413116455078 216.27214050293 225.849792480469 236.419448852539 237.772888183594 200.714462280273 128.069381713867 93.3036880493164 80.3830871582031 100.688652038574 134.657073974609
-9999 -9999 -9999 -9999 -9999 -9999 -9999 -9999 -9999 -9999 -9999 -9999 -9999 -9999 -9999 -9999 -9999 -9999 359.725524902344 370.514892578125 421.882843017578 394.4169921875 335.273620605469 323.472991943359 313.433441162109 302.810241699219 294.876098632812 264.626007080078 211.596557617188 169.252014160156 158.708633422852 147.871627807617 123.429267883301 115.87296295166 116.730621337891 118.715530395508 127.041473388672 148.974472045898 180.319473266602 212.763977050781 237.197113037109 251.314224243164 252.637237548828 240.314559936523 223.591690063477 213.533950805664 208.052185058594 204.976425170898 203.706161499023 199.978424072266 198.505020141602 208.067611694336 224.681945800781 238.481704711914 236.554595947266 222.941253662109 208.375198364258 200.820770263672 205.436752319336 213.976776123047 218.692932128906 227.793960571289 240.938171386719 232.574981689453 167.387847900391 91.3764724731445 73.9887847900391 65.6243209838867 74.4769744873047 104.458824157715
-9999 -9999 -9999 -9999 -9999 -9999 -9999 -9999 -9999 -9999 -9999 -9999 -9999 -9999 -9999 -9999 -9999 301.928405761719 360.037483215332 375.681488037109 417.021606445312 396.396240234375 348.892211914062 326.121185302734 312.678161621094 304.091003417969 293.121795654297 261.607574462891 212.550643920898 169.617919921875 163.653915405273 168.800552368164 150.471572875977 142.133682250977 146.802932739258 159.596389770508 178.403701782227 203.544036865234 227.166442871094 241.916442871094 247.304092407227 245.065353393555 235.074127197266 219.918609619141 209.010635375977 203.929504394531 200.186340332031 193.048263549805 186.684158325195 171.012832641602 157.823059082031 161.08056640625 184.558959960938 218.94059753418 242.308471679688 245.902725219727 240.958251953125 234.887603759766 232.928100585938 233.533996582031 231.33854675293 235.392059326172 241.667938232422 209.154220581055 117.631866455078 69.7510452270508 61.8519325256348 58.1540336608887 59.3974952697754 77.8347549438477
-9999 -9999 -9999 -9999 -9999 -9999 -9999 -9999 -9999 -9999 -9999 -9999 -9999 318.518310546875 326.265669080946 -9999 344.893661499023 339.593818664551 301.928405761719 392.025146484375 390.998229980469 377.468627929688 352.838531494141 332.806060791016 313.695526123047 293.844909667969 270.368621826172 236.343551635742 194.939956665039 158.688278198242 164.137359619141 188.016998291016 183.408325195312 184.238739013672 195.60578918457 211.118286132812 225.807678222656 238.704849243164 245.240020751953 245.301330566406 241.96858215332 237.630111694336 227.658111572266 215.24137878418 206.818145751953 202.245559692383 197.723159790039 176.97380065918 150.205444335938 116.71216583252 95.2888412475586 97.2076797485352 117.645935058594 153.810745239258 199.069885253906 230.171340942383 244.560028076172 249.349655151367 249.687622070312 247.32958984375 241.391052246094 245.433135986328 232.596206665039 162.840179443359 78.5112838745117 65.3617095947266 61.9105529785156 57.0667610168457 53.5918312072754 57.2705993652344
-9999 -9999 -9999 -9999 -9999 -9999 -9999 -9999 -9999 -9999 -9999 -9999 -9999 -9999 318.518310546875 337.231150309245 323.047546386719 366.739776611328 366.659545898438 369.913238525391 365.158843994141 343.389038085938 320.939025878906 299.018005371094 276.634246826172 251.052505493164 224.521713256836 193.087585449219 161.605697631836 139.628967285156 161.273666381836 200.647384643555 209.766876220703 219.176834106445 229.695343017578 239.715637207031 245.134246826172 246.012023925781 245.713989257812 245.130874633789 244.537902832031 242.8349609375 234.522216796875 221.872177124023 211.025329589844 203.400421142578 190.82080078125 154.980163574219 111.87281036377 76.8355331420898 58.5546913146973 56.1968765258789 64.8284912109375 86.0289535522461 122.869003295898 166.285186767578 207.755889892578 232.2509765625 239.580505371094 235.166168212891 236.410064697266 246.480743408203 197.604782104492 105.286514282227 58.5824317932129 62.6246681213379 63.4844436645508 57.1630554199219 55.3136901855469 51.5854034423828
-9999 -9999 -9999 -9999 -9999 -9999 -9999 -9999 -9999 -9999 -9999 -9999 -9999 -9999 312.160957336426 318.518310546875 370.127593994141 392.829254150391 369.019653320312 349.96728515625 321.0537109375 289.499053955078 258.534729003906 230.829116821289 205.076278686523 180.219665527344 157.186050415039 134.530899047852 115.71484375 112.283676147461 153.946197509766 208.255249023438 225.399078369141 237.515258789062 244.2158203125 246.628204345703 245.951309204102 245.251342773438 246.323226928711 247.051971435547 247.816024780273 247.924163818359 241.890548706055 229.32682800293 212.679168701172 201.658905029297 185.444366455078 145.742919921875 92.9831008911133 61.0377769470215 56.8404693603516 58.9724769592285 56.1737213134766 57.8638153076172 74.4256896972656 104.669845581055 154.678009033203 198.290267944336 214.214126586914 206.259017944336 230.143920898438 235.685317993164 149.957366943359 66.3139114379883 45.1044616699219 48.8280448913574 47.6291160583496 53.4005393981934 60.3349227905273 61.5589256286621
-9999 -9999 -9999 -9999 -9999 -9999 -9999 -9999 -9999 -9999 -9999 279.250823974609 302.458984375 306.643737792969 292.421447753906 331.060333251953 369.100372314453 344.594299316406 321.976654052734 293.067016601562 255.372497558594 215.866500854492 181.69677734375 154.660552978516 133.279846191406 115.746383666992 100.833473205566 88.9026107788086 81.9709167480469 93.1239471435547 150.457290649414 214.3154296875 234.638198852539 245.066986083984 246.808563232422 244.592544555664 243.11003112793 243.216186523438 245.165023803711 246.104537963867 245.683441162109 244.431991577148 240.102279663086 229.102600097656 210.493789672852 196.295120239258 180.084777832031 147.55615234375 89.0786285400391 70.9826126098633 97.0884857177734 118.40030670166 103.93643951416 74.5949859619141 63.9081840515137 82.5115280151367 136.173706054688 182.269302368164 197.061706542969 191.744049072266 226.051040649414 215.53515625 109.875701904297 48.6963996887207 35.7492370605469 34.840446472168 34.6174201965332 39.3856468200684 48.0737762451172 57.9054985046387
-9999 -9999 -9999 -9999 -9999 -9999 -9999 -9999 -9999 344.495544433594 295.187896728516 289.697082519531 314.201995849609 303.108673095703 307.657043457031 345.963104248047 325.937683105469 300.227386474609 272.164428710938 229.791122436523 182.842376708984 144.348114013672 117.144554138184 97.7077102661133 84.7958984375 77.3356781005859 72.5918884277344 68.9113311767578 68.2981643676758 90.8810119628906 155.790542602539 217.453247070312 237.767440795898 245.333831787109 244.275817871094 240.695587158203 237.198608398438 236.521179199219 239.558670043945 240.535415649414 236.824996948242 231.635848999023 226.728622436523 217.275939941406 198.86213684082 185.621978759766 170.792846679688 141.775207519531 98.1036758422852 104.236351013184 141.845809936523 167.995819091797 158.172241210938 118.41340637207 95.6852569580078 113.791542053223 152.083114624023 179.173263549805 185.647323608398 193.09538269043 216.609497070312 183.357604980469 84.2605056762695 44.982250213623 36.9545860290527 33.7515182495117 32.3996772766113 32.5193977355957 34.9629745483398 40.2674865722656
-9999 -9999 -9999 -9999 -9999 -9999 -9999 -9999 -9999 357.397430419922 319.507965087891 323.399871826172 329.712066650391 337.627777099609 335.159118652344 308.042694091797 291.840637207031 258.135925292969 207.283020019531 153.926467895508 111.767318725586 85.7676696777344 72.4726638793945 67.3857040405273 68.9132537841797 72.753532409668 70.9704208374023 65.6280899047852 67.6514129638672 102.505661010742 169.613082885742 218.761688232422 237.276962280273 242.835205078125 240.930770874023 238.451202392578 239.036727905273 241.007019042969 239.914566040039 231.48046875 217.979537963867 205.410202026367 199.423263549805 199.054336547852 188.688873291016 172.8623046875 153.843276977539 127.546035766602 120.761650085449 134.13410949707 157.227890014648 170.608337402344 164.288146972656 144.524765014648 135.574401855469 145.687927246094 161.648727416992 170.597549438477 177.856262207031 189.384613037109 198.147369384766 158.701141357422 87.1415863037109 55.8327369689941 54.304557800293 50.6935920715332 46.1686859130859 41.5621910095215 37.5740356445312 34.3101501464844
-9999 -9999 -9999 -9999 -9999 318.756408691406 358.588134765625 334.122375488281 332.317749023438 309.290435791016 321.438232421875 334.476043701172 335.030883789062 323.441162109375 302.832092285156 278.157073974609 237.656845092773 183.848541259766 128.432739257812 89.6258850097656 68.7521209716797 61.322811126709 61.1837196350098 61.8485794067383 63.8947257995605 65.7352066040039 65.1787567138672 63.303897857666 74.7717056274414 124.232757568359 185.974502563477 217.709655761719 234.553405761719 240.930450439453 243.808792114258 245.789291381836 249.285614013672 250.977935791016 242.537841796875 221.442916870117 198.294067382812 181.643478393555 177.023590087891 179.9619140625 174.79719543457 158.28791809082 135.395889282227 122.223266601562 130.719284057617 136.726852416992 142.098846435547 144.941284179688 143.380722045898 141.369750976562 145.574813842773 150.524688720703 161.105743408203 170.524383544922 178.359268188477 179.478591918945 178.348175048828 154.84797668457 120.917686462402 105.692527770996 97.5983657836914 88.0260543823242 74.2442016601562 59.3408050537109 45.5702018737793 37.213508605957
-9999 -9999 -9999 -9999 307.019073486328 300.867889404297 308.550537109375 302.627471923828 310.234466552734 304.408050537109 306.386962890625 337.214813232422 318.787872314453 294.061828613281 273.053680419922 228.468536376953 172.244155883789 117.518013000488 77.6557083129883 60.9079399108887 56.5608711242676 58.7805252075195 60.2233848571777 57.4459915161133 57.534797668457 59.6220893859863 62.3586044311523 67.3114166259766 90.046257019043 146.419403076172 194.86979675293 214.566101074219 229.857559204102 238.040130615234 245.523101806641 252.82063293457 260.783142089844 259.793243408203 237.832901000977 203.01008605957 173.318572998047 157.949279785156 157.236892700195 161.19660949707 153.485610961914 138.665725708008 120.29899597168 108.081047058105 111.628105163574 120.990646362305 127.229225158691 130.868560791016 136.739242553711 146.165710449219 159.135772705078 167.604125976562 175.848510742188 180.423828125 178.166305541992 167.048278808594 159.017166137695 152.525268554688 151.027816772461 152.228500366211 134.260009765625 116.176246643066 90.6806793212891 67.4912643432617 46.6945724487305 35.8973617553711
-9999 -9999 -9999 291.779663085938 294.019256591797 287.126129150391 310.593994140625 320.505126953125 334.669281005859 325.699554443359 342.087829589844 305.370483398438 283.910858154297 251.176284790039 209.726333618164 157.970764160156 106.162124633789 70.9774780273438 58.197826385498 56.7684783935547 57.4432487487793 59.3780326843262 58.6610336303711 58.4454345703125 60.4200744628906 64.2136383056641 68.9781799316406 77.8263549804688 105.508003234863 159.313049316406 196.796112060547 210.216720581055 224.310104370117 231.599792480469 239.646240234375 249.920944213867 257.004913330078 249.239120483398 212.210433959961 165.426193237305 135.486175537109 126.793640136719 130.417343139648 133.446212768555 127.471267700195 117.452865600586 101.76921081543 86.2754058837891 86.7598190307617 97.8415069580078 108.169898986816 118.711349487305 129.518844604492 137.86833190918 143.16291809082 145.297470092773 141.61262512207 134.861755371094 126.381225585938 119.333770751953 118.417724609375 123.686485290527 137.295837402344 142.400283813477 127.267692565918 103.949546813965 73.7950897216797 46.1710586547852 35.2737274169922 33.1678657531738
-9999 -9999 -9999 291.567077636719 274.513244628906 311.155578613281 356.160797119141 386.606353759766 392.619476318359 351.513031005859 302.078430175781 277.291168212891 250.119186401367 217.256637573242 170.316040039062 117.277870178223 75.4610977172852 57.1505432128906 57.4954376220703 60.3350715637207 60.5442276000977 60.2610893249512 61.3429183959961 65.1692123413086 69.7999038696289 73.9546508789062 77.549186706543 87.8141784667969 116.537887573242 160.834136962891 189.77018737793 201.212509155273 213.283142089844 220.712707519531 226.119598388672 230.403198242188 225.407257080078 193.488525390625 139.900405883789 103.315986633301 90.6291427612305 91.5619049072266 101.005897521973 107.298179626465 104.919342041016 95.6078948974609 77.3089599609375 57.5018768310547 53.7213516235352 60.3635673522949 66.5234222412109 70.036979675293 72.5731201171875 74.1076736450195 73.6352386474609 71.2956237792969 66.2330856323242 60.0816345214844 56.1538276672363 60.1265563964844 77.0462417602539 98.5332107543945 115.951240539551 117.585083007812 91.7991790771484 62.4522933959961 40.9861297607422 35.1358680725098 33.4442367553711 30.7190589904785
