NCOLS 70 
NROWS 52 
XLLCORNER -80 
YLLCORNER 33 
CELLSIZE 0.25 
NODATA_value -9999 
-9999.000000000000000 -9999 -9999 -9999 -9999 -9999 -9999 -9999 -9999 -9999 -9999 -9999 -9999 -9999 -9999 -9999 -9999 -9999 -9999 -9999 -9999 -9999 -9999 -9999 -9999 -9999 -9999 -9999 -9999 -9999 -9999 -9999 -9999 -9999 -9999 -9999 -9999 -9999 -9999 -9999 -9999 -9999 -9999 -9999 -9999 -9999 -9999 -9999 -9999 -9999 -9999 -9999 -9999 -9999 -9999 -9999 -9999 -9999 -9999 -9999 -9999 -9999 -9999 -9999 -9999 -9999 -9999 -9999 -9999 -9999
-9999 -9999 -9999 -9999 -9999 -9999 -9999 -9999 -9999 -9999 -9999 -9999 -9999 -9999 -9999 -9999 -9999 -9999 -9999 -9999 -9999 -9999 -9999 -9999 -9999 -9999 -9999 -9999 -9999 -9999 -9999 -9999 -9999 -9999 -9999 -9999 -9999 -9999 -9999 -9999 -9999 -9999 -9999 -9999 -9999 -9999 -9999 -9999 -9999 -9999 -9999 -9999 -9999 -9999 -9999 -9999 -9999 -9999 -9999 -9999 -9999 -9999 -9999 -9999 -9999 -9999 -9999 -9999 -9999 -9999
-9999 -9999 -9999 -9999 -9999 -9999 -9999 -9999 -9999 -9999 -9999 -9999 -9999 -9999 -9999 -9999 -9999 -9999 -9999 -9999 -9999 -9999 -9999 -9999 -9999 -9999 -9999 -9999 -9999 -9999 -9999 -9999 -9999 -9999 -9999 -9999 -9999 -9999 -9999 -9999 -9999 -9999 -9999 -9999 -9999 -9999 -9999 -9999 -9999 -9999 -9999 -9999 -9999 -9999 -9999 -9999 -9999 -9999 -9999 492.245697021484 -9999 -9999 -9999 -9999 -9999 -9999 -9999 -9999 -9999 -9999
-9999 -9999 -9999 -9999 -9999 -9999 -9999 -9999 -9999 -9999 -9999 -9999 -9999 -9999 -9999 -9999 -9999 -9999 -9999 -9999 -9999 -9999 -9999 -9999 -9999 -9999 -9999 -9999 -9999 -9999 -9999 -9999 -9999 -9999 -9999 -9999 -9999 -9999 -9999 -9999 -9999 -9999 -9999 -9999 -9999 -9999 -9999 -9999 -9999 -9999 -9999 -9999 -9999 -9999 -9999 441.513824462891 411.200958251953 395.320404052734 378.677154541016 405.158630371094 -9999 -9999 -9999 -9999 -9999 -9999 -9999 -9999 -9999 -9999
-9999 -9999 -9999 -9999 -9999 -9999 -9999 -9999 -9999 -9999 -9999 -9999 -9999 -9999 -9999 -9999 -9999 -9999 -9999 -9999 -9999 -9999 -9999 -9999 -9999 -9999 -9999 -9999 -9999 -9999 -9999 -9999 -9999 -9999 -9999 -9999 -9999 -9999 -9999 -9999 -9999 -9999 -9999 -9999 -9999 -9999 -9999 -9999 -9999 -9999 -9999 -9999 418.926940917969 403.560821533203 399.334655761719 364.810394287109 332.761779785156 321.517883300781 -9999 -9999 -9999 -9999 -9999 -9999 -9999 -9999 -9999 -9999 -9999 -9999
-9999 -9999 -9999 -9999 -9999 -9999 -9999 -9999 -9999 -9999 -9999 -9999 -9999 -9999 -9999 -9999 -9999 -9999 -9999 -9999 -9999 -9999 -9999 -9999 -9999 -9999 -9999 -9999 -9999 -9999 -9999 -9999 -9999 -9999 -9999 -9999 -9999 -9999 -9999 -9999 -9999 -9999 -9999 -9999 -9999 -9999 -9999 -9999 -9999 -9999 279.70100402832 329.595886230469 282.979309082031 238.345245361328 222.244338989258 197.532989501953 -9999 -9999 -9999 -9999 -9999 -9999 -9999 -9999 -9999 -9999 -9999 225.309544881185 233.722217559814 271.232360839844
-9999 -9999 -9999 -9999 -9999 -9999 -9999 -9999 -9999 -9999 -9999 -9999 -9999 -9999 -9999 -9999 -9999 -9999 -9999 -9999 -9999 -9999 -9999 -9999 -9999 -9999 -9999 -9999 -9999 -9999 -9999 -9999 -9999 -9999 -9999 -9999 -9999 -9999 -9999 -9999 -9999 -9999 -9999 -9999 425.308634440104 -9999 -9999 251.812835693359 229.260314941406 215.987976074219 207.064315795898 217.643951416016 170.03645324707 131.086410522461 126.431770324707 -9999 -9999 -9999 -9999 -9999 -9999 -9999 -9999 225.399322509766 228.791397094727 223.115371704102 227.106414794922 227.07795715332 221.744262695312 214.834289550781
-9999 -9999 -9999 -9999 -9999 -9999 -9999 -9999 -9999 -9999 -9999 -9999 -9999 -9999 -9999 -9999 -9999 -9999 -9999 -9999 -9999 -9999 -9999 -9999 -9999 -9999 -9999 -9999 -9999 -9999 -9999 -9999 -9999 -9999 -9999 -9999 -9999 -9999 -9999 -9999 -9999 -9999 -9999 -9999 432.307800292969 426.302673339844 340.407806396484 243.798004150391 193.785217285156 168.840545654297 150.31787109375 133.975189208984 122.227767944336 121.889839172363 127.020702362061 -9999 -9999 -9999 -9999 -9999 -9999 -9999 189.250289916992 195.035675048828 198.140899658203 196.645858764648 193.581878662109 187.729019165039 180.929260253906 170.664794921875
-9999 -9999 -9999 -9999 -9999 -9999 -9999 -9999 -9999 -9999 -9999 -9999 -9999 -9999 -9999 -9999 -9999 -9999 -9999 -9999 -9999 -9999 -9999 -9999 -9999 -9999 -9999 -9999 -9999 -9999 -9999 -9999 -9999 -9999 -9999 -9999 -9999 -9999 -9999 -9999 345.237813313802 321.679026285807 320.850857543945 323.288391113281 272.214599609375 217.251998901367 179.168823242188 149.70947265625 133.193054199219 125.336936950684 119.603797912598 116.489776611328 117.229232788086 128.674789428711 157.347816467285 -9999 -9999 -9999 -9999 -9999 182.013031005859 177.309661865234 171.095123291016 169.314712524414 167.735580444336 160.718200683594 149.450973510742 140.407669067383 134.351043701172 128.405578613281
-9999 -9999 -9999 -9999 -9999 -9999 -9999 -9999 -9999 -9999 -9999 -9999 -9999 -9999 -9999 -9999 -9999 -9999 -9999 -9999 -9999 -9999 -9999 -9999 -9999 -9999 -9999 -9999 -9999 -9999 -9999 -9999 -9999 -9999 -9999 -9999 -9999 -9999 -9999 363.873748779297 348.183898925781 323.655792236328 293.197387695312 246.797286987305 199.079483032227 159.422775268555 129.542495727539 116.570373535156 114.445617675781 112.793785095215 110.220550537109 111.286880493164 119.638626098633 141.668792724609 187.198516845703 207.307144165039 -9999 -9999 -9999 164.036945343018 199.582565307617 169.146865844727 155.627716064453 152.686904907227 150.942596435547 141.577178955078 127.298622131348 116.033264160156 109.668334960938 107.776878356934
-9999 -9999 -9999 -9999 -9999 -9999 -9999 -9999 -9999 -9999 -9999 -9999 -9999 -9999 -9999 -9999 -9999 -9999 -9999 -9999 -9999 -9999 -9999 -9999 -9999 -9999 -9999 -9999 -9999 -9999 -9999 -9999 -9999 -9999 -9999 -9999 -9999 -9999 268.102850341797 263.209930419922 243.470626831055 208.847015380859 185.267684936523 166.255065917969 141.968551635742 114.197731018066 100.047721862793 98.7449798583984 101.313552856445 103.406867980957 104.749069213867 107.777702331543 116.054100036621 134.323104858398 161.299575805664 182.157699584961 167.607788085938 154.721382141113 154.658142089844 149.997970581055 151.909103393555 141.058090209961 136.483810424805 136.290588378906 133.897583007812 122.945083618164 105.558052062988 89.580322265625 84.6349182128906 85.8502578735352
-9999 -9999 -9999 -9999 -9999 -9999 -9999 -9999 -9999 -9999 -9999 -9999 -9999 -9999 -9999 -9999 -9999 -9999 -9999 -9999 -9999 -9999 -9999 -9999 -9999 -9999 -9999 -9999 -9999 -9999 -9999 -9999 -9999 -9999 -9999 -9999 -9999 287.081512451172 245.756240844727 180.592819213867 139.601226806641 125.182678222656 121.010452270508 116.993782043457 105.053558349609 91.0688781738281 83.2906799316406 81.6570129394531 86.2446136474609 94.6943664550781 101.225440979004 104.242218017578 107.472305297852 114.368827819824 121.81616973877 128.282958984375 133.968933105469 129.45947265625 131.439376831055 128.567855834961 123.613426208496 121.831550598145 122.665061950684 121.685653686523 114.276168823242 100.411666870117 88.6289443969727 85.6052703857422 86.7001419067383 87.3947525024414
-9999 -9999 -9999 -9999 -9999 -9999 -9999 -9999 -9999 -9999 -9999 -9999 -9999 -9999 -9999 -9999 -9999 -9999 -9999 -9999 -9999 -9999 -9999 -9999 -9999 -9999 -9999 -9999 -9999 -9999 -9999 -9999 -9999 -9999 -9999 -9999 -9999 327.780700683594 257.651062011719 152.930297851562 105.532867431641 97.1207046508789 96.4697723388672 93.6692276000977 85.1687316894531 74.0762939453125 66.0152130126953 63.4596939086914 69.0882873535156 84.795539855957 97.8965835571289 101.788314819336 102.186401367188 105.466667175293 110.804763793945 114.690078735352 117.80672454834 121.103179931641 120.721771240234 115.984230041504 112.811386108398 115.042045593262 115.176956176758 110.836860656738 102.032829284668 99.1306991577148 102.104881286621 105.094161987305 105.290985107422 102.488922119141
-9999 -9999 -9999 -9999 -9999 -9999 -9999 -9999 -9999 -9999 -9999 -9999 -9999 -9999 -9999 -9999 -9999 -9999 -9999 -9999 -9999 -9999 -9999 -9999 -9999 -9999 -9999 -9999 -9999 -9999 -9999 -9999 -9999 -9999 -9999 -9999 -9999 378.1669921875 238.105102539062 124.681457519531 93.2367172241211 87.0896301269531 81.5196762084961 75.4440536499023 69.8921203613281 64.870735168457 61.9219741821289 61.4962959289551 64.8598709106445 77.9765167236328 93.2443695068359 100.176742553711 101.953247070312 103.704086303711 110.071716308594 113.787406921387 116.238716125488 116.377075195312 112.810974121094 109.541961669922 111.176300048828 114.330871582031 111.511260986328 109.109672546387 114.966094970703 138.569732666016 168.125686645508 187.205108642578 197.049301147461 192.967315673828
-9999 -9999 -9999 -9999 -9999 -9999 -9999 -9999 -9999 -9999 -9999 -9999 -9999 -9999 -9999 -9999 -9999 -9999 -9999 -9999 -9999 -9999 -9999 -9999 -9999 -9999 -9999 -9999 -9999 -9999 -9999 -9999 -9999 -9999 -9999 -9999 571.366271972656 359.384094238281 168.484115600586 110.655624389648 96.9990005493164 87.8638000488281 78.207389831543 70.3779830932617 66.6230392456055 64.7136459350586 63.9037933349609 64.0308532714844 66.1395111083984 72.5671157836914 84.4186706542969 94.9517974853516 101.605918884277 104.318733215332 115.044158935547 121.929718017578 128.446670532227 135.918212890625 140.287261962891 146.083908081055 153.665924072266 148.161254882812 140.357131958008 146.128204345703 184.814071655273 259.117126464844 337.709075927734 375.848297119141 398.228424072266 410.499145507812
-9999 -9999 -9999 -9999 -9999 -9999 -9999 -9999 -9999 -9999 -9999 -9999 -9999 -9999 -9999 -9999 -9999 -9999 -9999 -9999 -9999 -9999 -9999 -9999 -9999 -9999 -9999 -9999 -9999 -9999 -9999 -9999 -9999 -9999 -9999 -9999 -9999 276.983520507812 211.300415039062 143.155242919922 122.413307189941 104.147041320801 88.2356872558594 79.2681884765625 73.612434387207 68.9239501953125 67.6443252563477 69.5758819580078 72.8150405883789 75.3211669921875 80.3085632324219 88.1314010620117 94.6827697753906 100.329444885254 117.386116027832 138.559768676758 171.268264770508 224.244247436523 272.631500244141 304.844116210938 314.818054199219 296.590576171875 272.832977294922 289.230651855469 357.597961425781 431.68896484375 467.906463623047 463.970794677734 460.113586425781 490.974090576172
-9999 -9999 -9999 -9999 -9999 -9999 -9999 -9999 -9999 -9999 -9999 -9999 -9999 -9999 -9999 -9999 -9999 -9999 -9999 -9999 -9999 -9999 -9999 -9999 -9999 -9999 -9999 -9999 -9999 -9999 -9999 -9999 -9999 -9999 -9999 -9999 -9999 -9999 261.324279785156 -9999 150.189590454102 125.488998413086 103.292045593262 92.7283554077148 84.0024642944336 75.4591369628906 75.5940628051758 83.8464431762695 90.8281478881836 88.8049697875977 85.0964508056641 86.4731674194336 85.6961364746094 92.609733581543 115.650840759277 147.117599487305 205.180282592773 333.750366210938 431.889099121094 489.350189208984 479.192687988281 457.548950195312 429.313293457031 454.694488525391 477.841888427734 453.913055419922 402.468933105469 408.275329589844 384.444366455078 384.501861572266
-9999 -9999 -9999 -9999 -9999 -9999 -9999 -9999 -9999 -9999 -9999 -9999 -9999 -9999 -9999 -9999 -9999 -9999 -9999 -9999 -9999 -9999 -9999 -9999 -9999 -9999 -9999 -9999 -9999 -9999 -9999 -9999 -9999 -9999 -9999 -9999 -9999 -9999 -9999 -9999 139.439575195312 131.780334472656 114.799774169922 104.707206726074 93.3800659179688 82.8512573242188 88.8830413818359 104.875946044922 110.104423522949 102.158973693848 93.8471832275391 93.4974060058594 88.9055328369141 94.3164138793945 119.631164550781 157.809387207031 269.126281738281 449.457397460938 497.975921630859 545.452392578125 509.024719238281 469.244476318359 456.303619384766 474.951751708984 433.595275878906 415.389495849609 403.795562744141 403.979858398438 402.369934082031 384.459167480469
-9999 -9999 -9999 -9999 -9999 -9999 -9999 -9999 -9999 -9999 -9999 -9999 -9999 -9999 -9999 -9999 -9999 -9999 -9999 -9999 -9999 -9999 -9999 -9999 -9999 -9999 -9999 -9999 -9999 -9999 -9999 -9999 -9999 -9999 232.796573638916 253.502365112305 215.348892211914 -9999 128.834625244141 118.426719665527 132.210632324219 134.539108276367 122.156059265137 109.349296569824 95.0891952514648 91.0012054443359 110.305191040039 131.942153930664 133.360427856445 127.772155761719 124.606239318848 122.560913085938 116.688110351562 116.259254455566 146.789291381836 225.822235107422 411.857543945312 510.895141601562 474.678985595703 513.9423828125 470.556274414062 462.820190429688 448.188171386719 450.895751953125 414.648345947266 421.983520507812 447.473449707031 451.22119140625 452.263275146484 432.199157714844
-9999 -9999 -9999 -9999 -9999 -9999 -9999 -9999 -9999 -9999 -9999 -9999 -9999 -9999 -9999 -9999 -9999 -9999 -9999 -9999 -9999 -9999 -9999 -9999 -9999 -9999 -9999 930.667236328125 930.667236328125 658.040893554688 414.81884765625 316.191101074219 294.497619628906 264.257385253906 230.502807617188 182.923736572266 135.721542358398 114.411773681641 109.221893310547 110.38208770752 121.78581237793 126.302932739258 120.171829223633 107.066223144531 98.8555068969727 113.854454040527 141.16764831543 157.80973815918 160.08137512207 162.558197021484 170.618927001953 176.739395141602 178.744674682617 188.166610717773 257.893463134766 369.959716796875 457.20263671875 441.852874755859 444.152679443359 472.286682128906 442.207061767578 459.662384033203 430.034820556641 431.928619384766 448.231872558594 469.723846435547 481.108856201172 489.188293457031 491.69189453125 478.544921875
-9999 -9999 -9999 -9999 -9999 -9999 -9999 -9999 -9999 -9999 -9999 -9999 -9999 -9999 -9999 -9999 -9999 -9999 -9999 -9999 -9999 -9999 -9999 -9999 -9999 -9999 -9999 -9999 -9999 -9999 232.676055908203 213.388305664062 185.193878173828 138.087982177734 113.658638000488 101.408958435059 93.9291000366211 94.8814849853516 99.5157623291016 105.893684387207 116.654426574707 119.307579040527 115.506576538086 110.461395263672 124.317276000977 156.640319824219 180.333572387695 198.49787902832 211.067230224609 230.98664855957 261.126129150391 276.071746826172 289.483764648438 329.849395751953 404.935516357422 438.1123046875 399.760162353516 387.560760498047 408.991333007812 421.124359130859 423.518463134766 440.505859375 448.900756835938 457.796722412109 479.158447265625 490.927642822266 503.577606201172 515.967163085938 520.030639648438 509.351989746094
-9999 -9999 -9999 -9999 -9999 -9999 -9999 -9999 -9999 -9999 -9999 -9999 -9999 -9999 -9999 -9999 -9999 -9999 -9999 -9999 -9999 -9999 -9999 -9999 -9999 555.038513183594 362.38786315918 220.394673665365 142.243394851685 133.559997558594 137.321578979492 142.387252807617 127.962562561035 109.874153137207 101.453598022461 101.200576782227 101.981994628906 103.61011505127 104.295013427734 106.783821105957 111.780143737793 114.968566894531 116.142211914062 125.078598022461 165.373580932617 205.827819824219 227.826049804688 251.180740356445 270.689849853516 283.031860351562 326.26708984375 353.715026855469 367.245727539062 435.317657470703 434.999420166016 401.224914550781 398.270751953125 411.940155029297 422.964782714844 434.155578613281 447.511077880859 459.410705566406 469.077667236328 488.840240478516 516.873413085938 528.274475097656 530.870544433594 537.880187988281 539.350341796875 519.101257324219
-9999 -9999 -9999 -9999 -9999 -9999 -9999 -9999 -9999 -9999 -9999 -9999 -9999 -9999 -9999 -9999 -9999 -9999 -9999 -9999 -9999 -9999 -9999 -9999 771.234802246094 559.344360351562 334.536376953125 193.282852172852 133.364791870117 108.765937805176 106.408966064453 104.790023803711 103.144371032715 104.69660949707 107.363426208496 111.157371520996 113.354919433594 114.849922180176 115.619064331055 115.613761901855 116.332473754883 117.088966369629 121.705276489258 142.856063842773 194.45198059082 244.224822998047 278.073883056641 317.538604736328 353.800201416016 363.703552246094 391.001770019531 417.422698974609 413.271911621094 453.307861328125 434.700134277344 407.211212158203 416.718383789062 426.986877441406 433.011596679688 440.700500488281 437.337554931641 430.741912841797 440.246246337891 487.411773681641 544.4521484375 559.78173828125 547.872131347656 538.248413085938 511.207214355469 463.523254394531
-9999 -9999 -9999 -9999 -9999 -9999 -9999 -9999 -9999 -9999 -9999 -9999 -9999 -9999 -9999 -9999 -9999 -9999 -9999 -9999 -9999 -9999 -9999 -9999 553.305297851562 311.371887207031 143.20361328125 100.992225646973 98.2611923217773 101.128494262695 106.247047424316 115.808837890625 129.714126586914 142.501724243164 152.573043823242 163.857376098633 168.901245117188 165.673614501953 159.033401489258 161.168670654297 176.888946533203 197.302291870117 210.51155090332 253.62956237793 333.514923095703 391.053924560547 428.370025634766 460.812866210938 493.457183837891 512.262329101562 519.90478515625 513.72314453125 496.56494140625 491.041809082031 483.593017578125 454.941223144531 436.656799316406 430.549468994141 414.602600097656 411.502716064453 402.747894287109 379.128875732422 396.843078613281 472.22265625 533.84619140625 539.378845214844 520.159973144531 482.376953125 425.097900390625 382.985260009766
-9999 -9999 -9999 -9999 -9999 -9999 -9999 -9999 -9999 -9999 -9999 -9999 -9999 -9999 -9999 -9999 -9999 -9999 -9999 -9999 -9999 -9999 -9999 390.199691772461 413.384521484375 220.883239746094 115.217750549316 96.8214950561523 102.386238098145 116.334762573242 149.697158813477 207.826370239258 268.543518066406 305.719757080078 321.443756103516 320.070251464844 304.873565673828 286.023162841797 257.319458007812 285.699066162109 360.830200195312 395.881896972656 406.324768066406 457.302001953125 520.962219238281 528.273986816406 519.346801757812 513.984313964844 517.395568847656 514.226806640625 516.182067871094 516.784790039062 528.656921386719 528.988830566406 544.833068847656 530.134216308594 501.388092041016 478.998596191406 441.937805175781 435.415466308594 422.784881591797 411.090637207031 453.288909912109 503.213470458984 513.0205078125 500.71630859375 478.951202392578 431.123657226562 384.938690185547 353.428405761719
-9999 -9999 -9999 -9999 -9999 -9999 -9999 -9999 -9999 -9999 -9999 -9999 -9999 -9999 -9999 -9999 -9999 -9999 -9999 -9999 -9999 -9999 -9999 321.725830078125 272.383117675781 164.990478515625 111.608818054199 104.721122741699 117.81697845459 163.920181274414 252.555679321289 349.027709960938 422.636901855469 459.318664550781 463.862915039062 437.819091796875 411.247589111328 404.543762207031 399.533721923828 437.965301513672 491.853729248047 487.738891601562 478.478851318359 499.241668701172 513.500366210938 501.348083496094 491.561431884766 493.543121337891 488.81201171875 479.045959472656 465.995452880859 459.058074951172 464.693420410156 477.520416259766 509.310638427734 550.121887207031 561.521545410156 546.818664550781 520.062438964844 511.425445556641 463.995483398438 464.372406005859 493.008697509766 496.333129882812 491.756042480469 486.527465820312 442.336242675781 406.681304931641 379.542694091797 357.486145019531
-9999 -9999 -9999 -9999 -9999 -9999 -9999 -9999 -9999 -9999 -9999 -9999 -9999 -9999 -9999 -9999 -9999 -9999 -9999 -9999 -9999 -9999 341.290252685547 248.483032226562 186.862564086914 133.799102783203 116.846946716309 136.755233764648 180.167144775391 253.223571777344 340.532470703125 406.612213134766 441.655944824219 445.577819824219 442.05078125 444.430450439453 459.41259765625 475.955169677734 486.075561523438 482.024353027344 459.56005859375 435.326721191406 427.133697509766 434.340789794922 460.405548095703 490.759216308594 515.597045898438 522.725952148438 501.893829345703 479.492767333984 466.87890625 451.513885498047 432.546966552734 426.488067626953 445.10791015625 494.061645507812 531.610656738281 553.657104492188 556.723205566406 554.005493164062 508.942626953125 511.843902587891 504.556701660156 497.875427246094 506.49658203125 471.602081298828 414.86083984375 395.249298095703 387.236145019531 391.501312255859
-9999 -9999 -9999 -9999 -9999 -9999 -9999 -9999 -9999 -9999 -9999 -9999 -9999 -9999 1168.2141655816 -9999 -9999 -9999 -9999 1417.25231933594 -9999 507.466918945312 301.059234619141 183.224212646484 144.15901184082 128.765396118164 156.844863891602 228.493240356445 294.374145507812 338.561584472656 369.621673583984 398.697937011719 435.686614990234 461.281646728516 478.306060791016 499.614501953125 504.467346191406 487.358062744141 467.150421142578 443.202941894531 420.123992919922 404.727142333984 400.267852783203 409.27880859375 443.774932861328 488.912078857422 526.429016113281 532.046508789062 508.809753417969 498.909576416016 496.576354980469 482.815948486328 463.280487060547 448.527435302734 433.553314208984 438.971008300781 461.921813964844 503.2626953125 530.091064453125 537.858642578125 533.433898925781 537.83203125 502.616912841797 510.801818847656 526.298095703125 450.491088867188 401.026489257812 401.390655517578 404.669738769531 411.170166015625
-9999 -9999 -9999 -9999 -9999 -9999 -9999 -9999 -9999 -9999 -9999 -9999 -9999 -9999 1161.96728515625 -9999 -9999 -9999 -9999 1225.27392578125 736.777685546875 436.398712158203 210.438232421875 143.086242675781 129.076370239258 144.17106628418 203.714462280273 291.578063964844 351.458770751953 377.687133789062 393.533630371094 411.196990966797 440.734344482422 483.419921875 528.158386230469 554.899475097656 542.800109863281 497.913696289062 454.022735595703 423.532775878906 399.873779296875 392.447570800781 397.953033447266 407.998291015625 445.620941162109 500.324798583984 540.890808105469 535.241821289062 518.848205566406 522.241882324219 493.476501464844 443.848937988281 436.716796875 465.797302246094 469.350158691406 447.09619140625 421.635711669922 438.61474609375 478.929260253906 501.77978515625 521.565185546875 528.922119140625 495.005828857422 537.775756835938 544.274108886719 433.255523681641 379.421234130859 373.504180908203 373.387573242188 379.51806640625
-9999 -9999 -9999 -9999 -9999 -9999 -9999 -9999 -9999 -9999 -9999 -9999 -9999 -9999 1190.07824707031 -9999 -9999 -9999 -9999 -9999 291.494655609131 289.474945068359 158.020202636719 138.173095703125 154.988952636719 209.547866821289 291.531097412109 360.377136230469 404.348175048828 438.611541748047 462.480651855469 474.300415039062 479.521270751953 492.303558349609 521.016967773438 555.420715332031 570.389282226562 547.994018554688 498.721343994141 445.973815917969 407.925201416016 403.129119873047 417.576599121094 427.958679199219 459.246490478516 511.563232421875 549.293212890625 532.87841796875 524.5888671875 528.005432128906 471.728057861328 398.589477539062 376.823699951172 426.256408691406 471.746551513672 468.866088867188 432.691192626953 415.161010742188 437.735412597656 472.551605224609 507.694946289062 523.133850097656 513.113037109375 550.451110839844 515.172729492188 393.155303955078 359.97900390625 350.859069824219 344.700958251953 347.092742919922
-9999 -9999 -9999 -9999 -9999 -9999 -9999 -9999 -9999 -9999 -9999 -9999 -9999 -9999 1088.98843383789 -9999 1077.63439941406 -9999 -9999 -9999 227.723007202148 212.381958007812 148.624313354492 172.644790649414 238.475219726562 324.354888916016 401.473815917969 453.628479003906 489.463653564453 510.620391845703 518.689880371094 517.471435546875 512.195190429688 510.483551025391 513.556701660156 529.841247558594 563.023986816406 579.48828125 550.566772460938 494.132263183594 445.965240478516 429.023498535156 437.092803955078 449.098754882812 478.975494384766 526.586303710938 559.708740234375 542.967224121094 538.728942871094 543.003967285156 489.929290771484 431.469329833984 391.742340087891 403.703552246094 435.531372070312 442.270446777344 428.645294189453 416.403564453125 425.134033203125 469.833831787109 526.345153808594 537.462524414062 533.695983886719 546.171203613281 499.364379882812 395.329193115234 364.334045410156 364.218902587891 361.322174072266 367.389495849609
-9999 -9999 -9999 -9999 -9999 -9999 -9999 -9999 -9999 -9999 -9999 -9999 -9999 -9999 1088.98843383789 987.898620605469 777.763244628906 -9999 -9999 206.837882995605 211.576324462891 186.593856811523 182.19108581543 256.859466552734 349.885406494141 422.476989746094 472.032653808594 500.989410400391 513.665832519531 515.066650390625 509.587341308594 500.399932861328 490.557647705078 484.554809570312 483.673950195312 490.20458984375 519.424255371094 558.746826171875 571.765686035156 547.34814453125 504.784606933594 474.184814453125 466.33984375 476.642456054688 506.883117675781 547.853881835938 569.460815429688 555.591430664062 557.204711914062 536.186584472656 466.669494628906 430.239105224609 417.534149169922 412.550537109375 407.205902099609 394.573760986328 400.007293701172 423.621551513672 446.740631103516 491.972778320312 541.181396484375 526.878662109375 538.900939941406 557.244262695312 542.406616210938 482.483703613281 417.711120605469 387.307800292969 387.510345458984 397.574768066406
-9999 -9999 -9999 -9999 -9999 -9999 -9999 -9999 -9999 -9999 -9999 -9999 -9999 -9999 -9999 679.238226318359 602.095275878906 -9999 316.182273864746 190.471984863281 197.580215454102 209.809310913086 277.479095458984 368.748443603516 433.788055419922 474.978576660156 496.986907958984 501.808227539062 498.236602783203 497.766937255859 492.928649902344 479.747314453125 468.534545898438 460.437438964844 454.947174072266 458.417602539062 472.967376708984 503.034729003906 543.941772460938 561.083557128906 541.336730957031 514.509765625 498.758209228516 503.558776855469 524.647094726562 553.284545898438 569.131530761719 558.750244140625 564.952880859375 498.418670654297 406.886535644531 371.434478759766 384.660400390625 402.738189697266 384.852630615234 359.550872802734 376.530487060547 425.04345703125 479.401123046875 511.733428955078 538.933776855469 517.036926269531 536.43017578125 548.580505371094 549.865112304688 544.39501953125 489.647583007812 415.688385009766 409.631195068359 416.723449707031
-9999 -9999 -9999 -9999 -9999 -9999 -9999 -9999 -9999 -9999 -9999 -9999 -9999 -9999 -9999 528.177307128906 500.256683349609 -9999 248.299026489258 198.46028137207 200.241165161133 259.595184326172 365.506927490234 440.82177734375 478.225524902344 496.457977294922 497.242614746094 492.574035644531 492.751831054688 494.172882080078 487.801300048828 479.066955566406 474.125091552734 464.288513183594 451.314971923828 448.408599853516 453.865905761719 469.955078125 501.105346679688 530.607055664062 537.096862792969 529.666198730469 519.296203613281 523.587036132812 532.764282226562 551.770080566406 567.569458007812 544.182434082031 530.150817871094 451.342926025391 393.153015136719 363.531219482422 353.329345703125 369.174194335938 364.066558837891 346.034790039062 371.839874267578 430.726318359375 506.439910888672 523.20166015625 546.456115722656 529.184020996094 529.985595703125 536.17822265625 528.4599609375 538.980651855469 511.897430419922 448.169555664062 426.564727783203 442.805419921875
-9999 -9999 -9999 -9999 -9999 -9999 -9999 -9999 -9999 -9999 -9999 -9999 -9999 -9999 -9999 472.740844726562 -9999 336.850762503488 282.618286132812 212.855590820312 231.259002685547 321.258605957031 418.298278808594 466.735198974609 489.300720214844 493.251281738281 483.896759033203 477.568603515625 482.267578125 491.354644775391 496.727630615234 492.068603515625 476.908660888672 456.147796630859 439.25634765625 436.846557617188 445.102600097656 453.431549072266 463.788848876953 486.364715576172 505.941040039062 518.364379882812 520.928344726562 532.694152832031 534.641845703125 555.0615234375 565.985900878906 511.67822265625 437.432159423828 401.025451660156 403.960174560547 393.027740478516 365.483734130859 349.722351074219 347.920166015625 344.997314453125 375.348022460938 428.007141113281 509.270874023438 527.64990234375 549.900634765625 535.065246582031 527.950134277344 535.335876464844 520.796081542969 521.237121582031 509.263610839844 483.266448974609 475.404937744141 474.163909912109
-9999 -9999 -9999 -9999 -9999 -9999 -9999 -9999 -9999 -9999 -9999 -9999 -9999 -9999 472.740844726562 405.735310872396 344.081939697266 310.653503417969 271.662750244141 207.782928466797 242.902816772461 353.162384033203 445.556915283203 470.482696533203 484.081176757812 474.453216552734 461.650634765625 462.577789306641 476.339538574219 486.664520263672 490.978515625 490.025573730469 476.387451171875 453.742919921875 433.153137207031 423.972991943359 429.867645263672 436.130798339844 440.942230224609 459.781097412109 475.595031738281 497.490234375 515.043640136719 526.16552734375 529.036376953125 557.902954101562 542.606689453125 449.750701904297 377.840942382812 398.158538818359 421.969573974609 420.530334472656 399.529357910156 365.464294433594 353.166076660156 355.575744628906 370.563629150391 409.738983154297 479.104400634766 525.812255859375 547.927185058594 545.389587402344 533.9052734375 536.718566894531 527.382019042969 525.803100585938 517.563720703125 504.311859130859 512.888305664062 511.210601806641
-9999 -9999 -9999 -9999 -9999 -9999 -9999 -9999 -9999 -9999 -9999 -9999 -9999 -9999 -9999 -9999 293.237533569336 287.058410644531 200.222869873047 190.442337036133 263.848785400391 380.857757568359 452.689788818359 462.654571533203 471.541351318359 456.249938964844 448.533569335938 458.438751220703 479.790679931641 488.704223632812 486.501770019531 484.680053710938 475.410247802734 461.973999023438 443.159637451172 427.391693115234 426.186767578125 427.954498291016 432.920501708984 450.980316162109 460.5068359375 481.223175048828 508.231964111328 509.924926757812 511.521911621094 558.829895019531 529.355773925781 418.134674072266 400.834075927734 439.110687255859 454.304229736328 456.791595458984 448.185089111328 422.823120117188 401.569183349609 389.790649414062 395.831176757812 418.445404052734 446.630218505859 506.744598388672 547.325378417969 559.834899902344 540.081665039062 540.683349609375 532.309143066406 538.2421875 519.051391601562 507.721557617188 527.431701660156 533.060485839844
-9999 -9999 -9999 -9999 -9999 -9999 -9999 -9999 -9999 -9999 -9999 -9999 -9999 -9999 -9999 -9999 259.107345581055 231.156280517578 177.657302856445 189.011413574219 283.893707275391 410.996398925781 442.356323242188 450.162200927734 457.980621337891 451.048919677734 448.038482666016 464.136138916016 492.652038574219 502.759063720703 505.511047363281 506.444732666016 486.591674804688 462.959991455078 434.144348144531 422.955413818359 427.323577880859 428.015991210938 434.617218017578 451.685852050781 472.917449951172 480.576171875 476.426818847656 491.543273925781 524.520446777344 570.242553710938 537.845275878906 457.815063476562 464.662933349609 488.760101318359 491.110321044922 493.212005615234 493.506011962891 481.67431640625 454.867095947266 432.486114501953 431.779113769531 453.924407958984 463.598907470703 496.918853759766 561.046813964844 600.761108398438 588.05322265625 583.881591796875 559.516235351562 556.726196289062 520.895751953125 510.469879150391 537.486755371094 543.569152832031
-9999 -9999 -9999 -9999 -9999 -9999 -9999 -9999 -9999 -9999 -9999 -9999 -9999 -9999 -9999 -9999 -9999 189.812019348145 180.145523071289 224.219619750977 350.544036865234 452.134185791016 438.758361816406 444.046936035156 451.04736328125 453.371185302734 448.250457763672 468.536956787109 492.943817138672 499.352661132812 500.991516113281 504.671569824219 491.892059326172 450.656829833984 415.401519775391 425.714508056641 439.85888671875 448.940124511719 463.882263183594 491.308380126953 506.082702636719 464.517272949219 431.081939697266 472.451538085938 532.32568359375 563.828430175781 543.499938964844 488.375671386719 497.916870117188 513.944152832031 512.396545410156 513.632568359375 517.640991210938 518.649780273438 502.688934326172 474.343322753906 454.661651611328 462.229217529297 479.952972412109 505.236694335938 586.532043457031 638.3740234375 638.380798339844 622.237609863281 591.143493652344 582.537780761719 534.312072753906 530.637329101562 560.905822753906 569.349914550781
-9999 -9999 -9999 -9999 -9999 -9999 -9999 -9999 -9999 -9999 -9999 -9999 -9999 -9999 238.144046783447 231.156280517578 191.618629455566 175.217247009277 170.288970947266 274.212432861328 450.773590087891 479.411895751953 437.808441162109 441.979187011719 447.365997314453 461.631286621094 456.991882324219 470.396270751953 482.510223388672 483.199279785156 471.450805664062 466.974243164062 465.045349121094 441.778137207031 429.318695068359 454.364929199219 471.358367919922 480.446350097656 496.436401367188 501.3388671875 459.253448486328 419.729614257812 415.486450195312 462.849517822266 543.892883300781 569.921691894531 546.591491699219 528.243896484375 522.3779296875 524.833740234375 517.353820800781 511.855133056641 516.086120605469 528.285034179688 534.650268554688 523.541259765625 501.029937744141 480.936553955078 478.800109863281 487.769897460938 558.917785644531 618.869018554688 630.212463378906 620.175415039062 603.00048828125 590.564392089844 558.49658203125 570.331298828125 590.013671875 600.614929199219
-9999 -9999 -9999 -9999 -9999 -9999 -9999 -9999 -9999 -9999 -9999 -9999 -9999 -9999 -9999 -9999 -9999 -9999 289.316772460938 323.602844238281 496.13818359375 465.138305664062 420.453033447266 429.483795166016 444.342590332031 470.741912841797 472.580657958984 481.386444091797 486.287017822266 484.856781005859 472.276458740234 468.479187011719 463.095123291016 458.928314208984 468.720489501953 478.928680419922 481.001037597656 484.729064941406 486.8740234375 466.387145996094 434.552307128906 420.628784179688 413.529083251953 432.9365234375 486.715270996094 521.305358886719 509.570190429688 532.175537109375 536.347839355469 533.970825195312 524.591796875 514.950439453125 518.868835449219 534.858093261719 548.31298828125 552.080810546875 549.363342285156 535.250427246094 513.273864746094 505.132476806641 538.38330078125 604.080627441406 615.117309570312 601.760864257812 587.609680175781 580.955749511719 584.275207519531 595.744018554688 606.252075195312 601.685791015625
-9999 -9999 -9999 -9999 -9999 -9999 -9999 -9999 -9999 -9999 -9999 -9999 -9999 -9999 -9999 -9999 -9999 280.434417724609 367.93522644043 389.162841796875 524.254821777344 447.430999755859 401.229766845703 404.458435058594 430.208892822266 466.385162353516 474.382263183594 479.917114257812 479.377105712891 475.248168945312 475.126953125 481.057891845703 480.277893066406 477.112609863281 477.08251953125 476.995666503906 473.810607910156 469.063537597656 455.872009277344 428.258239746094 412.0048828125 415.757019042969 402.949066162109 426.509887695312 470.766571044922 500.095306396484 500.044342041016 505.625305175781 518.060791015625 525.102294921875 526.600219726562 521.976623535156 524.565795898438 534.799926757812 550.018676757812 564.0771484375 576.925903320312 582.935791015625 578.952392578125 579.879516601562 590.359802246094 612.103149414062 600.716186523438 587.524108886719 579.597839355469 572.292114257812 589.73876953125 583.726623535156 561.498474121094 540.529541015625
-9999 -9999 -9999 -9999 -9999 -9999 -9999 -9999 -9999 -9999 -9999 -9999 -9999 193.009155273438 200.59982808431 -9999 229.620452880859 282.254280090332 280.434417724609 478.540802001953 488.226043701172 394.879669189453 367.375396728516 378.636444091797 409.677581787109 455.247253417969 480.452239990234 485.400604248047 481.272979736328 474.033203125 474.872436523438 473.788940429688 471.755859375 470.067749023438 467.069793701172 467.113403320312 467.769866943359 459.885437011719 448.210571289062 425.659545898438 408.643798828125 410.433074951172 397.383880615234 402.062103271484 405.271209716797 461.566711425781 503.982177734375 507.319183349609 505.731231689453 510.189178466797 518.102966308594 507.941467285156 502.036163330078 507.376922607422 523.704772949219 549.681457519531 579.3232421875 603.740234375 615.793823242188 617.892333984375 613.0986328125 600.390197753906 578.450378417969 557.245483398438 542.733154296875 534.591979980469 533.069580078125 520.500183105469 506.018646240234 494.261932373047
-9999 -9999 -9999 -9999 -9999 -9999 -9999 -9999 -9999 -9999 -9999 -9999 -9999 -9999 193.009155273438 214.008163452148 194.782165527344 264.458740234375 389.341796875 460.133026123047 419.345520019531 355.734069824219 340.058532714844 349.039001464844 383.989898681641 432.470184326172 470.218872070312 483.989624023438 491.658081054688 483.013977050781 465.358428955078 457.604949951172 450.645690917969 441.974060058594 431.392761230469 427.138397216797 420.7529296875 420.927886962891 445.313201904297 451.543579101562 421.227478027344 408.698822021484 400.075042724609 399.404449462891 391.561584472656 427.331237792969 473.223541259766 500.165466308594 503.25927734375 498.959747314453 500.271209716797 477.784393310547 464.205444335938 460.233184814453 463.059906005859 476.808654785156 501.585754394531 528.092041015625 546.709411621094 554.348937988281 550.879150390625 539.462463378906 527.212585449219 519.335632324219 517.845642089844 524.155517578125 526.734191894531 519.028442382812 504.932403564453 500.470611572266
-9999 -9999 -9999 -9999 -9999 -9999 -9999 -9999 -9999 -9999 -9999 -9999 -9999 -9999 198.47590637207 193.009155273438 254.233169555664 285.665466308594 315.296844482422 327.213500976562 327.686767578125 334.337493896484 332.590698242188 328.985290527344 342.307647705078 375.557281494141 435.401458740234 474.719482421875 486.054779052734 480.998992919922 463.091552734375 444.582916259766 434.849945068359 423.587280273438 416.176452636719 418.124450683594 420.973266601562 425.248016357422 444.177032470703 441.470733642578 409.954925537109 407.751098632812 401.815063476562 392.982086181641 380.621704101562 390.287048339844 446.767517089844 493.041900634766 483.356323242188 475.609741210938 474.1123046875 445.199981689453 427.375762939453 418.020812988281 414.275817871094 413.493865966797 418.907073974609 429.317626953125 439.588165283203 448.757598876953 461.233337402344 474.594177246094 483.613677978516 504.004516601562 524.821960449219 535.993530273438 533.24755859375 525.519714355469 520.072875976562 520.36474609375
-9999 -9999 -9999 -9999 -9999 -9999 -9999 -9999 -9999 -9999 -9999 210.696166992188 210.835067749023 201.394805908203 183.326248168945 216.173416137695 295.534210205078 273.962310791016 277.016021728516 274.570251464844 281.861450195312 295.449371337891 310.841461181641 318.993103027344 322.496002197266 337.458526611328 387.263488769531 446.286071777344 488.650115966797 492.564117431641 486.082336425781 468.650756835938 439.211120605469 436.400177001953 439.690002441406 443.885375976562 450.273223876953 452.376586914062 451.182952880859 435.389282226562 411.730560302734 405.951171875 384.710601806641 373.325286865234 367.726470947266 375.046020507812 438.557281494141 487.341156005859 471.579925537109 455.188140869141 446.762512207031 423.416778564453 411.345672607422 408.911193847656 409.623840332031 410.146728515625 410.180145263672 409.090423583984 409.213684082031 413.611572265625 421.357299804688 445.602386474609 486.639465332031 523.985046386719 538.72802734375 542.188537597656 543.623779296875 544.03466796875 544.204162597656 549.294738769531
-9999 -9999 -9999 -9999 -9999 -9999 -9999 -9999 -9999 399.591217041016 241.159957885742 180.403823852539 194.386047363281 183.285690307617 202.231719970703 274.376770019531 304.972839355469 277.096496582031 274.140899658203 269.638610839844 269.780242919922 277.678863525391 287.736755371094 294.685485839844 294.050506591797 295.868804931641 310.443511962891 346.442443847656 390.912658691406 447.071838378906 485.162689208984 490.848236083984 471.493347167969 445.801055908203 450.840118408203 457.365295410156 457.975128173828 451.514373779297 432.927032470703 399.615844726562 373.4853515625 366.737945556641 351.195190429688 345.352996826172 361.538726806641 389.147644042969 447.439544677734 487.728912353516 479.27490234375 457.294281005859 444.060272216797 427.573791503906 415.632690429688 410.500793457031 411.843505859375 418.217987060547 425.050506591797 426.112701416016 421.949920654297 417.782287597656 419.397399902344 432.974792480469 475.235107421875 525.688842773438 543.646728515625 546.828369140625 554.833679199219 559.85009765625 564.418029785156 568.585754394531
-9999 -9999 -9999 -9999 -9999 -9999 -9999 -9999 -9999 381.257232666016 223.001800537109 188.076217651367 203.604598999023 216.799728393555 249.076919555664 311.191711425781 288.562652587891 272.134155273438 271.088836669922 271.488311767578 273.574554443359 274.538787841797 277.141357421875 282.028503417969 285.91455078125 291.011199951172 299.867553710938 312.851867675781 325.208679199219 337.094085693359 372.466735839844 424.704650878906 445.805694580078 435.923004150391 426.992279052734 425.162963867188 425.737701416016 424.499145507812 395.090240478516 363.937133789062 369.508850097656 383.389251708984 354.068511962891 333.644073486328 356.990081787109 381.668731689453 437.238250732422 484.43896484375 494.860168457031 469.541839599609 450.392944335938 440.320190429688 435.133361816406 429.165466308594 425.942474365234 425.627868652344 426.642974853516 426.084259033203 429.024780273438 433.670196533203 430.663299560547 429.230804443359 451.376617431641 502.517486572266 538.719177246094 549.681030273438 553.691467285156 554.092224121094 550.801635742188 545.260620117188
-9999 -9999 -9999 -9999 -9999 279.294708251953 376.355926513672 342.377838134766 339.742218017578 247.970657348633 213.043472290039 214.501098632812 239.270477294922 265.200469970703 247.534591674805 263.939971923828 282.085510253906 285.466217041016 276.932769775391 267.897705078125 256.695861816406 248.828491210938 246.985626220703 247.428771972656 251.056762695312 258.598968505859 265.557250976562 271.413726806641 278.422637939453 287.627593994141 300.915557861328 340.673065185547 391.505737304688 409.122406005859 398.666442871094 377.644256591797 382.3759765625 391.990509033203 365.828674316406 365.43408203125 407.295074462891 411.745086669922 370.774566650391 367.870330810547 390.04931640625 385.898468017578 423.171417236328 466.058502197266 487.619262695312 479.569152832031 468.75 461.408752441406 453.457458496094 447.777435302734 443.997192382812 439.737762451172 436.224578857422 433.202880859375 435.853668212891 442.295776367188 438.962646484375 430.275848388672 436.123779296875 460.730010986328 504.604522705078 532.134643554688 540.512756347656 533.725524902344 522.942749023438 510.426605224609
-9999 -9999 -9999 -9999 275.5712890625 249.335037231445 215.916580200195 207.244598388672 221.446136474609 214.798446655273 203.702331542969 243.650848388672 242.360214233398 237.372573852539 270.339263916016 298.390380859375 305.709136962891 271.545959472656 240.514633178711 224.162399291992 211.41877746582 207.480850219727 205.461929321289 203.771987915039 206.574005126953 209.750396728516 211.834335327148 214.99299621582 220.192108154297 231.303344726562 245.200286865234 267.182861328125 310.327056884766 357.325408935547 388.433319091797 397.012786865234 404.025329589844 391.021484375 375.285797119141 406.367401123047 423.318450927734 383.385009765625 377.686004638672 415.462951660156 415.576782226562 393.069946289062 413.44677734375 438.33935546875 457.748107910156 459.681121826172 452.539215087891 446.527008056641 441.806945800781 443.723510742188 444.872161865234 443.821105957031 444.569244384766 440.718536376953 437.962982177734 437.143524169922 432.696411132812 427.018432617188 423.888336181641 430.363616943359 453.681121826172 481.968048095703 495.828765869141 493.991241455078 487.244140625 479.527191162109
-9999 -9999 -9999 239.705230712891 243.973663330078 193.259140014648 218.432403564453 232.343811035156 247.709243774414 246.167587280273 245.147689819336 222.685028076172 221.971343994141 246.989303588867 274.720825195312 278.098968505859 244.426574707031 212.646728515625 202.063903808594 200.462432861328 210.359924316406 225.119186401367 223.990615844727 221.573471069336 223.67546081543 215.308364868164 210.525527954102 207.519226074219 204.751022338867 210.859451293945 222.660217285156 233.007400512695 252.186431884766 287.38818359375 329.720458984375 357.498474121094 375.509429931641 373.119262695312 392.797271728516 437.904571533203 419.532440185547 397.618682861328 428.083892822266 423.839874267578 404.106231689453 401.359558105469 413.940521240234 419.007232666016 421.121551513672 423.825012207031 429.761016845703 428.737670898438 425.532775878906 423.059753417969 421.404388427734 426.194183349609 432.333068847656 434.086059570312 433.946624755859 431.249664306641 427.058624267578 422.214782714844 417.754547119141 418.878845214844 423.088317871094 433.381286621094 442.683898925781 445.356597900391 442.28857421875 437.306304931641
-9999 -9999 -9999 241.842163085938 197.433807373047 212.637588500977 271.478790283203 296.066070556641 309.917633056641 248.580810546875 209.194747924805 223.308380126953 237.535751342773 261.842132568359 270.303771972656 241.721145629883 205.482482910156 194.28044128418 196.792419433594 208.947265625 223.173294067383 239.737182617188 242.593383789062 240.995635986328 238.69172668457 230.234664916992 222.358917236328 211.424682617188 207.834289550781 209.590698242188 211.932739257812 223.373001098633 240.643142700195 262.591766357422 287.011383056641 305.037902832031 324.211303710938 334.510772705078 387.120941162109 436.423980712891 412.749786376953 390.6953125 409.134094238281 398.599578857422 387.138427734375 394.3544921875 402.29248046875 406.662628173828 410.0068359375 408.724670410156 402.140808105469 393.607147216797 391.828338623047 396.765594482422 405.169921875 416.931579589844 424.120056152344 428.905395507812 428.830902099609 425.268585205078 420.393646240234 414.390472412109 412.304077148438 413.343475341797 415.861450195312 420.155151367188 423.410247802734 422.851257324219 420.555297851562 418.544586181641
