NCOLS 70 
NROWS 52 
XLLCORNER -80 
YLLCORNER 33 
CELLSIZE 0.25 
NODATA_value -9999 
-9999.000000000000000 -9999 -9999 -9999 -9999 -9999 -9999 -9999 -9999 -9999 -9999 -9999 -9999 -9999 -9999 -9999 -9999 -9999 -9999 -9999 -9999 -9999 -9999 -9999 -9999 -9999 -9999 -9999 -9999 -9999 -9999 -9999 -9999 -9999 -9999 -9999 -9999 -9999 -9999 -9999 -9999 -9999 -9999 -9999 -9999 -9999 -9999 -9999 -9999 -9999 -9999 -9999 -9999 -9999 -9999 -9999 -9999 -9999 -9999 -9999 -9999 -9999 -9999 -9999 -9999 -9999 -9999 -9999 -9999 -9999
-9999 -9999 -9999 -9999 -9999 -9999 -9999 -9999 -9999 -9999 -9999 -9999 -9999 -9999 -9999 -9999 -9999 -9999 -9999 -9999 -9999 -9999 -9999 -9999 -9999 -9999 -9999 -9999 -9999 -9999 -9999 -9999 -9999 -9999 -9999 -9999 -9999 -9999 -9999 -9999 -9999 -9999 -9999 -9999 -9999 -9999 -9999 -9999 -9999 -9999 -9999 -9999 -9999 -9999 -9999 -9999 -9999 -9999 -9999 -9999 -9999 -9999 -9999 -9999 -9999 -9999 -9999 -9999 -9999 -9999
-9999 -9999 -9999 -9999 -9999 -9999 -9999 -9999 -9999 -9999 -9999 -9999 -9999 -9999 -9999 -9999 -9999 -9999 -9999 -9999 -9999 -9999 -9999 -9999 -9999 -9999 -9999 -9999 -9999 -9999 -9999 -9999 -9999 -9999 -9999 -9999 -9999 -9999 -9999 -9999 -9999 -9999 -9999 -9999 -9999 -9999 -9999 -9999 -9999 -9999 -9999 -9999 -9999 -9999 -9999 -9999 -9999 -9999 -9999 263.905181884766 -9999 -9999 -9999 -9999 -9999 -9999 -9999 -9999 -9999 -9999
-9999 -9999 -9999 -9999 -9999 -9999 -9999 -9999 -9999 -9999 -9999 -9999 -9999 -9999 -9999 -9999 -9999 -9999 -9999 -9999 -9999 -9999 -9999 -9999 -9999 -9999 -9999 -9999 -9999 -9999 -9999 -9999 -9999 -9999 -9999 -9999 -9999 -9999 -9999 -9999 -9999 -9999 -9999 -9999 -9999 -9999 -9999 -9999 -9999 -9999 -9999 -9999 -9999 -9999 -9999 303.30029296875 242.784194946289 210.941589355469 202.455474853516 234.600494384766 -9999 -9999 -9999 -9999 -9999 -9999 -9999 -9999 -9999 -9999
-9999 -9999 -9999 -9999 -9999 -9999 -9999 -9999 -9999 -9999 -9999 -9999 -9999 -9999 -9999 -9999 -9999 -9999 -9999 -9999 -9999 -9999 -9999 -9999 -9999 -9999 -9999 -9999 -9999 -9999 -9999 -9999 -9999 -9999 -9999 -9999 -9999 -9999 -9999 -9999 -9999 -9999 -9999 -9999 -9999 -9999 -9999 -9999 -9999 -9999 -9999 -9999 408.476654052734 464.187835693359 410.061645507812 276.249145507812 220.336883544922 214.802688598633 -9999 -9999 -9999 -9999 -9999 -9999 -9999 -9999 -9999 -9999 -9999 -9999
-9999 -9999 -9999 -9999 -9999 -9999 -9999 -9999 -9999 -9999 -9999 -9999 -9999 -9999 -9999 -9999 -9999 -9999 -9999 -9999 -9999 -9999 -9999 -9999 -9999 -9999 -9999 -9999 -9999 -9999 -9999 -9999 -9999 -9999 -9999 -9999 -9999 -9999 -9999 -9999 -9999 -9999 -9999 -9999 -9999 -9999 -9999 -9999 -9999 -9999 193.591227722168 246.093154907227 233.596710205078 261.421325683594 268.952697753906 255.488265991211 -9999 -9999 -9999 -9999 -9999 -9999 -9999 -9999 -9999 -9999 -9999 98.4345448811849 96.7925605773926 128.139587402344
-9999 -9999 -9999 -9999 -9999 -9999 -9999 -9999 -9999 -9999 -9999 -9999 -9999 -9999 -9999 -9999 -9999 -9999 -9999 -9999 -9999 -9999 -9999 -9999 -9999 -9999 -9999 -9999 -9999 -9999 -9999 -9999 -9999 -9999 -9999 -9999 -9999 -9999 -9999 -9999 -9999 -9999 -9999 -9999 429.165466308594 -9999 -9999 225.218639373779 150.957534790039 145.495834350586 129.576614379883 121.499397277832 143.440582275391 209.877502441406 247.97346496582 -9999 -9999 -9999 -9999 -9999 -9999 -9999 -9999 151.599426269531 143.082061767578 122.830940246582 109.390922546387 100.171203613281 85.7415084838867 73.1179428100586
-9999 -9999 -9999 -9999 -9999 -9999 -9999 -9999 -9999 -9999 -9999 -9999 -9999 -9999 -9999 -9999 -9999 -9999 -9999 -9999 -9999 -9999 -9999 -9999 -9999 -9999 -9999 -9999 -9999 -9999 -9999 -9999 -9999 -9999 -9999 -9999 -9999 -9999 -9999 -9999 -9999 -9999 -9999 -9999 434.071563720703 452.148956298828 356.785430908203 235.578903198242 157.552688598633 110.068099975586 96.7576293945312 112.211929321289 144.279830932617 181.887802124023 200.98263168335 -9999 -9999 -9999 -9999 -9999 -9999 -9999 110.976951599121 107.496055603027 101.899963378906 90.3272018432617 80.7690734863281 75.0342025756836 71.7199172973633 69.5911331176758
-9999 -9999 -9999 -9999 -9999 -9999 -9999 -9999 -9999 -9999 -9999 -9999 -9999 -9999 -9999 -9999 -9999 -9999 -9999 -9999 -9999 -9999 -9999 -9999 -9999 -9999 -9999 -9999 -9999 -9999 -9999 -9999 -9999 -9999 -9999 -9999 -9999 -9999 -9999 -9999 352.219685872396 343.657572428385 334.192987060547 337.475860595703 267.028625488281 192.457870483398 145.763824462891 109.833686828613 84.3435592651367 73.5872421264648 77.4387512207031 100.429206848145 135.128768920898 164.191757202148 165.107727050781 -9999 -9999 -9999 -9999 -9999 108.734453837077 107.196662902832 96.1695556640625 84.8362045288086 76.5833435058594 71.92626953125 70.9404067993164 71.068717956543 71.0093231201172 69.8096542358398
-9999 -9999 -9999 -9999 -9999 -9999 -9999 -9999 -9999 -9999 -9999 -9999 -9999 -9999 -9999 -9999 -9999 -9999 -9999 -9999 -9999 -9999 -9999 -9999 -9999 -9999 -9999 -9999 -9999 -9999 -9999 -9999 -9999 -9999 -9999 -9999 -9999 -9999 -9999 344.9853515625 356.268676757812 355.405029296875 319.299011230469 257.509155273438 196.811096191406 152.693954467773 115.887954711914 87.2713928222656 73.3435516357422 71.1847610473633 78.9463577270508 96.4877243041992 121.169624328613 140.817733764648 167.54638671875 171.094955444336 -9999 -9999 -9999 106.7737865448 121.721824645996 97.2848739624023 81.4873886108398 73.9967956542969 70.363166809082 68.9061050415039 69.385871887207 71.4318313598633 72.7077941894531 70.6606216430664
-9999 -9999 -9999 -9999 -9999 -9999 -9999 -9999 -9999 -9999 -9999 -9999 -9999 -9999 -9999 -9999 -9999 -9999 -9999 -9999 -9999 -9999 -9999 -9999 -9999 -9999 -9999 -9999 -9999 -9999 -9999 -9999 -9999 -9999 -9999 -9999 -9999 -9999 231.435888671875 211.10920715332 189.206329345703 154.861190795898 137.60514831543 132.407760620117 134.934799194336 132.912567138672 112.995918273926 87.5199356079102 74.7773818969727 71.8210983276367 78.8767700195312 96.1311111450195 110.574035644531 115.289016723633 117.128349304199 137.803085327148 133.200347900391 121.095347086589 117.863487243652 97.3281173706055 90.1817169189453 79.7713775634766 73.8115539550781 71.4167785644531 70.0909118652344 68.2534408569336 67.4280548095703 70.5958404541016 76.0845489501953 75.3664855957031
-9999 -9999 -9999 -9999 -9999 -9999 -9999 -9999 -9999 -9999 -9999 -9999 -9999 -9999 -9999 -9999 -9999 -9999 -9999 -9999 -9999 -9999 -9999 -9999 -9999 -9999 -9999 -9999 -9999 -9999 -9999 -9999 -9999 -9999 -9999 -9999 -9999 245.554183959961 209.526092529297 146.004608154297 103.749702453613 87.2277221679688 84.445426940918 91.5063858032227 108.43083190918 120.579605102539 108.667823791504 86.8571166992188 75.1255798339844 71.3057403564453 76.6207962036133 92.6695175170898 101.976409912109 95.8542709350586 86.6704940795898 90.3161010742188 104.247406005859 103.847877502441 93.2117614746094 85.9999694824219 81.2174224853516 78.1972732543945 76.5937423706055 74.8038635253906 72.3054428100586 68.2775650024414 66.434440612793 69.1545486450195 75.2101516723633 77.4554138183594
-9999 -9999 -9999 -9999 -9999 -9999 -9999 -9999 -9999 -9999 -9999 -9999 -9999 -9999 -9999 -9999 -9999 -9999 -9999 -9999 -9999 -9999 -9999 -9999 -9999 -9999 -9999 -9999 -9999 -9999 -9999 -9999 -9999 -9999 -9999 -9999 -9999 276.898162841797 221.970367431641 134.460739135742 96.0857620239258 91.3507690429688 91.2086029052734 96.6496734619141 108.391006469727 114.39444732666 99.7749099731445 81.7494049072266 72.8582534790039 72.8863525390625 82.7070617675781 94.3931655883789 97.4995040893555 87.0969467163086 78.1553802490234 76.2368011474609 78.5905914306641 81.6100387573242 82.5015258789062 81.4606170654297 80.1269912719727 79.1138763427734 77.7688903808594 76.4461669921875 74.3380584716797 70.8179473876953 69.5426330566406 71.035041809082 72.7486190795898 74.4097518920898
-9999 -9999 -9999 -9999 -9999 -9999 -9999 -9999 -9999 -9999 -9999 -9999 -9999 -9999 -9999 -9999 -9999 -9999 -9999 -9999 -9999 -9999 -9999 -9999 -9999 -9999 -9999 -9999 -9999 -9999 -9999 -9999 -9999 -9999 -9999 -9999 -9999 269.806976318359 180.165634155273 112.660232543945 95.8687896728516 97.3763122558594 99.1266174316406 101.178092956543 103.631057739258 101.42115020752 86.7973327636719 75.1336212158203 73.402961730957 79.9817047119141 89.3813629150391 95.001579284668 93.3050003051758 83.3033218383789 76.7794952392578 75.0288619995117 74.4761047363281 74.261116027832 74.4119186401367 75.2664566040039 75.9836502075195 75.8645095825195 76.1519470214844 81.3459701538086 85.8185958862305 89.1579895019531 92.2770004272461 97.4701919555664 104.545150756836 109.749755859375
-9999 -9999 -9999 -9999 -9999 -9999 -9999 -9999 -9999 -9999 -9999 -9999 -9999 -9999 -9999 -9999 -9999 -9999 -9999 -9999 -9999 -9999 -9999 -9999 -9999 -9999 -9999 -9999 -9999 -9999 -9999 -9999 -9999 -9999 -9999 -9999 422.517852783203 284.055145263672 144.008285522461 93.5450210571289 89.6189651489258 89.8250732421875 86.5162658691406 83.2745513916016 80.857795715332 76.3530044555664 71.1484375 71.6456146240234 78.0952529907227 85.3833847045898 89.7090530395508 91.0221481323242 87.9532470703125 81.0341567993164 78.6140670776367 78.8587951660156 77.0327682495117 75.645378112793 75.4427490234375 76.7102813720703 78.5689544677734 83.6283111572266 98.6925201416016 124.912322998047 146.084182739258 159.878234863281 173.549209594727 188.367782592773 202.517318725586 211.338043212891
-9999 -9999 -9999 -9999 -9999 -9999 -9999 -9999 -9999 -9999 -9999 -9999 -9999 -9999 -9999 -9999 -9999 -9999 -9999 -9999 -9999 -9999 -9999 -9999 -9999 -9999 -9999 -9999 -9999 -9999 -9999 -9999 -9999 -9999 -9999 -9999 -9999 190.70686340332 134.97282409668 86.6310272216797 85.721305847168 84.8469848632812 80.0454864501953 75.7894897460938 73.135986328125 70.2866516113281 70.3376235961914 75.9180221557617 83.8750305175781 90.2465515136719 91.9549179077148 90.7163925170898 87.7198181152344 83.6676788330078 82.2390899658203 82.3008270263672 78.676155090332 77.4026260375977 82.4351119995117 87.1588668823242 93.4074478149414 113.336250305176 154.643798828125 203.553924560547 238.968734741211 261.574462890625 283.035278320312 298.378936767578 302.686340332031 303.243896484375
-9999 -9999 -9999 -9999 -9999 -9999 -9999 -9999 -9999 -9999 -9999 -9999 -9999 -9999 -9999 -9999 -9999 -9999 -9999 -9999 -9999 -9999 -9999 -9999 -9999 -9999 -9999 -9999 -9999 -9999 -9999 -9999 -9999 -9999 -9999 -9999 -9999 -9999 99.1884460449219 -9999 92.7925186157227 89.2621002197266 82.5766220092773 80.1132583618164 78.7992782592773 77.7754592895508 79.7422027587891 85.3280792236328 94.7248458862305 101.225959777832 96.5817489624023 91.2629776000977 88.1666870117188 87.3255996704102 86.009765625 85.1943283081055 81.7769393920898 83.0932235717773 94.8653564453125 108.166946411133 126.467964172363 164.056411743164 212.884613037109 245.710708618164 263.913391113281 273.920257568359 277.406036376953 281.628265380859 285.682800292969 288.257507324219
-9999 -9999 -9999 -9999 -9999 -9999 -9999 -9999 -9999 -9999 -9999 -9999 -9999 -9999 -9999 -9999 -9999 -9999 -9999 -9999 -9999 -9999 -9999 -9999 -9999 -9999 -9999 -9999 -9999 -9999 -9999 -9999 -9999 -9999 -9999 -9999 -9999 -9999 -9999 -9999 120.875648498535 98.1027603149414 86.9929809570312 80.5940856933594 78.655647277832 80.8968048095703 87.8133316040039 96.2695770263672 104.01831817627 108.297676086426 99.5249328613281 97.6334915161133 98.6080703735352 98.9986724853516 92.0559005737305 86.1306610107422 86.1703262329102 93.1301040649414 117.683441162109 146.033355712891 173.089141845703 204.656829833984 224.657333374023 224.812393188477 218.498092651367 217.002639770508 218.680694580078 224.45637512207 232.278732299805 239.094039916992
-9999 -9999 -9999 -9999 -9999 -9999 -9999 -9999 -9999 -9999 -9999 -9999 -9999 -9999 -9999 -9999 -9999 -9999 -9999 -9999 -9999 -9999 -9999 -9999 -9999 -9999 -9999 -9999 -9999 -9999 -9999 -9999 -9999 -9999 256.49955368042 283.542297363281 249.051696777344 -9999 185.082702636719 172.618286132812 138.091567993164 111.189323425293 97.0396270751953 84.3561630249023 82.0124282836914 86.1321487426758 93.3009948730469 99.5370101928711 102.551834106445 102.786529541016 99.114501953125 98.5227584838867 101.965301513672 102.418991088867 94.0253677368164 89.4720764160156 94.1195678710938 111.154052734375 149.927490234375 178.356842041016 194.81901550293 208.047103881836 203.089141845703 190.730895996094 176.15234375 164.931137084961 158.263885498047 159.794235229492 169.186401367188 181.06901550293
-9999 -9999 -9999 -9999 -9999 -9999 -9999 -9999 -9999 -9999 -9999 -9999 -9999 -9999 -9999 -9999 -9999 -9999 -9999 -9999 -9999 -9999 -9999 -9999 -9999 -9999 -9999 711.736511230469 711.736511230469 570.73486328125 446.263702392578 375.180419921875 339.146789550781 293.194030761719 249.230819702148 200.031066894531 152.265151977539 133.674255371094 131.885772705078 128.6943359375 124.280113220215 123.404228210449 111.683029174805 95.1298446655273 91.6486053466797 95.8514099121094 97.4495697021484 96.6473083496094 97.4582214355469 96.6101684570312 96.1104125976562 94.6381759643555 95.7537612915039 94.7302703857422 92.4836730957031 97.4999160766602 106.645660400391 137.819137573242 176.165466308594 190.353271484375 198.709671020508 199.210189819336 192.118667602539 181.762878417969 167.966033935547 152.870590209961 139.393783569336 131.900482177734 129.467849731445 129.983062744141
-9999 -9999 -9999 -9999 -9999 -9999 -9999 -9999 -9999 -9999 -9999 -9999 -9999 -9999 -9999 -9999 -9999 -9999 -9999 -9999 -9999 -9999 -9999 -9999 -9999 -9999 -9999 -9999 -9999 -9999 263.571929931641 232.302383422852 184.24333190918 130.618209838867 109.751655578613 100.466529846191 97.7891006469727 102.564819335938 105.47721862793 103.152694702148 110.989654541016 114.454528808594 107.245315551758 96.0109786987305 93.0132904052734 96.1073379516602 94.7613830566406 92.0482864379883 90.5633392333984 91.2440490722656 94.2870788574219 98.3430633544922 98.9632186889648 99.2454605102539 103.631568908691 112.360771179199 122.494743347168 158.085906982422 189.975509643555 195.639694213867 195.84846496582 191.204360961914 186.533630371094 182.523834228516 170.620574951172 154.077255249023 136.987518310547 128.630020141602 125.021476745605 123.429153442383
-9999 -9999 -9999 -9999 -9999 -9999 -9999 -9999 -9999 -9999 -9999 -9999 -9999 -9999 -9999 -9999 -9999 -9999 -9999 -9999 -9999 -9999 -9999 -9999 -9999 527.783935546875 413.156697591146 303.554845174154 207.496635437012 179.834167480469 151.934997558594 137.515731811523 114.885437011719 95.517333984375 87.0966873168945 84.1055068969727 82.7563400268555 86.1842651367188 92.1398696899414 99.3723068237305 102.359512329102 97.3646469116211 94.6658172607422 97.672477722168 101.570533752441 102.086494445801 99.3764801025391 94.8573303222656 92.8950042724609 92.6123886108398 96.4045562744141 102.8212890625 103.945732116699 104.095794677734 111.606002807617 120.527503967285 130.171051025391 160.658615112305 192.621780395508 197.223327636719 189.484771728516 178.849426269531 171.701858520508 167.144454956055 161.015869140625 150.143585205078 136.067520141602 128.731109619141 123.434509277344 118.619964599609
-9999 -9999 -9999 -9999 -9999 -9999 -9999 -9999 -9999 -9999 -9999 -9999 -9999 -9999 -9999 -9999 -9999 -9999 -9999 -9999 -9999 -9999 -9999 -9999 636.719787597656 537.641784667969 408.990234375 292.838073730469 208.836227416992 148.478073120117 117.876914978027 102.986175537109 96.0621643066406 93.3142852783203 91.0414886474609 88.0988922119141 84.4996109008789 82.4894638061523 83.580436706543 86.3346176147461 87.5281295776367 86.7390213012695 90.0985107421875 98.2913360595703 103.506683349609 105.186897277832 108.012260437012 111.743934631348 113.942153930664 113.81884765625 112.018707275391 109.357795715332 104.681686401367 99.4078063964844 100.729454040527 108.014228820801 123.534339904785 156.559783935547 189.832290649414 186.51513671875 170.461990356445 157.642944335938 148.837005615234 142.891448974609 140.08381652832 136.519653320312 131.694625854492 128.864151000977 125.775535583496 120.954811096191
-9999 -9999 -9999 -9999 -9999 -9999 -9999 -9999 -9999 -9999 -9999 -9999 -9999 -9999 -9999 -9999 -9999 -9999 -9999 -9999 -9999 -9999 -9999 -9999 342.457763671875 239.694412231445 180.76448059082 159.838394165039 136.834106445312 116.346603393555 107.079582214355 106.535293579102 109.978378295898 112.408828735352 112.019683837891 109.797584533691 104.664916992188 98.17919921875 93.6133651733398 90.7254867553711 90.6488647460938 94.4223327636719 101.567726135254 111.76538848877 124.145294189453 139.279510498047 155.138214111328 168.125213623047 175.648956298828 182.126892089844 181.660736083984 169.429321289062 149.477890014648 129.535171508789 111.914352416992 101.148971557617 108.40389251709 140.882125854492 164.460723876953 157.832214355469 145.54069519043 138.584686279297 134.148086547852 130.68522644043 128.637451171875 127.517448425293 126.823013305664 126.351554870605 125.975143432617 124.239929199219
-9999 -9999 -9999 -9999 -9999 -9999 -9999 -9999 -9999 -9999 -9999 -9999 -9999 -9999 -9999 -9999 -9999 -9999 -9999 -9999 -9999 -9999 -9999 233.014560699463 230.356979370117 164.153335571289 140.332778930664 127.877632141113 120.254920959473 119.699485778809 129.466278076172 142.250091552734 146.452560424805 142.553421020508 140.091659545898 139.605346679688 135.11360168457 126.574638366699 119.237915039062 112.148048400879 114.486679077148 132.744354248047 162.461822509766 185.845199584961 199.30403137207 213.385223388672 224.411071777344 227.834777832031 225.569412231445 227.217834472656 226.381698608398 217.407073974609 203.676025390625 184.790252685547 163.381164550781 137.500686645508 117.361198425293 123.710601806641 129.289733886719 130.606002807617 132.340393066406 133.021102905273 130.93342590332 129.778045654297 130.071884155273 131.705307006836 134.901672363281 136.106475830078 135.017883300781 132.058990478516
-9999 -9999 -9999 -9999 -9999 -9999 -9999 -9999 -9999 -9999 -9999 -9999 -9999 -9999 -9999 -9999 -9999 -9999 -9999 -9999 -9999 -9999 -9999 194.709320068359 164.5341796875 125.802124023438 122.52262878418 120.242340087891 127.696800231934 148.671096801758 166.439743041992 169.802963256836 163.847244262695 155.539855957031 153.802047729492 156.118606567383 153.568008422852 145.779434204102 140.271774291992 140.640197753906 151.863006591797 170.171356201172 193.824249267578 210.711074829102 220.747985839844 225.66535949707 220.204879760742 210.485290527344 200.552368164062 192.524841308594 188.08171081543 188.420150756836 194.454620361328 199.646926879883 199.239364624023 186.054672241211 154.479217529297 126.129699707031 113.364410400391 116.430038452148 125.971260070801 131.547271728516 130.610931396484 131.403579711914 135.456359863281 146.032028198242 162.27473449707 170.699157714844 171.157318115234 167.487884521484
-9999 -9999 -9999 -9999 -9999 -9999 -9999 -9999 -9999 -9999 -9999 -9999 -9999 -9999 -9999 -9999 -9999 -9999 -9999 -9999 -9999 -9999 327.589141845703 200.369247436523 148.835723876953 131.231689453125 124.817115783691 139.560577392578 158.699676513672 175.399429321289 178.001113891602 167.814468383789 160.620712280273 157.37890625 156.572143554688 156.699127197266 155.100296020508 154.493423461914 157.015213012695 162.510696411133 167.699035644531 170.32682800293 174.804016113281 182.267425537109 194.278732299805 199.151245117188 191.109268188477 180.227783203125 171.976852416992 165.872955322266 162.517791748047 162.183929443359 166.141845703125 176.125839233398 190.51985168457 202.695419311523 192.170837402344 154.45654296875 120.367607116699 114.270698547363 125.373313903809 132.000442504883 131.553802490234 134.144317626953 145.436645507812 172.664520263672 201.871826171875 213.468780517578 213.570022583008 211.922622680664
-9999 -9999 -9999 -9999 -9999 -9999 -9999 -9999 -9999 -9999 -9999 -9999 -9999 -9999 786.345418294271 -9999 -9999 -9999 -9999 654.990234375 -9999 320.932250976562 276.80908203125 181.991928100586 160.718475341797 155.62126159668 161.046295166016 170.724990844727 178.864685058594 182.89794921875 178.773864746094 172.025588989258 164.032485961914 155.432495117188 150.571762084961 149.291244506836 151.334518432617 157.766159057617 164.039428710938 164.141860961914 160.421813964844 162.822082519531 172.112243652344 180.800918579102 184.850936889648 183.109085083008 177.14372253418 168.062576293945 160.50813293457 157.618606567383 156.83073425293 157.288330078125 158.643630981445 161.593597412109 171.260803222656 190.363952636719 207.58723449707 190.008728027344 146.386795043945 124.283393859863 128.336288452148 131.822784423828 131.432723999023 135.769485473633 154.208374023438 192.817718505859 224.547149658203 236.198089599609 236.065307617188 238.387329101562
-9999 -9999 -9999 -9999 -9999 -9999 -9999 -9999 -9999 -9999 -9999 -9999 -9999 -9999 781.79736328125 -9999 -9999 -9999 -9999 567.608062744141 391.724472045898 275.418701171875 197.090942382812 177.007232666016 177.135879516602 178.773468017578 182.021011352539 181.603652954102 187.078109741211 195.426528930664 193.801223754883 182.982482910156 164.09797668457 146.585861206055 140.336410522461 142.533203125 150.063537597656 158.943389892578 163.160873413086 160.990447998047 160.046737670898 168.270355224609 180.173797607422 186.373580932617 183.03923034668 174.657989501953 167.556045532227 159.701034545898 152.908020019531 152.037445068359 154.752700805664 157.541732788086 159.159957885742 159.30078125 160.960205078125 173.061447143555 204.778564453125 215.07275390625 176.263900756836 140.004287719727 133.171737670898 132.300003051758 131.022842407227 134.889434814453 151.894561767578 186.430526733398 216.424362182617 234.136795043945 245.349868774414 266.348358154297
-9999 -9999 -9999 -9999 -9999 -9999 -9999 -9999 -9999 -9999 -9999 -9999 -9999 -9999 802.263610839844 -9999 -9999 -9999 -9999 -9999 227.876083374023 227.055282592773 193.382019042969 189.312026977539 188.676940917969 190.781600952148 194.303314208984 203.380172729492 215.705139160156 222.055648803711 215.733306884766 199.233963012695 177.794235229492 156.162109375 141.84211730957 141.349853515625 151.417541503906 161.398864746094 164.614593505859 162.936584472656 166.461486816406 179.398452758789 190.458892822266 189.069259643555 176.047973632812 164.052139282227 158.766952514648 154.121810913086 150.411087036133 152.772445678711 160.15007019043 166.604873657227 168.129440307617 164.770538330078 160.915542602539 166.917587280273 198.825149536133 228.115188598633 203.442001342773 157.592498779297 139.762878417969 134.219299316406 131.381652832031 133.126373291016 141.546539306641 160.792022705078 185.380416870117 209.500900268555 237.865600585938 281.362854003906
-9999 -9999 -9999 -9999 -9999 -9999 -9999 -9999 -9999 -9999 -9999 -9999 -9999 -9999 745.564361572266 -9999 720.398620605469 -9999 -9999 -9999 194.148345947266 214.88200378418 193.699813842773 187.820983886719 199.060028076172 215.713714599609 234.356948852539 251.00178527832 258.770660400391 255.534255981445 243.16423034668 224.173782348633 203.240158081055 182.473159790039 164.075103759766 155.229644775391 156.909255981445 161.802688598633 163.943862915039 164.120056152344 171.106887817383 184.813293457031 191.770919799805 183.119064331055 164.526168823242 153.736877441406 152.809341430664 152.158676147461 154.041763305664 161.942001342773 173.763473510742 184.904159545898 187.517669677734 179.542007446289 167.812042236328 166.470504760742 193.491790771484 232.242828369141 220.838272094727 172.080215454102 146.433303833008 137.073593139648 133.328521728516 133.444244384766 136.406463623047 141.936141967773 152.43212890625 169.438095092773 198.196258544922 243.463500976562
-9999 -9999 -9999 -9999 -9999 -9999 -9999 -9999 -9999 -9999 -9999 -9999 -9999 -9999 745.564361572266 688.865112304688 540.096496582031 -9999 -9999 207.283187866211 213.645919799805 226.269577026367 192.708801269531 201.441314697266 224.41487121582 248.871826171875 265.919494628906 270.053344726562 263.316680908203 251.245162963867 238.871856689453 227.092086791992 215.680053710938 203.679611206055 190.084579467773 177.087097167969 168.060623168945 163.414596557617 161.055709838867 160.313690185547 167.198104858398 179.501281738281 183.967025756836 172.911743164062 153.636291503906 145.203506469727 148.956344604492 155.255416870117 163.232772827148 174.547668457031 191.845092773438 207.546173095703 210.981002807617 197.81266784668 176.874710083008 166.32373046875 189.920150756836 233.080871582031 225.10627746582 179.398376464844 150.901153564453 139.10905456543 135.129959106445 135.533355712891 137.934341430664 139.210098266602 140.4697265625 144.576965332031 155.561859130859 185.162994384766
-9999 -9999 -9999 -9999 -9999 -9999 -9999 -9999 -9999 -9999 -9999 -9999 -9999 -9999 -9999 483.909197998047 437.720336914062 -9999 257.088584899902 202.293640136719 219.044845581055 218.233703613281 207.62336730957 229.792251586914 254.001327514648 268.983001708984 268.306976318359 250.019393920898 229.468215942383 211.287261962891 198.078643798828 191.452377319336 190.801391601562 192.58283996582 192.765975952148 188.123001098633 179.875137329102 171.102279663086 163.140869140625 159.077758789062 164.593002319336 175.156204223633 177.481353759766 165.146926879883 146.214813232422 139.347427368164 147.114791870117 158.727844238281 171.300003051758 190.654739379883 214.119277954102 228.733551025391 228.885131835938 209.352981567383 181.403503417969 165.46696472168 185.478866577148 231.021133422852 226.261688232422 183.338119506836 153.442749023438 140.115509033203 136.280532836914 138.739944458008 141.90461730957 142.880279541016 142.687103271484 141.890182495117 140.420761108398 145.860427856445
-9999 -9999 -9999 -9999 -9999 -9999 -9999 -9999 -9999 -9999 -9999 -9999 -9999 -9999 -9999 388.604705810547 364.259338378906 -9999 182.669586181641 188.647613525391 194.787292480469 204.185363769531 231.751525878906 261.598846435547 276.333709716797 271.159332275391 250.114288330078 216.144149780273 187.765029907227 166.380599975586 153.009628295898 148.516693115234 151.102020263672 158.684875488281 168.75569152832 176.281951904297 178.419448852539 176.148391723633 170.099548339844 165.102325439453 167.777191162109 173.689056396484 171.847885131836 158.027969360352 139.923919677734 134.064987182617 143.647033691406 157.841690063477 175.524703979492 201.219039916992 224.787261962891 236.20947265625 231.882415771484 207.523376464844 178.597610473633 163.164932250977 178.94075012207 223.036834716797 226.779022216797 188.047302246094 157.083526611328 143.110488891602 140.63395690918 144.544891357422 147.946975708008 148.343826293945 147.340377807617 144.79931640625 139.89892578125 133.060195922852
-9999 -9999 -9999 -9999 -9999 -9999 -9999 -9999 -9999 -9999 -9999 -9999 -9999 -9999 -9999 338.792724609375 -9999 232.607775006975 193.361907958984 174.830413818359 200.92741394043 221.96110534668 259.635040283203 285.529632568359 282.194549560547 250.939331054688 211.140914916992 173.356979370117 147.72282409668 133.241333007812 126.545043945312 124.798156738281 126.290145874023 130.945938110352 139.159286499023 149.559417724609 159.477264404297 166.939163208008 169.884048461914 169.313674926758 169.565246582031 169.438201904297 163.094223022461 149.416458129883 133.5009765625 128.669906616211 137.792602539062 151.677169799805 170.416687011719 191.846069335938 208.728103637695 217.147308349609 213.533798217773 193.005966186523 170.872055053711 160.169235229492 172.803665161133 215.048522949219 232.595947265625 197.449035644531 165.321746826172 150.606216430664 148.670471191406 151.780471801758 153.820037841797 153.12646484375 151.34211730957 146.840942382812 139.099807739258 130.109390258789
-9999 -9999 -9999 -9999 -9999 -9999 -9999 -9999 -9999 -9999 -9999 -9999 -9999 -9999 338.792724609375 279.50385538737 219.595397949219 194.041305541992 194.20344543457 193.060287475586 230.960968017578 256.062377929688 285.688293457031 300.791870117188 270.947174072266 215.015899658203 166.315017700195 137.580780029297 124.804405212402 120.117980957031 118.193862915039 117.547355651855 117.679374694824 119.214393615723 123.074340820312 129.888687133789 139.120788574219 149.489837646484 158.696243286133 164.177429199219 164.582778930664 160.93327331543 153.284683227539 141.933685302734 128.607177734375 124.786544799805 132.784286499023 143.669174194336 158.451705932617 171.831237792969 182.314392089844 188.27734375 186.481552124023 174.66584777832 162.410110473633 157.060577392578 166.801376342773 204.412231445312 236.643112182617 209.958572387695 179.056594848633 163.711349487305 160.147338867188 160.413146972656 159.147735595703 156.870666503906 153.309616088867 145.283798217773 133.811798095703 125.643669128418
-9999 -9999 -9999 -9999 -9999 -9999 -9999 -9999 -9999 -9999 -9999 -9999 -9999 -9999 -9999 -9999 199.776386260986 196.467666625977 156.059722900391 177.636657714844 236.947357177734 285.766418457031 315.95556640625 306.262664794922 245.933502197266 178.310455322266 137.473663330078 122.875076293945 118.564743041992 117.112396240234 116.075141906738 115.571533203125 115.465240478516 116.233879089355 118.042701721191 121.445793151855 126.785232543945 134.062881469727 142.313583374023 148.823150634766 151.137634277344 148.833099365234 143.309066772461 135.429107666016 124.657402038574 122.817352294922 129.402862548828 135.818359375 144.875946044922 152.343612670898 158.458114624023 162.386352539062 162.256637573242 158.719421386719 155.029083251953 154.960021972656 162.779083251953 186.855194091797 219.983444213867 213.123229980469 190.357345581055 175.382049560547 168.253433227539 164.787826538086 161.314910888672 158.112930297852 151.097305297852 138.672256469727 128.424453735352 128.218124389648
-9999 -9999 -9999 -9999 -9999 -9999 -9999 -9999 -9999 -9999 -9999 -9999 -9999 -9999 -9999 -9999 192.734420776367 189.001174926758 173.977767944336 194.318313598633 262.651885986328 339.8759765625 349.392517089844 305.598724365234 217.671020507812 149.293533325195 124.13794708252 118.734970092773 116.697875976562 115.909927368164 114.95824432373 113.968482971191 113.457023620605 114.186897277832 115.451103210449 116.936279296875 119.108154296875 122.296913146973 126.677604675293 131.574020385742 135.641006469727 136.273849487305 133.490463256836 129.933364868164 123.532646179199 121.901908874512 124.044860839844 126.641006469727 130.21125793457 135.384994506836 141.289245605469 146.613388061523 149.905639648438 150.895034790039 150.573547363281 152.83935546875 159.771301269531 173.043426513672 200.116485595703 203.864639282227 188.288482666016 175.49739074707 168.624725341797 164.156021118164 160.597351074219 155.752883911133 144.135864257812 133.687042236328 135.237396240234 138.903839111328
-9999 -9999 -9999 -9999 -9999 -9999 -9999 -9999 -9999 -9999 -9999 -9999 -9999 -9999 -9999 -9999 -9999 193.280338287354 205.012619018555 250.437271118164 334.480163574219 422.827545166016 372.019653320312 283.533508300781 177.755142211914 127.423065185547 120.485038757324 116.126724243164 115.658645629883 114.955085754395 114.427406311035 113.51879119873 112.941612243652 113.41951751709 114.123641967773 114.616340637207 115.277633666992 116.101615905762 118.037796020508 122.516830444336 127.063705444336 127.990226745605 128.34619140625 129.318954467773 123.820541381836 118.955207824707 117.666572570801 118.122802734375 117.478744506836 119.930770874023 124.664619445801 129.740859985352 134.795272827148 139.758117675781 144.218444824219 148.721084594727 155.583938598633 164.93928527832 185.071762084961 192.823333740234 183.874938964844 173.002243041992 165.42839050293 159.844085693359 154.733184814453 146.870025634766 140.99462890625 147.049179077148 154.809722900391 156.844467163086
-9999 -9999 -9999 -9999 -9999 -9999 -9999 -9999 -9999 -9999 -9999 -9999 -9999 -9999 189.93448638916 189.001174926758 198.120627403259 205.07120513916 205.129791259766 275.061462402344 413.789276123047 483.706787109375 358.952056884766 235.817077636719 139.320205688477 117.598052978516 118.835342407227 114.923225402832 114.764205932617 113.899932861328 113.900733947754 113.518295288086 112.970413208008 113.092109680176 113.334617614746 113.697479248047 114.129325866699 114.444648742676 116.464714050293 119.809158325195 122.37776184082 124.626319885254 129.140579223633 129.598419189453 121.378021240234 114.906028747559 111.634574890137 108.150482177734 106.06657409668 107.092056274414 109.668495178223 112.996086120605 116.998603820801 122.014144897461 127.904495239258 134.549133300781 144.034912109375 155.774688720703 172.605377197266 179.044036865234 171.256469726562 159.992477416992 151.368408203125 147.027740478516 144.571990966797 146.095550537109 156.929641723633 169.932067871094 177.429534912109 180.365478515625
-9999 -9999 -9999 -9999 -9999 -9999 -9999 -9999 -9999 -9999 -9999 -9999 -9999 -9999 -9999 -9999 -9999 -9999 271.763313293457 286.871856689453 443.72900390625 462.132720947266 320.779968261719 188.044769287109 117.867729187012 115.740852355957 117.150680541992 114.666954040527 113.640464782715 112.673568725586 112.874382019043 113.070648193359 113.042175292969 113.241821289062 113.46607208252 113.760528564453 114.027168273926 114.189682006836 115.53182220459 118.411926269531 122.789260864258 128.253433227539 131.554718017578 125.878623962402 115.485313415527 108.771682739258 104.363754272461 101.890243530273 101.936920166016 102.609832763672 102.926635742188 104.161758422852 107.165435791016 111.53881072998 115.842872619629 118.161529541016 117.967254638672 128.514511108398 139.107131958008 142.890441894531 141.349014282227 138.019027709961 136.092086791992 139.261993408203 145.458969116211 160.209457397461 173.319885253906 178.535186767578 181.780868530273 183.563858032227
-9999 -9999 -9999 -9999 -9999 -9999 -9999 -9999 -9999 -9999 -9999 -9999 -9999 -9999 -9999 -9999 -9999 266.671508789062 324.903656005859 319.990142822266 455.549468994141 381.130828857422 246.803314208984 142.88346862793 111.100959777832 113.701591491699 115.795989990234 115.32536315918 113.73331451416 111.930839538574 110.851173400879 110.429016113281 110.417808532715 110.691596984863 111.100379943848 111.719276428223 112.602439880371 114.33553314209 117.91423034668 122.888076782227 127.469703674316 129.296859741211 125.328430175781 115.468437194824 106.690956115723 102.385330200195 101.062896728516 102.901390075684 106.050346374512 107.090087890625 105.368995666504 101.931510925293 100.443214416504 103.455451965332 111.612716674805 119.192459106445 116.32738494873 123.714912414551 134.37353515625 135.461959838867 132.854568481445 129.3017578125 131.704299926758 140.81086730957 154.513519287109 168.936111450195 171.80012512207 169.052230834961 170.346298217773 170.989501953125
-9999 -9999 -9999 -9999 -9999 -9999 -9999 -9999 -9999 -9999 -9999 -9999 -9999 245.107696533203 245.994198269314 -9999 291.056755065918 319.507701873779 266.671508789062 426.081115722656 409.22509765625 273.080139160156 159.636474609375 111.865524291992 106.831268310547 109.362045288086 113.124229431152 115.215263366699 115.621070861816 114.771408081055 113.089767456055 111.738403320312 111.132293701172 111.245567321777 112.005531311035 113.536468505859 115.840507507324 119.125968933105 122.671409606934 125.180328369141 124.940017700195 120.784713745117 113.764923095703 107.046485900879 104.269996643066 104.343978881836 105.765518188477 107.774703979492 109.516845703125 110.195434570312 109.783538818359 108.708610534668 107.192283630371 105.56502532959 107.754470825195 115.09481048584 118.359870910645 114.710739135742 119.510009765625 122.519691467285 123.362266540527 127.571403503418 135.620223999023 147.958862304688 160.07373046875 164.149703979492 159.897247314453 158.184295654297 159.232452392578 160.329574584961
-9999 -9999 -9999 -9999 -9999 -9999 -9999 -9999 -9999 -9999 -9999 -9999 -9999 -9999 245.107696533203 253.740086873372 239.134811401367 342.978698730469 429.245788574219 374.783142089844 288.568908691406 186.54118347168 122.676452636719 106.127662658691 104.279441833496 104.561225891113 107.162857055664 109.606964111328 111.998527526855 113.984931945801 115.273666381836 116.015647888184 116.194931030273 116.005790710449 116.250366210938 117.189064025879 118.519241333008 119.906028747559 120.371841430664 119.131500244141 116.191825866699 112.633346557617 110.188133239746 109.480331420898 110.023162841797 111.229515075684 113.095512390137 115.331703186035 117.316139221191 118.969276428223 119.757270812988 119.172760009766 117.389183044434 114.429740905762 111.565879821777 113.401428222656 119.901878356934 113.908866882324 114.959358215332 119.656753540039 122.137069702148 129.650466918945 141.067092895508 152.809341430664 161.801986694336 161.991561889648 157.702041625977 153.803619384766 152.123199462891 154.148101806641
-9999 -9999 -9999 -9999 -9999 -9999 -9999 -9999 -9999 -9999 -9999 -9999 -9999 -9999 235.658237457275 245.107696533203 276.977752685547 280.239837646484 251.496978759766 209.684677124023 171.713745117188 131.895156860352 117.374839782715 110.009315490723 107.550216674805 107.084564208984 107.489974975586 107.50537109375 107.612953186035 107.726051330566 107.943992614746 107.770637512207 107.092582702637 106.675109863281 106.931991577148 107.857810974121 109.88444519043 112.095252990723 112.678070068359 111.823959350586 110.542541503906 109.479698181152 108.96403503418 109.155822753906 110.665069580078 113.695747375488 116.73316192627 119.054763793945 120.210083007812 120.454200744629 121.126319885254 122.052093505859 122.137771606445 119.665893554688 114.777305603027 113.537292480469 117.796615600586 113.630187988281 112.666213989258 115.864524841309 116.076156616211 120.840370178223 128.185150146484 138.025833129883 146.816375732422 152.562545776367 157.374908447266 156.869964599609 153.38102722168 153.848892211914
-9999 -9999 -9999 -9999 -9999 -9999 -9999 -9999 -9999 -9999 -9999 235.381698608398 238.721099853516 241.200485229492 222.409057617188 233.915710449219 240.617721557617 196.044540405273 165.701324462891 164.708221435547 147.634887695312 117.787315368652 114.137725830078 111.844299316406 110.893196105957 110.19115447998 109.904220581055 109.834716796875 110.154754638672 110.87425994873 111.563987731934 112.136123657227 112.985412597656 113.767753601074 113.911773681641 114.12516784668 115.021331787109 115.618988037109 115.160057067871 113.711128234863 111.422218322754 109.850273132324 109.466667175293 110.559410095215 114.210815429688 117.569114685059 118.504119873047 116.560607910156 113.26912689209 109.825561523438 107.296028137207 108.428573608398 113.017219543457 115.667518615723 112.931266784668 112.079238891602 116.701370239258 109.713745117188 108.270378112793 109.70344543457 107.14038848877 108.965370178223 113.691711425781 119.318267822266 125.375434875488 131.842849731445 136.793533325195 148.03434753418 154.246810913086 156.140686035156
-9999 -9999 -9999 -9999 -9999 -9999 -9999 -9999 -9999 348.723175048828 262.102935791016 219.754211425781 219.653274536133 178.918960571289 184.146728515625 204.949172973633 166.340072631836 151.236389160156 138.793731689453 130.242691040039 116.874885559082 111.23258972168 107.995483398438 105.139793395996 103.57804107666 102.371894836426 101.921287536621 101.954956054688 102.385986328125 103.106971740723 104.14421081543 105.759704589844 107.886337280273 109.754463195801 110.462814331055 108.883819580078 106.465072631836 106.774139404297 110.224571228027 113.061012268066 113.972831726074 114.259353637695 114.340316772461 116.324760437012 119.302719116211 119.101509094238 115.069808959961 108.970291137695 104.28727722168 104.485549926758 104.508140563965 102.838829040527 105.125816345215 109.431419372559 108.49925994873 109.470558166504 115.683181762695 105.50708770752 103.542854309082 101.60034942627 97.6878051757812 99.5658950805664 102.978179931641 105.15958404541 108.381149291992 112.51683807373 116.643272399902 124.436195373535 135.601745605469 146.09782409668
-9999 -9999 -9999 -9999 -9999 -9999 -9999 -9999 -9999 333.520202636719 244.368927001953 200.055389404297 197.625915527344 199.912109375 185.135894775391 137.32682800293 135.62939453125 126.323593139648 122.436172485352 114.346725463867 108.874839782715 105.492370605469 102.422325134277 100.410591125488 99.3125610351562 98.462532043457 98.1453475952148 98.3606872558594 98.6957397460938 98.8095092773438 98.9236145019531 99.4754257202148 101.138877868652 104.199317932129 107.673927307129 108.593406677246 104.462036132812 101.363731384277 106.33911895752 113.534721374512 116.31689453125 116.439826965332 114.68741607666 114.589050292969 115.340698242188 110.412315368652 101.420379638672 93.4850234985352 97.5563583374023 106.061813354492 104.789031982422 100.326675415039 101.111335754395 104.393745422363 103.829780578613 106.121078491211 112.930526733398 101.415710449219 98.9713592529297 96.134162902832 94.0680618286133 96.6461334228516 99.9642868041992 100.827896118164 100.978912353516 102.370544433594 104.944152832031 107.773101806641 113.396461486816 123.187324523926
-9999 -9999 -9999 -9999 -9999 262.658176422119 312.601470947266 282.885131835938 292.095336914062 244.287414550781 241.593246459961 211.760879516602 199.672561645508 194.962615966797 151.951614379883 128.632202148438 120.075706481934 116.605613708496 115.196502685547 110.634536743164 106.148635864258 102.902320861816 100.760696411133 99.4552459716797 98.3998184204102 97.601676940918 97.9534072875977 99.3540496826172 100.293922424316 99.8182220458984 99.2881851196289 99.4499435424805 98.9207229614258 99.7027893066406 103.517860412598 108.71314239502 108.738403320312 105.438682556152 109.740257263184 118.954620361328 118.14623260498 112.510650634766 107.740371704102 107.176025390625 107.517684936523 100.421310424805 93.3946075439453 88.4128341674805 93.2989654541016 102.043067932129 103.846435546875 101.370048522949 101.072021484375 101.949722290039 101.139434814453 102.764556884766 108.710456848145 101.702575683594 99.1571502685547 97.2646408081055 96.4596710205078 99.0130462646484 101.794067382812 102.144584655762 100.638938903809 99.1961822509766 99.6924591064453 100.827072143555 102.045989990234 105.664688110352
-9999 -9999 -9999 -9999 252.030303955078 247.219436645508 238.781494140625 196.769180297852 207.312866210938 207.180221557617 183.890228271484 203.207427978516 190.281692504883 162.498260498047 130.864410400391 118.772956848145 114.117530822754 110.533210754395 107.530799865723 104.456565856934 101.803840637207 100.111030578613 99.2720718383789 98.9853515625 98.7107849121094 98.5983200073242 99.1374969482422 100.242218017578 101.752853393555 103.100723266602 103.883338928223 103.133773803711 100.670341491699 98.5970153808594 99.9891967773438 105.689964294434 109.521469116211 107.082763671875 106.911102294922 114.936996459961 112.141708374023 103.605293273926 101.494239807129 105.358528137207 105.904479980469 98.6695938110352 95.5879135131836 89.5356140136719 87.4636459350586 93.3728942871094 100.281791687012 102.283996582031 102.00602722168 101.144790649414 98.7477416992188 100.521987915039 106.01880645752 105.369506835938 104.923530578613 103.200469970703 101.610725402832 102.049407958984 102.8896484375 102.539039611816 101.487350463867 99.9155426025391 98.7927169799805 98.7427139282227 98.49609375 99.5455780029297
-9999 -9999 -9999 230.162975311279 227.222061157227 210.044677734375 209.635406494141 188.879867553711 179.075286865234 145.051803588867 177.718673706055 161.184326171875 144.400085449219 126.503616333008 118.539070129395 114.495079040527 111.233551025391 108.635292053223 106.058547973633 103.73567199707 101.845191955566 100.889610290527 100.768585205078 101.147407531738 102.009963989258 103.060615539551 103.908386230469 104.484649658203 104.788833618164 104.933471679688 105.386238098145 105.410469055176 104.074684143066 101.325714111328 100.207206726074 103.909515380859 108.618682861328 107.330436706543 105.839813232422 112.487571716309 110.526748657227 100.752532958984 102.405624389648 114.401901245117 111.054786682129 99.8684616088867 96.4367904663086 91.9764862060547 86.5691986083984 87.3867874145508 94.3681411743164 100.016746520996 101.750450134277 100.667785644531 96.6412582397461 97.9539108276367 103.068923950195 103.585578918457 102.457305908203 100.895362854004 100.333450317383 100.915725708008 101.388732910156 101.182060241699 101.346504211426 101.980354309082 101.910057067871 100.938781738281 100.596435546875 101.54231262207
-9999 -9999 -9999 235.737243652344 205.662292480469 223.530792236328 248.853515625 220.561599731445 189.748336791992 155.569137573242 138.912322998047 127.316299438477 120.562110900879 116.756889343262 114.324630737305 112.619117736816 111.444465637207 110.715103149414 109.867813110352 109.006935119629 108.068969726562 107.414710998535 107.245491027832 107.583015441895 108.058540344238 108.489929199219 109.069557189941 109.711883544922 110.150733947754 109.951011657715 109.214057922363 107.975479125977 105.897804260254 103.343612670898 101.725067138672 103.641258239746 107.870040893555 107.086524963379 105.91015625 108.159255981445 108.188819885254 104.408760070801 105.67896270752 105.74137878418 98.9032745361328 98.0123977661133 96.3949813842773 92.1080780029297 86.6656875610352 83.148796081543 86.1482925415039 93.863166809082 99.984001159668 101.982147216797 99.8625869750977 97.850715637207 100.13111114502 100.373916625977 99.9256820678711 100.583786010742 101.206764221191 101.654426574707 101.551155090332 101.023223876953 101.529678344727 102.338020324707 103.692665100098 104.50772857666 102.857719421387 103.983184814453
