NCOLS 70 
NROWS 52 
XLLCORNER -80 
YLLCORNER 33 
CELLSIZE 0.25 
NODATA_value -9999 
-9999.000000000000000 -9999 -9999 -9999 -9999 -9999 -9999 -9999 -9999 -9999 -9999 -9999 -9999 -9999 -9999 -9999 -9999 -9999 -9999 -9999 -9999 -9999 -9999 -9999 -9999 -9999 -9999 -9999 -9999 -9999 -9999 -9999 -9999 -9999 -9999 -9999 -9999 -9999 -9999 -9999 -9999 -9999 -9999 -9999 -9999 -9999 -9999 -9999 -9999 -9999 -9999 -9999 -9999 -9999 -9999 -9999 -9999 -9999 -9999 -9999 -9999 -9999 -9999 -9999 -9999 -9999 -9999 -9999 -9999 -9999
-9999 -9999 -9999 -9999 -9999 -9999 -9999 -9999 -9999 -9999 -9999 -9999 -9999 -9999 -9999 -9999 -9999 -9999 -9999 -9999 -9999 -9999 -9999 -9999 -9999 -9999 -9999 -9999 -9999 -9999 -9999 -9999 -9999 -9999 -9999 -9999 -9999 -9999 -9999 -9999 -9999 -9999 -9999 -9999 -9999 -9999 -9999 -9999 -9999 -9999 -9999 -9999 -9999 -9999 -9999 -9999 -9999 -9999 -9999 -9999 -9999 -9999 -9999 -9999 -9999 -9999 -9999 -9999 -9999 -9999
-9999 -9999 -9999 -9999 -9999 -9999 -9999 -9999 -9999 -9999 -9999 -9999 -9999 -9999 -9999 -9999 -9999 -9999 -9999 -9999 -9999 -9999 -9999 -9999 -9999 -9999 -9999 -9999 -9999 -9999 -9999 -9999 -9999 -9999 -9999 -9999 -9999 -9999 -9999 -9999 -9999 -9999 -9999 -9999 -9999 -9999 -9999 -9999 -9999 -9999 -9999 -9999 -9999 -9999 -9999 -9999 -9999 -9999 -9999 404.310699462891 -9999 -9999 -9999 -9999 -9999 -9999 -9999 -9999 -9999 -9999
-9999 -9999 -9999 -9999 -9999 -9999 -9999 -9999 -9999 -9999 -9999 -9999 -9999 -9999 -9999 -9999 -9999 -9999 -9999 -9999 -9999 -9999 -9999 -9999 -9999 -9999 -9999 -9999 -9999 -9999 -9999 -9999 -9999 -9999 -9999 -9999 -9999 -9999 -9999 -9999 -9999 -9999 -9999 -9999 -9999 -9999 -9999 -9999 -9999 -9999 -9999 -9999 -9999 -9999 -9999 397.689636230469 363.885284423828 351.015380859375 376.751831054688 412.892333984375 -9999 -9999 -9999 -9999 -9999 -9999 -9999 -9999 -9999 -9999
-9999 -9999 -9999 -9999 -9999 -9999 -9999 -9999 -9999 -9999 -9999 -9999 -9999 -9999 -9999 -9999 -9999 -9999 -9999 -9999 -9999 -9999 -9999 -9999 -9999 -9999 -9999 -9999 -9999 -9999 -9999 -9999 -9999 -9999 -9999 -9999 -9999 -9999 -9999 -9999 -9999 -9999 -9999 -9999 -9999 -9999 -9999 -9999 -9999 -9999 -9999 -9999 415.109069824219 424.164428710938 400.252899169922 367.703582763672 333.831512451172 340.020111083984 -9999 -9999 -9999 -9999 -9999 -9999 -9999 -9999 -9999 -9999 -9999 -9999
-9999 -9999 -9999 -9999 -9999 -9999 -9999 -9999 -9999 -9999 -9999 -9999 -9999 -9999 -9999 -9999 -9999 -9999 -9999 -9999 -9999 -9999 -9999 -9999 -9999 -9999 -9999 -9999 -9999 -9999 -9999 -9999 -9999 -9999 -9999 -9999 -9999 -9999 -9999 -9999 -9999 -9999 -9999 -9999 -9999 -9999 -9999 -9999 -9999 -9999 309.357391357422 360.235961914062 291.682281494141 263.442108154297 272.96630859375 283.126800537109 -9999 -9999 -9999 -9999 -9999 -9999 -9999 -9999 -9999 -9999 -9999 76.996327718099 68.0297632217407 81.8820419311523
-9999 -9999 -9999 -9999 -9999 -9999 -9999 -9999 -9999 -9999 -9999 -9999 -9999 -9999 -9999 -9999 -9999 -9999 -9999 -9999 -9999 -9999 -9999 -9999 -9999 -9999 -9999 -9999 -9999 -9999 -9999 -9999 -9999 -9999 -9999 -9999 -9999 -9999 -9999 -9999 -9999 -9999 -9999 -9999 265.745747884115 -9999 -9999 228.551887512207 259.415252685547 268.438751220703 281.355560302734 246.824249267578 202.692611694336 200.703735351562 218.079315185547 -9999 -9999 -9999 -9999 -9999 -9999 -9999 -9999 90.3184280395508 95.1521224975586 100.376358032227 92.9711456298828 76.2961578369141 61.7216796875 52.2191734313965
-9999 -9999 -9999 -9999 -9999 -9999 -9999 -9999 -9999 -9999 -9999 -9999 -9999 -9999 -9999 -9999 -9999 -9999 -9999 -9999 -9999 -9999 -9999 -9999 -9999 -9999 -9999 -9999 -9999 -9999 -9999 -9999 -9999 -9999 -9999 -9999 -9999 -9999 -9999 -9999 -9999 -9999 -9999 -9999 268.569793701172 249.472076416016 230.273071289062 213.491333007812 211.027893066406 205.38037109375 187.500305175781 167.148284912109 164.33805847168 193.147720336914 199.019557952881 -9999 -9999 -9999 -9999 -9999 -9999 -9999 75.9979095458984 75.9653778076172 72.988395690918 71.4588928222656 65.5892868041992 54.7411880493164 47.3068618774414 44.0931091308594
-9999 -9999 -9999 -9999 -9999 -9999 -9999 -9999 -9999 -9999 -9999 -9999 -9999 -9999 -9999 -9999 -9999 -9999 -9999 -9999 -9999 -9999 -9999 -9999 -9999 -9999 -9999 -9999 -9999 -9999 -9999 -9999 -9999 -9999 -9999 -9999 -9999 -9999 -9999 -9999 281.234781901042 284.01128133138 298.126733398438 351.685974121094 326.612854003906 267.091125488281 195.633422851562 142.425140380859 113.349609375 96.0927581787109 84.5666275024414 85.6842956542969 118.911376953125 184.1474609375 210.945855712891 -9999 -9999 -9999 -9999 -9999 69.6793670654297 69.8476638793945 66.3919677734375 60.815258026123 58.2210311889648 58.6474990844727 57.728630065918 55.4652442932129 52.828426361084 50.4893531799316
-9999 -9999 -9999 -9999 -9999 -9999 -9999 -9999 -9999 -9999 -9999 -9999 -9999 -9999 -9999 -9999 -9999 -9999 -9999 -9999 -9999 -9999 -9999 -9999 -9999 -9999 -9999 -9999 -9999 -9999 -9999 -9999 -9999 -9999 -9999 -9999 -9999 -9999 -9999 276.191467285156 283.031097412109 284.481781005859 284.520965576172 290.749572753906 277.080017089844 226.521484375 162.084686279297 109.772941589355 77.5494079589844 62.850212097168 58.2599258422852 64.6557464599609 102.781585693359 176.554840087891 250.440505981445 250.438751220703 -9999 -9999 -9999 79.2092399597168 74.2813186645508 64.9091186523438 58.5092697143555 57.6008377075195 59.1493148803711 59.2131805419922 55.8172378540039 50.7405242919922 48.3725242614746 49.3105010986328
-9999 -9999 -9999 -9999 -9999 -9999 -9999 -9999 -9999 -9999 -9999 -9999 -9999 -9999 -9999 -9999 -9999 -9999 -9999 -9999 -9999 -9999 -9999 -9999 -9999 -9999 -9999 -9999 -9999 -9999 -9999 -9999 -9999 -9999 -9999 -9999 -9999 -9999 199.169338989258 214.550857543945 187.482070922852 136.14631652832 109.471298217773 118.036064147949 122.295227050781 103.441009521484 76.871826171875 54.8353004455566 42.1475791931152 38.737247467041 41.2319564819336 50.9305572509766 81.6206588745117 140.840744018555 204.38557434082 223.97444152832 177.772903442383 138.733098347982 100.17504119873 77.1002044677734 65.2803955078125 60.761043548584 60.1059875488281 61.2426223754883 62.8159828186035 60.7028312683105 52.7043762207031 43.8089027404785 40.1009216308594 41.7270698547363
-9999 -9999 -9999 -9999 -9999 -9999 -9999 -9999 -9999 -9999 -9999 -9999 -9999 -9999 -9999 -9999 -9999 -9999 -9999 -9999 -9999 -9999 -9999 -9999 -9999 -9999 -9999 -9999 -9999 -9999 -9999 -9999 -9999 -9999 -9999 -9999 -9999 177.000473022461 178.556716918945 149.547180175781 94.2734222412109 58.7850723266602 46.6436233520508 43.4450531005859 43.6584510803223 42.7987442016602 39.6834945678711 36.9775085449219 35.881031036377 35.9280281066895 37.4501991271973 44.9750366210938 70.5745010375977 115.368019104004 153.898162841797 155.618453979492 140.989059448242 112.607559204102 85.3012466430664 69.0465621948242 65.1794281005859 67.7828903198242 70.117431640625 70.3021087646484 68.2594299316406 61.484489440918 51.3029479980469 43.545539855957 39.9490928649902 39.1533432006836
-9999 -9999 -9999 -9999 -9999 -9999 -9999 -9999 -9999 -9999 -9999 -9999 -9999 -9999 -9999 -9999 -9999 -9999 -9999 -9999 -9999 -9999 -9999 -9999 -9999 -9999 -9999 -9999 -9999 -9999 -9999 -9999 -9999 -9999 -9999 -9999 -9999 216.55241394043 181.81510925293 115.371459960938 69.2212295532227 52.2568511962891 45.4193801879883 40.3370552062988 36.8846015930176 35.6050605773926 36.4009704589844 37.398738861084 37.0841674804688 36.441967010498 37.1186828613281 42.9110450744629 65.2821884155273 100.321304321289 120.707679748535 109.050704956055 95.212646484375 83.7519302368164 73.9757843017578 68.3546752929688 68.3203353881836 70.6655044555664 71.3041152954102 69.3293609619141 65.0600280761719 58.742130279541 52.1748847961426 46.4585342407227 41.9716453552246 38.8083076477051
-9999 -9999 -9999 -9999 -9999 -9999 -9999 -9999 -9999 -9999 -9999 -9999 -9999 -9999 -9999 -9999 -9999 -9999 -9999 -9999 -9999 -9999 -9999 -9999 -9999 -9999 -9999 -9999 -9999 -9999 -9999 -9999 -9999 -9999 -9999 -9999 -9999 206.976272583008 149.262420654297 96.1106567382812 69.8154602050781 55.6429748535156 46.2729072570801 40.5853462219238 37.8570137023926 37.6851119995117 38.7556800842285 38.3564758300781 36.9423027038574 36.3615074157715 37.7360191345215 43.798412322998 63.0866165161133 91.7405776977539 103.209785461426 94.2994079589844 81.4503860473633 69.6307067871094 60.9589233398438 58.3259773254395 58.597972869873 58.2563247680664 56.9879684448242 55.7816162109375 54.0810279846191 51.4169158935547 48.5563659667969 45.5033645629883 42.3190727233887 39.7590103149414
-9999 -9999 -9999 -9999 -9999 -9999 -9999 -9999 -9999 -9999 -9999 -9999 -9999 -9999 -9999 -9999 -9999 -9999 -9999 -9999 -9999 -9999 -9999 -9999 -9999 -9999 -9999 -9999 -9999 -9999 -9999 -9999 -9999 -9999 -9999 -9999 285.575866699219 215.077163696289 138.260848999023 105.971008300781 90.4066314697266 69.2041778564453 50.840446472168 42.1636161804199 40.4409446716309 40.4348068237305 39.7921257019043 38.7985916137695 38.234546661377 38.4044380187988 40.4975318908691 46.9033966064453 60.7847328186035 79.2593460083008 89.4391021728516 87.1210708618164 74.1785278320312 61.5267944335938 52.8354301452637 49.638599395752 48.2473793029785 46.7399635314941 45.1126403808594 43.9486618041992 42.4268836975098 40.9862670898438 40.047779083252 39.1786041259766 37.9721717834473 36.5557632446289
-9999 -9999 -9999 -9999 -9999 -9999 -9999 -9999 -9999 -9999 -9999 -9999 -9999 -9999 -9999 -9999 -9999 -9999 -9999 -9999 -9999 -9999 -9999 -9999 -9999 -9999 -9999 -9999 -9999 -9999 -9999 -9999 -9999 -9999 -9999 -9999 -9999 174.797622680664 151.684478759766 131.652267456055 119.188636779785 88.2823867797852 57.7391700744629 44.3251686096191 41.8195762634277 41.2700271606445 40.1888389587402 39.5987548828125 39.7931327819824 41.9413452148438 44.8287162780762 48.7396354675293 55.740665435791 64.02587890625 71.0087051391602 72.1593856811523 65.2735900878906 56.1596870422363 50.9303550720215 48.5603561401367 46.7984619140625 45.057487487793 42.8356781005859 40.803581237793 38.341854095459 36.5865898132324 35.8295135498047 35.6521492004395 34.7500953674316 33.9468727111816
-9999 -9999 -9999 -9999 -9999 -9999 -9999 -9999 -9999 -9999 -9999 -9999 -9999 -9999 -9999 -9999 -9999 -9999 -9999 -9999 -9999 -9999 -9999 -9999 -9999 -9999 -9999 -9999 -9999 -9999 -9999 -9999 -9999 -9999 -9999 -9999 -9999 -9999 150.180526733398 -9999 126.791801452637 93.2950973510742 61.7827339172363 47.5637588500977 43.2982292175293 41.9245719909668 40.7817726135254 40.5650177001953 39.7084503173828 41.2985954284668 45.0036506652832 48.6885375976562 47.7411270141602 53.0696792602539 59.7545623779297 61.6070327758789 57.3942947387695 53.9683723449707 53.3555145263672 52.2391624450684 49.6910781860352 46.1732292175293 42.6964797973633 39.362174987793 36.4145889282227 35.0642623901367 34.3025321960449 33.964241027832 34.0379905700684 34.3520545959473
-9999 -9999 -9999 -9999 -9999 -9999 -9999 -9999 -9999 -9999 -9999 -9999 -9999 -9999 -9999 -9999 -9999 -9999 -9999 -9999 -9999 -9999 -9999 -9999 -9999 -9999 -9999 -9999 -9999 -9999 -9999 -9999 -9999 -9999 -9999 -9999 -9999 -9999 -9999 -9999 101.243537902832 81.1838150024414 64.4555435180664 53.3673934936523 46.9153900146484 43.9914207458496 43.0164375305176 41.0497665405273 34.6040344238281 31.9761867523193 37.8359794616699 42.3918800354004 39.8302726745605 49.8199844360352 55.5491638183594 54.826530456543 53.1206512451172 56.1529922485352 58.3248100280762 56.0766448974609 50.699275970459 45.2401466369629 41.1453323364258 36.8193969726562 34.9255714416504 33.9556045532227 33.2097206115723 32.7962532043457 32.608097076416 32.7947959899902
-9999 -9999 -9999 -9999 -9999 -9999 -9999 -9999 -9999 -9999 -9999 -9999 -9999 -9999 -9999 -9999 -9999 -9999 -9999 -9999 -9999 -9999 -9999 -9999 -9999 -9999 -9999 -9999 -9999 -9999 -9999 -9999 -9999 -9999 175.398139953613 198.145126342773 195.467834472656 -9999 178.226547241211 147.20524597168 96.7296447753906 69.4347839355469 65.1892623901367 58.9556884765625 53.0970916748047 49.4078598022461 47.1600532531738 39.5423965454102 30.2076797485352 33.4872360229492 45.6499900817871 39.6203994750977 42.6261711120605 54.0123710632324 54.1522483825684 52.3406028747559 57.2130737304688 70.4596328735352 71.105224609375 63.2349090576172 52.7615203857422 44.3625755310059 39.6459426879883 35.7306365966797 34.1322746276855 33.5651435852051 33.0678367614746 32.5217628479004 32.2400856018066 32.5249137878418
-9999 -9999 -9999 -9999 -9999 -9999 -9999 -9999 -9999 -9999 -9999 -9999 -9999 -9999 -9999 -9999 -9999 -9999 -9999 -9999 -9999 -9999 -9999 -9999 -9999 -9999 -9999 479.429870605469 479.429870605469 433.934936523438 350.987670898438 262.605041503906 203.410018920898 178.712829589844 168.785720825195 155.948883056641 143.309600830078 145.079727172852 147.361862182617 130.29573059082 93.8779373168945 59.5921058654785 59.1840057373047 63.6724739074707 61.1679534912109 56.288745880127 46.3898735046387 42.1813659667969 41.1425895690918 40.362735748291 48.1416435241699 50.1054458618164 53.4324188232422 58.4242630004883 58.7700424194336 63.3963165283203 83.6701278686523 101.450263977051 89.1545257568359 73.1960220336914 61.3423004150391 52.5641632080078 48.521167755127 45.6031951904297 43.1059532165527 41.1360092163086 39.4473762512207 38.4825210571289 39.0042915344238 41.1806831359863
-9999 -9999 -9999 -9999 -9999 -9999 -9999 -9999 -9999 -9999 -9999 -9999 -9999 -9999 -9999 -9999 -9999 -9999 -9999 -9999 -9999 -9999 -9999 -9999 -9999 -9999 -9999 -9999 -9999 -9999 262.371276855469 231.32682800293 192.799392700195 153.125 132.503448486328 117.940574645996 113.320114135742 120.635322570801 121.360992431641 103.976921081543 86.2174911499023 64.2777481079102 62.5893440246582 69.5723648071289 69.3562545776367 62.9393424987793 49.1784934997559 51.2296714782715 52.3315582275391 55.1104698181152 56.6763000488281 58.3795852661133 63.6585540771484 69.0311737060547 73.7319259643555 88.3142623901367 124.5810546875 143.149749755859 125.973197937012 112.474166870117 106.570381164551 101.378578186035 98.3523406982422 94.1206283569336 88.8893508911133 83.3552169799805 78.6408615112305 75.0954132080078 74.7126617431641 79.7612915039062
-9999 -9999 -9999 -9999 -9999 -9999 -9999 -9999 -9999 -9999 -9999 -9999 -9999 -9999 -9999 -9999 -9999 -9999 -9999 -9999 -9999 -9999 -9999 -9999 -9999 406.294779459635 315.127777099609 249.32829284668 215.687835693359 234.39501953125 217.540054321289 199.852035522461 171.594085693359 139.921951293945 120.682609558105 111.182762145996 105.233329772949 102.945999145508 101.993530273438 91.0622863769531 87.1889724731445 83.3661956787109 77.5819320678711 77.9661636352539 78.7649993896484 74.9964218139648 70.1084976196289 65.4734268188477 61.1777801513672 58.3325233459473 58.2511672973633 61.4534378051758 70.0310363769531 84.1138534545898 93.9988327026367 115.338485717773 149.193206787109 172.052688598633 174.93310546875 178.001693725586 180.594940185547 179.903610229492 178.440689086914 173.449279785156 166.336349487305 158.997344970703 153.024139404297 146.561859130859 141.660690307617 145.257019042969
-9999 -9999 -9999 -9999 -9999 -9999 -9999 -9999 -9999 -9999 -9999 -9999 -9999 -9999 -9999 -9999 -9999 -9999 -9999 -9999 -9999 -9999 -9999 -9999 513.49755859375 405.618530273438 299.768249511719 239.996551513672 208.220077514648 180.139694213867 165.910003662109 155.820266723633 146.443618774414 140.445617675781 136.178802490234 130.759170532227 121.57731628418 110.980880737305 103.170585632324 96.8276443481445 91.8087005615234 87.9361343383789 87.1530303955078 93.5878372192383 105.10066986084 116.5537109375 120.857902526855 117.191711425781 108.720199584961 98.2769241333008 87.3696899414062 80.3652877807617 81.3391723632812 94.3542709350586 112.355171203613 137.501235961914 159.853820800781 170.389236450195 177.405136108398 191.375152587891 207.427001953125 217.185913085938 219.477722167969 216.5029296875 209.972122192383 200.165817260742 192.656921386719 183.645706176758 177.123748779297 176.3818359375
-9999 -9999 -9999 -9999 -9999 -9999 -9999 -9999 -9999 -9999 -9999 -9999 -9999 -9999 -9999 -9999 -9999 -9999 -9999 -9999 -9999 -9999 -9999 -9999 338.030487060547 205.736801147461 164.500793457031 161.228988647461 159.704055786133 159.686492919922 163.492370605469 171.339920043945 183.213256835938 196.340179443359 203.096435546875 200.726150512695 190.436248779297 175.757659912109 162.415786743164 151.513687133789 142.195236206055 136.301528930664 141.482315063477 161.547485351562 184.964279174805 208.134384155273 222.441116333008 222.577667236328 213.86344909668 198.679901123047 176.662368774414 146.065383911133 118.81160736084 110.629005432129 123.243858337402 143.888610839844 154.322036743164 152.240676879883 154.206909179688 177.213150024414 204.586837768555 219.164291381836 222.078720092773 215.852615356445 207.826324462891 195.999618530273 186.865997314453 179.687927246094 175.296813964844 169.384399414062
-9999 -9999 -9999 -9999 -9999 -9999 -9999 -9999 -9999 -9999 -9999 -9999 -9999 -9999 -9999 -9999 -9999 -9999 -9999 -9999 -9999 -9999 -9999 254.805957794189 251.95588684082 173.260131835938 168.885894775391 172.161590576172 179.411392211914 193.308883666992 212.316101074219 234.379791259766 257.213653564453 275.546630859375 282.791687011719 278.267272949219 270.437072753906 262.745056152344 252.248138427734 242.664916992188 235.426498413086 228.812271118164 231.004119873047 244.74983215332 257.338439941406 270.087310791016 282.498687744141 290.765869140625 293.050750732422 287.245574951172 273.794555664062 244.46614074707 207.069473266602 171.487731933594 148.35627746582 142.914749145508 140.573791503906 131.986175537109 134.885940551758 162.178695678711 197.173629760742 216.833206176758 221.343231201172 210.803039550781 195.685272216797 183.205490112305 177.352645874023 172.476928710938 165.658264160156 152.33544921875
-9999 -9999 -9999 -9999 -9999 -9999 -9999 -9999 -9999 -9999 -9999 -9999 -9999 -9999 -9999 -9999 -9999 -9999 -9999 -9999 -9999 -9999 -9999 225.065277099609 204.172180175781 166.297592163086 171.31282043457 191.754974365234 218.68864440918 242.876831054688 269.324310302734 295.437225341797 315.322509765625 324.902801513672 323.693817138672 317.202362060547 312.319793701172 309.055511474609 303.287567138672 297.900085449219 295.674865722656 290.3603515625 283.689849853516 281.494323730469 283.910461425781 292.134735107422 305.440399169922 318.320495605469 321.846343994141 315.871032714844 308.772338867188 302.804046630859 292.490478515625 268.296112060547 223.854522705078 176.670288085938 141.285537719727 117.886848449707 114.353981018066 141.655944824219 185.240295410156 212.775772094727 218.314178466797 203.64208984375 178.74723815918 165.751251220703 166.160842895508 161.08349609375 150.876068115234 135.325469970703
-9999 -9999 -9999 -9999 -9999 -9999 -9999 -9999 -9999 -9999 -9999 -9999 -9999 -9999 -9999 -9999 -9999 -9999 -9999 -9999 -9999 -9999 288.161376953125 226.848556518555 201.219375610352 195.383941650391 199.017791748047 223.826156616211 258.614044189453 288.216003417969 316.684783935547 337.071014404297 344.4931640625 344.036376953125 339.567626953125 334.960815429688 331.955535888672 327.749816894531 323.490020751953 319.962615966797 318.612060546875 316.307952880859 312.07373046875 311.114471435547 314.645050048828 323.732269287109 333.589172363281 329.066772460938 303.154571533203 265.424743652344 242.184020996094 244.755493164062 266.814086914062 290.148529052734 282.807495117188 239.382736206055 183.815521240234 138.05061340332 116.8134765625 134.254898071289 178.513977050781 210.405197143555 214.686965942383 192.433212280273 158.000793457031 144.584671020508 147.510101318359 145.863037109375 136.341537475586 120.107849121094
-9999 -9999 -9999 -9999 -9999 -9999 -9999 -9999 -9999 -9999 -9999 -9999 -9999 -9999 634.768897162543 -9999 -9999 -9999 -9999 591.081359863281 -9999 327.542877197266 273.445739746094 223.084701538086 224.189483642578 229.588653564453 237.930404663086 264.686828613281 300.7841796875 334.558044433594 356.667449951172 359.756072998047 349.749481201172 340.864196777344 340.478057861328 343.683654785156 340.667541503906 334.788208007812 331.176635742188 329.091369628906 328.713592529297 329.271453857422 329.775665283203 329.51611328125 332.574523925781 337.397125244141 321.86962890625 270.619232177734 205.870941162109 152.743896484375 124.989250183105 124.032020568848 146.976440429688 189.745590209961 237.404205322266 259.611511230469 240.762893676758 198.795806884766 161.173675537109 157.509658813477 187.378479003906 211.490310668945 208.661529541016 177.495834350586 135.439453125 119.257583618164 123.741195678711 125.627975463867 118.844482421875 103.399452209473
-9999 -9999 -9999 -9999 -9999 -9999 -9999 -9999 -9999 -9999 -9999 -9999 -9999 -9999 632.552459716797 -9999 -9999 -9999 -9999 529.57600402832 386.523883056641 301.010131835938 232.409072875977 223.898010253906 231.769821166992 242.797286987305 263.1298828125 300.229431152344 343.320922851562 371.336883544922 370.944976806641 354.634704589844 341.8994140625 334.945617675781 335.468200683594 340.626525878906 337.79931640625 328.990692138672 321.904205322266 319.561309814453 320.062652587891 322.828765869141 326.762969970703 328.457702636719 332.847564697266 318.768981933594 254.127319335938 170.188354492188 113.144477844238 84.7342071533203 70.9207077026367 64.3490905761719 66.7290725708008 85.6749267578125 133.236557006836 201.329452514648 245.960342407227 243.106735229492 214.743881225586 198.503601074219 206.693695068359 213.620101928711 198.837188720703 158.948471069336 113.770347595215 97.7792205810547 103.553062438965 105.96036529541 99.5016937255859 86.6577758789062
-9999 -9999 -9999 -9999 -9999 -9999 -9999 -9999 -9999 -9999 -9999 -9999 -9999 -9999 642.526428222656 -9999 -9999 -9999 -9999 -9999 237.978439331055 244.914398193359 225.726043701172 245.014984130859 257.301086425781 284.443206787109 314.675933837891 343.744445800781 370.591613769531 382.474517822266 365.705169677734 340.320831298828 323.814331054688 318.269409179688 322.449310302734 326.028503417969 318.639739990234 305.435119628906 295.257080078125 291.407257080078 294.934722900391 302.83935546875 308.625885009766 315.150695800781 321.819793701172 277.385650634766 176.858978271484 107.62760925293 83.3889007568359 71.828010559082 62.5420761108398 54.9839324951172 50.8506164550781 51.9936370849609 68.7698059082031 121.012008666992 191.450286865234 231.493392944336 230.420669555664 217.452117919922 211.891891479492 204.041687011719 178.274261474609 133.388442993164 93.214958190918 82.0191650390625 85.0481796264648 83.2490615844727 76.9550704956055 68.1740417480469
-9999 -9999 -9999 -9999 -9999 -9999 -9999 -9999 -9999 -9999 -9999 -9999 -9999 -9999 608.589721679688 -9999 602.630554199219 -9999 -9999 -9999 177.322631835938 228.666595458984 253.671493530273 274.284057617188 300.958953857422 329.403656005859 344.953155517578 353.185028076172 364.922454833984 373.139282226562 355.951751708984 325.842041015625 305.444030761719 302.998077392578 311.441528320312 310.903594970703 294.8701171875 276.424621582031 261.636108398438 253.749984741211 258.113006591797 271.217712402344 283.052551269531 296.632843017578 296.284423828125 229.287673950195 134.093933105469 94.0818557739258 84.7548141479492 75.3084335327148 64.0370559692383 54.8598556518555 49.1977729797363 47.2747802734375 50.1996307373047 70.8769378662109 122.922462463379 181.420059204102 207.242935180664 205.581344604492 195.645477294922 177.50456237793 146.226608276367 105.476631164551 75.7841949462891 67.8105163574219 65.4244232177734 61.9451065063477 60.3689498901367 56.053596496582
-9999 -9999 -9999 -9999 -9999 -9999 -9999 -9999 -9999 -9999 -9999 -9999 -9999 -9999 608.589721679688 574.653015136719 488.519165039062 -9999 -9999 193.696350097656 182.689926147461 245.723922729492 276.961639404297 297.223449707031 319.437286376953 329.517883300781 328.255035400391 325.033538818359 332.697845458984 350.193695068359 350.55517578125 326.809020996094 304.551300048828 299.82080078125 305.862121582031 298.850433349609 272.229095458984 240.703186035156 214.084518432617 201.606262207031 207.195999145508 226.463409423828 250.031768798828 275.144592285156 266.079132080078 185.318008422852 114.274368286133 97.1158218383789 93.4136810302734 85.5736770629883 74.1060104370117 62.5154228210449 53.4718208312988 48.3543663024902 47.1278915405273 53.6698226928711 82.5591049194336 133.995574951172 172.053237915039 178.391220092773 167.343902587891 145.071197509766 116.050193786621 85.0853805541992 65.3551712036133 58.2567367553711 54.0344352722168 53.3584365844727 54.5125885009766 51.6810607910156
-9999 -9999 -9999 -9999 -9999 -9999 -9999 -9999 -9999 -9999 -9999 -9999 -9999 -9999 -9999 445.707354736328 417.07177734375 -9999 263.056255340576 185.537048339844 229.235794067383 283.135772705078 301.904571533203 311.325347900391 317.168884277344 312.257843017578 301.639587402344 292.106231689453 293.125701904297 306.330993652344 316.067840576172 308.3583984375 294.438751220703 291.866394042969 300.327026367188 292.478332519531 257.148071289062 210.758010864258 172.18049621582 154.468902587891 160.347412109375 185.945602416992 220.209976196289 256.154510498047 247.068572998047 161.758972167969 108.715118408203 104.707160949707 104.99356842041 100.92399597168 91.7430038452148 79.8920516967773 67.7528533935547 58.4607391357422 54.2419815063477 57.7599792480469 76.0566635131836 111.750564575195 141.566131591797 146.810607910156 133.363754272461 111.654335021973 91.4376907348633 72.4201965332031 59.5641937255859 53.4815711975098 50.1201171875 51.0854911804199 51.6081886291504 48.540584564209
-9999 -9999 -9999 -9999 -9999 -9999 -9999 -9999 -9999 -9999 -9999 -9999 -9999 -9999 -9999 379.571533203125 368.721282958984 -9999 209.769134521484 229.90934753418 277.014770507812 303.716979980469 312.463134765625 307.678009033203 307.566040039062 296.154998779297 277.294494628906 260.579376220703 254.380767822266 259.373382568359 272.637878417969 280.800384521484 277.95068359375 284.767517089844 299.717346191406 292.707916259766 250.857238769531 193.737548828125 148.380630493164 128.413711547852 133.537582397461 160.824462890625 201.098724365234 241.607177734375 231.556793212891 148.718658447266 106.238410949707 106.460670471191 110.999549865723 114.683502197266 111.513381958008 103.21076965332 91.922492980957 82.8494644165039 79.2815322875977 80.9113922119141 90.8674163818359 107.396575927734 118.49991607666 116.154693603516 104.387893676758 90.6845474243164 78.6581420898438 66.0996704101562 56.8784408569336 52.0749359130859 49.583438873291 49.9730377197266 48.7541885375977 45.1425399780273
-9999 -9999 -9999 -9999 -9999 -9999 -9999 -9999 -9999 -9999 -9999 -9999 -9999 -9999 -9999 355.95263671875 -9999 283.069959368025 260.869354248047 279.113586425781 306.300018310547 306.749816894531 302.310791015625 292.120880126953 282.297119140625 259.966125488281 235.600448608398 214.329696655273 201.071960449219 197.464172363281 207.178619384766 226.41877746582 245.22966003418 265.125152587891 282.64990234375 277.833129882812 237.181884765625 177.893264770508 133.435775756836 117.459365844727 124.513175964355 150.625030517578 193.001205444336 232.614227294922 213.066116333008 133.921752929688 99.0766296386719 102.647430419922 112.209716796875 121.090644836426 124.221466064453 121.973365783691 113.52571105957 100.326034545898 94.4919738769531 94.4496917724609 96.4910049438477 100.573974609375 102.516006469727 97.3477172851562 87.9000930786133 80.5134963989258 75.3540267944336 66.5584869384766 57.4249572753906 51.8176307678223 50.5728378295898 49.4316024780273 46.1132507324219 41.7449417114258
-9999 -9999 -9999 -9999 -9999 -9999 -9999 -9999 -9999 -9999 -9999 -9999 -9999 -9999 355.95263671875 313.663818359375 264.518127441406 267.154663085938 289.936462402344 310.213684082031 314.388214111328 291.781890869141 279.097503662109 265.784637451172 245.560424804688 217.667999267578 189.957794189453 166.968078613281 149.899047851562 139.145477294922 139.182327270508 151.39208984375 176.803604125977 209.67512512207 235.955596923828 240.677047729492 213.107925415039 164.028503417969 126.423866271973 114.888885498047 124.373260498047 150.357772827148 193.25163269043 228.912033081055 196.505462646484 121.568428039551 94.6090850830078 102.580055236816 118.029960632324 129.222778320312 132.75715637207 130.724044799805 125.776008605957 116.94319152832 107.190399169922 98.5712890625 96.4332885742188 98.7088165283203 100.581398010254 96.1271438598633 84.7477798461914 72.5999374389648 67.0027923583984 63.8145561218262 59.1033973693848 53.0983428955078 51.6692047119141 47.3615837097168 42.6431732177734 38.081958770752
-9999 -9999 -9999 -9999 -9999 -9999 -9999 -9999 -9999 -9999 -9999 -9999 -9999 -9999 -9999 -9999 254.660709381104 247.843902587891 243.876098632812 289.709228515625 316.563659667969 278.999969482422 269.299865722656 247.288833618164 220.688919067383 186.256500244141 153.950439453125 130.089340209961 113.027755737305 103.530464172363 100.50218963623 103.75138092041 118.028984069824 145.818664550781 175.260711669922 188.590377807617 178.912811279297 149.704406738281 122.568061828613 115.128349304199 127.096870422363 155.676849365234 199.144912719727 224.595840454102 178.146820068359 111.622787475586 95.4970932006836 110.595291137695 130.781936645508 140.630493164062 138.507583618164 131.095443725586 125.593818664551 122.620086669922 119.92504119873 113.073280334473 106.096504211426 104.54224395752 104.475761413574 95.4494476318359 77.2970504760742 60.3026275634766 54.2282257080078 55.9787483215332 57.5950660705566 53.686279296875 50.5887718200684 43.9293441772461 39.408519744873 36.2456245422363
-9999 -9999 -9999 -9999 -9999 -9999 -9999 -9999 -9999 -9999 -9999 -9999 -9999 -9999 -9999 -9999 243.485023498535 239.12614440918 238.881500244141 282.802520751953 312.473937988281 270.297760009766 255.979736328125 234.971054077148 202.050689697266 157.961639404297 123.64185333252 103.981918334961 91.5265426635742 84.0767135620117 79.7229995727539 79.9919738769531 86.2979125976562 102.585815429688 127.068580627441 146.802307128906 151.117141723633 137.214233398438 116.475082397461 108.631622314453 126.864768981934 166.402099609375 209.779815673828 215.357650756836 158.006729125977 105.079452514648 101.387489318848 127.069366455078 146.561172485352 145.465957641602 130.979553222656 115.478660583496 107.382400512695 107.860977172852 113.711540222168 119.003288269043 116.442993164062 113.863792419434 106.829246520996 87.7399063110352 64.0202865600586 48.3320426940918 44.6805267333984 48.932071685791 53.9711799621582 51.890754699707 47.1578521728516 41.1100845336914 38.3184280395508 37.2311210632324
-9999 -9999 -9999 -9999 -9999 -9999 -9999 -9999 -9999 -9999 -9999 -9999 -9999 -9999 -9999 -9999 -9999 238.543460845947 247.297592163086 288.250183105469 298.525787353516 259.441314697266 240.097015380859 224.718811035156 178.015762329102 127.395980834961 101.657531738281 89.8704223632812 78.3196105957031 69.9885559082031 65.3457794189453 64.7857208251953 67.9439315795898 77.2674942016602 95.3381271362305 115.580543518066 125.316612243652 122.811317443848 111.389205932617 103.416343688965 123.37483215332 172.656539916992 213.052124023438 201.248397827148 143.895889282227 105.312339782715 118.505599975586 148.615447998047 155.309768676758 136.683731079102 110.429962158203 90.9361114501953 84.1782760620117 86.35400390625 95.50390625 108.045387268066 114.274208068848 114.306098937988 98.8278732299805 73.9850921630859 53.9607353210449 43.307502746582 41.6277656555176 46.6082992553711 52.4372825622559 49.4770622253418 44.0679206848145 39.5628662109375 38.7084159851074 39.0158958435059
-9999 -9999 -9999 -9999 -9999 -9999 -9999 -9999 -9999 -9999 -9999 -9999 -9999 -9999 240.215864181519 239.12614440918 236.155327796936 238.083099365234 228.868606567383 267.101135253906 293.827911376953 257.482635498047 232.960037231445 218.046905517578 156.069412231445 106.681419372559 92.5980606079102 84.0951690673828 72.1252670288086 63.4965667724609 59.2576217651367 58.0773735046387 59.3470077514648 64.8648376464844 77.2929306030273 94.0615005493164 105.000427246094 106.52954864502 102.218780517578 103.097434997559 125.522384643555 171.222915649414 201.507446289062 183.94123840332 142.489974975586 130.330490112305 151.900207519531 162.38818359375 143.366088867188 107.677192687988 78.8932495117188 64.4206008911133 61.1705665588379 64.8376922607422 75.5546951293945 91.1526107788086 103.720611572266 103.286735534668 79.2677917480469 61.1849784851074 51.1985549926758 44.6664237976074 42.8569641113281 46.8327598571777 51.448486328125 47.4970321655273 41.7488975524902 38.5930480957031 38.7397193908691 39.8159332275391
-9999 -9999 -9999 -9999 -9999 -9999 -9999 -9999 -9999 -9999 -9999 -9999 -9999 -9999 -9999 -9999 -9999 -9999 246.328033447266 252.247711181641 285.027954101562 260.195831298828 231.586853027344 208.371215820312 137.583602905273 95.7713165283203 91.878776550293 84.7558822631836 73.7635269165039 64.4823379516602 59.3416290283203 57.234561920166 57.4556503295898 60.251220703125 67.3680801391602 78.8335418701172 88.7913131713867 93.6027679443359 97.3222198486328 108.96484375 132.393951416016 161.374084472656 179.33203125 175.695281982422 162.997482299805 167.677688598633 172.57893371582 149.840744018555 105.821510314941 69.0177459716797 51.9175033569336 46.4663162231445 45.983715057373 49.7523460388184 61.3127212524414 79.3807907104492 92.0345993041992 81.4196853637695 62.7569961547852 56.5696983337402 53.3526039123535 48.839599609375 45.3048629760742 47.0774574279785 50.3190078735352 48.4145011901855 42.2563400268555 38.0871276855469 37.9079322814941 39.2442474365234
-9999 -9999 -9999 -9999 -9999 -9999 -9999 -9999 -9999 -9999 -9999 -9999 -9999 -9999 -9999 -9999 -9999 177.636047363281 223.116634368896 237.094680786133 269.541687011719 249.009628295898 216.96142578125 183.953231811523 127.247421264648 91.9894027709961 92.8717041015625 90.5589294433594 83.0493011474609 73.8677291870117 66.3761672973633 61.8770790100098 60.5823822021484 61.7320861816406 65.8381652832031 72.8006210327148 80.7091217041016 89.0580978393555 101.244163513184 119.131645202637 137.71321105957 154.379089355469 172.426376342773 183.943313598633 185.184478759766 179.761901855469 154.637237548828 107.870704650879 65.5879135131836 45.8168525695801 40.5779495239258 39.7514724731445 40.231632232666 43.9657287597656 56.207893371582 73.7546844482422 79.5299911499023 64.226448059082 57.0436973571777 55.9828338623047 55.1598281860352 52.1142845153809 47.0943183898926 45.248291015625 48.2539329528809 50.3017349243164 47.0483474731445 41.6790237426758 38.7179489135742 38.847599029541
-9999 -9999 -9999 -9999 -9999 -9999 -9999 -9999 -9999 -9999 -9999 -9999 -9999 251.918807983398 243.375823974609 -9999 239.69702911377 223.4130859375 177.636047363281 225.488098144531 221.932083129883 209.819458007812 191.704635620117 164.170776367188 127.846115112305 90.323486328125 90.3643341064453 95.1626663208008 94.6029357910156 88.7617416381836 81.2000503540039 74.5357131958008 70.573974609375 69.5130615234375 71.6197662353516 76.6523208618164 84.3842468261719 95.4646606445312 110.476341247559 127.646614074707 143.730041503906 159.230514526367 177.531463623047 187.523071289062 180.963333129883 156.062377929688 113.581321716309 70.160270690918 45.9401969909668 38.7241058349609 37.5256195068359 37.6321411132812 38.4790229797363 43.0059471130371 55.5000801086426 68.9499053955078 67.2869720458984 57.9275207519531 56.2144355773926 56.3524551391602 56.158763885498 54.7793731689453 50.3877334594727 43.773006439209 41.616512298584 44.3439254760742 46.2011833190918 44.8757743835449 42.4905624389648 41.3865089416504
-9999 -9999 -9999 -9999 -9999 -9999 -9999 -9999 -9999 -9999 -9999 -9999 -9999 -9999 251.918807983398 244.920700073242 233.287963867188 246.106094360352 236.62223815918 198.444274902344 193.471603393555 189.230255126953 168.535247802734 161.293640136719 138.132781982422 99.0811767578125 84.7029190063477 86.8494720458984 92.0129699707031 94.2031784057617 92.9189758300781 90.450309753418 88.2602310180664 86.8881912231445 87.4817886352539 91.2439880371094 98.3141021728516 107.714660644531 120.365798950195 134.298446655273 146.077499389648 156.125961303711 163.214202880859 157.971771240234 138.078231811523 105.181793212891 69.6487197875977 47.0518760681152 38.6167068481445 35.9329376220703 35.1710891723633 35.3872680664062 36.78662109375 42.3899841308594 53.5027503967285 62.6169090270996 60.6880569458008 56.2063407897949 56.6946716308594 57.8075637817383 57.2901306152344 55.5327606201172 52.6432762145996 44.3088722229004 38.0566635131836 37.5468063354492 40.6500625610352 42.8090629577637 43.3594093322754 43.0840797424316
-9999 -9999 -9999 -9999 -9999 -9999 -9999 -9999 -9999 -9999 -9999 -9999 -9999 -9999 256.559127807617 251.918807983398 249.555328369141 228.105804443359 187.003494262695 167.582641601562 167.04704284668 168.954040527344 159.731002807617 162.1318359375 157.36344909668 128.979507446289 95.2826309204102 81.5047988891602 82.5643005371094 83.820442199707 84.6850204467773 86.8168182373047 88.3928527832031 89.1535949707031 90.4737854003906 94.436408996582 100.049644470215 105.334617614746 111.631652832031 116.842132568359 119.702110290527 120.487403869629 116.588249206543 103.841041564941 82.4446640014648 59.5092811584473 44.7633895874023 38.3833541870117 35.4456977844238 33.6248931884766 33.2468566894531 33.8397979736328 35.4520606994629 40.8647384643555 50.2734985351562 57.2498245239258 57.3536682128906 55.0427093505859 56.3040809631348 59.0252113342285 59.0853614807129 55.1107940673828 52.2850341796875 44.7592468261719 37.0088768005371 35.0952033996582 37.3797760009766 39.6511383056641 41.2631072998047 42.041919708252
-9999 -9999 -9999 -9999 -9999 -9999 -9999 -9999 -9999 -9999 -9999 302.633117675781 322.114654541016 294.485687255859 245.833709716797 233.998306274414 220.527236938477 183.572708129883 167.254913330078 162.290084838867 161.591232299805 156.944259643555 152.406723022461 151.952682495117 155.483291625977 148.065505981445 121.069076538086 93.3445281982422 79.4145965576172 76.1666870117188 76.5622482299805 80.1434936523438 83.4075088500977 84.0598602294922 81.1045913696289 76.1021347045898 72.6545944213867 75.2409896850586 81.1204223632812 84.3355941772461 84.8830642700195 81.113395690918 73.1307067871094 61.1777572631836 48.4995956420898 41.1243591308594 37.8721237182617 35.7040748596191 34.0045585632324 32.7705230712891 32.5488510131836 33.2334251403809 34.8090362548828 39.2859878540039 47.2173042297363 54.5495223999023 57.1598472595215 56.6726226806641 57.0685691833496 59.2128067016602 59.356201171875 55.0619468688965 51.4022102355957 44.4494705200195 36.7247848510742 34.8603973388672 36.6004371643066 38.2047920227051 39.2896194458008 40.1559143066406
-9999 -9999 -9999 -9999 -9999 -9999 -9999 -9999 -9999 401.138031005859 312.3681640625 263.501434326172 254.097717285156 204.357391357422 184.088180541992 196.253662109375 173.599716186523 157.24348449707 154.809692382812 154.780181884766 148.047973632812 145.759292602539 145.234069824219 142.815246582031 147.287582397461 148.542129516602 136.313415527344 112.543388366699 89.4504852294922 73.9371948242188 66.629280090332 69.3601150512695 78.2742004394531 86.8313522338867 88.2306900024414 82.5095062255859 75.3782806396484 69.1501159667969 65.1453475952148 63.2819061279297 61.4939765930176 57.1856002807617 50.1451377868652 43.0149803161621 39.0692863464355 37.445728302002 36.1122245788574 35.0516052246094 34.074291229248 33.0151710510254 32.4833793640137 33.0507392883301 34.166389465332 37.323486328125 43.4315299987793 51.2200202941895 56.0084457397461 57.571117401123 58.573974609375 60.0890769958496 57.7218551635742 53.5806083679199 49.4080276489258 43.2962760925293 37.6302261352539 35.9001121520996 37.1512756347656 38.6488952636719 39.7172164916992 40.5507431030273
-9999 -9999 -9999 -9999 -9999 -9999 -9999 -9999 -9999 408.400909423828 299.060485839844 245.141632080078 212.373626708984 186.698089599609 180.026458740234 160.834060668945 152.363174438477 147.270065307617 145.678863525391 144.780380249023 142.658096313477 142.015106201172 138.805267333984 135.446914672852 136.777801513672 138.323944091797 134.83854675293 119.421440124512 99.6340255737305 81.3350296020508 70.5387268066406 69.618537902832 76.6508178710938 85.1609115600586 86.6451187133789 80.7552642822266 71.3484954833984 62.855884552002 56.6402359008789 51.9821128845215 48.1737365722656 43.777229309082 39.622974395752 37.5027046203613 36.5903434753418 35.8720436096191 35.4209480285645 35.2520637512207 34.7351226806641 33.8589820861816 33.2893562316895 33.4613227844238 33.9837226867676 35.6787109375 39.7125473022461 46.0645179748535 52.0190124511719 55.6322212219238 57.2720108032227 57.4050712585449 54.3961639404297 50.7932548522949 47.1680030822754 41.8430290222168 36.6905937194824 33.8847808837891 33.9524078369141 34.372673034668 34.1972007751465 33.6385459899902
-9999 -9999 -9999 -9999 -9999 338.985565185547 402.317962646484 350.206726074219 333.960784912109 295.176208496094 261.880737304688 221.504119873047 189.329162597656 179.449920654297 154.896911621094 150.560638427734 148.871887207031 146.455673217773 145.648025512695 144.951400756836 141.422103881836 136.098327636719 128.771194458008 124.714698791504 124.91089630127 123.04077911377 120.320472717285 114.566047668457 101.882461547852 87.0608520507812 79.7489929199219 80.8546905517578 86.7257385253906 90.9314956665039 86.5862579345703 74.8777313232422 61.6684265136719 51.6046028137207 45.0622673034668 40.7981605529785 38.013542175293 36.3861465454102 35.9456939697266 35.7272453308105 35.0067253112793 34.463005065918 34.5680465698242 34.9992599487305 35.1979370117188 35.0037040710449 34.6438941955566 34.4124374389648 34.5368347167969 35.1982269287109 37.6680793762207 42.5007514953613 48.1326789855957 51.9097671508789 53.5917930603027 53.0414505004883 50.3473663330078 48.016242980957 45.3626136779785 40.1348609924316 33.7816467285156 31.2255477905273 32.4930610656738 33.1492538452148 32.9200592041016 32.2524948120117
-9999 -9999 -9999 -9999 335.586334228516 321.495452880859 296.542510986328 251.09326171875 239.034210205078 213.883331298828 185.585372924805 176.453094482422 164.466049194336 154.221298217773 155.966110229492 158.655883789062 158.547897338867 154.212463378906 149.976165771484 142.695251464844 132.559341430664 119.536720275879 108.925094604492 103.231117248535 103.528388977051 106.451843261719 108.538436889648 104.92170715332 98.3348922729492 92.962776184082 88.6907577514648 91.722038269043 95.8971939086914 93.0394439697266 80.7586364746094 65.1195068359375 52.0515747070312 42.7444648742676 37.4616966247559 35.3150329589844 34.8254547119141 35.1657524108887 35.4093971252441 34.8988647460938 34.0737457275391 33.7339630126953 33.9551429748535 34.494270324707 35.066089630127 35.4652099609375 35.6973419189453 35.6835021972656 35.7934074401855 36.1975135803223 37.7985496520996 41.2919769287109 45.7203216552734 48.7736206054688 49.9601135253906 49.0168228149414 47.1357841491699 46.1191177368164 43.8729553222656 38.6071090698242 32.7423553466797 32.8500823974609 34.559700012207 34.431583404541 33.2796096801758 32.2322006225586
-9999 -9999 -9999 301.016120910645 312.429107666016 263.957611083984 249.681015014648 233.232803344727 219.848098754883 176.949920654297 185.053741455078 154.734680175781 150.256118774414 155.730422973633 159.623947143555 156.460815429688 148.267791748047 136.635025024414 122.170135498047 109.702423095703 97.1879730224609 83.7068023681641 78.948127746582 84.414176940918 94.411018371582 103.844825744629 108.526794433594 103.947128295898 92.5910263061523 87.6478958129883 90.8609313964844 96.1602401733398 95.6624374389648 84.0024261474609 68.3950500488281 54.6887550354004 44.4935531616211 37.5060539245605 34.6236038208008 34.3317031860352 34.8165473937988 35.3837242126465 35.2245826721191 34.6257095336914 34.1918487548828 34.0178451538086 34.0671539306641 34.3498001098633 34.7537803649902 35.3017845153809 35.8661804199219 36.3863220214844 36.6914672851562 37.1747894287109 38.5072174072266 40.9945945739746 43.8716087341309 45.6763763427734 46.0470237731934 45.0017509460449 44.1870231628418 44.049015045166 42.0549125671387 37.5718612670898 34.3689346313477 34.2401390075684 34.6676902770996 32.654972076416 30.7688446044922 29.012357711792
-9999 -9999 -9999 300.135681152344 255.913360595703 242.169815063477 245.899078369141 246.539138793945 207.522079467773 165.310241699219 151.9951171875 152.086685180664 157.243423461914 157.74267578125 151.219589233398 139.077438354492 117.437835693359 98.7177047729492 86.5245971679688 77.3637237548828 68.944953918457 65.3940811157227 72.6707382202148 86.9588775634766 103.040649414062 114.337280273438 113.291717529297 99.6698455810547 87.3265838623047 86.3304443359375 91.8868942260742 90.6608276367188 80.386100769043 67.5499267578125 55.7893600463867 46.4042472839355 38.755672454834 34.4249839782715 34.0512962341309 34.798454284668 35.3728408813477 35.4808578491211 35.1151237487793 34.6574783325195 34.3956031799316 34.3041877746582 34.1973876953125 34.1644020080566 34.3909492492676 34.8938179016113 35.371509552002 36.8037605285645 37.5948219299316 37.9128150939941 38.4356575012207 39.9385108947754 41.5843849182129 42.363697052002 42.2674522399902 41.725658416748 41.4954833984375 41.5557136535645 40.2063865661621 37.3583450317383 35.8851051330566 34.7850761413574 33.9018592834473 31.2401542663574 29.7785167694092 28.5685062408447
