NCOLS 35 
NROWS 26 
XLLCORNER -80 
YLLCORNER 33 
CELLSIZE 0.5 
NODATA_value -9999 
-9999.000000000000000 -9999 -9999 -9999 -9999 -9999 -9999 -9999 -9999 -9999 -9999 -9999 -9999 -9999 -9999 -9999 -9999 -9999 -9999 -9999 -9999 -9999 -9999 -9999 -9999 -9999 -9999 -9999 -9999 -9999 -9999 -9999 -9999 -9999 -9999
-9999 -9999 -9999 -9999 -9999 -9999 -9999 -9999 -9999 -9999 -9999 -9999 -9999 -9999 -9999 -9999 -9999 -9999 -9999 -9999 -9999 -9999 -9999 -9999 -9999 -9999 -9999 -9999 -9999 196.915546687111 -9999 -9999 -9999 -9999 -9999
-9999 -9999 -9999 -9999 -9999 -9999 -9999 -9999 -9999 -9999 -9999 -9999 -9999 -9999 -9999 -9999 -9999 -9999 -9999 -9999 -9999 -9999 -9999 -9999 -9999 -9999 283.75139137428 278.151389823082 95.6572237828236 75.5986855595517 -9999 -9999 -9999 -9999 -9999
-9999 -9999 -9999 -9999 -9999 -9999 -9999 -9999 -9999 -9999 -9999 -9999 -9999 -9999 -9999 -9999 -9999 -9999 -9999 -9999 -9999 -9999 -9999 152.105494962028 134.16474274384 102.635443812857 148.590917113086 68.6010654682021 -9999 -9999 -9999 151.896298916681 155.267965695973 136.949656756251 104.026426270123
-9999 -9999 -9999 -9999 -9999 -9999 -9999 -9999 -9999 -9999 -9999 -9999 -9999 -9999 -9999 -9999 -9999 -9999 -9999 -9999 207.726947800472 186.091015590092 168.93943209623 109.578298025168 72.421221061043 59.0509922186964 140.43694943124 232.796200975563 -9999 -9999 110.988940240153 93.6508584981434 71.6806868478404 67.871369213162 67.3977173243415
-9999 -9999 -9999 -9999 -9999 -9999 -9999 -9999 -9999 -9999 -9999 -9999 -9999 -9999 -9999 -9999 -9999 -9999 -9999 130.063005579512 122.480062369183 106.509812731685 75.9150206035816 62.4106494513375 56.211560227546 52.6514487043227 86.8128364389484 220.730015931564 171.460120941795 131.71098194347 72.7434796505719 63.8347773236608 66.7368687866556 68.6042435402325 77.0146128089223
-9999 -9999 -9999 -9999 -9999 -9999 -9999 -9999 -9999 -9999 -9999 -9999 -9999 -9999 -9999 -9999 -9999 -9999 -9999 146.243941817272 74.5244117261318 71.6690658984539 65.6206505384575 64.323487559746 56.1749817719086 54.8953555783384 61.2528957730559 77.938386840779 79.9967710457409 68.2045204392369 59.2129151239351 60.9821008628839 65.5418097221119 72.4167012809989 78.9991622128635
-9999 -9999 -9999 -9999 -9999 -9999 -9999 -9999 -9999 -9999 -9999 -9999 -9999 -9999 -9999 -9999 -9999 -9999 -9999 89.1155536310537 77.5562831821669 69.2637186656371 74.5401669313728 76.1395724242527 67.7245048245586 63.7541083352714 62.5929470192584 64.5158076742088 66.1559780892501 64.8656679158978 63.3442603095676 71.6739527306039 80.9112417727457 92.7048208905565 100.719080668005
-9999 -9999 -9999 -9999 -9999 -9999 -9999 -9999 -9999 -9999 -9999 -9999 -9999 -9999 -9999 -9999 -9999 -9999 -9999 12.413477430763 101.809552095376 73.0345461195294 71.1627480120268 74.6640802542092 88.5592589301559 84.2960905507944 75.3415810539336 72.5942720450502 66.7949940001429 74.2641834432463 86.2393547922739 100.884428822515 114.762425943082 121.820638907056 122.481242545117
-9999 -9999 -9999 -9999 -9999 -9999 -9999 -9999 -9999 -9999 -9999 -9999 -9999 -9999 -9999 -9999 -9999 195.325571206902 148.479394597797 143.432967203789 88.4427965142566 79.8646703072904 70.3365050334852 82.6867622535308 81.1529901342897 87.0140722889822 86.280336460553 79.972711307781 81.2665504188528 83.7086568525687 103.168437686325 111.155723968298 113.858815824172 109.575478712075 104.283903159532
-9999 -9999 -9999 -9999 -9999 -9999 -9999 -9999 -9999 -9999 -9999 -9999 -9999 -9999 161.470534473463 172.881105966097 136.549682193797 116.11021558138 108.848738765651 98.7165187027098 92.5011512221545 72.9021365040279 86.0623537920168 95.6195667646581 80.6074763692343 77.1199005036236 76.0712570070177 76.9003990353427 105.911828543559 99.5512221383293 99.370533803346 101.592317229529 110.465419896876 116.701648932437 111.100305032348
-9999 -9999 -9999 -9999 -9999 -9999 -9999 -9999 -9999 -9999 -9999 -9999 308.044228929736 184.413385927545 156.759318476849 136.934459274549 153.791978801345 124.734737684234 158.728433314194 127.469688140282 111.22000227171 98.901567030551 116.482702873625 141.564924209317 139.787552020687 132.894027249318 129.294105092871 128.889557236002 123.292171463443 96.0977608602177 88.0011081633056 115.516191241508 126.552823169972 117.085725063117 115.113696319319
-9999 -9999 -9999 -9999 -9999 -9999 -9999 -9999 -9999 -9999 -9999 -9999 186.608137838132 169.422153527134 151.088996419212 135.366168971528 120.533805888326 116.038258749066 118.554202190313 115.086363225749 128.888112664115 141.548710206669 133.773660153396 125.990001222523 107.737914441861 97.8330390199186 99.1012027700881 106.447694464937 116.40300367967 128.046849032272 129.588806427287 120.676522485819 115.961749477496 112.663640833349 118.284444620241
-9999 -9999 -9999 -9999 -9999 -9999 -9999 -9999 -9999 7.54326290822565 4.89135810412063 229.569831383362 204.254463656263 160.559096084453 160.361391596834 142.981973636426 127.745292894666 121.368297200591 121.883707238664 128.149681305637 124.816251045149 122.718558184007 123.986542764794 100.522066531851 81.919086258016 78.4597116371812 76.7163271300964 76.5828340087749 77.5195382105644 83.9855464864947 96.2324017159457 105.524485529068 108.752391159972 108.554430485268 102.682529249834
-9999 -9999 -9999 -9999 -9999 -9999 -9999 -9999 -9999 -9999 224.360990590316 218.623029578518 178.457928305144 165.586484855733 165.542185001138 158.459596423797 150.406755725802 143.277808334361 132.512242230723 125.136455121849 126.383015815646 125.986603111494 122.258832035838 91.908305853533 76.2931471547341 75.0635179169314 75.7491380998143 76.0341496999599 78.2435296166292 79.749403443608 80.7858129546173 82.9993243990235 85.3508391500345 86.7915475733705 86.7059343827795
-9999 -9999 -9999 -9999 -9999 -9999 -9999 497.874425741353 186.029873296722 -9999 223.229854526887 201.558855859723 189.283023109405 174.50282533672 140.486396961801 117.906099887839 116.38606031606 129.215833511376 139.959406085522 132.713486551764 132.211318375384 130.319092333953 120.500990283659 89.1180518179132 76.5972765369012 73.4230820685173 74.2808648927451 75.7566989120191 77.95949445865 82.9560593181265 85.3325477722004 85.0057446959805 82.7808703475821 82.1306626347271 84.9077703261226
-9999 -9999 -9999 -9999 -9999 -9999 -9999 31.9479035414163 92.3188691909528 155.952918144636 234.765678123328 204.2026571609 167.311706607129 113.523442243446 82.7095685369108 75.6288808605592 74.8666500225505 78.169882347975 99.6636995272678 125.386090182914 130.335507942681 127.393865916767 115.974734836947 84.6093629294312 82.5794568862615 73.8958939010351 69.3531316800593 71.3801961444679 75.2887154075815 76.0091083526823 78.3305234180172 79.1446082812764 79.0117688382471 81.1668860473184 85.4251826610751
-9999 -9999 -9999 -9999 -9999 -9999 -9999 160.971966916391 -9999 207.789171232103 223.30341937879 196.074568704071 133.941574503995 81.1993990098847 74.3495475604291 81.5836986694676 83.0955494878983 79.5321195892986 76.8586502434 97.7220623078572 117.587768301774 116.973483962653 108.414945693917 82.9254959242481 80.3391955751184 74.6998391355277 69.7764364666913 67.1953851219265 67.0655644849048 74.5785898355745 76.9809558206371 76.429235576053 78.4714876860038 81.8368538656757 82.958311862151
-9999 -9999 -9999 -9999 -9999 -9999 -9999 -9999 184.350823552266 175.571511642226 220.122314003916 187.867017783483 112.175740158945 72.8254177076024 79.8495590928195 84.1261675084534 83.7573918412754 83.7334300415563 75.7963440310013 83.8442149483817 107.88554278781 105.221887318392 99.6098214495168 88.2230107801168 83.7303892447099 78.4959490861255 69.3306129780495 64.6852093913972 63.3008985777216 65.153930416779 70.1056934406127 74.4146076720306 77.5193297893657 77.9591552621314 84.6002319732294
-9999 -9999 -9999 -9999 -9999 -9999 -9999 -9999 -9999 247.166962102482 239.766077445932 188.553180073629 92.8703950742579 72.0920179862149 82.3061100662947 84.1993279909079 83.1807638791886 83.6026074553047 74.7088326741279 84.6566832189892 100.198028954889 96.1145934470002 94.6465263727002 85.8113089759892 84.3198670643302 82.2352701283787 80.2964594551785 66.3686158510506 63.0047852444011 62.1748234100866 66.8875180854366 73.0468837109649 75.3109876181315 74.3094381894545 64.5628703504709
-9999 -9999 -9999 -9999 -9999 -9999 -9999 -9999 -9999 187.896534646215 256.35197967939 163.343059610138 77.4770774669108 72.498942672059 81.4540415980077 83.2052613426495 82.3853802730453 78.2644868750274 78.7920088061591 87.4334027810939 90.5596161771088 93.7868983193753 88.4676269434375 78.7900413049181 84.7355384079249 82.432296618212 85.9613270115167 77.435059327479 62.1190044503744 60.4637742107005 63.6726597026277 71.1286540876546 72.5241032462332 69.7526496727191 64.2024477114776
-9999 -9999 -9999 -9999 -9999 -9999 -9999 0 103.26898645883 309.797230629104 205.074450936649 108.608306348841 68.5920865296003 72.898036832393 78.0533007268289 78.9860513885624 77.4219629466288 77.7862067181974 81.7681326811184 84.154658485753 86.9399440509502 87.0724847950164 79.2258505674864 78.2745032088559 81.6502676883418 79.3741678560268 79.0941261603134 83.8010927643843 69.498247607264 61.5391845222544 62.8504567208548 63.1294419066489 70.5404586170134 66.6543616188565 60.5293618391998
-9999 -9999 -9999 -9999 -9999 -9999 109.716374630984 220.88506822534 273.723901476074 172.932510512178 121.047739780046 71.1379716895717 67.6603898193565 72.7702152689307 74.4271595881622 74.8872748072302 76.7583778549123 80.3006402238353 83.3415900012805 85.7087767622244 86.4061054064967 80.9696741701912 77.0227503578798 74.3262997903383 71.1939640814383 73.4245059653057 73.1407249742566 78.3499595785987 78.6589851199898 60.759115470349 63.1756772060471 62.9255089614908 63.2342677621928 69.8252118712834 62.731928177103
-9999 -9999 -9999 -9999 259.484573521447 290.536101664029 217.516902836863 199.711534955728 157.582725199151 116.071292333967 68.816758735615 60.600158295239 69.9568375563006 73.1729832161069 76.2846144778534 79.378094378268 80.9590831372905 81.0341433287123 78.7095700543792 77.6910387197323 75.7392069699635 74.5287398305927 71.1162018696998 64.9495345395616 65.3608145552611 61.298852432036 64.2270020750232 70.2589146126891 80.7020532166388 60.6525884483247 62.6706433996817 64.001184279488 60.2207961416451 65.4778476251321 66.992080580651
-9999 -9999 -9999 330.000182639636 318.767094123757 271.233905054973 189.192550343887 142.04074714955 106.895582472086 67.677786759003 55.7148385727015 63.9532727160062 70.6979806752611 73.526181446256 71.7993090557564 73.7797258822199 80.3186273822643 75.0693054837334 70.6132079164572 72.7255699489111 59.3155491929671 60.231760929159 56.2568712323796 56.3774153798393 56.247973161855 57.4935500084938 60.1253578488258 66.777993711396 77.6199079722955 60.6832297099244 66.7364569176136 63.0673412510711 58.6863350698016 62.3658482868338 66.1119872036388
-9999 -9999 271.019728885902 277.25993847847 209.359204947088 178.195076489444 137.627162169533 104.710362572933 65.0500824864168 52.4927761815866 57.3177794035259 65.7994978444778 71.881227728961 70.7026970691406 71.1750896959768 76.7647460302798 83.2739451184535 70.8408565550979 71.0500379302894 65.150194854473 56.2126194276734 55.9776743464014 54.8124951283953 55.3498052805249 56.2797704132217 57.9327890405411 60.8231242412791 67.6491465311785 71.1367667560771 67.4231179996159 65.7237338451901 59.457147008957 57.3666932289046 63.8945839176167 64.8822677255535
