NCOLS 35 
NROWS 26 
XLLCORNER -80 
YLLCORNER 33 
CELLSIZE 0.5 
NODATA_value -9999 
-9999.000000000000000 -9999 -9999 -9999 -9999 -9999 -9999 -9999 -9999 -9999 -9999 -9999 -9999 -9999 -9999 -9999 -9999 -9999 -9999 -9999 -9999 -9999 -9999 -9999 -9999 -9999 -9999 -9999 -9999 -9999 -9999 -9999 -9999 -9999 -9999
-9999 -9999 -9999 -9999 -9999 -9999 -9999 -9999 -9999 -9999 -9999 -9999 -9999 -9999 -9999 -9999 -9999 -9999 -9999 -9999 -9999 -9999 -9999 -9999 -9999 -9999 -9999 -9999 -9999 154.246063247886 -9999 -9999 -9999 -9999 -9999
-9999 -9999 -9999 -9999 -9999 -9999 -9999 -9999 -9999 -9999 -9999 -9999 -9999 -9999 -9999 -9999 -9999 -9999 -9999 -9999 -9999 -9999 -9999 -9999 -9999 -9999 253.711143845878 293.275738058278 75.2798630930333 59.9490527707654 -9999 -9999 -9999 -9999 -9999
-9999 -9999 -9999 -9999 -9999 -9999 -9999 -9999 -9999 -9999 -9999 -9999 -9999 -9999 -9999 -9999 -9999 -9999 -9999 -9999 -9999 -9999 -9999 162.355853213551 149.606348930093 107.1775185402 135.197446384664 67.3238918981928 -9999 -9999 -9999 181.774803802944 123.254392529604 90.0626264929557 70.4347195305374
-9999 -9999 -9999 -9999 -9999 -9999 -9999 -9999 -9999 -9999 -9999 -9999 -9999 -9999 -9999 -9999 -9999 -9999 -9999 -9999 181.985757009628 155.063766508246 151.21461901476 110.209251687716 88.8733372154222 69.1510881973742 131.229828632327 191.374844712422 -9999 -9999 191.903056298986 113.428859475148 69.3253770375725 59.1494276941665 54.0826366343776
-9999 -9999 -9999 -9999 -9999 -9999 -9999 -9999 -9999 -9999 -9999 -9999 -9999 -9999 -9999 -9999 -9999 -9999 -9999 104.071898835418 95.0885888025531 77.6249044402281 75.3112865643545 75.131702217456 66.256901578887 57.9394847332941 80.4045242789615 204.402444624726 172.145387030776 192.819724145442 110.88366383242 81.1223492659115 75.9271330259333 59.15118777782 52.7972705379195
-9999 -9999 -9999 -9999 -9999 -9999 -9999 -9999 -9999 -9999 -9999 -9999 -9999 -9999 -9999 -9999 -9999 -9999 -9999 123.434536398312 64.87323831987 60.9056779079014 61.4605961934732 61.8579216211772 59.8016225731582 58.5783669037245 61.0845580086129 72.4302329039866 78.8248555436464 69.5477876223026 58.7159439374035 54.3760236122528 58.3895317344891 57.1696146451413 63.8072061939398
-9999 -9999 -9999 -9999 -9999 -9999 -9999 -9999 -9999 -9999 -9999 -9999 -9999 -9999 -9999 -9999 -9999 -9999 -9999 83.4752637689529 82.8973424173289 64.6938318477147 55.3888998830542 56.1278909210574 56.1805215530171 55.9741120222404 58.1509001654764 59.6687262523392 60.7826852970754 58.1485515991723 60.8464768764984 61.8974399178296 68.0041752603848 69.2604555925702 71.1897360566114
-9999 -9999 -9999 -9999 -9999 -9999 -9999 -9999 -9999 -9999 -9999 -9999 -9999 -9999 -9999 -9999 -9999 -9999 -9999 13.7136886730301 109.647669615454 69.6896299884331 59.6836129886474 62.1632833238041 62.4671139376811 54.0833860753493 46.8260284784937 61.9782727688837 60.6543243389606 67.6348087173787 72.0518395798852 75.2640701783318 77.9813571783033 75.965269838928 73.8968133676779
-9999 -9999 -9999 -9999 -9999 -9999 -9999 -9999 -9999 -9999 -9999 -9999 -9999 -9999 -9999 -9999 -9999 176.440240694929 134.50093944649 140.407922651479 71.9269536801745 74.2548762853815 70.5715039231007 84.4415595457617 61.3541841486328 68.1535420493767 70.6071966183711 64.9265741838084 68.3086061899905 72.4002445164338 72.394442390959 73.196311735714 76.3258470957861 77.5459184365352 78.1277885866604
-9999 -9999 -9999 -9999 -9999 -9999 -9999 -9999 -9999 -9999 -9999 -9999 -9999 -9999 146.372300594457 147.484150553405 104.630738969163 79.3583459189305 79.2874697650362 94.3498621328846 102.177179978182 76.4306487810809 83.7233976682463 82.9284417034834 76.5523567138956 73.5313067287043 76.9322391190273 79.5225354243216 76.9548544914365 71.4626757553249 70.2548633331148 71.322899939192 75.7511943639893 66.5051933794183 73.8048152218341
-9999 -9999 -9999 -9999 -9999 -9999 -9999 -9999 -9999 -9999 -9999 -9999 302.63854522233 144.23934379698 109.735209652715 95.8554931072088 99.333219854714 97.6487094456188 89.1033842339951 80.3021171954143 74.119324165992 75.9346994231937 86.961462265006 102.213562557081 117.331267882639 116.20953845643 102.527433745481 102.952338172014 102.90648894149 84.9716677530143 71.8050391063913 68.9508687423086 67.34828688993 82.8464004548394 94.0360444085397
-9999 -9999 -9999 -9999 -9999 -9999 -9999 -9999 -9999 -9999 -9999 -9999 118.850390265276 103.551870439849 128.77331669216 136.836815690822 138.583534114635 126.363405691071 119.815829949296 113.900304615124 124.099798177169 117.483908359735 117.717575098024 100.649177515315 92.9225820435568 85.6210110952627 79.2103683745079 82.7628145869847 90.4009780070665 95.5198840276711 81.0355819091936 68.1583672013634 79.6439874798969 87.4527386843239 83.9136284253285
-9999 -9999 -9999 -9999 -9999 -9999 -9999 -9999 -9999 8.72359632136064 6.28567811526003 216.159620125218 126.955980503625 134.149900094624 149.532648842275 135.574404180331 128.239319276962 135.112267662695 128.366865942472 120.43712448929 105.963307712715 85.2339158533948 78.0161468823975 72.5280950004379 72.2116871344318 72.4105321419901 74.5305658201942 78.9366599764632 81.6263046330605 90.0280424331766 83.2085658975211 75.5625126335209 86.7749949995341 82.7166816139269 83.7086820622893
-9999 -9999 -9999 -9999 -9999 -9999 -9999 -9999 -9999 -9999 202.875410461426 181.757257197322 167.909938251579 162.347952708052 152.929300875904 145.503827647031 141.904110950919 130.41297089571 82.6381559546846 88.0523860087343 101.379092121557 86.0284564184076 78.8294640153499 82.2202015348553 85.8021539724592 82.9570084141561 79.0506811371028 77.4109695183951 77.9442255405089 82.9390837740221 81.1196957385153 78.3599754822076 89.0342565112235 81.5044981525553 80.2868674503659
-9999 -9999 -9999 -9999 -9999 -9999 -9999 496.344377915949 186.951584953272 -9999 198.42132908381 164.731539292585 179.635267596881 194.228842364099 182.899759085306 166.938480877325 155.729905436045 140.447583813146 97.1141555843825 88.1349558109329 94.1564343230495 87.5860722903194 88.0993250669448 88.0938042306188 76.619422559354 69.3987820773239 67.2542268066367 68.2517964804154 73.4274251476992 82.9111536434983 81.5856197998484 80.8917539240055 86.3857730711515 87.3784605394816 79.0937780582727
-9999 -9999 -9999 -9999 -9999 -9999 -9999 30.6861730722262 91.1565946631411 116.500989961887 179.671567545029 204.861792448396 220.262320900432 181.262948270272 153.339290160173 141.542173887497 139.491177894487 138.892635326876 120.062682348958 106.20499728327 94.1807642532133 92.7977662535891 91.8430583046378 71.8865986129979 64.4260448208702 63.8190694794155 63.5085108625333 65.6780005782845 72.9226026870888 82.4605730986544 86.6655740407105 74.9802395911686 76.1851412468945 85.584887892322 84.4610627340161
-9999 -9999 -9999 -9999 -9999 -9999 -9999 148.725981830244 -9999 142.872370707137 199.377166553928 236.218699082128 175.901569591981 126.242900991776 96.7657519574355 84.2143750773605 83.6865691815684 93.8258511485988 107.126168979406 106.030483576345 100.906408330307 100.154070586592 73.3598647500852 64.6023647126759 62.4401436272546 61.5517104041743 62.2984722616484 65.3887043112039 73.0806583496684 79.9222880585693 97.1815600882457 76.9453537372779 74.6156607039312 84.380888335276 86.4430815040419
-9999 -9999 -9999 -9999 -9999 -9999 -9999 -9999 110.424604916571 132.3853273545 259.341253325653 225.308162688232 127.760276401863 80.5222108916092 68.6620070025889 66.1747748809395 66.6839926964522 70.2693625412073 81.9517522335029 91.9490413008916 99.8208441208806 81.972809890617 61.6984586653637 61.4765856477795 61.9268016384086 61.3668445967451 62.3210393966049 63.8752130629729 76.0393234784275 78.7623701630781 89.536129277858 100.122011148666 91.303879308178 89.5851609225524 80.5638301236404
-9999 -9999 -9999 -9999 -9999 -9999 -9999 -9999 -9999 235.056408531326 356.512589227254 192.560613397435 88.8985040732763 72.525074871305 65.5125064023259 63.2450359291364 63.8508634049136 66.1301718288569 76.5049253538473 88.3954085444167 95.2876304434271 64.2801057266621 57.0049854296992 55.4729806135104 57.7786180747218 59.9049846270659 58.7935824267385 61.0808437316874 69.8208788713682 81.7712948029071 88.036887973796 85.5005890056102 84.0141924437548 77.8944315962981 71.633358006057
-9999 -9999 -9999 -9999 -9999 -9999 -9999 -9999 -9999 211.252683049508 336.592341952817 149.527622310486 83.9876662650214 75.0165808614857 71.8930798877943 67.7783703684625 69.0915319004778 73.9873135557037 84.0953181589178 92.7051595115272 66.7083945297636 59.1394864329698 55.5473104698242 54.7043466471305 55.0293259047908 56.0306213382608 56.9633296111113 58.0064047616665 61.9358154627454 65.7277000031876 73.8112082665404 74.9308635776123 72.9840031694018 70.6451904642014 63.9750928387391
-9999 -9999 -9999 -9999 -9999 -9999 -9999 0 71.4639986368319 405.40413456845 233.055854054224 106.81564273519 93.8759011217577 79.3282897212189 75.3043784802973 75.0888827968659 74.9143813793637 76.9401082264965 81.1980133357514 73.2261694883644 61.4795843945554 59.1820104891392 58.9241563322684 57.1098262071355 55.8212761396432 57.1031243887804 58.6297212612925 61.3868426969369 61.6468616962262 57.2947303828626 61.6263096882303 65.4047326115013 65.2969955104269 67.8556444976443 65.7257614619906
-9999 -9999 -9999 -9999 -9999 -9999 74.6285639265104 146.763458849312 208.275458936959 143.334414331487 101.397031452161 92.796342343854 95.6208928163437 94.734759340481 85.2488560523606 75.4916704754312 74.5446668116205 77.2243578256423 77.7987261784863 61.8515300150085 59.1609624847923 58.0942491880593 62.3342596065983 68.4794316528532 65.9340641577463 54.2103184471098 48.478998186567 50.6961094694965 58.7663128512033 64.7280576835648 57.298285190302 59.9573825002003 65.7205366796726 65.3608934012926 68.0711934477854
-9999 -9999 -9999 -9999 218.757260785776 196.835786760508 139.403895292047 156.278363528454 133.066651457307 112.67628583992 94.6818005735841 88.0666881331382 91.7850555710043 92.762506166199 89.2873197730513 81.5590441670443 75.1655325829416 74.6744391540653 78.5449415025122 59.8036699028316 56.382616904652 55.9651056947471 63.5970961367007 70.3098501793859 72.8944939263753 71.827389312902 61.5297536773957 53.2078003012287 55.0590509097695 61.1066691321573 61.7760249976665 57.9246401384704 62.1439360826936 71.357791381223 64.0353298120592
-9999 -9999 -9999 237.858667824819 207.094113813653 167.804839548174 160.514939948671 130.746386649195 119.973572761911 111.443796238676 103.895505351249 98.9284549015785 97.3377164080716 94.536236271263 86.864001013866 76.6748708649674 72.4753165347244 69.7202181008011 72.2773498174007 70.5963164425341 65.3611695833108 68.933562642117 73.8797694559748 73.3476247572767 66.5517614710498 69.0699343397455 72.7532149052408 67.9130936976373 63.0204919688747 62.4846657331733 60.811948823714 56.4197801139083 59.464639435526 58.0565182874653 56.3065603257325
-9999 -9999 192.21134860437 166.189705130687 129.778468486399 142.109703387814 128.620260344377 119.409417254387 112.736686930157 106.295535885445 101.427325330124 97.9590360684789 93.3279877140528 87.18587794591 76.9395301470878 67.6667727108616 64.192503051901 63.9259775379258 66.4777678162181 70.6060517696566 69.4594202815192 68.7726695664631 72.2783702357194 58.4352513686779 63.810973371193 63.4336649731223 63.3381973155254 66.1503930146627 63.8417126971905 62.1013696285981 58.7780649194913 53.6118341217189 54.2322361406599 54.0263342540243 51.0609162900573
