NCOLS 35 
NROWS 26 
XLLCORNER -80 
YLLCORNER 33 
CELLSIZE 0.5 
NODATA_value -9999 
-9999.000000000000000 -9999 -9999 -9999 -9999 -9999 -9999 -9999 -9999 -9999 -9999 -9999 -9999 -9999 -9999 -9999 -9999 -9999 -9999 -9999 -9999 -9999 -9999 -9999 -9999 -9999 -9999 -9999 -9999 -9999 -9999 -9999 -9999 -9999 -9999
-9999 -9999 -9999 -9999 -9999 -9999 -9999 -9999 -9999 -9999 -9999 -9999 -9999 -9999 -9999 -9999 -9999 -9999 -9999 -9999 -9999 -9999 -9999 -9999 -9999 -9999 -9999 -9999 -9999 201.317879984392 -9999 -9999 -9999 -9999 -9999
-9999 -9999 -9999 -9999 -9999 -9999 -9999 -9999 -9999 -9999 -9999 -9999 -9999 -9999 -9999 -9999 -9999 -9999 -9999 -9999 -9999 -9999 -9999 -9999 -9999 -9999 222.340780643163 264.4228117594 99.6789780370594 70.1303479659014 -9999 -9999 -9999 -9999 -9999
-9999 -9999 -9999 -9999 -9999 -9999 -9999 -9999 -9999 -9999 -9999 -9999 -9999 -9999 -9999 -9999 -9999 -9999 -9999 -9999 -9999 -9999 -9999 101.059979816257 90.2078817110276 82.4982251360675 110.566739712474 57.1611589980249 -9999 -9999 -9999 54.6868383044234 57.6649238234232 54.2893672144933 49.3170906724921
-9999 -9999 -9999 -9999 -9999 -9999 -9999 -9999 -9999 -9999 -9999 -9999 -9999 -9999 -9999 -9999 -9999 -9999 -9999 -9999 136.067103795135 111.684250076344 98.6917011457033 70.9947522610422 52.598525690456 47.3006202401465 94.242670248476 139.258769172818 -9999 -9999 56.602619189624 54.6580980291357 49.1090994960026 52.2870166359378 54.4533455506621
-9999 -9999 -9999 -9999 -9999 -9999 -9999 -9999 -9999 -9999 -9999 -9999 -9999 -9999 -9999 -9999 -9999 -9999 -9999 85.000794714645 75.413784753274 57.0393221588821 50.3163142460848 47.6662727689572 43.4820622400806 41.7748761504617 62.2645669672524 142.885916144249 136.482343843224 122.874284842027 93.2168143867822 83.0849234109336 75.9732469843313 63.4929437388585 52.1192777921902
-9999 -9999 -9999 -9999 -9999 -9999 -9999 -9999 -9999 -9999 -9999 -9999 -9999 -9999 -9999 -9999 -9999 -9999 -9999 104.159169068842 59.3029668164205 56.6747398012687 50.3577254254186 46.0487257287843 40.9485049680792 41.555880509921 48.9171447597761 67.5642372216763 70.0246815090201 65.9354670981278 59.7881860675705 54.3995599659868 50.4718805850343 44.1753845696719 42.0844059712592
-9999 -9999 -9999 -9999 -9999 -9999 -9999 -9999 -9999 -9999 -9999 -9999 -9999 -9999 -9999 -9999 -9999 -9999 -9999 85.6760890212789 82.217417523782 58.6737548913428 55.5064384344597 55.6918693043161 49.3988294093339 47.546573979477 50.3778891841097 51.5969911217528 52.9396476220507 52.2608691326921 48.5884982881096 45.5983723141426 41.4500431370551 41.8858022218 45.3662951067906
-9999 -9999 -9999 -9999 -9999 -9999 -9999 -9999 -9999 -9999 -9999 -9999 -9999 -9999 -9999 -9999 -9999 -9999 -9999 13.5908382041116 114.216830143966 65.916964386535 65.2617321495231 68.9009955670571 65.4327292037125 55.7924770413928 53.8328569665716 59.3350194931481 53.9800457595495 61.3016819548827 57.3827622830582 50.9600693627746 46.633423046864 46.5631108691426 47.3633817646872
-9999 -9999 -9999 -9999 -9999 -9999 -9999 -9999 -9999 -9999 -9999 -9999 -9999 -9999 -9999 -9999 -9999 133.272813787829 106.473065618367 124.673640765724 81.6408304373307 84.3334635337149 82.3961679106682 88.4873079074451 57.2365871844386 74.3487244576544 72.9810609745456 64.0731994791056 74.3803923553684 75.9683312574171 64.8716849742546 63.0716573198292 64.3285601582801 63.6029474679374 59.2986917460172
-9999 -9999 -9999 -9999 -9999 -9999 -9999 -9999 -9999 -9999 -9999 -9999 -9999 -9999 140.758398789628 157.947988875096 118.51306073456 102.480968184196 91.0902171598357 97.7303131894093 103.900279664797 94.3926261437137 109.139586570499 93.6803521143212 84.289005187383 83.7007264217832 91.7455389250878 99.9184789413312 107.306893251175 105.602701722181 93.6333565348536 84.8963596354096 80.0159343933425 77.6685762156132 75.8042035545083
-9999 -9999 -9999 -9999 -9999 -9999 -9999 -9999 -9999 -9999 -9999 -9999 269.870409205715 135.698584934511 122.440132635897 118.956620444439 109.584841646008 118.857731800813 118.109105681856 138.125440107913 98.8156141954135 114.255151668224 115.7686001992 108.827043533317 105.857765423488 99.5021317458693 93.1422183568354 95.5109648060877 89.519715289863 76.7779205678072 73.8646944502844 82.0396833433003 85.0866451128816 83.8350889475417 82.4822679772492
-9999 -9999 -9999 -9999 -9999 -9999 -9999 -9999 -9999 -9999 -9999 -9999 113.384012900866 118.52663459208 131.059755790037 158.131117663311 188.879461190551 187.820179052245 174.95840189731 160.771341145498 152.34811186101 148.950979932471 142.642542308952 137.169792687408 132.894502907221 128.681522824029 116.174236775062 104.690562977933 99.3413621189683 68.7556250307382 71.9444115163803 82.2568530927148 79.3477923640683 72.3404930369067 75.9408811580411
-9999 -9999 -9999 -9999 -9999 -9999 -9999 -9999 -9999 8.86105514987806 6.37503660642405 178.945572595285 131.020166060427 138.552819865877 171.006828211146 195.350032282634 162.123208416646 127.023706135199 119.014241083906 114.51327387429 105.396303725412 96.3396810491368 82.1689324764059 72.3354324267225 79.0674813100405 93.2916834938372 108.818896298099 115.134406333599 113.959242107942 86.8181475702255 71.1185074685904 79.4365666448592 83.7805564580875 75.0045715590852 77.1529574404264
-9999 -9999 -9999 -9999 -9999 -9999 -9999 -9999 -9999 -9999 195.228740985578 172.46766767397 165.936966608841 178.027192589089 204.801032160792 172.12443360451 125.249703511694 124.96002765635 125.510949477783 120.676170545921 121.82912075578 121.649767078848 117.602890921926 108.66158385712 100.904830417417 93.9330959752802 84.6317331265975 83.743568432016 90.0923867185331 83.7776853654528 72.9381290387424 72.9409894838084 84.0447271371576 80.419722390461 72.9908124930349
-9999 -9999 -9999 -9999 -9999 -9999 -9999 451.657436706218 179.338255245089 -9999 158.634217456671 187.167140415835 212.077699941142 227.394738096674 214.752003491376 182.311339824005 144.145513752181 123.387501278996 106.140610157273 91.2138679290666 88.6813096821149 94.5640439162057 101.484519419402 105.431870221111 109.349464510309 111.826906763185 109.37210390666 103.566070990194 97.5438610020094 90.7188203464308 79.8512366608878 72.2220915396091 78.7015185953787 87.0676551096123 77.4441608825001
-9999 -9999 -9999 -9999 -9999 -9999 -9999 37.944940787093 98.3642558632349 109.214238912457 204.113575027539 227.552544913287 233.263115175518 199.19384419712 167.197173068984 150.903519818872 149.120041580093 147.412722261794 134.304588606251 110.013804648563 88.6595531399285 79.8523373607271 79.174774053842 85.3034495862859 95.612696546501 106.058927138679 104.826739445369 93.8304291808661 83.1509479585479 83.5532843894635 86.6542679039183 85.3923884858386 84.3546929559064 84.569350861928 84.2318345634087
-9999 -9999 -9999 -9999 -9999 -9999 -9999 218.56383140271 -9999 200.801055632843 221.009058967211 246.361894765534 205.587558901755 142.438006003996 100.457263391213 84.0822273376032 80.1175891901645 81.989598466424 88.6864606068103 98.4122323613116 107.619429623122 112.257009022875 113.108517123034 111.45430719335 109.165229302382 106.184552722415 98.6355263863603 75.188446491636 49.2017709248908 50.7797264120357 65.9031010503301 81.4609525219657 84.3567020884966 80.3024919452716 82.3035182000519
-9999 -9999 -9999 -9999 -9999 -9999 -9999 -9999 164.612010547091 186.175815333377 247.736631356411 237.295398737266 161.344120490608 91.6459750747931 69.215342913749 69.0795152686056 68.7097638714674 68.1979302498905 67.9586083840934 67.972353876942 69.151365058778 73.6519010164146 80.1991683127808 88.4560331082014 94.6941007137353 92.6015899273991 88.3466460983929 56.3663979907772 45.5231566019975 45.139051139779 53.3806679321693 68.5819869038345 72.0504339117557 67.4649538923575 67.2176531419555
-9999 -9999 -9999 -9999 -9999 -9999 -9999 -9999 -9999 238.230753946305 288.883594445605 226.029328222851 117.275843647668 75.4850021603186 65.3353360590366 66.3975421401546 65.9413925519429 64.9775083093682 62.8643037055291 62.3608459626495 63.5755643931065 64.2855096663664 66.0854553019284 69.2968706862641 74.3357000677824 79.067145656135 78.0940639260813 48.7870519892229 49.708837740777 53.5520487144376 61.4254213416511 63.7529609568825 62.9343351426202 62.4545252220472 58.3190016499411
-9999 -9999 -9999 -9999 -9999 -9999 -9999 -9999 -9999 169.334256259166 314.128893366915 182.399861814732 87.1151432957439 71.3135895354422 62.1799378764277 61.5027825430832 63.8268606160116 64.8064331077404 63.8136595117077 62.4116691416806 62.9209789371137 63.4489572123837 64.1107406700653 65.9182200316172 69.9672238000931 79.279086202762 57.6231091429894 54.0151422242106 55.3051527312935 53.7357694847368 48.2426525469694 44.7056804520428 43.7568910806585 47.8254465861282 54.1727239293261
-9999 -9999 -9999 -9999 -9999 -9999 -9999 0 89.3110516652949 246.366838936647 198.643302441345 103.024789587063 76.7473870688411 66.2778950640986 64.963525640807 56.7833314338666 58.2499632220634 61.4010039192193 64.4956169062062 65.397501049486 64.4903419626803 64.2721220372791 65.4412785851711 68.4603799412539 72.8510504568056 66.5762367495398 56.4635677920776 50.0712578809506 47.5557082800507 44.8333155096129 44.8771617103555 48.4217324710949 47.7480063021301 43.9122185934495 43.320732503818
-9999 -9999 -9999 -9999 -9999 -9999 105.60855813184 200.608495919262 239.173757766243 155.882794965899 122.399878315783 90.2620003773452 81.8034177785821 66.2174490931792 63.7285310205553 63.6578939142132 56.3229225972234 55.0209735100165 55.9692849592225 57.6431794787187 60.4003732373102 63.3844496035551 67.0204789482509 69.9298949791333 65.8448886110581 59.085949178092 55.2813466779645 54.7268642720074 55.2736150746299 51.8624538143097 50.9246380038602 50.6319487465742 42.8511888860903 45.6160477230109 44.2822680147411
-9999 -9999 -9999 -9999 263.927222002459 277.979140898421 198.100093651081 181.823345939083 149.024304643822 139.501963909859 112.448485061879 94.1559565435131 91.5388564240906 77.0656577079894 61.7690403241534 57.6938062960095 61.2193861485435 55.6503716978195 56.2177970701295 56.4533235564051 56.1824712499355 55.5661485064739 52.4865436287388 52.5332068164198 55.5901912972383 57.1888454592205 55.3481645440677 53.7349256867347 46.6870629047817 44.2205209442639 44.7248856352609 39.7985092306572 38.7749879501683 41.7494795943584 43.9836681306543
-9999 -9999 -9999 320.379292297364 270.811442499372 211.058213587384 172.498967438939 142.539508906291 129.141259771117 122.888496974683 113.911968159566 104.778083115023 98.158072611813 85.0814173834979 65.9917126918776 48.4166955324309 51.68383185866 57.2116016770994 57.1941688924376 56.6355851325406 56.7379951382036 55.6014282125425 52.2179485855658 49.593277563053 48.6395982381082 50.2636791629096 52.126563069186 40.9919485268812 38.8677941095085 39.2287369760247 39.9087829117192 40.2108183696465 40.3785639227116 41.5067534498201 42.0263675218914
-9999 -9999 260.283213452979 212.258741861123 153.068746569144 157.492577367869 137.538660232444 128.945828676164 123.115596277227 116.66179291302 110.906289919662 110.488661998923 104.418462847883 86.1922804318151 66.5311928028861 48.5131113868653 46.8880474939185 48.0214855355116 50.8803650917493 52.2909871218989 51.8797400051017 50.0518426479837 48.6896350312105 47.4792712308367 47.2754413994787 49.7504206372012 42.3407152378884 39.7181730896002 39.5133235611956 40.1965399418266 39.9211066844335 39.5647895108567 37.2047329979238 36.3332207827903 37.8938400584216
