NCOLS 35 
NROWS 26 
XLLCORNER -80 
YLLCORNER 33 
CELLSIZE 0.5 
NODATA_value -9999 
-9999.000000000000000 -9999 -9999 -9999 -9999 -9999 -9999 -9999 -9999 -9999 -9999 -9999 -9999 -9999 -9999 -9999 -9999 -9999 -9999 -9999 -9999 -9999 -9999 -9999 -9999 -9999 -9999 -9999 -9999 -9999 -9999 -9999 -9999 -9999 -9999
-9999 -9999 -9999 -9999 -9999 -9999 -9999 -9999 -9999 -9999 -9999 -9999 -9999 -9999 -9999 -9999 -9999 -9999 -9999 -9999 -9999 -9999 -9999 -9999 -9999 -9999 -9999 -9999 -9999 250.709108317679 -9999 -9999 -9999 -9999 -9999
-9999 -9999 -9999 -9999 -9999 -9999 -9999 -9999 -9999 -9999 -9999 -9999 -9999 -9999 -9999 -9999 -9999 -9999 -9999 -9999 -9999 -9999 -9999 -9999 -9999 -9999 338.852289352551 260.177081418965 118.413847863601 78.0682844242082 -9999 -9999 -9999 -9999 -9999
-9999 -9999 -9999 -9999 -9999 -9999 -9999 -9999 -9999 -9999 -9999 -9999 -9999 -9999 -9999 -9999 -9999 -9999 -9999 -9999 -9999 -9999 -9999 263.086334387027 366.736457651355 256.933511169266 208.365206463636 45.5910925702766 -9999 -9999 -9999 244.906984564275 241.568339434786 224.311399687543 198.515048101998
-9999 -9999 -9999 -9999 -9999 -9999 -9999 -9999 -9999 -9999 -9999 -9999 -9999 -9999 -9999 -9999 -9999 -9999 -9999 -9999 252.707567836087 272.016066786559 361.452593604105 261.392034791804 132.811926382754 104.548117721604 136.301794288645 109.316057445339 -9999 -9999 134.044705561086 178.080120046317 174.355662849161 176.962346427132 164.217774897959
-9999 -9999 -9999 -9999 -9999 -9999 -9999 -9999 -9999 -9999 -9999 -9999 -9999 -9999 -9999 -9999 -9999 -9999 -9999 268.070972771734 273.89647629508 189.304717307878 175.783455774801 110.002416362656 115.802888584095 150.885222175703 133.741034235596 160.82388659057 136.300841752684 129.915604400033 134.772512132889 140.883281533939 143.889184006206 140.832653912512 145.460824908966
-9999 -9999 -9999 -9999 -9999 -9999 -9999 -9999 -9999 -9999 -9999 -9999 -9999 -9999 -9999 -9999 -9999 -9999 -9999 285.27841319633 134.784462626294 143.167787514533 123.591738242865 159.552964259058 137.61851174122 115.693599151906 109.840570484265 118.367345916373 117.429769341328 116.618312392224 117.13832087657 121.029097348627 125.003107297839 121.359823165344 122.334884161306
-9999 -9999 -9999 -9999 -9999 -9999 -9999 -9999 -9999 -9999 -9999 -9999 -9999 -9999 -9999 -9999 -9999 -9999 -9999 263.63137716096 151.896004652836 168.479181793168 128.699315664474 107.105618043447 108.374778336606 117.225228650233 142.488603441726 128.180420483138 113.741158455597 117.466951160933 138.313737662507 174.632169593647 196.523692478029 169.404987235621 162.724979941599
-9999 -9999 -9999 -9999 -9999 -9999 -9999 -9999 -9999 -9999 -9999 -9999 -9999 -9999 -9999 -9999 -9999 -9999 -9999 58.7052397665093 243.315175177219 199.634893400881 241.371105376784 246.006081241747 245.717030087572 164.978562525209 201.526935929476 186.316817481164 131.01643029527 162.419820974084 193.407697270574 248.802715425549 280.514539957437 271.37978120302 318.169102972416
-9999 -9999 -9999 -9999 -9999 -9999 -9999 -9999 -9999 -9999 -9999 -9999 -9999 -9999 -9999 -9999 -9999 203.433430194857 168.796206328109 143.134804088991 210.575526985148 252.709147462895 247.369578461429 250.973322532334 213.467838224998 229.27126135569 280.664213459784 254.552784068796 210.265630574527 279.57411962418 277.539238480487 287.768271268164 300.573426132441 331.391413234102 278.350169170159
-9999 -9999 -9999 -9999 -9999 -9999 -9999 -9999 -9999 -9999 -9999 -9999 -9999 -9999 175.007440478987 215.069431811899 210.861342019383 165.100134217968 160.498160698518 176.661658813927 234.903136480247 244.228754965478 277.635826080464 268.555124784564 299.175453277806 328.284588249761 327.450495477568 378.187275928415 449.070293812593 451.760871505513 410.026397469576 387.455385340472 357.365925241291 333.47503676758 291.995337091599
-9999 -9999 -9999 -9999 -9999 -9999 -9999 -9999 -9999 -9999 -9999 -9999 516.554606580468 262.744788197238 178.900859972408 146.865628130193 139.481381642761 164.74900713391 197.595800753236 220.022340895477 246.328462622374 281.698289660265 342.257372280717 387.587457750164 458.330821332105 459.091746380808 466.36711651187 453.848287261202 387.03725980098 341.414606839292 318.805311115924 303.269195475671 342.298766787794 414.829359256663 372.329061622867
-9999 -9999 -9999 -9999 -9999 -9999 -9999 -9999 -9999 -9999 -9999 -9999 235.575765056925 173.58634029843 167.157313416816 287.701637805174 345.892387190176 367.814341525492 312.590635495867 314.057356072091 450.963350269006 574.922254640988 598.094121428997 508.807387136459 455.730107724727 488.169442746261 523.181492172565 471.868827077597 383.413284379248 355.01962011041 315.598136597441 265.197707568095 239.519557454693 260.321913892488 368.297315278596
-9999 -9999 -9999 -9999 -9999 -9999 -9999 -9999 -9999 17.5332035945076 14.4785580561762 369.034007747362 175.801189623036 217.513126095507 363.829937619777 439.984298944026 459.620312097554 380.567640661307 468.312334797527 506.3311826196 505.744365289337 532.149998147582 588.466747527256 592.236565091826 536.450087628048 495.034041404512 484.620398278888 499.097906718425 416.820385591297 383.997917007747 358.036121250191 300.870942462537 236.167805399705 215.539699755629 273.752854204754
-9999 -9999 -9999 -9999 -9999 -9999 -9999 -9999 -9999 -9999 349.106778599667 215.878099325987 246.464623001904 368.489286297883 462.986270027894 477.505763808707 375.766560466227 422.185832885494 452.838812785517 453.035491782215 469.587720750883 557.016618227632 622.701015315025 568.087468836894 515.142491151354 471.699596190373 481.520914396564 533.490199685682 466.798733447373 420.267999615084 382.873927022575 322.911655718937 262.001647234143 151.081588924414 183.920109438613
-9999 -9999 -9999 -9999 -9999 -9999 -9999 800.694318498901 289.466121474474 -9999 257.767295411917 365.486695197911 528.934170220313 573.21471327605 539.625903315105 486.079535886708 552.365048634035 454.052894287832 411.756808658984 414.666844584532 513.114304600321 632.860434698048 616.462766308674 522.384673725699 441.856250036889 434.670252909056 423.314338104097 469.799833331075 466.259391659955 429.174375265014 351.844144896416 328.53055069541 278.499364846869 123.107273183343 158.54200316182
-9999 -9999 -9999 -9999 -9999 -9999 -9999 48.4519786101092 135.727715699756 185.590951854057 344.922978742305 534.091408593034 593.322313363614 569.077133422111 560.740922491018 528.461534139768 464.662363086013 482.230394458885 600.178085094714 610.932637966936 604.558070346241 628.064225209775 574.386623736513 453.201177466378 373.854326965201 430.085830733157 453.163343822815 516.009074996545 489.25379643583 392.273881169588 290.510776361999 292.363515849354 320.758071053263 206.401070484382 219.545150572422
-9999 -9999 -9999 -9999 -9999 -9999 -9999 268.309123489888 -9999 278.225685281544 465.881548718355 597.013505975194 534.398292213102 500.106341770804 433.060706427697 359.53122120598 410.458205005641 494.347011812461 508.312828634424 539.84357061552 567.444163581864 605.167369442111 485.292403303928 326.733909717964 413.184443403866 492.830379398937 505.673461765291 562.945223250823 412.684351515248 223.063347323379 180.986654843563 287.64814717784 308.949603385168 239.280812024416 242.054111773053
-9999 -9999 -9999 -9999 -9999 -9999 -9999 -9999 224.709703881397 294.025813995614 488.694720060142 550.311873715044 519.963844635747 524.449565495124 295.409369592012 236.049992434324 244.996096232824 395.908282441398 490.758788255234 497.713068276052 603.094312981736 492.726049610605 364.348394303946 301.841361353027 418.093111641075 491.977033008808 556.159379698854 617.493671654989 448.790484430246 262.494759819109 265.657970040826 346.435527958707 353.75622848622 313.431499621779 294.199809536723
-9999 -9999 -9999 -9999 -9999 -9999 -9999 -9999 -9999 363.366891424997 563.815445898436 540.072004491048 557.461417434323 597.247480079193 398.271539864792 308.107239091077 354.698651348801 452.297770359088 532.713650100643 562.615630744762 411.643985079377 453.463011208635 468.283374331544 309.185178456488 409.361381825828 466.667827844761 538.365984642396 595.413582956173 467.371065248028 303.0446079739 321.313096016347 392.411650601029 466.047489281212 388.884138612689 318.202251238928
-9999 -9999 -9999 -9999 -9999 -9999 -9999 -9999 -9999 304.289921190455 548.92509334198 477.61378889615 490.297825768532 569.391266965422 589.514176369315 557.503376176709 568.457910715326 563.526334394375 478.675802063242 419.620557222388 421.547420614591 399.035869466919 450.652619210205 539.344619922372 502.463073818269 588.401399309985 669.415024736245 497.869190323091 355.989501310723 328.141263111837 338.097722388846 382.221472542232 427.458587360078 358.285665736738 283.160276869329
-9999 -9999 -9999 -9999 -9999 -9999 -9999 0 80.7260014921748 463.978935021785 478.257769663674 411.353152677591 406.365064978714 384.039046939883 378.826280019354 384.371503356427 369.439150074821 348.567342843215 344.569975558846 362.923818565858 437.272770797061 411.715600867873 389.725122542756 460.325202437397 577.370988636714 663.371301043191 572.205407495886 333.010420560237 347.984681685843 340.953858655633 339.701868479055 321.141682332107 342.853943235924 346.945268768107 304.604104119522
-9999 -9999 -9999 -9999 -9999 -9999 87.2938530062608 179.889282116526 355.18534258153 418.763400097837 425.170643287641 395.953022065782 381.466100181053 409.86954574358 399.684335870677 389.11308208646 367.065598096936 359.498652095799 352.345105213628 363.636234171576 459.914063919023 418.719532802885 400.531957884406 404.868996078747 492.700672842424 613.298459618455 594.1815992424 390.162161371832 394.877763094692 427.546414983114 449.943302054287 423.249606635161 399.403791383891 392.30057854882 377.385540921853
-9999 -9999 -9999 -9999 261.744295283716 227.710828917367 262.847209873304 325.465046091707 384.724001657546 391.086400191504 395.76406220732 403.251046373234 423.631605614214 443.581932418128 443.556684621749 426.042968871039 400.522784673579 364.548398526192 343.304286113744 394.127133152879 478.786957867863 403.792474009983 430.534776864651 384.788897968913 453.700321766745 558.006010665331 560.461638242188 420.997038539021 433.201278247691 485.983874775215 481.002018341547 416.626397165996 389.746780096447 364.762165343258 384.120649007559
-9999 -9999 -9999 302.611706139492 266.466769718339 281.007112583486 349.587925530424 383.649374809339 405.936565192753 382.358472171493 354.773388246229 347.832316296497 348.499632814208 371.069203603324 418.252042589801 470.898355475739 495.678392374041 478.531636015439 452.749155498215 492.274079665713 479.100088779021 366.472170816902 391.888924551367 388.456853412492 474.951924474618 524.606332851275 538.079400805315 548.556124044128 496.441463120976 518.402302043792 488.21142222008 434.042237830142 397.924652376067 333.907437374723 383.159217815399
-9999 -9999 220.076170921326 298.115331759819 348.416914175712 353.241937340405 379.947996903812 395.682243708713 353.570098279214 336.097114213399 361.371303042796 369.605118051663 381.143900427277 361.479128233443 342.382858608709 349.657902817979 391.616672228562 426.754478894774 440.510316674483 425.293289917792 403.569267069461 347.714787005807 384.060834614897 446.759159571088 484.835793242055 512.52300613903 465.232449113962 441.660802253274 493.386776261 457.627008887925 438.241775994618 450.649695067626 344.647786736428 337.451652286502 350.625409944905
