NCOLS 70 
NROWS 52 
XLLCORNER -80 
YLLCORNER 33 
CELLSIZE 0.25 
NODATA_value -9999 
-9999.000000000000000 -9999 -9999 -9999 -9999 -9999 -9999 -9999 -9999 -9999 -9999 -9999 -9999 -9999 -9999 -9999 -9999 -9999 -9999 -9999 -9999 -9999 -9999 -9999 -9999 -9999 -9999 -9999 -9999 -9999 -9999 -9999 -9999 -9999 -9999 -9999 -9999 -9999 -9999 -9999 -9999 -9999 -9999 -9999 -9999 -9999 -9999 -9999 -9999 -9999 -9999 -9999 -9999 -9999 -9999 -9999 -9999 -9999 -9999 -9999 -9999 -9999 -9999 -9999 -9999 -9999 -9999 -9999 -9999 -9999
-9999 -9999 -9999 -9999 -9999 -9999 -9999 -9999 -9999 -9999 -9999 -9999 -9999 -9999 -9999 -9999 -9999 -9999 -9999 -9999 -9999 -9999 -9999 -9999 -9999 -9999 -9999 -9999 -9999 -9999 -9999 -9999 -9999 -9999 -9999 -9999 -9999 -9999 -9999 -9999 -9999 -9999 -9999 -9999 -9999 -9999 -9999 -9999 -9999 -9999 -9999 -9999 -9999 -9999 -9999 -9999 -9999 -9999 -9999 -9999 -9999 -9999 -9999 -9999 -9999 -9999 -9999 -9999 -9999 -9999
-9999 -9999 -9999 -9999 -9999 -9999 -9999 -9999 -9999 -9999 -9999 -9999 -9999 -9999 -9999 -9999 -9999 -9999 -9999 -9999 -9999 -9999 -9999 -9999 -9999 -9999 -9999 -9999 -9999 -9999 -9999 -9999 -9999 -9999 -9999 -9999 -9999 -9999 -9999 -9999 -9999 -9999 -9999 -9999 -9999 -9999 -9999 -9999 -9999 -9999 -9999 -9999 -9999 -9999 -9999 -9999 -9999 -9999 -9999 370.904144287109 -9999 -9999 -9999 -9999 -9999 -9999 -9999 -9999 -9999 -9999
-9999 -9999 -9999 -9999 -9999 -9999 -9999 -9999 -9999 -9999 -9999 -9999 -9999 -9999 -9999 -9999 -9999 -9999 -9999 -9999 -9999 -9999 -9999 -9999 -9999 -9999 -9999 -9999 -9999 -9999 -9999 -9999 -9999 -9999 -9999 -9999 -9999 -9999 -9999 -9999 -9999 -9999 -9999 -9999 -9999 -9999 -9999 -9999 -9999 -9999 -9999 -9999 -9999 -9999 -9999 319.091613769531 278.646331787109 268.657989501953 321.259613037109 369.963470458984 -9999 -9999 -9999 -9999 -9999 -9999 -9999 -9999 -9999 -9999
-9999 -9999 -9999 -9999 -9999 -9999 -9999 -9999 -9999 -9999 -9999 -9999 -9999 -9999 -9999 -9999 -9999 -9999 -9999 -9999 -9999 -9999 -9999 -9999 -9999 -9999 -9999 -9999 -9999 -9999 -9999 -9999 -9999 -9999 -9999 -9999 -9999 -9999 -9999 -9999 -9999 -9999 -9999 -9999 -9999 -9999 -9999 -9999 -9999 -9999 -9999 -9999 336.683685302734 347.691101074219 331.449279785156 296.723815917969 276.823547363281 296.724761962891 -9999 -9999 -9999 -9999 -9999 -9999 -9999 -9999 -9999 -9999 -9999 -9999
-9999 -9999 -9999 -9999 -9999 -9999 -9999 -9999 -9999 -9999 -9999 -9999 -9999 -9999 -9999 -9999 -9999 -9999 -9999 -9999 -9999 -9999 -9999 -9999 -9999 -9999 -9999 -9999 -9999 -9999 -9999 -9999 -9999 -9999 -9999 -9999 -9999 -9999 -9999 -9999 -9999 -9999 -9999 -9999 -9999 -9999 -9999 -9999 -9999 -9999 201.224591064453 250.670272827148 219.165786743164 226.417205810547 258.250701904297 286.923889160156 -9999 -9999 -9999 -9999 -9999 -9999 -9999 -9999 -9999 -9999 -9999 71.5367914835612 64.1452665328979 74.2945327758789
-9999 -9999 -9999 -9999 -9999 -9999 -9999 -9999 -9999 -9999 -9999 -9999 -9999 -9999 -9999 -9999 -9999 -9999 -9999 -9999 -9999 -9999 -9999 -9999 -9999 -9999 -9999 -9999 -9999 -9999 -9999 -9999 -9999 -9999 -9999 -9999 -9999 -9999 -9999 -9999 -9999 -9999 -9999 -9999 206.390274047852 -9999 -9999 157.292156219482 143.438919067383 155.748596191406 163.405654907227 162.460144042969 175.304260253906 201.32649230957 234.92317199707 -9999 -9999 -9999 -9999 -9999 -9999 -9999 -9999 93.0611801147461 89.6671600341797 91.0159912109375 85.1842651367188 70.9694519042969 58.456657409668 52.860424041748
-9999 -9999 -9999 -9999 -9999 -9999 -9999 -9999 -9999 -9999 -9999 -9999 -9999 -9999 -9999 -9999 -9999 -9999 -9999 -9999 -9999 -9999 -9999 -9999 -9999 -9999 -9999 -9999 -9999 -9999 -9999 -9999 -9999 -9999 -9999 -9999 -9999 -9999 -9999 -9999 -9999 -9999 -9999 -9999 208.457946777344 205.923202514648 187.181228637695 157.915435791016 140.633041381836 130.966415405273 122.229835510254 120.838905334473 141.636688232422 179.002853393555 193.220287322998 -9999 -9999 -9999 -9999 -9999 -9999 -9999 76.8926696777344 72.8680648803711 67.5614547729492 64.0161056518555 58.1305351257324 51.6787033081055 48.3510246276855 47.4083137512207
-9999 -9999 -9999 -9999 -9999 -9999 -9999 -9999 -9999 -9999 -9999 -9999 -9999 -9999 -9999 -9999 -9999 -9999 -9999 -9999 -9999 -9999 -9999 -9999 -9999 -9999 -9999 -9999 -9999 -9999 -9999 -9999 -9999 -9999 -9999 -9999 -9999 -9999 -9999 -9999 211.953847249349 200.79850769043 184.382824707031 184.177947998047 148.612945556641 112.658012390137 91.6995849609375 78.8645858764648 71.3841247558594 65.2147827148438 58.9907684326172 62.7124786376953 95.4148712158203 157.628631591797 173.388934326172 -9999 -9999 -9999 -9999 -9999 81.4752909342448 78.2220993041992 70.5865249633789 59.4728202819824 51.1412811279297 47.0758018493652 45.0265350341797 44.5422668457031 44.3926658630371 43.6050300598145
-9999 -9999 -9999 -9999 -9999 -9999 -9999 -9999 -9999 -9999 -9999 -9999 -9999 -9999 -9999 -9999 -9999 -9999 -9999 -9999 -9999 -9999 -9999 -9999 -9999 -9999 -9999 -9999 -9999 -9999 -9999 -9999 -9999 -9999 -9999 -9999 -9999 -9999 -9999 213.089721679688 215.338500976562 207.433319091797 179.62370300293 145.88948059082 113.067649841309 82.1276016235352 61.3608016967773 51.2874145507812 45.9892349243164 42.8860321044922 41.7345657348633 48.9145011901855 78.9992370605469 142.357009887695 208.691268920898 179.264907836914 -9999 -9999 -9999 92.8293685913086 90.1352844238281 76.068489074707 64.6503753662109 56.8499031066895 52.1150588989258 50.035099029541 49.4844436645508 49.1444091796875 48.432674407959 47.2930030822754
-9999 -9999 -9999 -9999 -9999 -9999 -9999 -9999 -9999 -9999 -9999 -9999 -9999 -9999 -9999 -9999 -9999 -9999 -9999 -9999 -9999 -9999 -9999 -9999 -9999 -9999 -9999 -9999 -9999 -9999 -9999 -9999 -9999 -9999 -9999 -9999 -9999 -9999 167.60637512207 188.176498413086 161.131439208984 116.262733459473 84.9338912963867 66.5438690185547 54.1379241943359 45.1052017211914 40.8977699279785 39.7512359619141 39.6875152587891 39.2293739318848 38.7953567504883 46.1444702148438 70.6533355712891 116.12474822998 165.393936157227 157.27717590332 117.144569396973 106.628273010254 106.597862243652 92.5728073120117 82.0115203857422 73.1306838989258 67.5802383422852 63.5388984680176 59.9453239440918 57.4699058532715 54.1280403137207 48.9601745605469 46.05810546875 46.635929107666
-9999 -9999 -9999 -9999 -9999 -9999 -9999 -9999 -9999 -9999 -9999 -9999 -9999 -9999 -9999 -9999 -9999 -9999 -9999 -9999 -9999 -9999 -9999 -9999 -9999 -9999 -9999 -9999 -9999 -9999 -9999 -9999 -9999 -9999 -9999 -9999 -9999 147.714920043945 153.280609130859 135.770126342773 93.5473556518555 62.7294311523438 50.0542793273926 46.7661170959473 44.3206329345703 40.6615562438965 39.0885772705078 39.2717742919922 39.5468139648438 39.0648803710938 39.1611824035645 47.6139297485352 66.8356552124023 86.2890319824219 99.1161117553711 99.8044738769531 97.9626083374023 91.4764099121094 82.647102355957 77.0408020019531 73.4317245483398 70.2700576782227 66.7646026611328 63.6634559631348 60.3127288818359 55.8281364440918 49.3932075500488 42.8306045532227 40.9609413146973 43.1051216125488
-9999 -9999 -9999 -9999 -9999 -9999 -9999 -9999 -9999 -9999 -9999 -9999 -9999 -9999 -9999 -9999 -9999 -9999 -9999 -9999 -9999 -9999 -9999 -9999 -9999 -9999 -9999 -9999 -9999 -9999 -9999 -9999 -9999 -9999 -9999 -9999 -9999 190.665145874023 160.979736328125 109.185646057129 71.8423461914062 55.9575805664062 52.6565628051758 50.7341041564941 46.2860374450684 41.4244842529297 40.0521697998047 40.3750915527344 40.018383026123 39.0662574768066 39.8466110229492 47.3083000183105 57.7447128295898 61.3460998535156 60.5894393920898 60.4896469116211 61.3486022949219 61.6756782531738 61.2984504699707 60.6073455810547 60.4025001525879 59.2018775939941 56.6323776245117 54.3263053894043 51.4126129150391 47.0392417907715 42.5357246398926 40.4332427978516 40.2763442993164 40.4775772094727
-9999 -9999 -9999 -9999 -9999 -9999 -9999 -9999 -9999 -9999 -9999 -9999 -9999 -9999 -9999 -9999 -9999 -9999 -9999 -9999 -9999 -9999 -9999 -9999 -9999 -9999 -9999 -9999 -9999 -9999 -9999 -9999 -9999 -9999 -9999 -9999 -9999 207.854293823242 148.540176391602 93.5875625610352 67.6611251831055 59.090015411377 55.8283424377441 51.1663589477539 45.8905944824219 42.8472557067871 42.5688400268555 42.4949378967285 41.5724334716797 40.268798828125 40.301326751709 43.7204284667969 47.3392639160156 46.7244071960449 45.665714263916 45.8743057250977 46.4444427490234 47.1321334838867 47.5975112915039 48.806941986084 49.2009048461914 48.8102264404297 46.7897491455078 44.8940658569336 44.3829345703125 46.4630126953125 49.9437484741211 52.8752555847168 51.1835975646973 45.4327354431152
-9999 -9999 -9999 -9999 -9999 -9999 -9999 -9999 -9999 -9999 -9999 -9999 -9999 -9999 -9999 -9999 -9999 -9999 -9999 -9999 -9999 -9999 -9999 -9999 -9999 -9999 -9999 -9999 -9999 -9999 -9999 -9999 -9999 -9999 -9999 -9999 287.854400634766 215.102920532227 136.808349609375 96.336669921875 75.8647994995117 63.1307029724121 54.8653984069824 49.1840934753418 46.4059410095215 46.4452133178711 47.6014213562012 48.1593742370605 47.7236061096191 45.6606063842773 43.6687660217285 43.1401252746582 42.928337097168 42.4880828857422 43.2541580200195 44.721435546875 46.4832038879395 48.6911468505859 49.0640754699707 50.0602531433105 48.4177894592285 46.7975463867188 45.614574432373 46.5911331176758 57.8046264648438 75.4957809448242 87.0360717773438 92.6087036132812 80.4662246704102 57.6224021911621
-9999 -9999 -9999 -9999 -9999 -9999 -9999 -9999 -9999 -9999 -9999 -9999 -9999 -9999 -9999 -9999 -9999 -9999 -9999 -9999 -9999 -9999 -9999 -9999 -9999 -9999 -9999 -9999 -9999 -9999 -9999 -9999 -9999 -9999 -9999 -9999 -9999 177.47966003418 149.479751586914 111.131896972656 89.81689453125 73.726203918457 59.9216232299805 52.6388397216797 53.2388305664062 60.279296875 66.6443710327148 68.5077133178711 67.0378265380859 62.8279800415039 58.621265411377 54.002685546875 51.0133361816406 48.8704528808594 48.2657890319824 48.4654388427734 52.7828330993652 60.8452606201172 67.0408477783203 65.7191162109375 57.9933242797852 50.5822944641113 47.1203308105469 55.9008140563965 86.5338592529297 110.938453674316 119.480018615723 126.682579040527 110.778175354004 76.6324768066406
-9999 -9999 -9999 -9999 -9999 -9999 -9999 -9999 -9999 -9999 -9999 -9999 -9999 -9999 -9999 -9999 -9999 -9999 -9999 -9999 -9999 -9999 -9999 -9999 -9999 -9999 -9999 -9999 -9999 -9999 -9999 -9999 -9999 -9999 -9999 -9999 -9999 -9999 147.576293945312 -9999 95.6093063354492 82.4107360839844 71.3251495361328 70.5140380859375 83.0699234008789 104.932136535645 112.243667602539 104.298248291016 89.621826171875 75.589714050293 72.3513488769531 73.5020065307617 68.9724578857422 66.4905242919922 64.6694107055664 70.7193450927734 94.6804351806641 129.946411132812 152.472702026367 143.596145629883 116.064254760742 88.1723175048828 73.0870361328125 80.8684387207031 103.67733001709 119.605422973633 135.61735534668 149.423034667969 147.385955810547 126.795204162598
-9999 -9999 -9999 -9999 -9999 -9999 -9999 -9999 -9999 -9999 -9999 -9999 -9999 -9999 -9999 -9999 -9999 -9999 -9999 -9999 -9999 -9999 -9999 -9999 -9999 -9999 -9999 -9999 -9999 -9999 -9999 -9999 -9999 -9999 -9999 -9999 -9999 -9999 -9999 -9999 80.9349594116211 80.7937240600586 88.0601959228516 110.58861541748 143.149261474609 162.215606689453 148.37548828125 113.327690124512 74.7067489624023 55.1581420898438 68.4969940185547 94.6780014038086 103.508117675781 119.425567626953 124.503807067871 150.435028076172 204.381851196289 260.943420410156 272.250122070312 241.25422668457 197.107055664062 155.45002746582 135.092864990234 137.480133056641 153.975616455078 177.263092041016 200.61784362793 213.388214111328 210.494735717773 204.978271484375
-9999 -9999 -9999 -9999 -9999 -9999 -9999 -9999 -9999 -9999 -9999 -9999 -9999 -9999 -9999 -9999 -9999 -9999 -9999 -9999 -9999 -9999 -9999 -9999 -9999 -9999 -9999 -9999 -9999 -9999 -9999 -9999 -9999 -9999 186.952976226807 177.75959777832 160.164413452148 -9999 124.080726623535 100.39933013916 73.2171401977539 77.7979583740234 111.259033203125 158.965057373047 198.411880493164 196.426681518555 165.475921630859 111.076446533203 75.3174819946289 91.8508071899414 135.417678833008 159.049133300781 185.560028076172 235.511184692383 220.796630859375 242.024887084961 283.499877929688 317.790893554688 299.754486083984 248.897903442383 207.65478515625 182.333648681641 186.845565795898 212.62760925293 244.491546630859 268.515777587891 283.006530761719 286.239440917969 283.501739501953 277.845703125
-9999 -9999 -9999 -9999 -9999 -9999 -9999 -9999 -9999 -9999 -9999 -9999 -9999 -9999 -9999 -9999 -9999 -9999 -9999 -9999 -9999 -9999 -9999 -9999 -9999 -9999 -9999 471.796539306641 471.796539306641 399.915069580078 325.658264160156 278.532592773438 236.229217529297 213.354736328125 190.85888671875 165.838684082031 137.860321044922 123.543495178223 113.298782348633 96.8456726074219 81.6442718505859 88.0066375732422 136.724151611328 197.066299438477 234.494171142578 232.305068969727 193.083160400391 144.775787353516 132.715087890625 157.92497253418 196.575378417969 233.525619506836 294.650543212891 305.219329833984 261.841369628906 279.360015869141 314.986877441406 348.185607910156 319.374053955078 249.799591064453 215.496444702148 219.037796020508 255.292053222656 283.869018554688 304.659881591797 304.573516845703 299.418731689453 294.063690185547 299.330139160156 311.609527587891
-9999 -9999 -9999 -9999 -9999 -9999 -9999 -9999 -9999 -9999 -9999 -9999 -9999 -9999 -9999 -9999 -9999 -9999 -9999 -9999 -9999 -9999 -9999 -9999 -9999 -9999 -9999 -9999 -9999 -9999 275.859161376953 270.127288818359 258.738586425781 238.52995300293 207.564544677734 182.501373291016 165.155242919922 158.038131713867 139.325820922852 117.529762268066 117.861793518066 128.517959594727 166.159637451172 214.336776733398 245.557373046875 257.674072265625 238.432403564453 212.359619140625 204.210037231445 216.184875488281 229.055282592773 269.323272705078 335.453552246094 293.449554443359 292.255981445312 325.344604492188 353.424377441406 377.606719970703 349.152221679688 272.061096191406 259.182281494141 284.270904541016 314.881072998047 308.347930908203 292.111145019531 267.809875488281 243.130081176758 225.668167114258 227.199508666992 253.676223754883
-9999 -9999 -9999 -9999 -9999 -9999 -9999 -9999 -9999 -9999 -9999 -9999 -9999 -9999 -9999 -9999 -9999 -9999 -9999 -9999 -9999 -9999 -9999 -9999 -9999 394.968729654948 319.281799316406 287.861663818359 287.062103271484 269.125579833984 291.811248779297 297.099822998047 297.044006347656 290.23193359375 272.680419921875 258.411773681641 239.474746704102 218.430892944336 197.275115966797 177.600082397461 177.700012207031 189.503265380859 204.913452148438 229.147277832031 253.42236328125 268.124572753906 277.530426025391 271.298309326172 268.038543701172 267.461151123047 275.093719482422 292.666656494141 308.45068359375 323.328216552734 337.117309570312 355.644256591797 365.722961425781 374.628479003906 359.288421630859 313.463439941406 308.526275634766 308.626953125 299.114013671875 274.423675537109 250.960876464844 218.8720703125 185.725082397461 151.873962402344 132.651748657227 142.865371704102
-9999 -9999 -9999 -9999 -9999 -9999 -9999 -9999 -9999 -9999 -9999 -9999 -9999 -9999 -9999 -9999 -9999 -9999 -9999 -9999 -9999 -9999 -9999 -9999 502.398864746094 386.408752441406 296.098571777344 275.338073730469 292.148345947266 311.636413574219 327.187225341797 336.645904541016 345.73779296875 353.410736083984 350.216522216797 344.710144042969 333.985443115234 311.231140136719 283.874725341797 261.205474853516 245.553848266602 237.237762451172 243.229431152344 264.079711914062 286.257507324219 297.983947753906 309.005584716797 315.925811767578 325.102478027344 328.740661621094 331.742401123047 339.364776611328 341.619506835938 339.159820556641 342.007446289062 348.133544921875 350.927886962891 354.416809082031 350.225769042969 335.196105957031 311.059234619141 287.240905761719 272.908020019531 253.144439697266 230.649917602539 196.736389160156 156.909957885742 117.023223876953 80.3044815063477 67.7723007202148
-9999 -9999 -9999 -9999 -9999 -9999 -9999 -9999 -9999 -9999 -9999 -9999 -9999 -9999 -9999 -9999 -9999 -9999 -9999 -9999 -9999 -9999 -9999 -9999 413.616302490234 299.676361083984 285.252410888672 323.906860351562 349.892150878906 354.497619628906 357.508666992188 363.509948730469 369.230651855469 370.74365234375 363.672821044922 356.30908203125 353.319519042969 347.730651855469 336.442474365234 325.021728515625 314.772308349609 305.094299316406 306.278747558594 322.129272460938 336.043823242188 344.114929199219 348.759185791016 349.640625 347.887176513672 339.297332763672 330.710998535156 324.411193847656 317.370727539062 308.169555664062 308.793426513672 311.838989257812 316.723083496094 322.550659179688 334.435089111328 326.714935302734 292.634857177734 265.562713623047 256.663177490234 247.338928222656 231.520538330078 203.255599975586 164.753067016602 121.29345703125 78.4459991455078 53.9784812927246
-9999 -9999 -9999 -9999 -9999 -9999 -9999 -9999 -9999 -9999 -9999 -9999 -9999 -9999 -9999 -9999 -9999 -9999 -9999 -9999 -9999 -9999 -9999 346.795837402344 360.800720214844 310.606292724609 340.400939941406 380.808166503906 397.071868896484 385.269714355469 374.383056640625 371.941162109375 367.659576416016 363.111267089844 358.047698974609 351.170318603516 346.568603515625 344.799011230469 343.284301757812 342.526397705078 342.003723144531 337.833160400391 335.906707763672 343.624206542969 349.882232666016 349.570587158203 352.0263671875 342.877014160156 326.964813232422 312.712097167969 302.628509521484 296.260284423828 292.248809814453 289.676452636719 293.590698242188 299.729400634766 307.702392578125 311.279815673828 318.807464599609 314.655242919922 281.894744873047 255.307357788086 246.498352050781 244.733139038086 241.236511230469 225.491027832031 191.163009643555 144.042633056641 95.4023056030273 58.8538131713867
-9999 -9999 -9999 -9999 -9999 -9999 -9999 -9999 -9999 -9999 -9999 -9999 -9999 -9999 -9999 -9999 -9999 -9999 -9999 -9999 -9999 -9999 -9999 296.861663818359 315.904663085938 325.482757568359 370.257110595703 401.475555419922 402.400970458984 385.247924804688 374.917816162109 372.235443115234 368.610900878906 363.474029541016 359.228820800781 352.939331054688 345.0283203125 339.883575439453 335.948852539062 330.816833496094 328.324737548828 328.029479980469 327.048431396484 330.550842285156 337.239105224609 340.145172119141 342.444122314453 326.657867431641 307.522888183594 300.638854980469 300.532989501953 298.987457275391 295.386077880859 293.453247070312 295.251159667969 300.028381347656 306.397857666016 310.320983886719 318.0322265625 316.323791503906 285.042663574219 257.976531982422 245.805374145508 243.761795043945 247.971893310547 245.330169677734 220.55500793457 171.83935546875 119.215515136719 70.3843231201172
-9999 -9999 -9999 -9999 -9999 -9999 -9999 -9999 -9999 -9999 -9999 -9999 -9999 -9999 -9999 -9999 -9999 -9999 -9999 -9999 -9999 -9999 328.188385009766 304.280242919922 320.364715576172 353.460479736328 379.317291259766 394.122863769531 386.645233154297 376.842620849609 374.493103027344 375.133026123047 373.262725830078 365.894866943359 356.192413330078 345.573150634766 332.385559082031 322.785980224609 319.692901611328 317.504547119141 316.413818359375 318.066040039062 320.502136230469 322.573303222656 326.909820556641 334.731903076172 336.461669921875 320.525268554688 303.212646484375 296.61279296875 295.529022216797 294.18896484375 291.805450439453 290.042602539062 289.749572753906 292.004669189453 296.157318115234 300.089874267578 312.557647705078 319.509582519531 298.261199951172 269.209503173828 250.263717651367 243.801071166992 249.519073486328 256.299896240234 246.447326660156 200.637847900391 142.192459106445 90.3097763061523
-9999 -9999 -9999 -9999 -9999 -9999 -9999 -9999 -9999 -9999 -9999 -9999 -9999 -9999 612.204228719076 -9999 -9999 -9999 -9999 576.364868164062 -9999 359.337432861328 341.410552978516 340.801147460938 365.9189453125 375.977386474609 378.767822265625 377.209136962891 375.273010253906 376.85107421875 375.428924560547 374.182739257812 370.682586669922 363.524200439453 352.0517578125 337.257995605469 317.174285888672 300.480499267578 301.184326171875 307.989440917969 310.350463867188 312.456726074219 316.039184570312 319.141021728516 322.692565917969 326.655731201172 324.759307861328 312.090179443359 297.514984130859 289.277801513672 286.400299072266 285.221557617188 284.587341308594 283.612823486328 283.678131103516 284.651550292969 286.593841552734 288.255584716797 296.487701416016 307.766326904297 303.630187988281 281.797576904297 258.779693603516 245.926849365234 247.385589599609 259.500091552734 266.708618164062 230.213012695312 161.959335327148 111.087814331055
-9999 -9999 -9999 -9999 -9999 -9999 -9999 -9999 -9999 -9999 -9999 -9999 -9999 -9999 610.084548950195 -9999 -9999 -9999 -9999 521.783599853516 428.790643310547 375.288116455078 352.778839111328 363.066162109375 374.661926269531 375.050201416016 368.224456787109 365.040893554688 374.30517578125 377.564331054688 370.151885986328 363.246459960938 358.247253417969 352.34912109375 344.06640625 334.424255371094 320.413970947266 302.380920410156 297.901214599609 305.986083984375 312.117736816406 315.572357177734 315.794830322266 313.8271484375 311.059143066406 305.044342041016 296.546966552734 290.158660888672 285.655639648438 280.565856933594 275.970245361328 273.608489990234 275.057159423828 278.200531005859 280.883575439453 283.220916748047 284.298431396484 284.441589355469 286.840087890625 290.792663574219 292.629913330078 283.687652587891 265.203796386719 249.414398193359 245.556900024414 258.768920898438 276.677490234375 252.103881835938 177.898147583008 120.004013061523
-9999 -9999 -9999 -9999 -9999 -9999 -9999 -9999 -9999 -9999 -9999 -9999 -9999 -9999 619.623107910156 -9999 -9999 -9999 -9999 -9999 347.313201904297 365.760467529297 352.125518798828 356.377960205078 365.930450439453 374.285339355469 373.850799560547 370.852935791016 366.709869384766 353.719512939453 337.094055175781 326.215209960938 321.420654296875 319.647766113281 319.932983398438 322.012908935547 320.280609130859 308.167236328125 300.710815429688 308.949096679688 317.48974609375 317.174102783203 308.069885253906 296.546447753906 287.211212158203 280.476013183594 278.350433349609 277.471527099609 272.227630615234 263.025665283203 257.036315917969 256.760894775391 261.146209716797 267.408386230469 269.902893066406 270.764770507812 273.325500488281 277.461029052734 281.435028076172 280.202270507812 276.094665527344 270.951385498047 262.0576171875 250.969360351562 246.571502685547 258.212860107422 279.241119384766 265.377624511719 188.558715820312 117.376312255859
-9999 -9999 -9999 -9999 -9999 -9999 -9999 -9999 -9999 -9999 -9999 -9999 -9999 -9999 585.485504150391 -9999 581.468872070312 -9999 -9999 -9999 299.717926025391 348.486297607422 346.768157958984 358.254577636719 377.751312255859 387.855743408203 376.772521972656 351.497100830078 320.944641113281 291.533630371094 270.832946777344 259.816864013672 255.639511108398 258.432281494141 268.068572998047 284.430358886719 298.201446533203 298.641632080078 297.347076416016 307.126770019531 315.460235595703 311.883605957031 299.73193359375 287.166381835938 279.300323486328 277.444427490234 273.193725585938 258.672180175781 242.339797973633 231.901596069336 228.960586547852 231.084503173828 234.835601806641 236.959320068359 235.690155029297 234.432968139648 235.832870483398 240.994781494141 249.516235351562 255.949691772461 255.215286254883 253.069732666016 252.679138183594 249.141342163086 248.62841796875 258.428192138672 278.322387695312 268.254119873047 186.906387329102 106.605606079102
-9999 -9999 -9999 -9999 -9999 -9999 -9999 -9999 -9999 -9999 -9999 -9999 -9999 -9999 585.485504150391 551.347900390625 472.5322265625 -9999 -9999 311.597618103027 312.081420898438 351.541839599609 354.681182861328 378.684020996094 398.899078369141 385.346649169922 341.535034179688 291.085021972656 249.341079711914 219.009063720703 199.820266723633 188.584930419922 182.336822509766 181.991973876953 189.18327331543 207.322662353516 233.176147460938 254.421112060547 271.116302490234 290.661254882812 305.900909423828 307.701751708984 298.094177246094 289.397064208984 287.461181640625 278.054748535156 252.390884399414 223.874176025391 208.953353881836 206.669097900391 208.175308227539 211.341110229492 213.571304321289 210.691284179688 204.627014160156 199.815185546875 196.416839599609 198.532348632812 208.76789855957 222.723922729492 231.304168701172 234.892135620117 241.726776123047 244.446640014648 247.244094848633 260.733428955078 280.244476318359 261.629699707031 168.132354736328 89.8838119506836
-9999 -9999 -9999 -9999 -9999 -9999 -9999 -9999 -9999 -9999 -9999 -9999 -9999 -9999 -9999 433.905499267578 404.403747558594 -9999 328.613342285156 300.686889648438 333.904235839844 361.074676513672 383.814605712891 406.741119384766 392.916748046875 333.931213378906 268.317565917969 220.217559814453 189.498870849609 169.475814819336 156.540008544922 148.26350402832 142.491012573242 139.010131835938 139.347534179688 147.393936157227 168.417724609375 197.657699584961 227.925857543945 258.329437255859 284.86767578125 299.313873291016 298.190460205078 292.009643554688 283.282409667969 253.295181274414 215.932479858398 193.141098022461 187.904800415039 191.093414306641 195.871871948242 202.016403198242 200.563186645508 189.390914916992 177.686614990234 170.54719543457 168.520477294922 170.831115722656 182.070007324219 201.145935058594 217.158020019531 224.145492553711 231.631072998047 239.031234741211 246.551284790039 266.616149902344 286.064331054688 236.876449584961 124.867538452148 70.8551177978516
-9999 -9999 -9999 -9999 -9999 -9999 -9999 -9999 -9999 -9999 -9999 -9999 -9999 -9999 -9999 371.290893554688 369.952728271484 -9999 272.935668945312 315.478881835938 346.872497558594 376.370697021484 415.607818603516 410.016693115234 347.920471191406 263.118011474609 203.707077026367 173.194046020508 158.831848144531 147.926696777344 137.767852783203 129.994033813477 124.871284484863 122.37850189209 121.9599609375 124.047637939453 134.943984985352 157.8193359375 189.320739746094 223.26106262207 255.180374145508 277.799896240234 284.272827148438 277.119262695312 252.855819702148 214.475173950195 184.211791992188 173.838317871094 176.373764038086 184.178512573242 194.121078491211 194.28630065918 174.531677246094 152.431427001953 143.015151977539 141.902359008789 145.602645874023 151.524856567383 166.087860107422 190.050201416016 214.140991210938 225.953659057617 231.627990722656 242.279830932617 254.326583862305 282.880615234375 285.754730224609 178.934310913086 77.1559677124023 59.6047973632812
-9999 -9999 -9999 -9999 -9999 -9999 -9999 -9999 -9999 -9999 -9999 -9999 -9999 -9999 -9999 348.684265136719 -9999 312.790745326451 305.687469482422 330.144165039062 366.169036865234 402.856842041016 431.246002197266 383.330230712891 288.756622314453 208.237548828125 169.584884643555 153.356887817383 144.461044311523 133.152786254883 122.625297546387 115.728462219238 111.869895935059 110.529968261719 111.742134094238 113.517112731934 118.313529968262 129.882415771484 151.935958862305 183.903366088867 219.922119140625 249.438674926758 258.777282714844 247.070297241211 216.525787353516 178.545211791992 157.138366699219 159.628479003906 170.945251464844 187.553833007812 190.788986206055 170.257995605469 138.07063293457 115.694946289062 114.839370727539 122.459907531738 131.608993530273 143.422134399414 163.360229492188 193.519729614258 221.585601806641 233.623245239258 239.33447265625 249.173248291016 271.621704101562 300.646423339844 243.480712890625 103.529586791992 55.9555015563965 56.183162689209
-9999 -9999 -9999 -9999 -9999 -9999 -9999 -9999 -9999 -9999 -9999 -9999 -9999 -9999 348.684265136719 321.304219563802 284.501831054688 302.364959716797 323.365997314453 341.559692382812 381.985229492188 423.804595947266 421.594879150391 330.135284423828 228.403076171875 170.456314086914 150.781692504883 139.954574584961 129.179122924805 117.837776184082 110.318214416504 104.44775390625 101.520690917969 101.384178161621 103.898056030273 107.524566650391 111.015213012695 115.645858764648 126.825660705566 150.805587768555 185.042266845703 215.497314453125 225.236709594727 211.932205200195 181.139038085938 150.924575805664 141.520660400391 154.469863891602 174.661590576172 194.303726196289 195.158462524414 179.424194335938 153.399887084961 128.809951782227 122.906547546387 130.969375610352 142.444915771484 157.035507202148 180.957275390625 214.242080688477 237.620681762695 249.944091796875 265.223114013672 281.360717773438 286.454895019531 241.990692138672 133.66633605957 61.2469863891602 51.0196075439453 53.0953598022461
-9999 -9999 -9999 -9999 -9999 -9999 -9999 -9999 -9999 -9999 -9999 -9999 -9999 -9999 -9999 -9999 301.203987121582 307.146942138672 302.680877685547 329.302093505859 388.549896240234 427.612976074219 387.941955566406 274.106475830078 185.761367797852 149.193923950195 137.843658447266 125.726852416992 115.781394958496 109.529998779297 105.182830810547 101.663513183594 100.28938293457 102.422698974609 106.45654296875 108.696853637695 108.885047912598 109.545623779297 114.465019226074 130.382598876953 157.555694580078 183.085861206055 191.792556762695 180.828872680664 156.207611083984 136.523971557617 141.05451965332 166.404235839844 192.888168334961 211.451934814453 220.453506469727 221.380767822266 209.324478149414 189.518127441406 178.554748535156 177.056381225586 182.119583129883 196.26953125 218.973342895508 246.919769287109 264.80224609375 274.311950683594 282.061401367188 267.474456787109 207.791427612305 124.5146484375 72.5389709472656 54.0526733398438 49.3615493774414 49.5328102111816
-9999 -9999 -9999 -9999 -9999 -9999 -9999 -9999 -9999 -9999 -9999 -9999 -9999 -9999 -9999 -9999 308.974578857422 310.802215576172 308.149230957031 336.525421142578 404.992706298828 430.53955078125 353.284790039062 232.094329833984 164.08039855957 141.334716796875 132.653076171875 120.881278991699 112.358612060547 107.447402954102 104.660430908203 105.154655456543 107.586753845215 110.944854736328 113.506324768066 113.199592590332 110.227256774902 107.057075500488 108.422874450684 118.918418884277 139.548431396484 160.152069091797 167.165283203125 158.779144287109 142.548629760742 136.603225708008 158.089797973633 187.890762329102 203.500823974609 209.012756347656 213.417541503906 212.935729980469 209.399948120117 205.518692016602 207.226684570312 212.383819580078 218.380294799805 230.574035644531 249.037857055664 265.910491943359 273.499908447266 270.268798828125 258.437713623047 216.26481628418 144.617752075195 100.567039489746 79.5568542480469 56.1175231933594 49.077808380127 48.3984832763672
-9999 -9999 -9999 -9999 -9999 -9999 -9999 -9999 -9999 -9999 -9999 -9999 -9999 -9999 -9999 -9999 -9999 305.738883972168 310.523803710938 366.115875244141 454.142272949219 441.322631835938 321.473388671875 201.315963745117 150.915496826172 137.609008789062 132.139465332031 122.659202575684 113.891204833984 107.472015380859 104.244827270508 105.633377075195 109.79320526123 114.724662780762 118.228523254395 117.963485717773 114.925636291504 111.023483276367 109.555236816406 114.601272583008 128.239700317383 142.293258666992 147.710861206055 144.515808105469 140.291595458984 153.851226806641 180.533599853516 189.418487548828 181.669143676758 174.169677734375 170.125061035156 167.242034912109 166.832397460938 170.747985839844 180.862884521484 193.642303466797 210.735977172852 231.265121459961 250.048095703125 261.174102783203 264.796813964844 265.784240722656 266.872436523438 243.520690917969 191.291915893555 147.967742919922 102.86759185791 58.3203659057617 49.2606582641602 47.9566764831543
-9999 -9999 -9999 -9999 -9999 -9999 -9999 -9999 -9999 -9999 -9999 -9999 -9999 -9999 310.345306396484 310.802215576172 303.005857467651 302.002044677734 293.480285644531 388.878570556641 515.972961425781 438.682800292969 292.971710205078 183.632308959961 145.547958374023 133.789016723633 130.533447265625 126.132850646973 118.008758544922 110.889625549316 106.177406311035 103.295501708984 103.913871765137 107.139526367188 110.864852905273 112.657409667969 112.561042785645 110.858703613281 109.685539245605 111.739784240723 120.177894592285 130.892211914062 138.681747436523 143.794387817383 154.77522277832 174.136276245117 177.689270019531 160.079681396484 142.829681396484 135.380249023438 133.36003112793 135.036392211914 139.333084106445 147.107894897461 157.786148071289 171.369979858398 188.98454284668 209.405807495117 226.711151123047 238.560684204102 245.723968505859 253.48307800293 264.421661376953 260.750183105469 235.204833984375 194.472534179688 129.524200439453 61.3767547607422 49.2669868469238 47.1888275146484
-9999 -9999 -9999 -9999 -9999 -9999 -9999 -9999 -9999 -9999 -9999 -9999 -9999 -9999 -9999 -9999 -9999 -9999 368.08667755127 390.530639648438 509.517364501953 407.069305419922 272.344543457031 190.510986328125 153.555084228516 138.85237121582 131.713119506836 127.866874694824 122.891174316406 118.986068725586 114.874542236328 111.298568725586 109.321586608887 108.577362060547 109.952133178711 112.369972229004 113.603118896484 114.031478881836 115.547500610352 118.113540649414 124.492561340332 132.331680297852 139.868392944336 151.401168823242 169.074462890625 176.433868408203 153.702041625977 124.504730224609 106.070182800293 97.8064193725586 97.3052673339844 102.268966674805 111.830406188965 124.041633605957 133.839630126953 138.406265258789 145.787628173828 163.592681884766 183.951370239258 201.194427490234 213.475540161133 224.028701782227 231.147872924805 233.25666809082 225.928771972656 205.393707275391 142.929809570312 63.5494956970215 49.0508995056152 46.693546295166
-9999 -9999 -9999 -9999 -9999 -9999 -9999 -9999 -9999 -9999 -9999 -9999 -9999 -9999 -9999 -9999 -9999 284.238708496094 378.062705993652 399.457214355469 485.015441894531 367.31689453125 274.038024902344 220.890930175781 186.274551391602 170.144241333008 153.780990600586 142.50520324707 134.59748840332 129.749526977539 125.915138244629 123.235542297363 121.414611816406 120.972076416016 121.365997314453 122.407455444336 122.216690063477 122.398544311523 125.324989318848 128.567169189453 132.547119140625 134.972625732422 138.898910522461 151.808715820312 168.673629760742 165.96728515625 132.767456054688 103.430305480957 85.1814804077148 73.94482421875 69.2346878051758 70.1385803222656 80.1087493896484 99.8750762939453 122.141052246094 130.416381835938 124.458976745605 113.66429901123 109.934875488281 123.785751342773 142.087387084961 156.319717407227 167.073059082031 174.755187988281 186.391189575195 193.490661621094 142.228332519531 62.5775451660156 48.7359237670898 46.4483451843262
-9999 -9999 -9999 -9999 -9999 -9999 -9999 -9999 -9999 -9999 -9999 -9999 -9999 222.772583007812 228.440575493707 -9999 259.497596740723 299.082134246826 284.238708496094 438.024261474609 424.600830078125 313.951538085938 267.500854492188 244.865707397461 223.788345336914 214.73600769043 199.746536254883 185.525833129883 166.53173828125 148.974044799805 139.032760620117 135.857681274414 133.784118652344 131.782318115234 128.633834838867 123.308654785156 117.890609741211 115.227836608887 116.818939208984 121.235404968262 125.657691955566 128.559753417969 134.45491027832 149.713745117188 167.950729370117 164.680297851562 129.520935058594 98.6167068481445 81.077018737793 68.8629150390625 61.1394958496094 57.8896789550781 62.4820671081543 79.2095794677734 107.204452514648 129.080993652344 128.312713623047 112.851455688477 94.1875839233398 81.5438995361328 79.6528701782227 83.2809753417969 94.7551879882812 109.412002563477 132.892135620117 161.19059753418 127.375549316406 58.1755218505859 48.6077919006348 46.341121673584
-9999 -9999 -9999 -9999 -9999 -9999 -9999 -9999 -9999 -9999 -9999 -9999 -9999 -9999 222.772583007812 239.976069132487 222.57307434082 296.422119140625 393.094635009766 405.526550292969 315.990447998047 246.49089050293 236.233322143555 229.606536865234 221.210922241211 222.589004516602 222.926864624023 224.236083984375 212.255950927734 189.455108642578 166.429809570312 151.081909179688 145.533142089844 144.654907226562 143.375091552734 139.971740722656 132.831130981445 120.480079650879 104.795501708984 95.491813659668 99.0786285400391 106.637512207031 117.718772888184 139.033172607422 162.040512084961 168.429626464844 145.084671020508 113.55850982666 92.023551940918 78.7342758178711 69.9589996337891 65.2658386230469 68.9379806518555 84.8579788208008 112.243171691895 133.532669067383 129.688613891602 107.99186706543 79.4140090942383 57.5357055664062 49.1128616333008 49.2610549926758 56.4213943481445 69.1390686035156 97.5524673461914 133.698257446289 104.300682067871 53.8618469238281 49.215404510498 46.6885757446289
-9999 -9999 -9999 -9999 -9999 -9999 -9999 -9999 -9999 -9999 -9999 -9999 -9999 -9999 229.486839294434 222.772583007812 274.582550048828 306.107177734375 297.854064941406 261.499542236328 224.196762084961 205.154205322266 197.397964477539 191.84358215332 189.18620300293 192.940856933594 197.271209716797 204.452011108398 208.212051391602 208.181427001953 206.325439453125 193.985092163086 172.991271972656 157.567794799805 149.969512939453 148.913223266602 147.759078979492 141.641525268555 125.926849365234 97.1215972900391 79.2921295166016 80.0638580322266 87.6667709350586 106.073120117188 132.259246826172 154.014495849609 160.69189453125 149.524719238281 132.27458190918 116.705131530762 103.087944030762 94.2932205200195 97.3953475952148 112.176834106445 134.2294921875 142.63916015625 127.685844421387 95.821159362793 62.4219932556152 43.6762466430664 38.9728240966797 40.2505912780762 45.5633506774902 55.7125854492188 89.232536315918 120.287086486816 83.8392944335938 51.8784141540527 50.1299133300781 47.5319595336914
-9999 -9999 -9999 -9999 -9999 -9999 -9999 -9999 -9999 -9999 -9999 263.808441162109 267.355529785156 243.768218994141 215.427749633789 235.978805541992 284.584228515625 276.321533203125 250.102355957031 213.459228515625 197.25227355957 189.144119262695 184.71321105957 183.658950805664 184.61979675293 189.738616943359 193.948333740234 194.71418762207 192.932815551758 192.36555480957 200.182723999023 207.493881225586 195.913146972656 173.119186401367 157.414245605469 151.474533081055 148.793182373047 144.448028564453 135.706069946289 108.999618530273 75.6474914550781 65.4159393310547 69.2677154541016 79.1906280517578 99.2591323852539 124.917358398438 147.587326049805 157.854370117188 157.831802368164 153.100967407227 142.755355834961 131.474700927734 129.600372314453 138.178985595703 146.217666625977 140.86393737793 114.062889099121 77.5270233154297 48.8983345031738 39.082691192627 38.4356689453125 39.8710708618164 44.3682098388672 57.3361549377441 92.3319931030273 111.012474060059 71.6215896606445 51.2877464294434 50.7425842285156 48.2736778259277
-9999 -9999 -9999 -9999 -9999 -9999 -9999 -9999 -9999 358.778289794922 277.869232177734 231.726974487305 225.580871582031 200.251693725586 205.401733398438 242.762329101562 241.630599975586 238.486557006836 229.987197875977 216.706665039062 208.523193359375 201.00456237793 196.044158935547 195.558090209961 197.898956298828 198.196350097656 195.279983520508 190.954772949219 185.466934204102 180.078308105469 177.977340698242 185.270233154297 194.282424926758 184.48095703125 164.860885620117 154.292236328125 151.765060424805 145.12028503418 137.505477905273 114.163772583008 74.2534561157227 55.5757141113281 56.7857246398926 62.8236427307129 73.4429321289062 92.2114181518555 114.474174499512 128.172073364258 135.32568359375 139.27897644043 140.466659545898 137.678833007812 132.876342773438 135.109313964844 132.682052612305 116.250854492188 88.1194381713867 58.040153503418 40.507152557373 38.4837265014648 39.3921203613281 41.2072906494141 48.4385833740234 68.2943801879883 98.0248260498047 100.73592376709 61.2889289855957 51.5580863952637 50.9745407104492 48.483642578125
-9999 -9999 -9999 -9999 -9999 -9999 -9999 -9999 -9999 362.486083984375 261.626739501953 221.8720703125 206.590255737305 206.011276245117 224.411880493164 223.009201049805 221.256134033203 218.812957763672 215.010772705078 208.439422607422 203.143814086914 200.851058959961 196.44548034668 191.319686889648 186.43603515625 179.833953857422 169.09130859375 154.971328735352 138.655181884766 124.622512817383 119.575630187988 126.760864257812 145.775604248047 161.694381713867 161.626815795898 155.217468261719 150.492599487305 141.789535522461 136.709884643555 117.713256835938 75.0859909057617 49.5192642211914 45.7542991638184 48.1536750793457 54.1893463134766 65.353515625 80.2644195556641 89.5327529907227 94.9386215209961 100.910331726074 106.45475769043 110.43497467041 114.822799682617 118.651168823242 110.967407226562 89.2780227661133 63.4241333007812 43.8856773376465 37.7263565063477 39.3407745361328 40.9308166503906 45.5035209655762 59.2268943786621 81.4752197265625 97.7013549804688 81.8138122558594 54.4559936523438 52.0317840576172 50.6898994445801 47.6339263916016
-9999 -9999 -9999 -9999 -9999 330.536293029785 384.778656005859 340.143157958984 325.322967529297 283.487457275391 246.049697875977 215.248413085938 202.941665649414 209.348693847656 198.442047119141 200.494842529297 204.850631713867 202.123336791992 193.688873291016 184.586471557617 174.581176757812 164.083602905273 152.735092163086 139.938537597656 125.903137207031 110.644882202148 95.8315963745117 83.2946701049805 74.229866027832 69.0220642089844 68.4144897460938 74.2221221923828 89.5615539550781 112.20987701416 129.183502197266 135.760955810547 137.756591796875 132.954162597656 134.295288085938 118.41316986084 75.0243911743164 47.5981941223145 42.5218734741211 43.8124313354492 48.1132850646973 54.8542556762695 62.9991188049316 68.3080673217773 71.2552871704102 75.5937271118164 82.0590972900391 88.4378433227539 95.9539337158203 97.7018966674805 82.9010467529297 62.4578742980957 46.634334564209 37.6758193969727 37.6668853759766 40.9398536682129 44.4268798828125 53.1475410461426 70.5232086181641 86.8910675048828 89.6819915771484 69.6286468505859 55.5930366516113 52.2832832336426 49.4459533691406 46.358757019043
-9999 -9999 -9999 -9999 329.660400390625 316.392059326172 291.314056396484 243.803100585938 231.240798950195 215.153854370117 192.798690795898 197.51008605957 201.314910888672 194.161285400391 199.036651611328 198.315780639648 188.661041259766 175.398284912109 156.562789916992 135.698394775391 115.99275970459 99.1169128417969 86.0098037719727 75.6968231201172 67.2389678955078 60.8605918884277 56.6555290222168 54.2308082580566 53.2988433837891 53.2696723937988 53.9267501831055 56.7067832946777 64.3593368530273 81.121452331543 102.449058532715 118.912033081055 128.820114135742 128.078628540039 132.134841918945 115.328002929688 72.8114547729492 49.3176956176758 48.2618179321289 53.15966796875 58.6629219055176 63.7577934265137 67.1718368530273 68.1930389404297 68.9724502563477 71.6078948974609 76.7881393432617 84.6692504882812 86.7712707519531 74.5402755737305 57.8739624023438 46.4341201782227 39.6076431274414 35.9683418273926 38.1932830810547 42.4317741394043 48.1142578125 59.032039642334 75.442138671875 85.3732376098633 81.8791809082031 65.1971664428711 55.6085395812988 51.2223052978516 47.2958488464355 46.023868560791
-9999 -9999 -9999 293.63553237915 303.48974609375 262.190551757812 236.080642700195 199.071136474609 193.814590454102 182.721527099609 212.184158325195 194.606643676758 187.20491027832 189.590469360352 189.476608276367 177.235610961914 155.707336425781 127.94751739502 99.5716171264648 79.7882614135742 68.7188720703125 62.4206924438477 58.3567733764648 55.3117790222168 53.1397972106934 52.083080291748 52.0268020629883 52.5740280151367 53.5208625793457 54.1489791870117 53.6963806152344 54.0390739440918 58.3816146850586 69.8956604003906 90.232063293457 113.616569519043 128.707336425781 132.921249389648 133.474426269531 108.162971496582 68.5758819580078 48.3742828369141 45.1166305541992 46.8878784179688 51.0649185180664 58.1397323608398 66.086067199707 68.5846710205078 68.9371948242188 70.4496307373047 70.6024780273438 65.6620941162109 57.561408996582 48.961009979248 43.5508041381836 40.3757591247559 36.6335334777832 35.6980857849121 38.2687225341797 42.2915878295898 49.0864601135254 60.1938972473145 71.6019287109375 77.6824417114258 72.8349304199219 61.0744018554688 52.6535415649414 47.7521896362305 46.0694236755371 48.0293617248535
-9999 -9999 -9999 288.404388427734 252.987594604492 236.104232788086 219.341613769531 227.09831237793 223.500015258789 206.53727722168 193.792587280273 189.326965332031 188.538436889648 180.720367431641 167.259231567383 144.847946166992 110.88533782959 81.3812713623047 65.5437698364258 60.665958404541 59.2493782043457 57.1730728149414 54.9274635314941 53.1442604064941 52.2612724304199 52.0487518310547 52.1706581115723 52.510856628418 52.0284385681152 51.0919303894043 50.8624534606934 52.099739074707 56.1716003417969 65.9372329711914 90.2757263183594 125.064018249512 143.561813354492 145.201751708984 134.168518066406 99.6489791870117 63.2667045593262 44.9159660339355 39.9931602478027 39.1839485168457 40.1781234741211 44.199089050293 50.2852363586426 53.9296112060547 54.0288200378418 51.6577224731445 48.114933013916 44.3763847351074 41.9854354858398 41.2509651184082 40.3940887451172 38.5161781311035 35.9127464294434 35.9561233520508 37.8314399719238 40.5110244750977 45.5317764282227 53.9211959838867 61.1921424865723 63.7708435058594 60.6217765808105 53.6708374023438 47.8528594970703 46.2928161621094 48.9346504211426 49.4943199157715
