NCOLS 35 
NROWS 26 
XLLCORNER -80 
YLLCORNER 33 
CELLSIZE 0.5 
NODATA_value -9999 
-9999.000000000000000 -9999 -9999 -9999 -9999 -9999 -9999 -9999 -9999 -9999 -9999 -9999 -9999 -9999 -9999 -9999 -9999 -9999 -9999 -9999 -9999 -9999 -9999 -9999 -9999 -9999 -9999 -9999 -9999 -9999 -9999 -9999 -9999 -9999 -9999
-9999 -9999 -9999 -9999 -9999 -9999 -9999 -9999 -9999 -9999 -9999 -9999 -9999 -9999 -9999 -9999 -9999 -9999 -9999 -9999 -9999 -9999 -9999 -9999 -9999 -9999 -9999 -9999 -9999 233.590741251373 -9999 -9999 -9999 -9999 -9999
-9999 -9999 -9999 -9999 -9999 -9999 -9999 -9999 -9999 -9999 -9999 -9999 -9999 -9999 -9999 -9999 -9999 -9999 -9999 -9999 -9999 -9999 -9999 -9999 -9999 -9999 391.260982113684 291.131025164957 99.7755647959893 61.1566413051808 -9999 -9999 -9999 -9999 -9999
-9999 -9999 -9999 -9999 -9999 -9999 -9999 -9999 -9999 -9999 -9999 -9999 -9999 -9999 -9999 -9999 -9999 -9999 -9999 -9999 -9999 -9999 -9999 222.707108037552 166.898618994614 114.507024045057 108.081579468853 33.7655212255817 -9999 -9999 -9999 103.724403363352 115.778545020481 87.38537230273 83.3261569051074
-9999 -9999 -9999 -9999 -9999 -9999 -9999 -9999 -9999 -9999 -9999 -9999 -9999 -9999 -9999 -9999 -9999 -9999 -9999 -9999 268.390803598442 157.865831249367 134.986054206383 103.958892562165 84.8306184843758 87.9236046615647 96.7159071554257 104.365388338383 -9999 -9999 111.28494051466 80.7130030028164 72.5365858844658 73.3120881464187 72.8130564049788
-9999 -9999 -9999 -9999 -9999 -9999 -9999 -9999 -9999 -9999 -9999 -9999 -9999 -9999 -9999 -9999 -9999 -9999 -9999 127.770551096282 207.935307307711 110.085963018522 94.6365360708041 102.018844681225 101.526129900149 92.645761459116 89.2933481565454 90.5411266479232 85.574105196945 85.0254401412937 81.5399689719941 77.7632388945472 76.1214129667106 81.3398317599136 79.575098669118
-9999 -9999 -9999 -9999 -9999 -9999 -9999 -9999 -9999 -9999 -9999 -9999 -9999 -9999 -9999 -9999 -9999 -9999 -9999 164.074662138122 98.3912918779483 101.642315756583 107.668778006973 108.236615755232 101.810180820031 97.1459253771769 91.1801970324953 92.1685551604522 86.1433118041072 82.5514943492599 86.3546666388717 95.5973225078449 101.567192649972 98.1804862183228 90.6792932437663
-9999 -9999 -9999 -9999 -9999 -9999 -9999 -9999 -9999 -9999 -9999 -9999 -9999 -9999 -9999 -9999 -9999 -9999 -9999 176.724435804806 115.192247764823 109.364250182879 124.430428856727 137.558478850429 154.549030312675 142.035511755311 136.410551878069 116.645224611711 113.155767387063 137.519818748194 131.181584890714 132.764387824651 122.659003431892 120.950625700684 105.680123315976
-9999 -9999 -9999 -9999 -9999 -9999 -9999 -9999 -9999 -9999 -9999 -9999 -9999 -9999 -9999 -9999 -9999 -9999 -9999 32.6648962874992 118.417965890331 105.76906236592 107.985276771125 141.903059179474 177.349576124363 160.945580600957 254.793462908146 231.912850331792 278.838468159553 445.6493547121 429.950747925973 295.056428518426 171.652382348212 183.285268727712 187.660936235462
-9999 -9999 -9999 -9999 -9999 -9999 -9999 -9999 -9999 -9999 -9999 -9999 -9999 -9999 -9999 -9999 -9999 279.487078098154 166.146711356299 134.326315472676 121.182137575607 106.622666581429 116.799820325235 146.180463129282 153.713646321113 151.679047082544 379.935390853325 378.847765803406 449.384124767399 477.170894362479 476.523469406676 427.220794645599 292.890191110415 278.32376880061 286.432887327723
-9999 -9999 -9999 -9999 -9999 -9999 -9999 -9999 -9999 -9999 -9999 -9999 -9999 -9999 180.309078442922 254.781094548139 171.575373202577 125.894966633274 115.451395970354 109.69336273906 116.859532211115 108.669356080513 114.71887534955 146.441967175819 246.482156614501 296.86966737425 344.694635358068 391.294265600856 374.161911073628 346.20315483885 343.641555484367 340.11335186276 300.010512712895 260.416773780797 290.700310072807
-9999 -9999 -9999 -9999 -9999 -9999 -9999 -9999 -9999 -9999 -9999 -9999 476.028603095268 235.471376702156 146.960458893697 129.916411382435 135.128045331466 145.899802363693 147.945292889517 155.880793380845 157.733145719522 165.479413171249 243.997174360585 410.227912275417 528.75671961153 529.50324601348 535.230872800707 506.039875910908 508.128228645684 545.371201473371 457.566358319406 278.895100281827 242.495981736139 240.612183792277 289.444297164483
-9999 -9999 -9999 -9999 -9999 -9999 -9999 -9999 -9999 -9999 -9999 -9999 184.637577997459 135.664676999391 181.115158978891 276.623810580748 324.411536254769 476.780613513245 469.977464460817 533.892714061809 540.478070028926 461.511783455106 468.642242941262 410.215973926383 401.121392511557 411.695442813384 341.165379338415 345.950419919245 344.514200839503 355.22164475151 481.057314110537 467.738072789958 272.150156480223 223.601383213374 262.174583860158
-9999 -9999 -9999 -9999 -9999 -9999 -9999 -9999 -9999 11.1107299930487 7.67961232112271 324.155694604709 212.105647459135 226.515034095206 336.346751562705 376.437584008293 385.977544199053 371.32130856544 364.998024321942 375.999638001979 382.508855604361 410.19422983259 358.04744863015 320.013929977167 346.51773533667 377.570436825347 345.261409678239 403.338681591788 466.114061850419 452.628892430531 396.505000022864 476.228409119795 367.888040051624 243.027481375851 243.867298986818
-9999 -9999 -9999 -9999 -9999 -9999 -9999 -9999 -9999 -9999 272.360695838929 257.897147514532 321.317864380695 371.711738030174 423.541868655796 384.834455667121 369.267574867111 364.638045161384 375.854584219492 381.811190301746 371.200554724652 387.00464030941 322.353577904536 287.581415934212 316.257346413065 347.740006793415 340.648437547172 431.688087560332 512.251432300057 510.576086007164 467.198585804664 452.125814408798 444.904218723904 304.029908828198 271.106245685148
-9999 -9999 -9999 -9999 -9999 -9999 -9999 703.706138343617 253.508628877711 -9999 268.729515908315 319.726377468875 384.968408798381 385.242060418847 347.600152075347 304.268854566547 303.987716191468 316.013639078945 316.384000565294 336.609269182847 379.133234839688 374.647005158829 334.884071766838 323.152966776487 340.635910656607 333.249848177942 333.600938988587 449.062594113862 527.586989850318 523.842277562247 500.389593779371 479.34422884468 469.154411601333 398.112136844237 364.593393565137
-9999 -9999 -9999 -9999 -9999 -9999 -9999 46.2341745083121 128.544467577048 198.247138857581 305.049928712845 411.777306654131 362.803763237616 284.474536864705 281.523497709212 289.474436643636 316.307232141732 366.962487299215 413.216808251121 400.149141162685 358.515285608765 347.616107017018 363.448529836462 357.03635957867 335.671175490242 300.898885499512 347.425258736342 457.627010229576 501.696204496126 509.475041763793 504.117343941637 494.844356515232 455.8861085412 435.191341582111 416.836495947043
-9999 -9999 -9999 -9999 -9999 -9999 -9999 247.088767827217 -9999 251.50561252531 346.006684096881 380.944631795475 279.690340868857 235.867852218538 286.59936310687 313.784779168848 360.005784387288 414.571976397538 479.326431652557 492.515229878092 459.767951496196 405.55853901866 334.680489214575 308.640761126914 289.485494492749 265.549596584887 354.387586330333 447.579297650363 454.042324844977 416.269415429632 414.128376201455 429.984207206634 430.530406931203 406.610385863521 421.306648960615
-9999 -9999 -9999 -9999 -9999 -9999 -9999 -9999 213.998898369923 234.306799255623 332.757491133254 352.045400249183 216.537263966369 249.311506832921 279.142849408928 317.189404728722 386.027730900819 416.422173559602 440.542529365149 471.884239873251 470.887818771245 416.190307330137 332.876698858282 308.619996935691 290.743475899173 252.996609437697 336.148442486295 427.638844380742 389.727598723347 371.814071542537 367.88688629706 351.378748959066 349.59260368293 376.466356820811 424.754906567483
-9999 -9999 -9999 -9999 -9999 -9999 -9999 -9999 -9999 268.134986591339 413.862813784772 330.092305798338 177.384787945695 234.385835319547 269.178433431181 331.241148934118 391.94322129316 436.206981668682 437.125969855853 453.051074670539 420.665184545264 316.533187413226 270.576546891347 263.800758361076 279.751316970969 252.414309545862 348.978845583418 421.067813423792 391.518399478876 379.796899034678 370.944641956713 388.609347131811 350.530526779131 337.255494239168 387.896558419958
-9999 -9999 -9999 -9999 -9999 -9999 -9999 -9999 -9999 209.725167255614 518.213888983067 280.395164001631 157.973687140496 209.02325970794 273.538011530924 326.85114013517 368.973808994096 427.035955940788 438.870687414723 410.365577858973 339.143497716715 250.016654035784 230.77330521022 240.984716659714 266.272420659002 243.947455818495 311.904539532184 394.632808049099 392.231729359795 387.293867048926 387.142725430211 364.241347015705 324.054515307773 326.519199766036 348.589048112961
-9999 -9999 -9999 -9999 -9999 -9999 -9999 0 87.3853697745347 426.898371433763 335.04810335021 167.061983013263 152.899968004275 197.635525356576 298.037479868538 289.902487010324 325.478801494151 391.589718900631 410.855941316494 377.193906976718 309.737833228382 247.068038588261 247.108196706083 248.367884853254 251.959696861351 217.620037383887 266.081214538842 282.415220041167 302.762013395386 302.087074919001 297.073405384637 296.31342490398 303.246013037021 323.60297407538 301.070075662735
-9999 -9999 -9999 -9999 -9999 -9999 93.9131669055003 192.770850197303 315.206464137544 259.999716636954 174.134186119952 141.109908220144 169.67073228974 222.20344640649 270.07640539515 282.014003266912 290.179105068135 289.217644953394 308.294783170901 302.870476549177 258.869116955905 241.748969689615 250.125888865186 249.937019271049 208.394353130936 199.815145819989 217.148894599009 243.211262182364 264.215971342687 277.614219012656 296.968004815884 324.021946461436 333.412346846594 284.082727527943 252.134951847819
-9999 -9999 -9999 -9999 236.89439676724 249.36330330398 226.274882559724 223.622076090177 219.307533759922 165.033993514686 137.924815790815 158.497414900308 190.568865578552 229.870070428324 225.864558380501 236.502160259281 262.397120497354 295.00965620558 295.328217278354 282.074266514217 252.038110490825 243.515693724569 221.705260162902 188.587065482293 179.253883510718 191.247870956306 209.914402147551 230.56807940363 246.411055721593 252.664836217275 290.889981510637 300.089835461321 257.214949570497 222.247384875973 217.109483403773
-9999 -9999 -9999 290.495130909406 270.188183018926 243.690519825443 216.609851016901 188.575079264213 162.173716595552 136.246887379374 167.701572783165 199.999890939826 213.609911556901 229.534262237211 243.243153087496 214.644251392081 201.926259038242 246.940842097757 281.035132072867 250.818996874886 211.946719244065 191.343803752084 185.79931381157 169.633390399897 173.692163235224 196.078579898445 209.751848197019 220.363880138325 201.38874811315 189.019367788926 201.299539774399 188.325853754792 146.294110302336 142.093149523461 189.367111329352
-9999 -9999 248.088260089958 263.630685369785 235.628121410829 210.366552346904 178.750871983311 160.557671849314 130.524568608042 148.293786443516 201.573998269225 253.196666152793 236.200103870482 227.285715332994 238.570954502838 222.225478772532 198.27348663899 201.976018169552 235.287396536647 236.940869025237 203.991256710053 199.605833722208 162.734630545148 144.384725047005 140.575323215242 163.826903840398 189.432599683645 197.198802327162 184.171245789891 167.764332229779 167.73098431062 155.963796174208 122.697007689615 115.392651508244 137.164541433224
