NCOLS 35 
NROWS 26 
XLLCORNER -80 
YLLCORNER 33 
CELLSIZE 0.5 
NODATA_value -9999 
-9999.000000000000000 -9999 -9999 -9999 -9999 -9999 -9999 -9999 -9999 -9999 -9999 -9999 -9999 -9999 -9999 -9999 -9999 -9999 -9999 -9999 -9999 -9999 -9999 -9999 -9999 -9999 -9999 -9999 -9999 -9999 -9999 -9999 -9999 -9999 -9999
-9999 -9999 -9999 -9999 -9999 -9999 -9999 -9999 -9999 -9999 -9999 -9999 -9999 -9999 -9999 -9999 -9999 -9999 -9999 -9999 -9999 -9999 -9999 -9999 -9999 -9999 -9999 -9999 -9999 124.910742874831 -9999 -9999 -9999 -9999 -9999
-9999 -9999 -9999 -9999 -9999 -9999 -9999 -9999 -9999 -9999 -9999 -9999 -9999 -9999 -9999 -9999 -9999 -9999 -9999 -9999 -9999 -9999 -9999 -9999 -9999 -9999 146.945385246798 126.855069732646 50.4967010961696 30.3430215248122 -9999 -9999 -9999 -9999 -9999
-9999 -9999 -9999 -9999 -9999 -9999 -9999 -9999 -9999 -9999 -9999 -9999 -9999 -9999 -9999 -9999 -9999 -9999 -9999 -9999 -9999 -9999 -9999 156.144957938938 214.359119648324 163.43372288432 137.909770617129 31.4152679762524 -9999 -9999 -9999 188.445078674174 184.023732396318 175.673424933161 164.919139965261
-9999 -9999 -9999 -9999 -9999 -9999 -9999 -9999 -9999 -9999 -9999 -9999 -9999 -9999 -9999 -9999 -9999 -9999 -9999 -9999 118.094541599258 116.45449662264 172.529116060973 170.516421667644 140.027004803671 127.560584878726 127.148258373316 84.0325681936862 -9999 -9999 141.962527632709 168.849038400306 154.91597344486 149.414295358777 147.159283719213
-9999 -9999 -9999 -9999 -9999 -9999 -9999 -9999 -9999 -9999 -9999 -9999 -9999 -9999 -9999 -9999 -9999 -9999 -9999 140.735949926849 131.98965960545 131.541395743711 147.993192295976 125.554570476558 104.860143977407 122.019281941641 135.343649890705 133.461044242513 126.313257275243 154.140763604378 146.216875154378 145.026544655983 139.280911781973 110.650584513676 106.090829498879
-9999 -9999 -9999 -9999 -9999 -9999 -9999 -9999 -9999 -9999 -9999 -9999 -9999 -9999 -9999 -9999 -9999 -9999 -9999 135.801627463794 104.362904870922 107.143916819002 97.0682486537573 113.27283624981 112.054677467019 109.604402965018 131.084511072587 131.498965318581 135.555432154052 125.072662788962 110.656880178043 112.573312880881 105.389529033035 98.8102944771047 99.7635843697477
-9999 -9999 -9999 -9999 -9999 -9999 -9999 -9999 -9999 -9999 -9999 -9999 -9999 -9999 -9999 -9999 -9999 -9999 -9999 137.863002225315 96.7993063313401 90.9793566034384 104.834131183946 110.669935393314 124.392709594067 119.815072662219 131.193330111632 129.085686375377 134.408856392271 128.716321331334 117.051258048381 115.867521992569 114.456479915006 104.653585963506 113.831442270128
-9999 -9999 -9999 -9999 -9999 -9999 -9999 -9999 -9999 -9999 -9999 -9999 -9999 -9999 -9999 -9999 -9999 -9999 -9999 48.0915167892377 149.375913686024 128.114505545638 115.285428927785 120.322024235681 127.17000350667 145.870008973691 165.572334148493 142.531119910744 174.120839698083 192.544003937164 168.551460443353 155.64432135143 159.229212839592 158.720526532349 131.34468781558
-9999 -9999 -9999 -9999 -9999 -9999 -9999 -9999 -9999 -9999 -9999 -9999 -9999 -9999 -9999 -9999 -9999 151.415540071636 131.616586269127 118.798018213943 212.453692765027 156.599159250463 147.775007537802 213.525421919797 205.721276500592 207.276444379986 188.971118454979 194.121664524474 227.946937648174 210.851109209031 182.815023529 158.886042834031 132.091523581838 104.308289121072 91.962330266518
-9999 -9999 -9999 -9999 -9999 -9999 -9999 -9999 -9999 -9999 -9999 -9999 -9999 -9999 116.200961521695 158.377861778815 155.785313142427 163.668501620969 169.183676556317 171.919892493971 202.846753901178 177.029145430258 204.486408910622 245.734388294325 214.773494069393 186.904373342921 238.782320195916 276.836441622535 187.88174713398 158.455756330417 142.983581089268 156.585869743325 179.432343254178 156.444364091467 122.553946914315
-9999 -9999 -9999 -9999 -9999 -9999 -9999 -9999 -9999 -9999 -9999 -9999 317.772731093258 142.629863500268 145.937368032107 221.981600305741 358.777492180052 399.676207905654 424.058714126316 338.404774225444 306.715621830862 302.062924010617 327.676946986591 298.310442292877 320.90338995313 292.897229133215 244.955022953475 214.007008431687 178.888831021518 140.765359746984 106.36002429312 101.145950865428 105.107278758346 122.294443078708 125.326437319926
-9999 -9999 -9999 -9999 -9999 -9999 -9999 -9999 -9999 -9999 -9999 -9999 267.144849329859 153.678339617462 344.971714074649 517.673091880342 546.294748975259 480.554526751681 463.325301224829 463.177376722975 455.880989854144 452.536854248573 432.301384458363 320.566168055065 268.374760670255 270.791697252793 260.520675422621 253.764921520868 214.628839852714 165.800742133371 122.669350242448 61.656326323361 71.9992985211538 87.6499103897867 93.3031830650678
-9999 -9999 -9999 -9999 -9999 -9999 -9999 -9999 -9999 8.24539971404322 8.06679884837504 240.31228431424 212.028199611129 291.096500982 534.191618876227 499.827173521014 450.117416879001 437.391087565576 418.020512402597 404.689697394901 372.724369338805 381.527593523411 371.485722365966 308.895704998682 286.311740588145 283.681949236497 294.725649649768 299.609249165036 250.453871774934 181.104286594578 145.559764224434 47.711238196324 68.0456098354559 96.9436324545259 110.510665796322
-9999 -9999 -9999 -9999 -9999 -9999 -9999 -9999 -9999 -9999 341.099235182542 276.792250225832 319.295197451506 447.497863329566 514.599634031372 476.569238299574 452.392940256248 440.911019843886 426.772539865574 386.628699347123 348.796674719228 331.493332960126 344.484423815189 325.058410781164 271.505606115697 273.228950758006 325.01560400283 313.839653357538 220.152374341994 156.117743151533 180.538139304974 84.2602496558656 88.0315972654211 83.7680100861282 110.695706986824
-9999 -9999 -9999 -9999 -9999 -9999 -9999 558.359714654788 215.625714848074 -9999 349.505162327106 430.897567891501 504.445681502939 477.801296946485 422.514869094205 404.424975672214 385.639459426572 363.391099467805 362.466461303428 357.100907865349 334.685186206828 318.832370422522 319.294889262504 320.761270365429 290.47824298085 330.135492004451 334.58785574303 225.400106873134 157.846419291505 143.605021195977 178.166619055519 109.988621901248 86.3112804510549 90.1561612309827 139.225579966432
-9999 -9999 -9999 -9999 -9999 -9999 -9999 37.4432252003574 105.056504825973 188.129758967936 364.446740498909 460.992641176296 432.280661935933 386.166142030086 356.656617558297 355.458759475908 375.753922941689 393.863554549892 376.00236524198 333.145568434684 325.821889109245 345.666792782458 324.247886239275 327.238947406208 322.93085537581 317.583639274318 224.133059631939 174.369359202356 155.691626913682 159.983682726336 186.423375577156 158.730279636497 146.262077038882 164.724874765516 217.231961614708
-9999 -9999 -9999 -9999 -9999 -9999 -9999 209.358958150009 -9999 275.5780262727 415.760194137224 422.502328504114 379.648122245196 349.43359761266 344.28836268948 271.754923188754 250.991224065651 174.677473736938 135.041795346426 135.595344527197 267.976237413547 319.9273105121 331.140393586447 356.11268943909 323.755518222967 262.212822395905 196.506114455161 170.124139814812 157.033781830732 164.971417730098 185.016070563165 175.697318450904 170.149111289101 186.516178176737 240.875651767168
-9999 -9999 -9999 -9999 -9999 -9999 -9999 -9999 198.490675435745 268.730350448273 362.446417171578 402.562872241758 362.159061823424 347.025552120088 265.921651665582 189.27294934631 155.724565474609 145.669435285274 130.560804506902 135.733618512511 209.267416029001 319.600457227107 358.681969019759 376.394970789427 327.562666045766 315.047235708495 259.974792837919 245.568379566269 198.864907720063 205.480589772945 193.480667264946 204.266687685214 219.115434011746 226.981745300465 153.212933415883
-9999 -9999 -9999 -9999 -9999 -9999 -9999 -9999 -9999 304.776616219112 388.664920164782 391.600089744917 343.557340454073 338.581891266334 169.959246379841 170.667554853578 176.62416638943 168.337782401126 143.274300810083 161.786919059279 217.426334311952 308.568833517022 406.233418993801 384.917139863673 369.204596375188 392.333000971081 339.686154385549 307.070202221871 282.587606368954 253.199057458165 209.645534650215 248.21086638554 244.968286567285 178.731226202393 147.462735538765
-9999 -9999 -9999 -9999 -9999 -9999 -9999 -9999 -9999 234.721311966407 406.653734965094 376.859011717011 343.204517551584 276.694307604986 167.658539058841 186.039660545428 210.952142936336 232.34188385168 180.843092863647 161.181530272171 238.724851072083 357.109014141053 482.497681878537 440.375935954371 414.25698090106 414.198194742323 411.619672379697 374.178145523521 312.867669120795 268.803957848814 258.891379481789 231.15151297537 149.867993908187 163.111965427892 175.787869649837
-9999 -9999 -9999 -9999 -9999 -9999 -9999 0 86.9246482660475 387.044219817864 374.470662564471 353.465653342022 360.168677776479 257.364263981342 214.965061037783 207.061635662806 234.928440363506 281.994110523621 258.018763569846 253.510369185336 333.918108820689 423.240985835464 491.344700959953 473.966142915234 470.572751692821 456.23804881893 433.435986381067 406.19869293428 377.134003868417 330.111433635417 257.114187704579 206.194715693478 169.419028979389 182.521198850129 191.090438230555
-9999 -9999 -9999 -9999 -9999 -9999 101.60782205561 215.340877724222 429.491749614277 385.332824153724 357.811513220663 343.960861820052 326.489318192772 268.882991744911 289.684629590443 277.439529147439 260.387807332167 263.37337987467 270.085715228709 288.95975798478 318.926478171835 376.058965918932 459.854095821612 508.979584561765 535.303013299376 549.558949849454 520.341966954379 483.918983352647 438.626511516596 356.838538904329 301.60019939366 221.985491488907 219.819845612376 231.196387376745 236.823611538603
-9999 -9999 -9999 -9999 250.092052792969 272.830036815706 314.449229241464 354.488691030026 362.598151237566 344.971122181927 306.737997521523 397.319231687622 329.187975224321 314.401019672339 328.928336106448 341.109405811502 334.397791216988 296.945986760058 263.732904515094 249.670945936395 266.182312014268 278.011747387067 282.915055718667 292.914236730805 337.212843868624 385.580982591703 418.872719143151 438.202659745496 407.427291514103 371.492154671957 373.319608008951 318.044620067687 253.352071202349 265.703938207502 280.680872509331
-9999 -9999 -9999 310.126785887205 295.246733148806 320.014511404719 399.324853933897 377.170405640023 344.057107543062 281.516275565672 338.337653512208 392.786013044092 316.758264601077 314.256404443268 327.472441738679 347.096142382675 342.556295994699 361.880351936074 318.95812147707 313.322901272574 326.093675385606 327.943173359156 301.611713536979 301.251133037916 389.15339148193 439.919334431851 441.978815325685 428.9244246512 391.696961582637 402.321071915337 449.912452882931 426.190370394975 347.28648856706 327.854086612473 333.594289623118
-9999 -9999 254.388291301308 335.82065713589 360.003395532969 364.941132915675 352.446166476797 346.176838845597 264.781252398436 278.026573709171 358.267636287072 357.467520425471 359.579463108847 323.295594731729 343.15685309653 376.744152498898 367.546327536307 380.977621881033 348.695049062901 345.596144842746 350.667240691586 332.043659188461 350.154642749061 386.228506184191 393.328218292107 405.189179986635 407.661348880264 400.903770003988 398.620490494799 364.986268173424 469.491880261117 481.123359555941 426.465782968571 390.345848723939 358.560778452616
