NCOLS 35 
NROWS 26 
XLLCORNER -80 
YLLCORNER 33 
CELLSIZE 0.5 
NODATA_value -9999 
-9999.000000000000000 -9999 -9999 -9999 -9999 -9999 -9999 -9999 -9999 -9999 -9999 -9999 -9999 -9999 -9999 -9999 -9999 -9999 -9999 -9999 -9999 -9999 -9999 -9999 -9999 -9999 -9999 -9999 -9999 -9999 -9999 -9999 -9999 -9999 -9999
-9999 -9999 -9999 -9999 -9999 -9999 -9999 -9999 -9999 -9999 -9999 -9999 -9999 -9999 -9999 -9999 -9999 -9999 -9999 -9999 -9999 -9999 -9999 -9999 -9999 -9999 -9999 -9999 -9999 349.414057174187 -9999 -9999 -9999 -9999 -9999
-9999 -9999 -9999 -9999 -9999 -9999 -9999 -9999 -9999 -9999 -9999 -9999 -9999 -9999 -9999 -9999 -9999 -9999 -9999 -9999 -9999 -9999 -9999 -9999 -9999 -9999 437.84659714598 390.944315773851 178.269690576301 109.384944477262 -9999 -9999 -9999 -9999 -9999
-9999 -9999 -9999 -9999 -9999 -9999 -9999 -9999 -9999 -9999 -9999 -9999 -9999 -9999 -9999 -9999 -9999 -9999 -9999 -9999 -9999 -9999 -9999 207.748525455497 232.865752439602 194.895732317423 145.745123332312 41.5174909802369 -9999 -9999 -9999 138.911887382773 138.924351959825 110.912710684826 98.6438836497346
-9999 -9999 -9999 -9999 -9999 -9999 -9999 -9999 -9999 -9999 -9999 -9999 -9999 -9999 -9999 -9999 -9999 -9999 -9999 -9999 284.362243327672 202.223761891073 180.895154434323 128.86134836639 120.635970211697 108.888441868497 103.603936820252 97.7241487729436 -9999 -9999 110.939150062908 103.654396909638 90.2058251308062 86.9283719951757 86.6576485748473
-9999 -9999 -9999 -9999 -9999 -9999 -9999 -9999 -9999 -9999 -9999 -9999 -9999 -9999 -9999 -9999 -9999 -9999 -9999 212.508985506972 226.142783326434 177.407003812273 126.374015522434 72.3864320027679 89.0035304691876 101.550129010676 97.4661805076268 101.878305910442 99.2460791045158 106.721997663426 96.5262766891353 93.826613167539 90.7617103655463 84.1837129911084 87.5029753651807
-9999 -9999 -9999 -9999 -9999 -9999 -9999 -9999 -9999 -9999 -9999 -9999 -9999 -9999 -9999 -9999 -9999 -9999 -9999 195.720111477168 97.7437509292478 107.599591288234 84.3734070584263 65.4767341257424 80.6100887255569 95.2449853410885 90.1435795404395 89.7282746114569 91.6524153502991 92.444428040513 91.9204889012375 93.2192263166492 93.7562592698863 90.0657665624641 88.8904627386244
-9999 -9999 -9999 -9999 -9999 -9999 -9999 -9999 -9999 -9999 -9999 -9999 -9999 -9999 -9999 -9999 -9999 -9999 -9999 149.844535302791 81.7226029314006 65.7687389379585 63.0368857647526 63.8985818557712 67.8182895300577 79.4192918276038 85.7987445653353 87.7442818126967 90.7608113536099 94.4378972461682 88.6296227933311 100.672310051663 87.9463661775487 82.5819211662248 85.8180970888372
-9999 -9999 -9999 -9999 -9999 -9999 -9999 -9999 -9999 -9999 -9999 -9999 -9999 -9999 -9999 -9999 -9999 -9999 -9999 38.0452836450643 94.9454549220413 78.3208832448898 65.6972457140453 78.1681631117294 75.6622752480925 69.1467520460486 68.6942002638008 85.1396602516236 94.4939257348539 163.95351835167 220.027842933377 233.591457177834 133.551005422178 102.909525916526 98.3125347070374
-9999 -9999 -9999 -9999 -9999 -9999 -9999 -9999 -9999 -9999 -9999 -9999 -9999 -9999 -9999 -9999 -9999 237.844185370668 164.873388908721 130.466099662047 104.962381696832 74.0273482185081 83.1046793439559 94.1847854652249 85.7011869164615 89.8336017974787 87.5260770586003 96.9803101417076 196.1197161421 322.507680268309 439.027740578396 361.774023840244 357.537711690101 333.281998549842 251.37168453738
-9999 -9999 -9999 -9999 -9999 -9999 -9999 -9999 -9999 -9999 -9999 -9999 -9999 -9999 142.569948016158 183.910612252388 116.466848331558 93.3046737244497 92.8170157551111 98.4103368832517 102.164119430689 81.9200714570481 95.4605592372162 94.6647578092231 96.5776250276428 103.368289230436 116.232137723221 178.42289404212 356.547047914746 456.467005347789 356.630744820345 270.875327060429 243.768303373924 261.154371062484 353.584530817902
-9999 -9999 -9999 -9999 -9999 -9999 -9999 -9999 -9999 -9999 -9999 -9999 562.632429853894 171.790788827099 101.425794815624 99.8128494218483 107.157072294266 112.738987371397 110.495351731278 110.594053739551 108.182981777482 111.593399137916 132.94442378152 150.902128858594 175.594258047027 280.756269085446 491.328786066042 431.714428494231 419.903590915072 389.882504264311 388.861006868677 388.516446462301 330.355458913857 223.1263434938 187.41350884634
-9999 -9999 -9999 -9999 -9999 -9999 -9999 -9999 -9999 -9999 -9999 -9999 231.191585197554 107.160682423037 114.620853897635 165.09670875349 339.696380597839 484.227130670724 455.623032415801 280.392203129295 272.134966832312 246.077867471691 178.891510975787 288.397720391962 482.055433824439 507.563830008693 554.337722206873 484.65567434755 459.968873586271 440.624586061468 451.660567485702 469.823433512771 484.011898758347 452.000405435476 348.166434082786
-9999 -9999 -9999 -9999 -9999 -9999 -9999 -9999 -9999 18.9860953865539 12.6533303187488 199.644034131547 116.706157500927 119.042404945833 160.462518934396 458.629418941374 566.981090556726 565.224400698337 514.644058776477 553.95728607084 571.13284661856 677.851009647596 656.09768923512 504.387347150239 464.493989376255 488.895847392886 562.11791241729 558.614323139243 530.036075923042 523.301050515877 556.626218690366 592.046436764254 565.261308111642 538.151061131207 545.517255575312
-9999 -9999 -9999 -9999 -9999 -9999 -9999 -9999 -9999 -9999 299.555715590258 124.603656627583 125.055992446757 189.122203901311 503.346124864074 648.519558152181 578.364669806422 520.280795479093 529.09935554137 657.656391451337 743.224990616176 769.809625817083 747.738636107809 702.295782025101 599.884829987835 526.085310236721 521.401993084993 568.082892500447 529.462726856604 533.193013279876 574.215411675821 630.298987735041 620.742691725101 570.972348284138 554.918747630267
-9999 -9999 -9999 -9999 -9999 -9999 -9999 865.411490450868 314.825156464429 -9999 182.306700479067 137.1586075022 371.100209934329 635.254206307898 661.324646223881 583.809065154506 513.985795580592 500.936490225852 607.222084154241 638.073202455296 590.799712879902 567.027465425891 611.220479957868 650.881373622176 650.38328192432 668.737594263678 671.190546302625 596.571518507906 529.882856879011 539.364521619078 613.18577047908 624.653439000443 552.883000144892 487.887815446734 514.188167174515
-9999 -9999 -9999 -9999 -9999 -9999 -9999 50.1797250600932 143.762817550497 148.448383710149 160.19000637898 376.144336998181 542.363976753485 579.946633363622 624.564101286883 584.6617891264 488.663085380381 453.677182329131 550.855297437539 544.655240698041 510.944626567919 522.458682143947 518.172480659159 577.188523495591 574.508522474546 636.328093957257 718.81796776486 716.835468823851 716.090467833778 710.08923576087 642.646704549275 535.672995929896 446.399970206052 349.178492428359 475.791780697921
-9999 -9999 -9999 -9999 -9999 -9999 -9999 270.834671874628 -9999 236.805870759355 278.998995116546 541.831657861259 522.83740425794 542.249783721917 532.337384811197 438.674693708245 371.329916450026 392.806289066582 497.078398727056 528.183361155067 541.155173004766 519.364236098848 522.058555210164 608.796297841779 536.095838573584 620.113934743293 710.431301479046 735.125322009523 674.409370284684 569.40384318856 586.797529658104 589.948556330288 457.997547763313 364.037407328653 560.901581562591
-9999 -9999 -9999 -9999 -9999 -9999 -9999 -9999 203.831516620088 185.432916085799 386.633762544395 533.398289999583 470.5825502425 499.254514340434 472.850299557541 417.713545484176 378.829566912513 406.072095558638 478.414673303525 528.533326067747 566.029173176561 523.373577196306 607.008280377007 636.76848015066 573.594783511766 617.964198509324 592.329095847746 513.415487126585 513.048569176901 623.298536085013 517.968121597262 371.665630856606 377.70827906564 484.241243579494 709.069818480838
-9999 -9999 -9999 -9999 -9999 -9999 -9999 -9999 -9999 276.468776082994 477.541422574534 497.543731216922 516.691499517205 534.066144504761 524.540845162892 494.972775366781 459.252525722277 452.327357724397 516.638839826051 537.193881299731 638.81822389131 549.382122502348 675.441012870902 638.533717584532 496.090357480561 546.094478731678 556.826866836667 615.205210042903 620.014171828111 614.797118573268 625.460963974392 442.135358621304 437.8387889937 584.583634143836 740.689392531397
-9999 -9999 -9999 -9999 -9999 -9999 -9999 -9999 -9999 254.595715675777 458.846912613062 482.369177937533 493.756333328059 481.16573667405 480.421262730973 499.246942348998 500.835439883704 509.162903152773 556.467058649934 561.417703873236 623.01376770563 571.95340347802 637.186122013997 741.237038848378 599.295336432964 619.625999675393 639.20745717775 633.381750832656 665.962078795269 639.169017094511 651.107501250143 640.277465838791 608.876413319038 576.443735441602 671.862519578344
-9999 -9999 -9999 -9999 -9999 -9999 -9999 0 89.3633726340067 405.519608267579 495.670884355318 471.817955835561 452.911154729522 426.666513658455 462.438291052552 461.717588827464 449.868884714457 488.235432401971 583.130812276686 670.839156317394 574.986820903251 609.336192987282 555.463106003102 698.193737912351 826.662629995485 796.548486568718 773.109740160998 728.210827811534 719.502296262736 676.845268138163 651.977301379467 727.360700788606 685.052533492579 688.048537930607 664.175573901717
-9999 -9999 -9999 -9999 -9999 -9999 96.3735955269811 207.017587425948 399.341412685187 451.165975852185 466.862434109383 428.383118160571 433.210541835025 531.493227455807 571.99236912365 552.066390162412 567.416067863276 603.770220818588 730.231186859253 579.779091741832 711.313885766053 645.179174547635 642.029608487103 534.267012406082 660.834245567025 789.178901670531 846.95708459026 825.919903232316 776.87822531727 712.534267684534 653.301501046152 676.995287417189 606.368036847427 664.061676918124 644.262784496617
-9999 -9999 -9999 -9999 269.081396859546 257.111606075999 275.514121992509 358.201124015293 431.648539901974 455.636254870354 430.633209614703 372.637715059146 461.471241558706 597.904371714075 651.310622506438 595.912592939012 556.95490580523 646.710589112518 784.062237332436 673.277407597751 728.354951413254 744.544555234557 646.297835790352 554.988915324782 632.600289742847 669.271642874686 748.67393153052 776.99651402029 748.992552434998 688.392993038163 664.61852596475 701.547191130915 823.868537567816 680.341680435287 720.672357180741
-9999 -9999 -9999 311.659287870848 289.885732714686 301.86488908621 379.912381776697 422.300952103126 439.411329640497 376.284947450392 309.667021903005 411.907759049726 505.56131700998 715.301538855262 749.264922537784 712.595857575909 637.893435277363 659.820568147673 719.268984236449 776.097986319258 790.589058731708 784.352138788096 742.4022557775 634.321794368633 581.247591880525 625.694158127665 714.766230063978 697.826640103945 667.329027504899 625.835128721009 795.50818061775 680.609517739297 841.651737170056 820.349006120222 788.496685976864
-9999 -9999 262.447215808617 362.467194161048 395.230416924512 372.839036401836 386.668418487383 412.40339236214 338.456103731882 320.210151837274 317.829063347017 547.397186246281 508.487002488385 729.325919919379 811.668891124396 781.465161623354 759.732506266403 701.202766569486 695.238322028506 825.838284471892 802.675064473334 769.34492074992 782.100903901547 646.111209131094 634.952145230652 658.541161614705 678.280559061194 644.911435960518 706.880800845399 774.433601266777 672.327714623969 495.850762269245 870.847018251097 897.072249958641 824.877497077097
