NCOLS 35 
NROWS 26 
XLLCORNER -80 
YLLCORNER 33 
CELLSIZE 0.5 
NODATA_value -9999 
-9999.000000000000000 -9999 -9999 -9999 -9999 -9999 -9999 -9999 -9999 -9999 -9999 -9999 -9999 -9999 -9999 -9999 -9999 -9999 -9999 -9999 -9999 -9999 -9999 -9999 -9999 -9999 -9999 -9999 -9999 -9999 -9999 -9999 -9999 -9999 -9999
-9999 -9999 -9999 -9999 -9999 -9999 -9999 -9999 -9999 -9999 -9999 -9999 -9999 -9999 -9999 -9999 -9999 -9999 -9999 -9999 -9999 -9999 -9999 -9999 -9999 -9999 -9999 -9999 -9999 134.295736050219 -9999 -9999 -9999 -9999 -9999
-9999 -9999 -9999 -9999 -9999 -9999 -9999 -9999 -9999 -9999 -9999 -9999 -9999 -9999 -9999 -9999 -9999 -9999 -9999 -9999 -9999 -9999 -9999 -9999 -9999 -9999 234.689689054551 228.611580355132 63.6546655892173 45.9489316464331 -9999 -9999 -9999 -9999 -9999
-9999 -9999 -9999 -9999 -9999 -9999 -9999 -9999 -9999 -9999 -9999 -9999 -9999 -9999 -9999 -9999 -9999 -9999 -9999 -9999 -9999 -9999 -9999 155.807416486283 131.518739127645 86.4587058619066 102.942451735961 45.409063885532 -9999 -9999 -9999 83.3986931746969 84.5269228951433 68.7340782698898 57.8978508889039
-9999 -9999 -9999 -9999 -9999 -9999 -9999 -9999 -9999 -9999 -9999 -9999 -9999 -9999 -9999 -9999 -9999 -9999 -9999 -9999 158.425869827088 122.11858474483 114.172159682657 84.5533923224439 60.346128629396 53.3103870556313 98.2022377909504 122.161051665363 -9999 -9999 70.7754400326399 63.9230891598523 56.3610693544993 46.7989027271966 46.1246979287579
-9999 -9999 -9999 -9999 -9999 -9999 -9999 -9999 -9999 -9999 -9999 -9999 -9999 -9999 -9999 -9999 -9999 -9999 -9999 78.5395291909634 83.0481852063344 77.2205090747526 82.2667945830243 59.6154398636674 57.6402043248586 53.8374081413449 69.0421421488535 132.037177872691 93.4182166575803 71.677728708538 52.7164064342527 53.345127408416 53.2048775664994 50.9262297199588 50.7198974299418
-9999 -9999 -9999 -9999 -9999 -9999 -9999 -9999 -9999 -9999 -9999 -9999 -9999 -9999 -9999 -9999 -9999 -9999 -9999 100.31130116395 69.0779086752487 66.3915831955948 62.5919935622816 61.4092163706402 61.1019847114789 56.0388426317942 55.6127069559997 70.3186050252323 66.4578940605079 53.3117993538135 51.5594974857964 53.065288802325 54.814232651913 51.665134962158 50.8650161302854
-9999 -9999 -9999 -9999 -9999 -9999 -9999 -9999 -9999 -9999 -9999 -9999 -9999 -9999 -9999 -9999 -9999 -9999 -9999 87.2789025453987 67.034917223278 62.5721817006673 63.104121986643 59.8424787903438 60.0052519527173 63.9714975545872 59.1713681740354 61.6401747329036 65.2559236695547 66.7072418120308 71.7199525702921 76.8047046421989 73.8061713240178 67.1862611740472 56.7453182827758
-9999 -9999 -9999 -9999 -9999 -9999 -9999 -9999 -9999 -9999 -9999 -9999 -9999 -9999 -9999 -9999 -9999 -9999 -9999 12.2117475923603 82.1154144241087 70.1820456351557 64.5493489379261 62.2248798079011 76.9680377702014 68.0613341796836 65.6067528535745 65.4967960569711 67.0494544779441 85.7977371151471 95.1018720791034 90.7697867755864 89.4876125488213 86.3040448315142 75.7620647761048
-9999 -9999 -9999 -9999 -9999 -9999 -9999 -9999 -9999 -9999 -9999 -9999 -9999 -9999 -9999 -9999 -9999 157.400211095812 116.51777069097 110.976216168717 75.4753482749496 73.1538610381605 62.4006626065872 71.0617427848526 68.6025354759052 72.3697260131549 72.6983622513466 68.621211953183 80.6713000061016 111.49299909409 102.590567465831 94.8551090303325 99.7198032921442 102.843945364638 97.5090755698171
-9999 -9999 -9999 -9999 -9999 -9999 -9999 -9999 -9999 -9999 -9999 -9999 -9999 -9999 117.279898314425 123.796583726118 79.5502692020196 68.4414956770264 69.7250954170147 77.407563134995 77.5167012876862 68.4741094901339 71.8905019941074 75.4482361716556 72.1111419709256 69.7803453778152 81.0894839217888 96.5642841233429 112.007811128488 112.070097728989 112.014645076061 118.203772865928 110.044781849929 96.9331929248466 98.6131560904995
-9999 -9999 -9999 -9999 -9999 -9999 -9999 -9999 -9999 -9999 -9999 -9999 313.453749254505 134.54199659988 90.9176841128325 79.0570298038341 81.3583816137453 84.2981331273915 82.9515293483799 73.7457547132786 68.2398451806916 68.207638740777 72.7054067047388 82.705472039957 90.6982700992762 87.0126647175549 84.8815664348048 92.6414739757903 102.891693928444 96.4938058732514 102.341846247439 112.612715026007 96.5290147502559 89.2947082277436 96.0036821509652
-9999 -9999 -9999 -9999 -9999 -9999 -9999 -9999 -9999 -9999 -9999 -9999 150.938138705033 100.702406827205 94.2933901995748 134.190928777037 111.471473178101 98.2778236763762 97.1035526774428 101.212617952115 99.0205781684084 99.406954541392 110.915924206478 120.014426065332 111.571580229892 111.10599715988 107.569157086101 101.215951436173 101.244575016469 92.2555566580665 97.3241095746063 97.0500552684492 93.1822754949783 87.9592503580179 89.3563215961244
-9999 -9999 -9999 -9999 -9999 -9999 -9999 -9999 -9999 8.81211643428912 5.91563614331965 208.603066138975 126.528441094108 105.181404460787 143.218659737904 96.7162627366634 92.713836683132 91.9289058875631 91.274750599962 92.1370068656014 90.9872929354407 107.46295283866 98.729175360406 91.8419468606573 94.040109061142 93.285605307614 90.6441305549967 98.3490783504171 111.235480449506 102.815555563048 83.38304410321 86.5849302960461 86.722437585044 84.7151142756607 91.174152584989
-9999 -9999 -9999 -9999 -9999 -9999 -9999 -9999 -9999 -9999 165.608721725758 133.240503368141 140.77073876396 158.619884247279 99.4455491136232 94.1879070881633 90.5659504391286 90.9410109515524 93.5491913390657 96.2763143123686 93.2186229248215 78.1714861748719 75.7699816561033 81.0236836829342 97.6027413928612 93.8367291827731 83.5227600110142 81.1512455839003 87.7553847063824 112.292952241178 101.07408181408 82.9805653577096 81.5153807755109 87.8462370291687 99.2104371718248
-9999 -9999 -9999 -9999 -9999 -9999 -9999 471.130222697845 173.780750372127 -9999 141.045035343904 174.729835523354 129.709844098826 95.6009540484187 85.8364879986937 83.6249601484013 83.2499412410772 87.0878825697471 87.8136978438974 80.0290259455187 72.8127437923627 76.7684755469132 82.665260252241 84.5561247012942 100.22375465492 92.3191259969097 83.5628703600583 75.3082498261393 77.4795434806013 83.4632218832203 100.40440111171 100.263911222026 95.8131698640067 98.858484860796 98.509769389993
-9999 -9999 -9999 -9999 -9999 -9999 -9999 30.8145811924549 91.5537112728611 165.227442091639 200.785741477747 136.420115079131 97.7605133640805 84.7409391913129 83.1227908569307 77.6541275621039 81.3790766825424 84.5537202927243 84.5174732437296 92.6035300043453 102.857985089137 101.085995051662 98.0674593515831 95.8880179805015 104.940563515007 88.4516577812159 84.1085348047478 72.7201393599188 70.9127810399615 73.5757684741398 78.3967068385111 82.2590215670392 85.3077466345545 88.8660753034952 83.1399666815184
-9999 -9999 -9999 -9999 -9999 -9999 -9999 158.176040086121 -9999 189.85629532586 159.912593142323 118.837067193074 93.1326486855324 90.5924848879433 89.0076744995039 97.1995690250056 107.307305365672 108.224057169205 108.066915928532 106.949319803362 103.620620934017 105.819249503218 103.834488183296 102.517084200772 106.070548166534 78.439949166378 77.0795834713592 69.3944215592161 72.5984006724934 73.5377266980231 73.6386743139825 74.9655067979215 79.1398789608404 78.368069867915 78.9290004607781
-9999 -9999 -9999 -9999 -9999 -9999 -9999 -9999 126.355275372095 122.909860431297 176.233192001183 125.853176450389 112.487873299991 118.105949779049 122.879089326983 124.346819758372 118.528758953517 111.19627480824 103.178465772926 100.685192305604 103.453193450466 106.485085305013 102.213776816866 99.5364240509201 101.425308106583 71.9391052033039 71.4514198517025 70.9004517239018 74.4339240057308 74.6318938828094 73.9023447118661 74.034674294292 74.8602391079837 78.1063430160424 81.5822050863448
-9999 -9999 -9999 -9999 -9999 -9999 -9999 -9999 -9999 217.818281187331 231.358516356018 168.263424405622 142.274902494188 125.120920760411 107.966772641221 98.6560672137511 94.383761404677 91.8239937674953 91.3737291943307 90.6099298706314 90.9653675885241 94.6152166417245 97.4391887554214 93.659528111044 94.8414541887269 77.0883243601812 70.7149742547652 72.8197035791303 75.5677896300417 74.9060446703615 74.006892223454 75.3798419722465 74.4315951882509 72.9133211847159 74.5847133222356
-9999 -9999 -9999 -9999 -9999 -9999 -9999 -9999 -9999 158.294303088925 219.868845202176 159.168531805917 124.901013781426 93.4932366466317 80.1551744932948 73.564637239184 71.2204069127029 72.8884584181372 75.4397377912686 77.4680375930782 77.2623185108447 79.7438172971442 84.9628515939615 89.658823736939 85.5654890216524 80.4312723363796 77.2558825348021 72.5590231523625 70.6425753147516 66.5192523279387 65.6001933284596 72.0325623245856 74.4066916920558 71.707572530835 70.7550055211349
-9999 -9999 -9999 -9999 -9999 -9999 -9999 0 82.5456643615443 200.369620979963 181.263832057907 124.643899252208 79.9341419611644 70.111889309123 64.9302433753417 70.8661230314965 73.1246686258955 74.8337210575292 78.6797909752215 85.6578872462202 78.1192645673813 80.1457515792681 81.7074333681901 85.1612403944282 76.1590179377093 74.9831865258461 73.497543132098 78.0871478857322 75.3647874793549 71.8809649356685 71.4993395468378 75.2085139728421 73.529356262433 68.3482845888505 68.0108185182314
-9999 -9999 -9999 -9999 -9999 -9999 78.04794860358 155.617839616736 216.613563851609 149.997449600055 113.419350241882 76.6219881793314 67.244706528896 63.2808295845737 72.595383722366 73.912790494923 78.148126797518 80.3011199613718 81.7072528751486 80.4445299877362 80.4085271353743 81.8093080511894 79.8025295628197 85.6345351904809 71.2706682205075 72.573076765439 70.107465509754 69.9425759052362 74.4746558289453 76.109909255612 76.2679924644945 73.8378790468678 66.7719451306227 70.7714221278054 69.1292488760239
-9999 -9999 -9999 -9999 221.078637544393 200.7733018545 145.337058183519 147.642658829579 142.742134882295 104.973899347699 72.5504177738933 65.6262486382877 61.9457141106615 67.7741805313795 74.9559132582096 78.4894133289654 80.7438123072264 82.3737656046063 80.9853878600699 79.7191876910068 80.4318077343128 82.2632420534738 80.7415304982573 85.922791375417 73.9984747721017 71.666978286369 67.5582247875399 66.5708570305009 68.1596248857085 69.7921190180371 69.4199670963274 67.8101195342101 66.202393291796 71.0131090259678 68.3700215543709
-9999 -9999 -9999 239.497574653993 221.14238157089 177.066596312182 150.338659823583 132.166665379931 106.000933820564 72.1117807029877 66.5560362589366 60.1666499246009 65.3006154058188 68.6154884654119 75.7110935739959 78.9054007260323 78.8152320445848 80.0695679964468 78.4356179071317 80.3207168104479 81.4771985212027 84.2980734346671 84.4031618816021 87.8215262142636 66.7918471241228 65.612905780706 68.7661064976342 70.829441144312 69.0035643977832 66.9197630489441 63.807868073092 62.5781444432883 63.7921341835997 68.7059250905604 71.5130512342149
-9999 -9999 194.551540304016 203.821535916512 151.340784578931 146.252160750752 129.105158443201 114.610242369255 74.5969443867976 66.0950163966886 61.6202576849962 60.9874442669241 65.2692464458962 67.8085995806756 73.358865059855 78.1145242167074 78.8798436860033 79.3447763223346 79.8403759385886 80.5795964977575 81.7446512904527 82.404642389666 82.6992012345603 86.9827026230959 62.8074828610015 63.0330117990607 65.3586271773693 62.4759884683491 62.2783136258431 62.2471938488609 62.9604816149742 62.4704922934378 61.2874105473672 62.8118726738919 66.0116100200605
