NCOLS 35 
NROWS 26 
XLLCORNER -80 
YLLCORNER 33 
CELLSIZE 0.5 
NODATA_value -9999 
-9999.000000000000000 -9999 -9999 -9999 -9999 -9999 -9999 -9999 -9999 -9999 -9999 -9999 -9999 -9999 -9999 -9999 -9999 -9999 -9999 -9999 -9999 -9999 -9999 -9999 -9999 -9999 -9999 -9999 -9999 -9999 -9999 -9999 -9999 -9999 -9999
-9999 -9999 -9999 -9999 -9999 -9999 -9999 -9999 -9999 -9999 -9999 -9999 -9999 -9999 -9999 -9999 -9999 -9999 -9999 -9999 -9999 -9999 -9999 -9999 -9999 -9999 -9999 -9999 -9999 257.615787543066 -9999 -9999 -9999 -9999 -9999
-9999 -9999 -9999 -9999 -9999 -9999 -9999 -9999 -9999 -9999 -9999 -9999 -9999 -9999 -9999 -9999 -9999 -9999 -9999 -9999 -9999 -9999 -9999 -9999 -9999 -9999 240.64476361742 282.060620773155 97.8049603422953 84.3461940787734 -9999 -9999 -9999 -9999 -9999
-9999 -9999 -9999 -9999 -9999 -9999 -9999 -9999 -9999 -9999 -9999 -9999 -9999 -9999 -9999 -9999 -9999 -9999 -9999 -9999 -9999 -9999 -9999 105.561279919515 127.137338346712 126.285306184774 156.042046945618 71.1430722016572 -9999 -9999 -9999 66.8065915037806 63.7191501530527 58.2143857469429 54.225460211033
-9999 -9999 -9999 -9999 -9999 -9999 -9999 -9999 -9999 -9999 -9999 -9999 -9999 -9999 -9999 -9999 -9999 -9999 -9999 -9999 160.820387521616 106.674600781882 102.509001147881 69.4966581219168 51.5996023461422 55.845066668182 122.262556066345 134.063469735871 -9999 -9999 81.1899180586438 96.7298730168577 92.8206079498734 63.7098187405752 55.5291784674598
-9999 -9999 -9999 -9999 -9999 -9999 -9999 -9999 -9999 -9999 -9999 -9999 -9999 -9999 -9999 -9999 -9999 -9999 -9999 83.2795545372741 66.0696690648327 51.3307859844872 48.0070789001841 45.2559760443648 44.667892150301 49.4850826448466 80.3415956064613 148.170690922839 138.683170741924 147.273694399843 103.700011442344 81.0759981950679 69.0941700231899 60.1143574207316 58.8450275079726
-9999 -9999 -9999 -9999 -9999 -9999 -9999 -9999 -9999 -9999 -9999 -9999 -9999 -9999 -9999 -9999 -9999 -9999 -9999 86.0755345426764 60.4765233475079 53.4953563059655 55.8960247648096 54.0418287148994 53.5859669511323 53.583703816912 56.9640573223097 62.9533568547173 68.5653878351541 69.3514476987467 66.8257923083928 64.2467789396087 62.9280482400025 60.9604519023838 60.8197362517247
-9999 -9999 -9999 -9999 -9999 -9999 -9999 -9999 -9999 -9999 -9999 -9999 -9999 -9999 -9999 -9999 -9999 -9999 -9999 105.087960769102 83.9027691299177 64.4274161042511 54.4395439586189 56.7319328950262 58.6684070665826 60.0109911538726 63.712288601188 64.7920912924277 72.9499264084104 76.279695874038 82.4650858941686 87.7130388130442 87.5705582732989 85.9638034331583 82.0650405574266
-9999 -9999 -9999 -9999 -9999 -9999 -9999 -9999 -9999 -9999 -9999 -9999 -9999 -9999 -9999 -9999 -9999 -9999 -9999 17.7670370012852 106.990628096264 73.676626812531 60.1473607116617 58.3133480150412 56.5926081474584 56.3066294445603 49.1115504192457 73.0730607221824 83.8426595685453 94.0202817565922 85.0120179518239 81.9292748891993 81.9184829811564 83.5577632162537 84.8766804119779
-9999 -9999 -9999 -9999 -9999 -9999 -9999 -9999 -9999 -9999 -9999 -9999 -9999 -9999 -9999 -9999 -9999 262.637146436254 151.107013193067 122.917424692426 72.7638354570983 82.2292961994779 85.8690352077895 84.9945648164057 50.9729468138174 73.8855387863715 77.8335334119072 86.4076765546527 99.9038199625228 92.3092859005746 86.1825451139332 88.9568790827377 92.2921347080438 95.1040002783399 94.3558254640422
-9999 -9999 -9999 -9999 -9999 -9999 -9999 -9999 -9999 -9999 -9999 -9999 -9999 -9999 274.626473546294 321.407288917604 268.538090493915 203.865147512693 228.55476058512 169.223187824264 121.650324424708 114.182218144326 122.396321048448 106.277295613387 91.0161833506364 87.0948522069788 86.8417379554129 96.0288765291907 99.2407079544852 99.3524007938 98.6393827548788 97.5727638787295 99.5244834794551 98.1548080422555 98.1044134877341
-9999 -9999 -9999 -9999 -9999 -9999 -9999 -9999 -9999 -9999 -9999 -9999 476.58534972222 241.06702342898 165.351561683087 143.736528145219 131.30199357114 116.915053998048 114.968084344104 131.918316884854 147.270301995991 132.877781396776 117.499821084398 114.70268117615 118.189777488037 118.809710523061 115.319544928096 109.822481284928 97.6685430840113 96.1878370294963 100.627316689306 94.6437601434608 89.6557372503183 85.9592481381696 92.7941327399902
-9999 -9999 -9999 -9999 -9999 -9999 -9999 -9999 -9999 -9999 -9999 -9999 267.617224656618 212.979467364721 186.625918841165 175.399360885283 138.329962233353 123.121690489252 111.399712097713 99.0088146960752 98.9306782427049 119.278584322718 129.789899097327 137.370462308732 133.853049989531 123.019416399083 122.003654727245 123.966029163082 118.182334369934 104.491980818803 98.6645041830161 92.0164240404825 82.6638373304751 77.8445287089424 82.8877694248014
-9999 -9999 -9999 -9999 -9999 -9999 -9999 -9999 -9999 9.41509845021348 7.36048884758838 295.765940461318 285.078889126306 236.268656411964 249.214890959312 228.590508832634 206.125324553272 182.154126325124 149.035980011636 126.34971970441 122.490784861817 125.594624963032 135.283272029346 138.105464819666 104.913295768097 80.9933766681963 84.3054702592898 91.317359513106 101.658074947854 108.910657935276 109.03986646904 108.171400871196 100.38270422751 90.8201796760511 88.8325471343888
-9999 -9999 -9999 -9999 -9999 -9999 -9999 -9999 -9999 -9999 363.323286335285 327.532497845771 292.856900482715 252.829406298495 205.662622669273 169.880284640598 152.453867153225 154.197454576875 174.261212317868 178.352046961734 142.070722808452 124.190193107016 133.882750106202 136.073216264152 96.1817825636325 81.5606256749398 84.7196790409591 85.1249210591887 84.0335881703371 82.9006059736225 89.803798647951 97.0391333522761 101.250684349735 100.342623692631 96.4005225123432
-9999 -9999 -9999 -9999 -9999 -9999 -9999 474.077522833279 184.233512155308 -9999 395.489379838797 341.201160747141 252.063815981895 166.546369391228 121.336797964326 95.0568774990708 81.4954792087813 80.9287519814651 98.1875900689103 142.610851403349 171.644507304778 136.634042992282 129.146572741893 137.673414973099 104.540656577449 77.2785969285328 80.2511583976063 78.7455871037274 81.2164925016789 85.8927241757691 80.7487900192753 77.4643362185351 79.3649503552524 82.1152846581413 82.4761344327544
-9999 -9999 -9999 -9999 -9999 -9999 -9999 35.3542676338762 91.6606312123004 336.06776891017 402.225226072165 271.946705761167 158.79563971458 114.403947803551 79.5609886069591 67.4367763615269 64.4407082007594 62.3562195846872 62.0897073247212 84.0290313055529 144.64889059548 157.745701170111 131.303634384208 138.758589393047 116.205916612446 75.8863241949925 73.8429393691533 77.7516439238558 77.2071872577364 79.637789308719 77.1934615481186 72.593895402774 72.3481628089808 73.0640511270746 73.7212941307938
-9999 -9999 -9999 -9999 -9999 -9999 -9999 196.80880245272 -9999 444.738951421046 383.297523989998 196.05565616418 138.201056699132 96.2341387807131 74.8892961237435 64.019289570044 60.4995144739797 57.6184916348478 59.3219666455537 61.8882757738768 106.451897955939 154.365094236591 137.694039577843 140.840790663601 133.162158453404 82.7121607624024 68.4235903686239 72.3806927281763 72.4836899211504 70.9176041985632 71.5989056252383 73.3642854406919 75.4137429779521 76.1742785874572 75.8275432677488
-9999 -9999 -9999 -9999 -9999 -9999 -9999 -9999 337.315135383603 555.199399740618 379.253393202255 183.446306982707 137.709049369473 101.748132981695 79.1805146076796 60.8941950602082 59.3284717877654 56.670576443917 56.7473134458384 59.2208498484991 85.8369745221902 140.094826964071 140.057781152786 138.085676975619 138.093646630048 93.7144094322184 68.905646033576 74.1304939502807 70.5104844176272 69.1560749571376 67.1045951019779 66.810446613194 68.7002813760675 72.8938675953908 81.523446257844
-9999 -9999 -9999 -9999 -9999 -9999 -9999 -9999 -9999 566.250201933724 334.698965351637 171.467031048669 150.027207452224 119.368668941631 88.8517489304518 65.4608931123985 56.2110809315476 56.4218541477185 60.4762723225293 59.4236004362508 76.5549568801424 119.809738091869 132.896138653791 131.075224603246 129.349520257155 92.5182813523791 73.5998955327903 67.4537046077531 64.8529118914036 68.9761700083934 68.4616441015337 69.0316354842866 69.0230295700063 70.547284036193 80.8315513592115
-9999 -9999 -9999 -9999 -9999 -9999 -9999 -9999 -9999 392.535584333447 363.528891205233 186.894777536388 153.027707813387 126.587748360074 92.2125595572726 79.9847376568005 57.1872073262002 56.3911266763991 58.1034381387098 59.0775083331018 71.1167959476066 100.960652421258 118.45087589905 118.193109776166 110.389569274946 80.3736683494213 73.1312772262865 64.4802710138376 71.7935360498448 69.4983743157706 71.5482050819409 72.318416103439 72.3733824621068 77.9620773627845 80.4677479139281
-9999 -9999 -9999 -9999 -9999 -9999 -9999 0 112.469836231901 513.219216782483 318.503751606217 180.224447343852 144.266458987148 112.254401160291 79.9260604527239 75.8043754895342 66.3794089621997 58.333912887632 59.5948321471353 61.2828106963159 68.3737191256667 85.3612543180005 96.3899341729246 97.1465409344662 81.7297575206348 69.9783848640367 71.1430019219582 72.6372289007768 72.5789443686518 70.9048143833626 73.2359591933697 74.0996185406745 75.0393846383387 75.7690578873162 76.1205578712354
-9999 -9999 -9999 -9999 -9999 -9999 113.866189907413 231.523331788874 290.816942294108 211.838040561158 154.032865785937 125.340074391029 99.3437622348923 73.9717858959628 59.8577022074286 67.4736028481404 67.3624498857556 64.5745134395958 66.1717957610216 65.9847709059244 66.9578571297126 75.8318156810024 79.9947140731379 72.7954584904437 62.32303210536 67.3947019216444 66.5930437747907 67.0907827509934 66.6736829139935 70.7635936973566 69.5479927529134 69.9910252593365 71.065858651779 72.0736964884308 72.999470925438
-9999 -9999 -9999 -9999 266.891416960486 324.862210117591 282.049238317092 249.305286016359 169.94580645351 138.547815363873 104.887497808476 75.45728083624 57.0732387193827 51.4991282504846 53.6088137566574 60.7672523587323 62.0332101196385 65.6035638599657 66.5012310739895 73.6182929586212 74.684999667751 75.0699350150058 78.7547734388059 57.5263303689594 54.9904470838872 52.4042508122276 56.0713539103639 61.9738100069217 69.6713201109002 69.7180438610401 68.1575198402579 70.5166175794309 69.2515793595682 68.0923411520786 68.390364658686
-9999 -9999 -9999 359.48011743839 344.733638862988 309.135358882736 207.751659597653 148.92586896359 120.709646828385 80.9605694892041 56.5810303921189 50.3234582898374 48.4286896699739 52.3616037786283 55.8604098913331 62.6719991168877 68.3926447529939 68.7980016031016 68.6133022262332 76.469727301522 86.0185649570305 79.345708710239 73.0175762841088 59.474776583753 50.0874568314984 49.9701513550811 52.2612135722586 57.3782153781377 61.1426300687649 66.1753050574151 66.8601893466107 65.3711630279608 60.2332223164206 65.4891621623994 68.6739496465182
-9999 -9999 325.59557732907 303.195538449287 221.398625233014 178.716317748658 138.036563907358 108.15555973338 68.6776468874002 49.694319548683 50.2913813454089 49.5484104158695 48.1087678309144 56.5034388389966 57.8958885723742 63.9519245943924 63.4996322272094 64.2128360877798 54.2222639511427 58.556790140585 72.1142873529183 70.6026761820378 67.1607471019831 57.3868652614486 54.1226555044407 55.0674853215762 54.6537290942287 53.1118025487271 54.1015635175779 58.1531415256579 61.7917977237352 58.4378117644627 54.4530055489457 56.1015878197666 58.1118666092646
