NCOLS 35 
NROWS 26 
XLLCORNER -80 
YLLCORNER 33 
CELLSIZE 0.5 
NODATA_value -9999 
-9999.000000000000000 -9999 -9999 -9999 -9999 -9999 -9999 -9999 -9999 -9999 -9999 -9999 -9999 -9999 -9999 -9999 -9999 -9999 -9999 -9999 -9999 -9999 -9999 -9999 -9999 -9999 -9999 -9999 -9999 -9999 -9999 -9999 -9999 -9999 -9999
-9999 -9999 -9999 -9999 -9999 -9999 -9999 -9999 -9999 -9999 -9999 -9999 -9999 -9999 -9999 -9999 -9999 -9999 -9999 -9999 -9999 -9999 -9999 -9999 -9999 -9999 -9999 -9999 -9999 132.872307096801 -9999 -9999 -9999 -9999 -9999
-9999 -9999 -9999 -9999 -9999 -9999 -9999 -9999 -9999 -9999 -9999 -9999 -9999 -9999 -9999 -9999 -9999 -9999 -9999 -9999 -9999 -9999 -9999 -9999 -9999 -9999 214.223854048549 230.280082019059 83.391822213922 35.9638860167649 -9999 -9999 -9999 -9999 -9999
-9999 -9999 -9999 -9999 -9999 -9999 -9999 -9999 -9999 -9999 -9999 -9999 -9999 -9999 -9999 -9999 -9999 -9999 -9999 -9999 -9999 -9999 -9999 147.525929231608 239.373478268208 231.686065548522 220.084963236626 57.7306588882004 -9999 -9999 -9999 140.728683598884 146.748996515456 143.173777750312 133.059887885423
-9999 -9999 -9999 -9999 -9999 -9999 -9999 -9999 -9999 -9999 -9999 -9999 -9999 -9999 -9999 -9999 -9999 -9999 -9999 -9999 110.615430437602 129.108536797986 189.587712891935 184.583564779182 170.707151110826 197.159436376732 184.326438466 112.442151188063 -9999 -9999 110.282424446406 146.194178386064 142.190852834226 136.311247360217 133.462992939253
-9999 -9999 -9999 -9999 -9999 -9999 -9999 -9999 -9999 -9999 -9999 -9999 -9999 -9999 -9999 -9999 -9999 -9999 -9999 107.049329705094 134.198671669585 139.411079899723 157.043529002618 113.111421723664 132.423703462282 148.948384107644 159.43780458836 142.018397945296 139.460876589636 138.468308394422 141.17784606529 132.463845278525 122.499340625114 123.903780818189 123.315018440056
-9999 -9999 -9999 -9999 -9999 -9999 -9999 -9999 -9999 -9999 -9999 -9999 -9999 -9999 -9999 -9999 -9999 -9999 -9999 109.796893158735 104.792772368987 106.449507392993 105.565180865545 134.016427111272 169.365273924073 164.902968922826 134.227965938967 131.970399730972 128.898499232624 127.441405853257 128.901985828088 152.509618565629 141.645073781572 138.421499453539 146.643556908833
-9999 -9999 -9999 -9999 -9999 -9999 -9999 -9999 -9999 -9999 -9999 -9999 -9999 -9999 -9999 -9999 -9999 -9999 -9999 116.688537254366 127.7688578691 116.927638405969 120.612558377994 132.995912714546 152.958206302796 145.407767972357 128.979364130428 134.75739447052 135.23179276265 139.510971866355 169.603201749239 104.495662637276 102.753482265754 104.024707802627 94.4884340032739
-9999 -9999 -9999 -9999 -9999 -9999 -9999 -9999 -9999 -9999 -9999 -9999 -9999 -9999 -9999 -9999 -9999 -9999 -9999 38.7085513539371 154.812794090731 134.264680543741 131.616285922085 134.198362173701 149.800569617834 162.652055887272 149.237670881657 152.627767456715 221.491363635715 150.900398322224 85.6646734829498 73.4842026672111 73.5977863978881 80.2172514479157 82.1748661791076
-9999 -9999 -9999 -9999 -9999 -9999 -9999 -9999 -9999 -9999 -9999 -9999 -9999 -9999 -9999 -9999 -9999 161.726363347129 152.408462750781 155.678472284171 213.622794118885 137.397820156603 154.222731742665 191.611364184566 216.820802947192 229.055849990151 203.111069995165 177.560471737536 130.553316329656 96.6886775887557 82.1118350911286 74.1807720934095 88.9941428632854 111.047226570142 113.847617276934
-9999 -9999 -9999 -9999 -9999 -9999 -9999 -9999 -9999 -9999 -9999 -9999 -9999 -9999 138.099414984736 178.935456143762 166.576283204089 186.963946902408 185.567192934768 196.045531120045 203.53424922765 158.80626884558 172.199977400293 181.017173888919 172.363950777054 170.583285638396 153.188511621176 146.153411686352 108.854271082025 86.4040158790957 78.4917008700679 114.501892981689 172.77044756296 186.411980789312 168.611579088017
-9999 -9999 -9999 -9999 -9999 -9999 -9999 -9999 -9999 -9999 -9999 -9999 315.393207408568 189.303856027257 194.822325615896 242.280040015375 269.874965292334 304.636152585754 279.40139802697 252.897176157999 241.168808051641 222.426835728265 177.973990920975 130.292459278243 182.695015870334 209.688835872997 143.128779213716 146.241961113966 112.307656761408 93.0407853412968 132.658524519918 207.117784107291 207.732259740911 231.508627522121 191.59508132758
-9999 -9999 -9999 -9999 -9999 -9999 -9999 -9999 -9999 -9999 -9999 -9999 278.852259266507 212.002088114979 373.453325061813 470.00436159494 460.064521536318 416.590313581585 309.679944337852 244.578825657556 209.923489802617 257.508765059301 318.849938946364 333.356220725873 342.486012348398 329.25202335482 298.800485060426 250.745401285796 204.612083559409 114.992047280331 149.462378093664 173.17162936874 205.14169245422 230.693798957969 190.705755648734
-9999 -9999 -9999 -9999 -9999 -9999 -9999 -9999 -9999 8.97724196465786 8.52931900024711 287.890112978024 262.033530598158 331.626379988809 490.035473308584 504.97007941243 487.546823555872 362.37006873881 293.693142245068 347.266763973237 333.252775190599 286.51346224597 252.342482377303 241.859235491839 237.004083742121 250.499217533102 250.794210838669 237.431191124651 230.706958207393 221.941213795571 205.297836778079 205.358601397155 220.101011909513 208.876471328464 202.531958777531
-9999 -9999 -9999 -9999 -9999 -9999 -9999 -9999 -9999 -9999 321.992820167542 256.646313520971 348.76969898488 463.621506587668 512.330767294155 527.282303819722 294.437040211138 261.835442535794 321.233350748051 367.332398661454 407.592590328563 368.833395882241 293.650629176204 251.218104432647 207.402545494158 201.153699213155 191.920360777877 175.941364152009 165.483643092735 156.934172218866 146.087300622257 143.744842480126 194.216295236563 161.416012391844 88.7765160130281
-9999 -9999 -9999 -9999 -9999 -9999 -9999 693.725121204685 262.930065657027 -9999 349.564256095886 290.767789254279 479.302764208478 550.472246191608 497.235487666774 393.34653400394 357.494715098841 465.318198701778 395.107795166711 393.566138919535 404.998530061073 386.203368128029 298.553709076638 208.747772228409 140.115893196128 139.443130401503 147.13279480722 179.651659607852 223.603166242224 219.873723410389 190.462406445262 212.15074172529 127.948795387215 104.962740891885 108.044749212309
-9999 -9999 -9999 -9999 -9999 -9999 -9999 39.4854914225041 119.636304404713 229.024414666147 294.090642694326 445.211405492831 493.245221897247 452.591906092035 431.045821408529 395.646352593297 368.494387099628 360.364710441367 381.704823102876 425.030847044376 409.418599257539 360.485694196075 284.850175577118 170.924525752206 124.160693640749 125.293751098827 218.839152451023 210.982178204035 147.678886085581 158.18499453489 153.764608994293 115.972137195197 113.489039659754 124.120863261033 118.221032469015
-9999 -9999 -9999 -9999 -9999 -9999 -9999 213.672313192393 -9999 276.326800256247 362.779955799223 494.001703503066 482.265037778175 412.54080950283 253.456890585866 162.393405522137 149.230727419126 183.874912129643 278.013653335355 358.340858054228 336.232690855534 272.871924286223 282.256262067471 174.808192409783 188.53719384153 183.842125013586 136.115118750295 101.084397217122 121.995653694839 125.508677567202 116.712304597924 111.057118547427 110.626160307102 116.19629538643 140.69304994881
-9999 -9999 -9999 -9999 -9999 -9999 -9999 -9999 193.672552013395 254.843944288611 412.642694159843 504.111341670449 462.511267738352 240.656372520743 132.534868169424 83.3689182348386 64.7124710908997 89.4943304678889 182.41236813538 282.225427524273 295.715260485615 241.312562323096 301.861777177095 144.362649138956 115.99696576025 85.1024553291073 97.571769395352 109.600676258494 118.800621437834 122.055520824439 122.991517419689 122.014292061338 121.491935441321 118.61833942176 122.442480477199
-9999 -9999 -9999 -9999 -9999 -9999 -9999 -9999 -9999 274.052268402918 479.46255346437 486.856708540537 350.6916458994 157.614139116109 142.840403168914 87.477396932351 70.996116207753 94.0203782317694 168.779954369259 230.03212898842 246.490816976769 242.0358000194 314.839383139522 179.312477258179 151.065421943907 124.604143862516 122.002757414738 133.69519748319 135.404490495257 136.431036060607 138.153300322314 138.930246485425 139.442449232639 136.338729756354 134.172758149522
-9999 -9999 -9999 -9999 -9999 -9999 -9999 -9999 -9999 263.011186974917 448.524048778663 421.126324849746 263.021373012291 168.940626360957 182.65750165866 171.946882373552 166.180677619272 187.919462592555 211.394641536857 238.194631214764 241.45653847786 252.661740614 306.897670546193 229.10502621271 206.526245685731 259.580105199681 206.898066205318 164.494808254201 162.00914618084 155.388926976662 150.999364197644 147.579565413129 148.444051685238 148.504848302172 141.979517950408
-9999 -9999 -9999 -9999 -9999 -9999 -9999 0 97.6786335379205 459.568179889648 452.122524032506 429.785680008814 289.2756752209 182.369331550883 177.455978927913 190.404113579967 207.217503494929 219.640167725702 232.922851051079 240.285881993731 277.964229822161 270.068584716413 263.849181362214 246.043788158327 227.903347762887 218.703270479825 256.699533563703 215.074638304495 178.000003066413 162.540044636451 154.965233634985 159.934022182685 157.553330258354 157.127468632997 151.963397642675
-9999 -9999 -9999 -9999 -9999 -9999 100.628195426231 231.352830467648 463.779102611194 458.053696478066 425.167300614363 418.199179437292 420.737575368391 330.894657583416 335.431678780944 313.970603534657 278.723640425716 247.206627735152 237.026297980898 268.187230819296 386.597705793013 324.276750094666 263.705637534321 228.092033319169 214.90210280751 210.493510817281 236.903094900315 266.76422200078 211.634235176605 176.868042626944 182.940451478314 188.300509835207 178.78691208833 165.223127311075 165.559698074897
-9999 -9999 -9999 -9999 255.146730259477 260.759930949159 297.891284062312 416.898401652025 482.970669614644 419.288756419059 421.365949655933 408.910883268698 419.396642656704 403.996778860476 424.531499311142 415.093849058166 416.257607038396 393.416597282157 372.728174853893 385.374482389108 405.333901849337 343.738051876641 258.614246415532 241.408892642755 236.295015712024 226.550143167649 229.475381131368 271.58798294969 236.616070790116 218.956984382479 221.699449238548 216.173907078692 191.917653656957 189.366689873311 215.335704729045
-9999 -9999 -9999 321.716510670002 282.722131314122 325.335779889338 443.332149515178 455.880895466027 440.932363249198 428.814041444962 414.657718707345 401.028608048884 403.101072232483 418.571788592028 385.702066551716 417.4850281892 422.045141499039 376.195996463998 339.016727015454 361.924409517749 358.646572055053 297.832349680238 257.875891890139 254.08476239342 239.873159964591 229.828122496392 247.703342059187 250.847133771142 243.823667625981 251.689904129992 243.918040914769 230.110303739362 218.86846624394 237.27122528622 244.04472794343
-9999 -9999 252.06763947141 345.518823029444 392.558263367873 431.13857538318 436.617257591521 413.361370768218 403.67501491127 385.882552275988 348.333352075168 340.612571127026 347.368111189832 392.899210994531 409.881602065068 417.072662626138 409.596607617329 376.776226932576 284.390469547556 328.860697885092 309.748008370497 287.770756867636 293.099262374397 284.535973414942 266.411787814026 255.008756035566 257.649231039394 246.070925748485 254.457517577441 259.620900834771 263.21720732503 248.205388207612 248.646791814818 267.907194170515 262.064020914726
