NCOLS 35 
NROWS 26 
XLLCORNER -80 
YLLCORNER 33 
CELLSIZE 0.5 
NODATA_value -9999 
-9999.000000000000000 -9999 -9999 -9999 -9999 -9999 -9999 -9999 -9999 -9999 -9999 -9999 -9999 -9999 -9999 -9999 -9999 -9999 -9999 -9999 -9999 -9999 -9999 -9999 -9999 -9999 -9999 -9999 -9999 -9999 -9999 -9999 -9999 -9999 -9999
-9999 -9999 -9999 -9999 -9999 -9999 -9999 -9999 -9999 -9999 -9999 -9999 -9999 -9999 -9999 -9999 -9999 -9999 -9999 -9999 -9999 -9999 -9999 -9999 -9999 -9999 -9999 -9999 -9999 172.948477677385 -9999 -9999 -9999 -9999 -9999
-9999 -9999 -9999 -9999 -9999 -9999 -9999 -9999 -9999 -9999 -9999 -9999 -9999 -9999 -9999 -9999 -9999 -9999 -9999 -9999 -9999 -9999 -9999 -9999 -9999 -9999 291.395345527483 260.062775715793 94.2336605823373 62.4312812291087 -9999 -9999 -9999 -9999 -9999
-9999 -9999 -9999 -9999 -9999 -9999 -9999 -9999 -9999 -9999 -9999 -9999 -9999 -9999 -9999 -9999 -9999 -9999 -9999 -9999 -9999 -9999 -9999 198.536037842056 286.173814501519 219.783815521645 234.96586436477 69.6399027504592 -9999 -9999 -9999 220.479918405929 237.117378107443 230.145507691528 200.745610020561
-9999 -9999 -9999 -9999 -9999 -9999 -9999 -9999 -9999 -9999 -9999 -9999 -9999 -9999 -9999 -9999 -9999 -9999 -9999 -9999 217.104057582669 191.070802686163 266.854037461998 228.734756522935 157.027535094536 143.954119012241 174.43064072979 150.629004280155 -9999 -9999 124.788538287217 155.031426526767 152.605865504802 152.825403484905 172.601985175736
-9999 -9999 -9999 -9999 -9999 -9999 -9999 -9999 -9999 -9999 -9999 -9999 -9999 -9999 -9999 -9999 -9999 -9999 -9999 243.912918362231 300.621842073383 237.844261182201 176.897810108137 126.80654351684 131.216113135781 152.550833055528 181.352148437347 176.737532812478 160.433762803329 141.495723935891 111.635813695005 101.228030967761 104.88849169061 126.608499237243 155.389833482328
-9999 -9999 -9999 -9999 -9999 -9999 -9999 -9999 -9999 -9999 -9999 -9999 -9999 -9999 -9999 -9999 -9999 -9999 -9999 270.964974656645 256.365285040914 212.478393916985 161.789698965678 124.418952028851 128.076179617921 143.110680347267 145.374617201056 136.639117298714 136.386430637525 126.268154002593 111.451113260888 132.34377743308 117.768016802964 121.777518205061 130.086651397552
-9999 -9999 -9999 -9999 -9999 -9999 -9999 -9999 -9999 -9999 -9999 -9999 -9999 -9999 -9999 -9999 -9999 -9999 -9999 244.050904728792 256.647781233282 221.984277486836 135.377209788368 132.047311650807 131.646848190833 131.634776753362 141.490187759529 145.341314354007 152.775337234607 140.079505801762 140.004414064319 178.839522103266 156.811995293414 164.595300436018 177.319165383628
-9999 -9999 -9999 -9999 -9999 -9999 -9999 -9999 -9999 -9999 -9999 -9999 -9999 -9999 -9999 -9999 -9999 -9999 -9999 61.2582178100132 230.005368118465 217.780464003533 143.799071815482 138.812268134404 142.609960651684 186.716554550007 208.785192274936 172.726433996838 232.195357899035 234.486069715035 211.95452584495 174.318418826621 194.036918836062 204.238345091594 170.872728060497
-9999 -9999 -9999 -9999 -9999 -9999 -9999 -9999 -9999 -9999 -9999 -9999 -9999 -9999 -9999 -9999 -9999 156.274605989458 143.441622859305 133.329251232252 246.479341522756 186.88990762721 143.814074417131 139.420929818363 198.40577123532 263.030571548052 227.455176815702 221.723965628564 279.26554470821 250.9678981465 220.139901257864 198.790104600498 174.369605649254 147.450643654117 138.279033223761
-9999 -9999 -9999 -9999 -9999 -9999 -9999 -9999 -9999 -9999 -9999 -9999 -9999 -9999 125.728646892507 155.457330309952 142.465703012295 175.51945790104 179.715916639746 169.272702793237 214.483700372099 171.375072923859 151.770367202195 171.700919068252 174.094239043273 181.452525356314 241.639370822207 291.110443188855 191.246108208489 178.417194271391 167.733768492233 173.259985096746 184.674503532894 181.71858392242 159.081975611807
-9999 -9999 -9999 -9999 -9999 -9999 -9999 -9999 -9999 -9999 -9999 -9999 402.434202436561 205.654491266052 165.115355332704 225.303429581905 289.114216779503 300.539482980967 310.181565660426 317.086083163886 229.403232746776 220.214609980739 177.354665893416 210.503538454458 246.114722441038 325.33423635346 291.02890375727 243.736084198766 218.693792873024 195.309636812487 169.552721099556 150.189727465166 145.804251263868 195.678627653819 181.417649360772
-9999 -9999 -9999 -9999 -9999 -9999 -9999 -9999 -9999 -9999 -9999 -9999 284.466585640068 207.669684409374 429.573505978664 501.241139765863 372.522847501019 326.531997300791 354.951263789255 362.231632587713 247.530479356878 248.34830085755 331.513503693824 311.610968397951 334.489227469627 317.446132850311 281.176706026319 242.275652046569 210.331393637928 189.627835100717 166.744567327546 140.61787842222 133.118180703172 170.429949690085 200.63757672899
-9999 -9999 -9999 -9999 -9999 -9999 -9999 -9999 -9999 7.99813263023583 9.41436028114059 315.180212785911 225.916810418223 368.289793629697 486.180968918449 495.136089922993 383.009052181204 241.831198636763 337.506042038161 221.755851270509 230.654956135563 248.643080615701 253.11074349826 353.420987650913 340.702573915728 258.761216803947 198.076176191255 169.287911307988 151.331245698984 136.373360092152 131.797284175117 124.251354319717 113.955198682558 154.095362740949 224.658745686929
-9999 -9999 -9999 -9999 -9999 -9999 -9999 -9999 -9999 -9999 371.024017920861 326.840798100797 351.925393084903 399.835560453901 482.971442375556 469.794849391508 395.805356779979 427.816356716929 340.482773485151 206.514382523188 192.559206704595 208.194157639506 261.36150563065 340.789775177595 286.379056288158 201.24008725531 158.877291103313 147.184818183819 155.28262285968 189.956515100815 239.890393483438 164.948541796953 122.99612505996 150.94435394811 234.995453239086
-9999 -9999 -9999 -9999 -9999 -9999 -9999 643.741127265693 241.966058993085 -9999 322.79272851944 366.970146138589 478.685562610737 493.288442220353 410.468217932245 360.291137385643 364.059995772649 378.888813594642 436.310589953404 412.065639499026 327.783638865203 330.497168337568 318.633901792341 337.871451212931 290.300853567928 210.576249680263 163.951592889346 163.902735783831 182.106106790171 171.848695604196 111.446118766556 96.4961489490019 118.430991836333 152.202655558673 238.716525531413
-9999 -9999 -9999 -9999 -9999 -9999 -9999 38.780345366549 115.09698298004 197.599124010318 324.242441184704 485.117205814444 500.052553688522 409.741982416702 332.798827941594 307.474739164943 291.016006747461 283.135112075458 276.851028252926 308.841303626868 370.402493657071 405.566032067265 388.684534617408 337.762713036471 301.223830417689 239.333173190062 191.550778761387 163.54809745962 179.159176583476 191.038400519222 202.983206225418 178.756424473236 140.09247414956 150.699282254402 232.892389256568
-9999 -9999 -9999 -9999 -9999 -9999 -9999 210.856870949928 -9999 267.286463801939 416.666100768119 516.239356064361 446.802751959282 350.763535898009 302.394366581356 277.920913440941 251.638317962909 244.812260241534 254.809603404629 268.19412606488 283.440760363645 334.100251333162 399.157711242438 359.653762897791 345.613138274713 274.472624063204 203.399996709052 212.137071271139 180.764759628074 173.772552759536 170.799217227793 199.192935890109 234.42627181405 202.804209885022 194.306837045606
-9999 -9999 -9999 -9999 -9999 -9999 -9999 -9999 207.829223578314 282.561442586879 482.283309794553 494.336199763672 407.303975361102 313.846668917735 294.509098796767 254.875589347367 199.892314338008 191.391310262816 175.627863981525 214.034170545763 260.340406937619 284.841884632063 355.467966070366 378.20607441411 361.896999423222 278.006292586292 221.933839360829 222.498376034937 189.351008777934 182.247319886907 184.95900262008 184.818596710952 193.22069123276 216.054827173103 211.59830948098
-9999 -9999 -9999 -9999 -9999 -9999 -9999 -9999 -9999 339.974108736856 491.148139005916 462.790704896029 364.316347878337 302.584535949859 298.115559340653 257.044253068908 220.065437439452 192.915470787324 140.46409186371 127.526239717646 249.854726339744 264.985552791703 328.83197803305 363.679500719448 335.628858664649 240.978948428528 200.933016157044 244.641717713692 196.541732664566 189.216168054938 191.011569390543 194.310444850855 206.079989898618 212.73692813332 216.487313917234
-9999 -9999 -9999 -9999 -9999 -9999 -9999 -9999 -9999 272.947747320661 467.152831345979 404.801945109702 338.444882466858 288.896224290874 325.553770263283 331.963953603269 241.328806067804 130.592232813469 72.2818940334773 127.943418666769 242.747436287133 297.342866526893 352.096284755722 323.355001780386 280.353106755098 213.666638560172 203.58447748656 251.117102116997 197.475286940806 198.156053952589 191.116879289136 212.608114662714 233.328998365155 218.703763087824 215.513731319793
-9999 -9999 -9999 -9999 -9999 -9999 -9999 0 101.393594703045 444.817096283417 471.334639936426 365.803376994197 314.052578951001 286.91788350746 318.560900876975 310.705113265356 130.804720371666 93.6884766103914 109.576584539807 212.350383295493 280.500914169188 297.813285661874 334.909975453147 309.326007591691 243.779956364788 209.068545482891 191.468392537937 231.836554463822 203.937271802011 214.198960416424 191.871065292472 223.566601323692 243.017777907688 237.714810896219 248.70010500384
-9999 -9999 -9999 -9999 -9999 -9999 110.334175037555 236.820886205845 455.646329536072 488.503450942791 371.971482453339 334.75546459697 315.652517160462 315.350198933198 299.29292543214 261.101892016158 185.497584615973 123.182686885174 195.737297602219 249.025648207904 304.608577011344 304.192058680029 315.196058389706 271.364451830167 238.343547537272 209.732208442365 223.589822769355 233.327257899574 219.691547118889 213.941487188908 193.781405258184 230.215039429127 257.962715152545 244.480268137917 250.028103450439
-9999 -9999 -9999 -9999 252.354613169985 293.467874029966 355.969437201992 444.524217219 500.423888958344 414.651685455974 325.456234857449 326.866962193011 325.367963034696 310.01090297925 336.385364977495 258.249313194688 211.108090202996 210.949663922764 195.254229088831 253.413184791922 309.565717959551 309.010092680006 295.058317046218 256.763603677232 212.387647456439 246.990829212209 242.988552770147 236.936316490578 228.446232703821 225.219758101139 221.009526878961 251.367903748684 273.374335513708 251.401550694239 256.316480791799
-9999 -9999 -9999 323.81372200159 297.37548209704 396.446251521793 518.755722073974 502.958558702752 443.160727204898 392.521395573295 340.075461897165 361.860389370592 339.224735821362 306.320692084496 296.649075086653 334.917636316832 260.07378347088 264.531916951186 268.676588057403 289.047919656108 291.434888339501 283.784635274364 253.221622964882 233.661459710245 296.436228743456 279.942809024866 262.486764199284 245.444794612323 262.199355567457 265.529080817554 265.051138356805 296.115824263385 302.63291072946 259.564395099751 257.398865173671
-9999 -9999 269.651011833778 413.228365575349 468.566473202388 470.800390336148 472.140481355465 413.353418147238 384.928410656309 364.922732136705 372.57409314003 365.447830067657 321.973649372759 294.266770513007 276.789124965668 335.723682649606 317.585400118844 290.840044740071 289.301624189006 316.330085231393 292.997027780482 285.359669446034 291.419344641018 291.472653381824 282.397084340652 300.49195408012 310.810020265478 297.035679980636 292.738031008842 307.995865153153 320.084610091384 352.440904077713 346.497071812007 297.948894435751 307.21137824942
