NCOLS 35 
NROWS 26 
XLLCORNER -80 
YLLCORNER 33 
CELLSIZE 0.5 
NODATA_value -9999 
-9999.000000000000000 -9999 -9999 -9999 -9999 -9999 -9999 -9999 -9999 -9999 -9999 -9999 -9999 -9999 -9999 -9999 -9999 -9999 -9999 -9999 -9999 -9999 -9999 -9999 -9999 -9999 -9999 -9999 -9999 -9999 -9999 -9999 -9999 -9999 -9999
-9999 -9999 -9999 -9999 -9999 -9999 -9999 -9999 -9999 -9999 -9999 -9999 -9999 -9999 -9999 -9999 -9999 -9999 -9999 -9999 -9999 -9999 -9999 -9999 -9999 -9999 -9999 -9999 -9999 248.976935415605 -9999 -9999 -9999 -9999 -9999
-9999 -9999 -9999 -9999 -9999 -9999 -9999 -9999 -9999 -9999 -9999 -9999 -9999 -9999 -9999 -9999 -9999 -9999 -9999 -9999 -9999 -9999 -9999 -9999 -9999 -9999 383.180275781125 369.929940518441 119.075764298452 77.9231311023523 -9999 -9999 -9999 -9999 -9999
-9999 -9999 -9999 -9999 -9999 -9999 -9999 -9999 -9999 -9999 -9999 -9999 -9999 -9999 -9999 -9999 -9999 -9999 -9999 -9999 -9999 -9999 -9999 178.642486418056 220.456322947728 215.755374897201 171.999276522258 61.6591629554318 -9999 -9999 -9999 145.877428046585 133.426312232257 110.662801907574 90.1967785607811
-9999 -9999 -9999 -9999 -9999 -9999 -9999 -9999 -9999 -9999 -9999 -9999 -9999 -9999 -9999 -9999 -9999 -9999 -9999 -9999 220.805978497061 177.225074980191 186.27462819551 118.513635734012 88.7300506986204 70.5263171090901 94.5034242370936 124.570793510916 -9999 -9999 130.250503901938 118.976432067793 101.456704517071 72.1342330361432 65.7707973774114
-9999 -9999 -9999 -9999 -9999 -9999 -9999 -9999 -9999 -9999 -9999 -9999 -9999 -9999 -9999 -9999 -9999 -9999 -9999 130.039542384454 150.947346650629 95.3200519470739 77.9586124128314 59.6083621163772 53.8209732871522 52.9584464071445 86.5703379331349 141.818357505805 136.516407569227 145.041572521031 104.279544619591 88.4206694299696 89.005140633721 64.5786563687019 67.1513526366092
-9999 -9999 -9999 -9999 -9999 -9999 -9999 -9999 -9999 -9999 -9999 -9999 -9999 -9999 -9999 -9999 -9999 -9999 -9999 177.565371437956 84.488369684018 67.9930793020042 61.0458195783036 55.2124133240756 58.4163046135189 57.9994127163874 69.4609010866047 103.170737855536 108.47663457097 111.382607719249 104.465706270783 81.278375281203 72.4975055835367 67.6269839965348 72.3335299963233
-9999 -9999 -9999 -9999 -9999 -9999 -9999 -9999 -9999 -9999 -9999 -9999 -9999 -9999 -9999 -9999 -9999 -9999 -9999 162.893492394332 90.0183063720162 64.777026408642 60.7898181813902 58.1729362028547 67.6428950271466 72.4872371933597 80.9684434809998 93.4071275246019 114.291324694719 123.886121667861 121.7972333347 104.002139600054 89.9166375971559 81.0923088130793 108.799728647473
-9999 -9999 -9999 -9999 -9999 -9999 -9999 -9999 -9999 -9999 -9999 -9999 -9999 -9999 -9999 -9999 -9999 -9999 -9999 32.8586152129124 89.3048321671309 61.9412497473523 60.5254663598182 67.809177337113 85.9897554660073 82.242697852326 74.8455118219604 91.3092629061295 108.17753437944 206.595682100185 322.627505749818 359.350220205777 301.831834135061 120.14185016217 99.2865984048206
-9999 -9999 -9999 -9999 -9999 -9999 -9999 -9999 -9999 -9999 -9999 -9999 -9999 -9999 -9999 -9999 -9999 183.638067428885 122.748534612079 110.108758178124 89.0939539394539 67.66629571466 70.2509369297915 96.01168838556 101.001906436223 99.2197440831217 100.708375567067 115.178785697684 236.775592823926 372.942372051124 441.104727015956 492.362457742507 507.278122193545 457.155567920347 166.072895479191
-9999 -9999 -9999 -9999 -9999 -9999 -9999 -9999 -9999 -9999 -9999 -9999 -9999 -9999 135.068504886839 189.739493554503 111.366796100269 82.4480350155097 78.4550931415715 72.592805654531 78.6552075729268 73.7735485142405 94.8700131371125 108.235099111677 122.314800037787 149.139179614759 232.344160524107 296.846497528152 351.934749801018 421.349558050525 470.959756955662 473.887176122476 481.704489612389 531.016858693046 473.117813216096
-9999 -9999 -9999 -9999 -9999 -9999 -9999 -9999 -9999 -9999 -9999 -9999 477.045329678184 121.667921477884 100.390491888156 93.8397559179054 94.7891083726517 102.834497093581 130.07544744364 115.045578030358 93.6725703094525 104.853959313707 161.521723151752 227.273438315277 263.100740283687 280.753517904004 326.562924663937 424.625966554052 501.440184865393 510.262282188972 454.261879154026 446.360847999862 451.08483186405 459.509585199405 564.312723969747
-9999 -9999 -9999 -9999 -9999 -9999 -9999 -9999 -9999 -9999 -9999 -9999 297.389095178016 117.771748864651 157.981917713304 229.223722690873 257.740637515105 199.759133328192 141.084798013413 191.609956844912 265.651696357347 247.920525084659 228.562577306481 247.988572606857 285.456225975196 390.583889418687 484.411984993739 455.41591957808 411.407863354404 426.206266087143 513.439517302658 574.292511810305 523.425885161146 473.19786707603 523.861846418389
-9999 -9999 -9999 -9999 -9999 -9999 -9999 -9999 -9999 13.5833527282093 9.25346107483232 225.188899257683 177.273244639019 165.797765199693 243.037784098329 337.098172697276 356.519799394069 374.02687531049 402.674577789694 396.251415814495 226.494906744001 252.909000893033 282.41645533927 271.734168598422 355.417230970112 485.311489539672 388.546380128845 318.133745742447 386.406807458571 451.562140718237 552.593536649495 592.501393124012 513.266990605012 524.475931885675 514.64309636138
-9999 -9999 -9999 -9999 -9999 -9999 -9999 -9999 -9999 -9999 315.509134527354 286.703262147273 359.306875398198 435.608663316629 440.034483230912 386.537674858316 362.576320263658 347.542361186213 353.733260208818 412.021315388622 420.660311831562 263.062646040424 237.323767650078 251.439874054733 349.467097233263 432.288085165364 376.514154891418 320.680782584064 291.438119084766 331.178439710978 452.256215921675 556.021028805625 567.440248591072 532.854773369442 472.97905285135
-9999 -9999 -9999 -9999 -9999 -9999 -9999 695.7919746441 251.89072399769 -9999 265.892411756516 357.707217978513 393.228552700695 347.392528227459 271.627935893334 222.513704764214 210.486604016448 217.986988809425 234.140795782994 277.269271357012 364.681004452124 361.80205047772 242.309506398255 232.608931879207 315.310115002689 369.708128293895 392.383416902381 378.746018648373 291.169894155302 226.049944501409 293.499438781872 380.421613939837 470.622065663696 480.664058462566 461.252998917558
-9999 -9999 -9999 -9999 -9999 -9999 -9999 46.6158940241859 118.904615941943 172.266389849947 304.735510521668 425.862533325564 345.416253125372 217.516352069668 179.742870493773 198.458248653095 220.406213679498 253.583415090446 268.478434732579 219.440771457647 254.87763453354 366.812120650026 299.796733096047 244.539603326999 301.106051309851 334.715380293695 333.512549298042 373.02241203822 381.79076293844 320.791215355097 292.390745286716 309.641072467822 342.194659002442 424.466261126535 474.961138752755
-9999 -9999 -9999 -9999 -9999 -9999 -9999 265.843659704864 -9999 244.134838782823 393.379858488164 423.525697413356 244.837904095288 170.624318059933 205.734264683949 273.406601875982 235.660275221295 221.530076841706 227.571665251257 230.443749491852 217.331978721123 287.815529808824 343.653016463048 280.037333357061 318.315543333687 334.367765654502 329.539905638573 361.521496912217 318.150262361307 302.060317046744 311.230883760661 322.993457136345 296.590399382506 400.372667965334 495.913933801722
-9999 -9999 -9999 -9999 -9999 -9999 -9999 -9999 222.664976555958 218.499987902484 384.107034614246 345.641598935296 187.264054729368 177.333263959777 289.71296100422 272.945505506931 217.105208717537 215.532321504005 240.780157832843 233.528738357562 220.711457611069 258.598668991758 344.036192167748 318.019745112583 328.466529755715 324.888822702324 315.158993088914 317.330044206187 270.084924483861 272.003168845575 298.423064706589 300.290911393972 298.307858191953 419.69891649131 513.534717245831
-9999 -9999 -9999 -9999 -9999 -9999 -9999 -9999 -9999 245.214591312409 447.553213808514 303.886340495774 164.917668429172 201.720950499945 328.379771867371 269.898719804689 240.442422274203 246.683502303144 274.156141341381 289.831662243572 280.428089353763 281.940824051377 316.955717533172 303.501314211667 297.278703764827 290.868325435676 315.017205792594 264.349421348782 232.054818409034 248.287121136524 268.965144187488 267.526794675066 288.292286016511 388.393123812036 496.409177554157
-9999 -9999 -9999 -9999 -9999 -9999 -9999 -9999 -9999 190.315892346353 519.318429038056 243.422446959411 158.124616555665 214.65971702788 314.444680101248 246.617507091022 216.375448001231 212.898426775837 204.691720523068 193.945137798515 189.54940854547 167.200024364511 174.872238119409 188.850032372835 192.622718027518 200.488053390232 282.684899016662 230.70528747935 256.126131455807 225.011967444946 241.567167329697 285.856988035076 270.47794665169 295.425844240763 407.384079709193
-9999 -9999 -9999 -9999 -9999 -9999 -9999 0 76.7108418302215 419.970654215569 307.736201374038 167.15846980076 166.405814879387 228.070804279352 282.618180476247 240.748833023283 218.914475630838 186.799749193571 166.432577367287 158.072390070144 187.175646567708 142.919830508474 135.574853611626 143.990860773252 159.469238869201 176.14218451419 248.773844401894 179.214386264253 162.582980228632 156.084267792635 218.949136048474 264.861443846985 259.219219123708 267.971440529792 315.089667276398
-9999 -9999 -9999 -9999 -9999 -9999 84.6113960758696 176.635522205754 337.512613518396 270.712198260721 172.369433273146 152.229577128506 189.640042664828 228.370224489218 234.692339325199 219.9652465189 219.38234624615 205.557454092503 181.347156881089 163.596253975026 196.21745976345 141.98585229698 132.467259508859 155.71074991628 171.755702489153 188.662977995218 206.129735914534 148.534731692044 150.153901735904 129.801986241377 134.676081190393 199.433570464317 228.384811828745 246.770741607673 233.564743486983
-9999 -9999 -9999 -9999 231.94493975586 224.587969702416 215.417319563981 233.820791497599 218.184912073655 162.066332867924 138.41667103276 167.645195532991 186.490493909344 171.083555205735 195.496468876819 181.105182843744 199.022511264643 215.622947016733 204.563289818762 180.354301237275 208.470326571035 130.917505184916 130.785294018907 149.143597883779 161.306033183193 182.49792029303 186.996020438808 142.298672749679 144.428380791322 133.016393544725 115.311302010986 118.326344680748 144.539155405998 152.701680525134 141.095810115798
-9999 -9999 -9999 261.387628269196 254.191944858007 244.229288723181 222.97209982986 185.830811524633 152.343993204033 133.942941484918 145.21975620829 143.236566756402 131.860598681917 129.817608081449 144.82473606484 160.54403460649 170.882774600663 198.134095477775 206.017766751019 192.777656360595 174.551028475947 123.350314924756 131.040420282866 134.395318254651 140.678639343815 168.855120612488 179.343268090543 147.622643466234 131.609538196836 109.026061332155 97.9931636581616 93.3054044454134 93.869127734925 100.114501925906 110.215364472701
-9999 -9999 221.346746381822 288.820711176212 263.647238047037 211.647635297305 160.188371201611 140.487537097394 122.691538866547 132.166064295149 132.992859651658 123.191369691402 120.42258146512 132.413631808554 138.313295289488 147.620358262937 168.931326169583 174.441160941211 179.706784305569 170.72640981417 148.814198857478 113.750928369121 115.386795922399 124.478294520299 131.695798795618 142.410755129785 140.841041402946 118.141698882199 102.346477002333 94.8364499088559 89.7464282093946 89.4076400789679 95.0234946663073 99.8929531567393 88.1927711312854
