NCOLS 70 
NROWS 52 
XLLCORNER -80 
YLLCORNER 33 
CELLSIZE 0.25 
NODATA_value -9999 
-9999.000000000000000 -9999 -9999 -9999 -9999 -9999 -9999 -9999 -9999 -9999 -9999 -9999 -9999 -9999 -9999 -9999 -9999 -9999 -9999 -9999 -9999 -9999 -9999 -9999 -9999 -9999 -9999 -9999 -9999 -9999 -9999 -9999 -9999 -9999 -9999 -9999 -9999 -9999 -9999 -9999 -9999 -9999 -9999 -9999 -9999 -9999 -9999 -9999 -9999 -9999 -9999 -9999 -9999 -9999 -9999 -9999 -9999 -9999 -9999 -9999 -9999 -9999 -9999 -9999 -9999 -9999 -9999 -9999 -9999 -9999
-9999 -9999 -9999 -9999 -9999 -9999 -9999 -9999 -9999 -9999 -9999 -9999 -9999 -9999 -9999 -9999 -9999 -9999 -9999 -9999 -9999 -9999 -9999 -9999 -9999 -9999 -9999 -9999 -9999 -9999 -9999 -9999 -9999 -9999 -9999 -9999 -9999 -9999 -9999 -9999 -9999 -9999 -9999 -9999 -9999 -9999 -9999 -9999 -9999 -9999 -9999 -9999 -9999 -9999 -9999 -9999 -9999 -9999 -9999 -9999 -9999 -9999 -9999 -9999 -9999 -9999 -9999 -9999 -9999 -9999
-9999 -9999 -9999 -9999 -9999 -9999 -9999 -9999 -9999 -9999 -9999 -9999 -9999 -9999 -9999 -9999 -9999 -9999 -9999 -9999 -9999 -9999 -9999 -9999 -9999 -9999 -9999 -9999 -9999 -9999 -9999 -9999 -9999 -9999 -9999 -9999 -9999 -9999 -9999 -9999 -9999 -9999 -9999 -9999 -9999 -9999 -9999 -9999 -9999 -9999 -9999 -9999 -9999 -9999 -9999 -9999 -9999 -9999 -9999 143.022064208984 -9999 -9999 -9999 -9999 -9999 -9999 -9999 -9999 -9999 -9999
-9999 -9999 -9999 -9999 -9999 -9999 -9999 -9999 -9999 -9999 -9999 -9999 -9999 -9999 -9999 -9999 -9999 -9999 -9999 -9999 -9999 -9999 -9999 -9999 -9999 -9999 -9999 -9999 -9999 -9999 -9999 -9999 -9999 -9999 -9999 -9999 -9999 -9999 -9999 -9999 -9999 -9999 -9999 -9999 -9999 -9999 -9999 -9999 -9999 -9999 -9999 -9999 -9999 -9999 -9999 106.453330993652 109.859008789062 119.050186157227 131.594085693359 133.815017700195 -9999 -9999 -9999 -9999 -9999 -9999 -9999 -9999 -9999 -9999
-9999 -9999 -9999 -9999 -9999 -9999 -9999 -9999 -9999 -9999 -9999 -9999 -9999 -9999 -9999 -9999 -9999 -9999 -9999 -9999 -9999 -9999 -9999 -9999 -9999 -9999 -9999 -9999 -9999 -9999 -9999 -9999 -9999 -9999 -9999 -9999 -9999 -9999 -9999 -9999 -9999 -9999 -9999 -9999 -9999 -9999 -9999 -9999 -9999 -9999 -9999 -9999 82.6763305664062 90.0262756347656 96.5137023925781 108.25032043457 116.276008605957 123.464706420898 -9999 -9999 -9999 -9999 -9999 -9999 -9999 -9999 -9999 -9999 -9999 -9999
-9999 -9999 -9999 -9999 -9999 -9999 -9999 -9999 -9999 -9999 -9999 -9999 -9999 -9999 -9999 -9999 -9999 -9999 -9999 -9999 -9999 -9999 -9999 -9999 -9999 -9999 -9999 -9999 -9999 -9999 -9999 -9999 -9999 -9999 -9999 -9999 -9999 -9999 -9999 -9999 -9999 -9999 -9999 -9999 -9999 -9999 -9999 -9999 -9999 -9999 80.7461700439453 85.2664184570312 92.0381851196289 102.394561767578 113.869186401367 128.178115844727 -9999 -9999 -9999 -9999 -9999 -9999 -9999 -9999 -9999 -9999 -9999 78.2017873128255 79.7257385253906 86.1211471557617
-9999 -9999 -9999 -9999 -9999 -9999 -9999 -9999 -9999 -9999 -9999 -9999 -9999 -9999 -9999 -9999 -9999 -9999 -9999 -9999 -9999 -9999 -9999 -9999 -9999 -9999 -9999 -9999 -9999 -9999 -9999 -9999 -9999 -9999 -9999 -9999 -9999 -9999 -9999 -9999 -9999 -9999 -9999 -9999 135.069869995117 -9999 -9999 100.402019500732 81.1938934326172 81.2163162231445 81.9822311401367 83.4285354614258 88.7099685668945 97.5123062133789 112.72859954834 -9999 -9999 -9999 -9999 -9999 -9999 -9999 -9999 81.818473815918 77.8803329467773 78.5559158325195 78.6897659301758 78.2041702270508 77.71142578125 76.8662109375
-9999 -9999 -9999 -9999 -9999 -9999 -9999 -9999 -9999 -9999 -9999 -9999 -9999 -9999 -9999 -9999 -9999 -9999 -9999 -9999 -9999 -9999 -9999 -9999 -9999 -9999 -9999 -9999 -9999 -9999 -9999 -9999 -9999 -9999 -9999 -9999 -9999 -9999 -9999 -9999 -9999 -9999 -9999 -9999 134.478118896484 133.348388671875 127.153884887695 105.999443054199 87.260856628418 79.330451965332 77.5768737792969 78.5009307861328 81.7836456298828 84.2820739746094 93.0123062133789 -9999 -9999 -9999 -9999 -9999 -9999 -9999 80.2527770996094 78.7870178222656 78.0613784790039 77.9434432983398 77.1414947509766 77.0421829223633 76.9302291870117 76.3939895629883
-9999 -9999 -9999 -9999 -9999 -9999 -9999 -9999 -9999 -9999 -9999 -9999 -9999 -9999 -9999 -9999 -9999 -9999 -9999 -9999 -9999 -9999 -9999 -9999 -9999 -9999 -9999 -9999 -9999 -9999 -9999 -9999 -9999 -9999 -9999 -9999 -9999 -9999 -9999 -9999 93.349370320638 97.2670745849609 112.342098999023 130.566772460938 125.975387573242 115.469696044922 101.461402893066 86.9487686157227 77.6733169555664 73.335090637207 72.2954330444336 74.422966003418 77.2418594360352 77.5262451171875 77.1549255371094 -9999 -9999 -9999 -9999 -9999 75.148432413737 75.6145477294922 76.5388717651367 76.4208068847656 76.0568618774414 76.2577896118164 76.2884292602539 75.5003280639648 73.9195251464844 72.3155899047852
-9999 -9999 -9999 -9999 -9999 -9999 -9999 -9999 -9999 -9999 -9999 -9999 -9999 -9999 -9999 -9999 -9999 -9999 -9999 -9999 -9999 -9999 -9999 -9999 -9999 -9999 -9999 -9999 -9999 -9999 -9999 -9999 -9999 -9999 -9999 -9999 -9999 -9999 -9999 86.4508438110352 93.6044845581055 99.9927825927734 98.2039566040039 95.5638809204102 94.2623443603516 90.5429992675781 83.982063293457 76.9203033447266 72.5918350219727 70.4367446899414 70.2220458984375 73.2225189208984 76.6225204467773 75.9898986816406 79.7861022949219 68.1903076171875 -9999 -9999 -9999 78.8690967559814 74.626335144043 75.2044143676758 75.4887542724609 74.9902801513672 74.6136169433594 74.3725509643555 73.0215530395508 69.2498931884766 64.5710296630859 61.9582824707031
-9999 -9999 -9999 -9999 -9999 -9999 -9999 -9999 -9999 -9999 -9999 -9999 -9999 -9999 -9999 -9999 -9999 -9999 -9999 -9999 -9999 -9999 -9999 -9999 -9999 -9999 -9999 -9999 -9999 -9999 -9999 -9999 -9999 -9999 -9999 -9999 -9999 -9999 93.2402618408203 97.830322265625 95.4985961914062 90.3965682983398 83.1318206787109 78.4550628662109 77.3811264038086 76.0073089599609 73.4233627319336 70.5172424316406 67.7699127197266 66.4699935913086 68.3707504272461 73.2929916381836 76.8133926391602 75.2510757446289 76.1242065429688 75.0878448486328 67.3605575561523 75.0161069234212 84.4100799560547 78.7283248901367 77.7116470336914 76.7607879638672 75.426643371582 74.6409072875977 73.6844253540039 72.0115814208984 67.2818984985352 59.2509727478027 55.3343849182129 55.8314323425293
-9999 -9999 -9999 -9999 -9999 -9999 -9999 -9999 -9999 -9999 -9999 -9999 -9999 -9999 -9999 -9999 -9999 -9999 -9999 -9999 -9999 -9999 -9999 -9999 -9999 -9999 -9999 -9999 -9999 -9999 -9999 -9999 -9999 -9999 -9999 -9999 -9999 93.3777160644531 94.8925323486328 93.6498947143555 86.5345764160156 78.6376724243164 71.984748840332 70.528938293457 72.9296569824219 73.7053680419922 72.082893371582 69.4464263916016 65.5906219482422 64.2944030761719 69.195556640625 75.7343978881836 77.7783966064453 76.2602920532227 74.9146575927734 75.2083587646484 77.5226669311523 78.3960266113281 77.6975555419922 78.4620666503906 78.3325119018555 77.258544921875 76.2541732788086 75.4098510742188 73.5340881347656 69.6671981811523 63.3240509033203 60.2357444763184 62.9242057800293 65.9914779663086
-9999 -9999 -9999 -9999 -9999 -9999 -9999 -9999 -9999 -9999 -9999 -9999 -9999 -9999 -9999 -9999 -9999 -9999 -9999 -9999 -9999 -9999 -9999 -9999 -9999 -9999 -9999 -9999 -9999 -9999 -9999 -9999 -9999 -9999 -9999 -9999 -9999 116.352027893066 104.568000793457 89.4363098144531 79.6901397705078 72.9657745361328 72.0909652709961 75.7212524414062 80.9908447265625 82.8413238525391 79.2520599365234 72.3576354980469 65.8928375244141 65.6113204956055 72.810661315918 78.1442184448242 79.0939254760742 78.3719940185547 77.6902313232422 77.5442123413086 77.2687301635742 76.7488327026367 77.1451721191406 77.7509536743164 77.631965637207 77.5823135375977 77.9224700927734 76.1464309692383 72.6000213623047 67.5217437744141 63.5837898254395 66.4125747680664 71.757194519043 76.0328674316406
-9999 -9999 -9999 -9999 -9999 -9999 -9999 -9999 -9999 -9999 -9999 -9999 -9999 -9999 -9999 -9999 -9999 -9999 -9999 -9999 -9999 -9999 -9999 -9999 -9999 -9999 -9999 -9999 -9999 -9999 -9999 -9999 -9999 -9999 -9999 -9999 -9999 141.141464233398 112.24292755127 89.9227676391602 76.7051010131836 73.5593490600586 77.011360168457 81.9708938598633 88.1302947998047 90.9374923706055 86.2844772338867 75.5012283325195 66.0374221801758 65.6483840942383 73.0419006347656 78.38671875 80.1496200561523 80.9428634643555 81.9203262329102 81.3108444213867 79.5085372924805 76.8288497924805 75.668571472168 76.4323654174805 77.9334106445312 80.5709991455078 82.835334777832 81.7632904052734 76.9318618774414 72.8494567871094 71.4429931640625 76.7561264038086 81.1064147949219 82.0404739379883
-9999 -9999 -9999 -9999 -9999 -9999 -9999 -9999 -9999 -9999 -9999 -9999 -9999 -9999 -9999 -9999 -9999 -9999 -9999 -9999 -9999 -9999 -9999 -9999 -9999 -9999 -9999 -9999 -9999 -9999 -9999 -9999 -9999 -9999 -9999 -9999 205.684829711914 164.868850708008 123.231758117676 97.1807250976562 81.1031723022461 77.97705078125 82.802604675293 89.1985778808594 95.1176834106445 97.1703109741211 92.3030853271484 81.3759307861328 69.1833038330078 64.5238647460938 69.3138275146484 75.2970733642578 78.7449264526367 80.9119415283203 84.3521575927734 84.6131896972656 83.5624923706055 82.8487319946289 83.5358657836914 84.4038696289062 86.4015731811523 88.9872894287109 95.5561904907227 100.582870483398 96.9911422729492 93.1002807617188 91.8558731079102 92.8451461791992 92.8982162475586 89.8049011230469
-9999 -9999 -9999 -9999 -9999 -9999 -9999 -9999 -9999 -9999 -9999 -9999 -9999 -9999 -9999 -9999 -9999 -9999 -9999 -9999 -9999 -9999 -9999 -9999 -9999 -9999 -9999 -9999 -9999 -9999 -9999 -9999 -9999 -9999 -9999 -9999 -9999 162.005706787109 149.454528808594 122.723335266113 98.1846389770508 87.3778381347656 89.117073059082 96.8619918823242 102.076965332031 100.505065917969 95.7540893554688 88.4300689697266 78.8155899047852 73.8007965087891 74.1199188232422 76.1669464111328 78.3964309692383 80.3496856689453 84.7566070556641 87.7545471191406 91.2803649902344 96.5629119873047 103.834129333496 109.026481628418 106.581924438477 106.61498260498 114.991287231445 118.589462280273 116.775077819824 115.410697937012 115.802528381348 111.132057189941 105.646301269531 99.0526885986328
-9999 -9999 -9999 -9999 -9999 -9999 -9999 -9999 -9999 -9999 -9999 -9999 -9999 -9999 -9999 -9999 -9999 -9999 -9999 -9999 -9999 -9999 -9999 -9999 -9999 -9999 -9999 -9999 -9999 -9999 -9999 -9999 -9999 -9999 -9999 -9999 -9999 -9999 182.327728271484 -9999 119.178031921387 100.052673339844 97.140266418457 103.918502807617 108.146812438965 104.147499084473 99.4868545532227 97.0834121704102 94.3223648071289 94.0068664550781 91.9105911254883 88.2508544921875 84.9528274536133 84.6627655029297 87.1017684936523 90.1946487426758 97.3144378662109 110.130599975586 125.123313903809 124.75821685791 115.784317016602 116.430839538574 110.347969055176 96.4654006958008 93.7045593261719 100.840194702148 108.03328704834 105.947822570801 102.35334777832 98.2671203613281
-9999 -9999 -9999 -9999 -9999 -9999 -9999 -9999 -9999 -9999 -9999 -9999 -9999 -9999 -9999 -9999 -9999 -9999 -9999 -9999 -9999 -9999 -9999 -9999 -9999 -9999 -9999 -9999 -9999 -9999 -9999 -9999 -9999 -9999 -9999 -9999 -9999 -9999 -9999 -9999 106.128646850586 104.285461425781 104.58570098877 112.366889953613 113.815376281738 108.473503112793 104.667381286621 106.991569519043 108.767097473145 106.187789916992 102.732025146484 100.33659362793 95.3446273803711 92.3208160400391 91.2337188720703 95.085563659668 104.135726928711 121.103866577148 123.079299926758 103.497253417969 99.3794784545898 107.1162109375 88.2281799316406 77.5117874145508 76.0852432250977 74.9437561035156 76.3308258056641 76.5484848022461 76.6329498291016 73.0117263793945
-9999 -9999 -9999 -9999 -9999 -9999 -9999 -9999 -9999 -9999 -9999 -9999 -9999 -9999 -9999 -9999 -9999 -9999 -9999 -9999 -9999 -9999 -9999 -9999 -9999 -9999 -9999 -9999 -9999 -9999 -9999 -9999 -9999 -9999 133.010173797607 139.331893920898 129.778549194336 -9999 113.35750579834 107.184593200684 110.936965942383 110.372566223145 109.890907287598 122.091041564941 126.181198120117 123.476287841797 122.58863067627 123.04761505127 120.739166259766 118.937355041504 117.706672668457 116.091529846191 110.292526245117 102.14200592041 100.566749572754 108.855644226074 121.763549804688 128.534332275391 104.377021789551 89.2612075805664 87.9713439941406 88.5797119140625 76.0385665893555 75.5833740234375 75.6605072021484 75.8920288085938 75.8720169067383 75.3648452758789 75.1739273071289 73.5260848999023
-9999 -9999 -9999 -9999 -9999 -9999 -9999 -9999 -9999 -9999 -9999 -9999 -9999 -9999 -9999 -9999 -9999 -9999 -9999 -9999 -9999 -9999 -9999 -9999 -9999 -9999 -9999 398.200225830078 398.200225830078 343.985076904297 272.504913330078 197.66716003418 143.170379638672 130.563949584961 131.463760375977 130.681091308594 122.242233276367 116.444137573242 113.446228027344 111.802474975586 117.208763122559 117.10733795166 118.848892211914 134.541427612305 145.445739746094 147.229049682617 142.405746459961 135.320953369141 131.021911621094 129.503646850586 130.196517944336 125.314559936523 115.968078613281 118.592750549316 123.936592102051 128.894439697266 134.767318725586 117.784622192383 95.5477523803711 86.0730972290039 82.826904296875 79.3391036987305 78.618049621582 80.5124588012695 83.2635040283203 85.5248184204102 86.0995941162109 86.0964965820312 85.2010726928711 83.3641357421875
-9999 -9999 -9999 -9999 -9999 -9999 -9999 -9999 -9999 -9999 -9999 -9999 -9999 -9999 -9999 -9999 -9999 -9999 -9999 -9999 -9999 -9999 -9999 -9999 -9999 -9999 -9999 -9999 -9999 -9999 177.141006469727 147.200973510742 121.733039855957 114.743041992188 113.463005065918 113.315864562988 114.394676208496 116.663467407227 119.091590881348 123.165260314941 126.898315429688 126.403388977051 131.685684204102 147.939270019531 162.176040649414 164.470932006836 160.032440185547 151.213989257812 144.326278686523 141.414932250977 140.051528930664 124.183204650879 114.674842834473 124.41072845459 127.74291229248 121.74878692627 118.582130432129 100.281089782715 95.9057083129883 89.0815582275391 84.4729690551758 84.2871932983398 87.2114181518555 89.710823059082 92.9006881713867 92.4468994140625 90.0635375976562 89.1676635742188 87.3302383422852 86.5119934082031
-9999 -9999 -9999 -9999 -9999 -9999 -9999 -9999 -9999 -9999 -9999 -9999 -9999 -9999 -9999 -9999 -9999 -9999 -9999 -9999 -9999 -9999 -9999 -9999 -9999 237.568074544271 190.666473388672 150.608151753743 124.390384674072 117.574920654297 117.255561828613 117.912162780762 116.598655700684 115.674385070801 117.753784179688 121.368309020996 124.245620727539 126.713081359863 129.730895996094 133.360244750977 138.605163574219 146.577362060547 158.25846862793 170.096160888672 172.73112487793 163.022903442383 154.903274536133 147.846755981445 140.626266479492 132.279296875 125.612167358398 111.96964263916 108.493217468262 106.081581115723 101.268569946289 95.4537124633789 98.2610244750977 92.6125030517578 94.2956695556641 92.2964401245117 91.1616058349609 92.1193923950195 93.3373031616211 92.897346496582 92.9721069335938 89.7283630371094 86.1270294189453 84.6344146728516 83.6865310668945 83.9961547851562
-9999 -9999 -9999 -9999 -9999 -9999 -9999 -9999 -9999 -9999 -9999 -9999 -9999 -9999 -9999 -9999 -9999 -9999 -9999 -9999 -9999 -9999 -9999 -9999 284.597564697266 241.535110473633 186.571548461914 143.892761230469 121.360145568848 114.733711242676 115.640693664551 119.562362670898 127.078758239746 136.606689453125 144.113754272461 148.844116210938 149.337249755859 149.193298339844 150.308990478516 150.314819335938 155.096466064453 165.842544555664 179.427612304688 185.863739013672 172.354187011719 148.824478149414 130.558700561523 128.358428955078 127.610809326172 118.463554382324 109.928520202637 107.83194732666 104.315116882324 101.335357666016 98.1353530883789 94.1540069580078 96.287109375 92.8081359863281 91.3528747558594 91.4769439697266 95.0019989013672 96.3068161010742 95.2969055175781 93.1402893066406 91.8430862426758 90.9019012451172 89.6243209838867 88.0166473388672 85.9053955078125 84.7209396362305
-9999 -9999 -9999 -9999 -9999 -9999 -9999 -9999 -9999 -9999 -9999 -9999 -9999 -9999 -9999 -9999 -9999 -9999 -9999 -9999 -9999 -9999 -9999 -9999 260.103363037109 202.374938964844 152.471694946289 128.83464050293 124.695426940918 130.398529052734 138.737915039062 145.700653076172 152.211181640625 157.239318847656 157.745742797852 155.873474121094 153.795455932617 153.914810180664 155.000549316406 156.873382568359 159.286666870117 164.094451904297 171.036544799805 174.94465637207 163.009414672852 146.859725952148 136.832092285156 136.434219360352 131.560531616211 124.152534484863 117.821769714355 110.130096435547 104.102722167969 101.545280456543 97.503059387207 94.5839080810547 95.6606292724609 92.8342361450195 89.6729354858398 92.3131637573242 99.9567642211914 103.152679443359 103.898811340332 103.640258789062 104.49388885498 104.822540283203 103.971908569336 101.581123352051 99.0237579345703 96.0114822387695
-9999 -9999 -9999 -9999 -9999 -9999 -9999 -9999 -9999 -9999 -9999 -9999 -9999 -9999 -9999 -9999 -9999 -9999 -9999 -9999 -9999 -9999 -9999 227.277275085449 230.748397827148 177.749847412109 141.500640869141 134.512710571289 145.310440063477 157.369888305664 160.517196655273 157.586196899414 151.338409423828 144.30029296875 137.144805908203 132.289367675781 132.806228637695 136.738784790039 141.736404418945 152.419525146484 162.425369262695 167.887588500977 170.686782836914 169.555191040039 165.507843017578 159.349014282227 153.55403137207 147.369720458984 137.530456542969 129.619415283203 122.34432220459 113.98072052002 108.634788513184 108.55997467041 106.25269317627 101.427864074707 98.2405014038086 94.3959426879883 93.4483261108398 103.773132324219 112.574317932129 116.021820068359 118.691665649414 120.934799194336 123.452896118164 123.600242614746 121.727935791016 118.248649597168 114.467124938965 110.052841186523
-9999 -9999 -9999 -9999 -9999 -9999 -9999 -9999 -9999 -9999 -9999 -9999 -9999 -9999 -9999 -9999 -9999 -9999 -9999 -9999 -9999 -9999 -9999 221.234619140625 197.022720336914 155.856399536133 140.181991577148 148.214065551758 162.961975097656 165.681884765625 156.302627563477 146.296844482422 138.759048461914 131.683364868164 127.121711730957 127.308204650879 130.946380615234 137.540374755859 149.126495361328 161.671279907227 168.899063110352 170.064086914062 168.945999145508 168.171768188477 167.137054443359 164.418472290039 161.970169067383 158.13639831543 152.743850708008 144.136322021484 133.953994750977 126.395668029785 121.689567565918 119.476623535156 117.277618408203 111.312973022461 104.481513977051 99.8690185546875 109.148017883301 120.631546020508 123.724708557129 128.595642089844 135.503952026367 139.732192993164 140.555419921875 137.200714111328 132.146041870117 126.868804931641 121.687217712402 117.139915466309
-9999 -9999 -9999 -9999 -9999 -9999 -9999 -9999 -9999 -9999 -9999 -9999 -9999 -9999 -9999 -9999 -9999 -9999 -9999 -9999 -9999 -9999 208.03385925293 195.088134765625 166.134140014648 146.072402954102 149.603485107422 161.942443847656 166.223770141602 161.576217651367 156.208831787109 150.111206054688 141.172241210938 130.8505859375 125.582763671875 128.631195068359 137.493911743164 150.806442260742 162.385681152344 163.921157836914 159.335861206055 156.053817749023 153.962066650391 152.657180786133 153.273086547852 154.430770874023 157.483779907227 162.923080444336 165.195373535156 161.824111938477 156.376556396484 152.168579101562 146.46955871582 139.947479248047 134.257553100586 126.476676940918 116.378326416016 113.188011169434 123.817771911621 128.265609741211 133.137176513672 143.884475708008 152.276031494141 154.316589355469 151.673980712891 143.982818603516 135.927108764648 130.19255065918 125.109809875488 120.942642211914
-9999 -9999 -9999 -9999 -9999 -9999 -9999 -9999 -9999 -9999 -9999 -9999 -9999 -9999 758.166003757053 -9999 -9999 -9999 -9999 433.513122558594 -9999 254.80078125 201.063339233398 167.554733276367 151.218643188477 153.482086181641 165.347122192383 170.029174804688 172.597320556641 175.777618408203 171.623672485352 156.016906738281 136.494567871094 123.963890075684 123.333076477051 131.403228759766 143.782241821289 156.957366943359 159.769973754883 154.800933837891 155.144866943359 159.947250366211 160.963195800781 158.990051269531 159.231369018555 160.664962768555 162.798980712891 167.6083984375 174.759674072266 177.517227172852 172.416885375977 165.596374511719 160.405334472656 156.349395751953 151.381469726562 143.269760131836 134.167770385742 132.903030395508 131.666625976562 133.37532043457 146.458343505859 159.058715820312 164.255020141602 162.127105712891 155.908447265625 144.570739746094 136.068572998047 130.82861328125 123.814071655273 119.53742980957
-9999 -9999 -9999 -9999 -9999 -9999 -9999 -9999 -9999 -9999 -9999 -9999 -9999 -9999 754.248641967773 -9999 -9999 -9999 -9999 400.282730102539 311.836807250977 259.779144287109 182.373840332031 153.818725585938 155.189834594727 167.110656738281 175.093521118164 182.090255737305 193.589965820312 200.518417358398 185.06982421875 149.480194091797 121.740478515625 115.034194946289 121.952102661133 134.433029174805 145.744750976562 153.402008056641 154.777725219727 153.936447143555 158.791900634766 166.496734619141 167.611190795898 163.404800415039 161.196426391602 160.490539550781 160.396957397461 161.427520751953 165.812164306641 173.354858398438 175.083206176758 164.770355224609 156.269195556641 157.205749511719 155.646133422852 149.410598754883 145.606002807617 142.826797485352 139.657684326172 144.165557861328 154.59748840332 163.673202514648 166.508087158203 162.031982421875 154.994522094727 142.803604125977 135.006286621094 129.779388427734 119.685363769531 115.963577270508
-9999 -9999 -9999 -9999 -9999 -9999 -9999 -9999 -9999 -9999 -9999 -9999 -9999 -9999 771.876770019531 -9999 -9999 -9999 -9999 -9999 248.790199279785 244.038650512695 164.836288452148 158.888702392578 176.515731811523 190.329864501953 196.228668212891 205.878067016602 214.656402587891 215.663421630859 204.79948425293 177.799835205078 140.539825439453 119.078666687012 122.539642333984 133.453521728516 139.955947875977 143.234191894531 146.564926147461 151.823745727539 162.317916870117 172.001174926758 168.982666015625 161.048187255859 157.885147094727 157.628265380859 158.280807495117 159.00373840332 159.792053222656 164.888717651367 174.684844970703 171.32942199707 158.427444458008 154.78092956543 154.423614501953 151.017608642578 148.684036254883 144.091796875 143.483596801758 148.863052368164 153.255447387695 159.438751220703 162.629898071289 160.367309570312 155.946899414062 145.186553955078 137.334777832031 132.596206665039 121.56665802002 116.71630859375
-9999 -9999 -9999 -9999 -9999 -9999 -9999 -9999 -9999 -9999 -9999 -9999 -9999 -9999 721.225250244141 -9999 701.3642578125 -9999 -9999 -9999 264.858520507812 226.484481811523 170.102401733398 190.757797241211 224.671798706055 241.533676147461 245.957183837891 248.918533325195 245.365798950195 238.147354125977 231.686157226562 226.871551513672 206.768371582031 166.88215637207 136.893020629883 132.331756591797 135.97004699707 136.265899658203 136.323440551758 138.739990234375 150.85530090332 169.441589355469 170.452972412109 161.060852050781 158.433288574219 160.727905273438 163.73567199707 165.152496337891 164.82551574707 164.804473876953 170.942718505859 177.883407592773 173.987411499023 161.991851806641 153.016067504883 147.717636108398 146.718215942383 146.771148681641 147.455947875977 149.382247924805 151.421264648438 155.475875854492 159.36572265625 162.421691894531 161.521759033203 153.4384765625 146.154418945312 143.661407470703 131.249237060547 119.737648010254
-9999 -9999 -9999 -9999 -9999 -9999 -9999 -9999 -9999 -9999 -9999 -9999 -9999 -9999 721.225250244141 670.57373046875 532.310546875 -9999 -9999 243.333965301514 250.671035766602 212.972991943359 203.298370361328 235.319946289062 265.131744384766 276.311920166016 271.238616943359 261.721862792969 249.149993896484 238.72607421875 229.956100463867 225.56315612793 226.864013671875 215.030883789062 184.89778137207 159.271118164062 146.098480224609 138.357437133789 134.132217407227 133.899108886719 143.964813232422 161.299652099609 165.02229309082 160.446105957031 161.847686767578 167.321441650391 171.859573364258 173.691787719727 173.09748840332 171.536163330078 171.184875488281 173.847015380859 180.529098510742 177.111068725586 163.130462646484 149.177093505859 145.5458984375 147.823425292969 150.501235961914 153.269760131836 154.644119262695 157.235656738281 160.975509643555 166.363098144531 168.809295654297 162.780456542969 156.033706665039 155.742645263672 140.997482299805 124.05655670166
-9999 -9999 -9999 -9999 -9999 -9999 -9999 -9999 -9999 -9999 -9999 -9999 -9999 -9999 -9999 477.053759765625 425.876037597656 -9999 273.587535858154 230.006912231445 227.799392700195 215.159164428711 240.425582885742 281.792602539062 293.15625 280.702758789062 264.239288330078 244.4130859375 229.897476196289 219.787963867188 215.152908325195 211.318664550781 209.554748535156 218.067337036133 217.257141113281 199.599182128906 177.46321105957 158.154830932617 145.127838134766 142.902465820312 154.140380859375 162.333038330078 159.734268188477 160.509231567383 167.976318359375 174.68701171875 177.97981262207 181.804077148438 181.718887329102 178.720413208008 174.867889404297 169.546829223633 175.004013061523 183.184524536133 178.188674926758 162.529632568359 150.002304077148 149.649429321289 155.827667236328 164.531005859375 171.591461181641 177.169021606445 176.569763183594 175.913665771484 175.465850830078 169.390365600586 160.800399780273 161.317825317383 151.812301635742 134.353469848633
-9999 -9999 -9999 -9999 -9999 -9999 -9999 -9999 -9999 -9999 -9999 -9999 -9999 -9999 -9999 382.383972167969 374.12451171875 -9999 217.917388916016 215.856811523438 215.124237060547 238.474899291992 294.796447753906 313.350982666016 295.470520019531 273.88720703125 248.398498535156 214.058242797852 195.717346191406 187.041946411133 192.937301635742 202.377563476562 203.580215454102 210.889175415039 219.843505859375 213.73046875 196.798065185547 177.827392578125 165.251403808594 164.908950805664 170.469909667969 170.689788818359 168.557144165039 173.518615722656 181.98486328125 188.170501708984 191.894638061523 193.886856079102 190.155502319336 182.662017822266 174.197662353516 166.316162109375 165.511627197266 177.933670043945 190.385681152344 189.259017944336 175.148147583008 170.114334106445 174.930297851562 185.970596313477 200.573638916016 210.211364746094 201.082550048828 189.293228149414 181.714370727539 178.290252685547 168.245162963867 167.976974487305 174.26008605957 152.327835083008
-9999 -9999 -9999 -9999 -9999 -9999 -9999 -9999 -9999 -9999 -9999 -9999 -9999 -9999 -9999 351.455413818359 -9999 269.531328473772 224.224746704102 207.837585449219 232.303939819336 282.653076171875 305.74169921875 294.886444091797 272.004760742188 239.949172973633 195.776901245117 160.091583251953 145.672500610352 141.901733398438 148.827667236328 166.541580200195 183.398834228516 197.337646484375 212.642059326172 213.286102294922 203.083404541016 192.931854248047 190.738967895508 190.700500488281 190.738204956055 194.982696533203 199.251434326172 203.964920043945 210.274658203125 212.648834228516 205.913955688477 194.635467529297 183.767471313477 173.228271484375 163.439224243164 158.626235961914 157.501312255859 166.753143310547 188.680557250977 209.193084716797 200.773574829102 194.272979736328 197.242889404297 207.207992553711 220.337203979492 230.969146728516 219.543762207031 203.008361816406 192.331344604492 186.194381713867 168.702789306641 167.382186889648 186.905456542969 166.627822875977
-9999 -9999 -9999 -9999 -9999 -9999 -9999 -9999 -9999 -9999 -9999 -9999 -9999 -9999 351.455413818359 315.059051513672 277.909942626953 252.100509643555 224.630401611328 221.432220458984 283.000244140625 349.0849609375 322.976226806641 303.877044677734 263.885711669922 220.91667175293 160.175689697266 138.844833374023 126.373359680176 116.789985656738 116.263702392578 130.759231567383 154.761993408203 180.044067382812 203.098663330078 209.092254638672 202.679946899414 201.552536010742 209.99235534668 215.215087890625 223.231185913086 233.063919067383 237.978408813477 236.865936279297 229.055755615234 212.721115112305 192.45735168457 179.697616577148 172.035308837891 163.702667236328 153.088531494141 147.111587524414 148.444030761719 159.400375366211 175.492538452148 203.377777099609 216.393936157227 211.781845092773 214.177597045898 219.846481323242 230.523345947266 237.427307128906 225.682495117188 206.317947387695 190.94140625 177.793899536133 165.01220703125 166.055648803711 188.554275512695 182.399673461914
-9999 -9999 -9999 -9999 -9999 -9999 -9999 -9999 -9999 -9999 -9999 -9999 -9999 -9999 -9999 -9999 268.47342300415 264.881317138672 218.146987915039 235.387496948242 319.210784912109 401.229858398438 340.149627685547 312.588104248047 267.694366455078 225.708068847656 157.978988647461 140.851638793945 122.776092529297 110.552665710449 110.193832397461 123.946128845215 148.850540161133 173.675521850586 195.297241210938 204.217697143555 204.839828491211 216.804336547852 240.186904907227 256.346099853516 264.969085693359 263.373687744141 251.583435058594 232.519226074219 207.117050170898 184.539459228516 170.98420715332 171.228118896484 170.289764404297 167.133483886719 151.623138427734 143.202026367188 141.667358398438 152.645401000977 166.580627441406 188.366806030273 214.762802124023 225.45881652832 225.606491088867 227.044082641602 231.835464477539 228.68342590332 218.64631652832 219.271133422852 209.591003417969 189.655563354492 178.478622436523 173.00373840332 190.893798828125 203.301864624023
-9999 -9999 -9999 -9999 -9999 -9999 -9999 -9999 -9999 -9999 -9999 -9999 -9999 -9999 -9999 -9999 271.941619873047 279.001922607422 237.555221557617 271.519134521484 368.433868408203 439.524444580078 379.595855712891 336.446228027344 285.218902587891 249.777252197266 173.961013793945 151.355667114258 128.973541259766 116.441757202148 120.309669494629 136.704376220703 163.773345947266 182.825576782227 194.302764892578 201.3876953125 222.68815612793 259.564331054688 277.857452392578 275.868835449219 265.46533203125 246.256958007812 223.603256225586 201.597473144531 179.864028930664 166.681655883789 171.067642211914 187.655715942383 186.742050170898 187.494842529297 178.498184204102 177.001525878906 169.428146362305 167.092346191406 170.568572998047 185.727340698242 205.416366577148 226.463272094727 229.678573608398 226.041107177734 222.185302734375 221.173217773438 233.019989013672 244.307678222656 220.292724609375 196.038711547852 189.781326293945 184.793319702148 195.181976318359 219.753128051758
-9999 -9999 -9999 -9999 -9999 -9999 -9999 -9999 -9999 -9999 -9999 -9999 -9999 -9999 -9999 -9999 -9999 275.622997283936 282.469146728516 339.422821044922 404.770324707031 424.083740234375 395.587280273438 357.446624755859 316.305236816406 295.124664306641 218.461441040039 182.925155639648 164.415390014648 148.196929931641 152.184432983398 165.894302368164 182.497085571289 189.166412353516 204.093612670898 236.351440429688 274.216278076172 290.185943603516 277.138702392578 260.213989257812 242.68798828125 224.003295898438 206.939163208008 188.04931640625 170.685195922852 162.834564208984 179.488861083984 195.11653137207 176.483825683594 188.424224853516 201.91682434082 214.587631225586 212.900680541992 203.231872558594 184.627517700195 181.924362182617 198.318893432617 216.096237182617 226.351119995117 224.921188354492 222.111404418945 232.975463867188 250.327529907227 240.676528930664 198.234329223633 183.781509399414 188.59748840332 194.461898803711 200.634078979492 232.492553710938
-9999 -9999 -9999 -9999 -9999 -9999 -9999 -9999 -9999 -9999 -9999 -9999 -9999 -9999 277.236846923828 279.001922607422 287.764510154724 292.967422485352 303.465698242188 368.711334228516 435.565063476562 392.552642822266 386.052337646484 369.029022216797 349.766784667969 336.493316650391 276.506591796875 222.744216918945 206.291366577148 197.538421630859 197.331192016602 205.699661254883 210.593505859375 223.169418334961 254.410140991211 283.339080810547 287.156036376953 276.814544677734 264.014312744141 247.247955322266 233.921508789062 221.525268554688 197.955749511719 172.596771240234 161.306671142578 166.785491943359 184.523986816406 178.213363647461 143.931411743164 133.874359130859 149.325057983398 176.111709594727 200.84326171875 221.845367431641 212.597579956055 197.813858032227 202.307846069336 213.577789306641 223.690826416016 227.415222167969 229.321487426758 243.957214355469 239.189590454102 198.811828613281 169.1396484375 167.806777954102 180.508026123047 194.385894775391 198.991760253906 227.030227661133
-9999 -9999 -9999 -9999 -9999 -9999 -9999 -9999 -9999 -9999 -9999 -9999 -9999 -9999 -9999 -9999 -9999 -9999 354.080177307129 368.485015869141 443.932250976562 392.759307861328 373.843872070312 358.078002929688 348.684204101562 348.560241699219 319.269927978516 264.688293457031 232.401062011719 229.465576171875 234.522842407227 246.656784057617 256.391632080078 271.367126464844 281.564086914062 282.589019775391 277.961517333984 273.211853027344 265.243804931641 247.267730712891 230.527954101562 212.528701782227 185.454605102539 168.013107299805 167.203048706055 175.483306884766 177.290969848633 156.427001953125 127.714454650879 113.210052490234 114.5439453125 126.228385925293 154.344024658203 190.240768432617 206.247589111328 208.315979003906 211.855392456055 214.149047851562 220.315704345703 226.813171386719 232.680633544922 231.193511962891 197.620803833008 166.870697021484 153.67008972168 152.093490600586 169.035461425781 196.546630859375 202.574996948242 217.465103149414
-9999 -9999 -9999 -9999 -9999 -9999 -9999 -9999 -9999 -9999 -9999 -9999 -9999 -9999 -9999 -9999 -9999 294.8466796875 358.178199768066 375.658660888672 447.360961914062 391.264251708984 358.110290527344 337.820892333984 326.290771484375 321.72265625 320.822479248047 315.182739257812 290.707702636719 259.367950439453 262.482635498047 282.954437255859 291.791809082031 295.481628417969 289.128082275391 280.993896484375 281.706176757812 280.925659179688 269.731506347656 250.406631469727 228.602355957031 199.957931518555 176.321929931641 170.948867797852 178.50700378418 184.446884155273 174.589096069336 159.128921508789 144.454086303711 134.404327392578 129.934280395508 134.704879760742 149.958465576172 165.259170532227 177.165908813477 189.010711669922 207.063980102539 218.565002441406 222.157272338867 229.086654663086 224.080154418945 201.724578857422 170.740844726562 157.410797119141 150.435775756836 149.253158569336 155.334564208984 178.151443481445 197.904434204102 202.982421875
-9999 -9999 -9999 -9999 -9999 -9999 -9999 -9999 -9999 -9999 -9999 -9999 -9999 271.919799804688 280.360392252604 -9999 304.481658935547 317.858337402344 294.8466796875 393.722442626953 375.949462890625 367.237152099609 344.569854736328 324.331207275391 310.798522949219 299.429565429688 290.977630615234 298.487823486328 334.295501708984 322.200500488281 270.142181396484 253.102157592773 272.290435791016 288.8974609375 290.252838134766 295.627105712891 300.804473876953 291.771026611328 274.260101318359 246.996353149414 223.637359619141 198.925262451172 179.499359130859 179.51025390625 191.051620483398 193.361251831055 178.459548950195 167.160217285156 161.5458984375 159.232772827148 161.994384765625 165.390029907227 169.577545166016 169.765014648438 174.932174682617 187.865844726562 206.160003662109 217.853607177734 218.019805908203 218.310562133789 203.825500488281 177.300048828125 162.239898681641 153.852081298828 150.527679443359 151.485748291016 151.911468505859 158.376113891602 178.297348022461 187.158233642578
-9999 -9999 -9999 -9999 -9999 -9999 -9999 -9999 -9999 -9999 -9999 -9999 -9999 -9999 271.919799804688 293.831817626953 275.329559326172 333.633758544922 367.623352050781 340.236419677734 339.8017578125 333.845275878906 314.792053222656 301.640502929688 290.226470947266 281.548553466797 276.160675048828 273.328643798828 293.790252685547 334.834899902344 341.647644042969 325.766876220703 317.708435058594 320.841369628906 322.836853027344 320.226623535156 313.463287353516 297.984649658203 272.802795410156 247.287445068359 227.824996948242 202.376892089844 183.646026611328 186.548355102539 196.329986572266 191.389663696289 175.169296264648 167.903396606445 162.8779296875 160.823165893555 166.040771484375 171.540283203125 177.092010498047 182.678771972656 189.839447021484 197.083312988281 205.691558837891 209.437454223633 203.348205566406 192.991760253906 178.014343261719 167.553466796875 162.012542724609 157.783264160156 157.15022277832 157.472366333008 157.261688232422 158.552368164062 163.366760253906 175.422500610352
-9999 -9999 -9999 -9999 -9999 -9999 -9999 -9999 -9999 -9999 -9999 -9999 -9999 -9999 289.627914428711 271.919799804688 334.24609375 372.235443115234 335.917266845703 321.884338378906 310.476379394531 289.389312744141 272.153686523438 263.141326904297 256.907531738281 253.123840332031 251.989212036133 252.417297363281 260.164978027344 292.021759033203 320.603454589844 332.317749023438 343.833740234375 353.202453613281 349.179870605469 335.204620361328 317.535247802734 294.998840332031 270.218292236328 249.83576965332 232.291976928711 207.37922668457 188.827713012695 191.934295654297 198.670913696289 187.083404541016 174.035110473633 167.937454223633 161.362350463867 160.12580871582 162.812881469727 166.192687988281 168.76823425293 174.578491210938 180.99870300293 184.481567382812 184.360992431641 181.84211730957 178.330291748047 177.066345214844 176.147186279297 174.097351074219 169.559860229492 167.566040039062 166.224487304688 165.327011108398 166.487899780273 164.568939208984 164.957656860352 174.351058959961
-9999 -9999 -9999 -9999 -9999 -9999 -9999 -9999 -9999 -9999 -9999 241.044525146484 267.7158203125 284.718048095703 275.98095703125 325.892852783203 383.321655273438 352.323852539062 310.630218505859 285.805786132812 266.030059814453 249.784378051758 240.857467651367 236.868789672852 234.030548095703 229.793563842773 227.339935302734 231.590805053711 236.862579345703 265.244506835938 290.292510986328 304.833892822266 318.737060546875 337.540313720703 340.866455078125 325.387786865234 309.234710693359 289.927795410156 269.358245849609 254.513732910156 235.710083007812 209.452743530273 194.619003295898 200.079330444336 204.906097412109 191.065246582031 181.785491943359 176.304580688477 167.890579223633 161.895492553711 161.263137817383 164.101654052734 163.194152832031 166.043319702148 167.887435913086 171.429504394531 178.218170166016 183.018295288086 185.520965576172 188.05876159668 186.75309753418 183.244979858398 177.283447265625 168.509475708008 162.542266845703 160.682067871094 164.246231079102 167.15705871582 167.814605712891 176.482315063477
-9999 -9999 -9999 -9999 -9999 -9999 -9999 -9999 -9999 329.028289794922 246.571166992188 245.186950683594 273.729949951172 302.074981689453 329.680847167969 367.758728027344 295.073364257812 266.639404296875 259.605316162109 255.610977172852 246.320861816406 237.286483764648 229.502166748047 217.023239135742 210.926940917969 205.486953735352 208.017181396484 216.917022705078 222.155746459961 250.52490234375 278.5361328125 295.491455078125 301.129058837891 317.134857177734 324.866668701172 312.793334960938 306.731842041016 291.89453125 273.150207519531 264.216064453125 241.761840820312 214.182754516602 201.001266479492 206.912612915039 212.250915527344 201.299285888672 195.740493774414 196.398147583008 208.225250244141 207.684188842773 195.092819213867 183.160369873047 184.272888183594 188.204574584961 193.340072631836 199.054321289062 203.608901977539 202.712280273438 202.3544921875 200.39045715332 193.184661865234 186.245193481445 177.319839477539 168.925552368164 162.971237182617 163.315704345703 166.341720581055 170.117584228516 173.40234375 180.107879638672
-9999 -9999 -9999 -9999 -9999 -9999 -9999 -9999 -9999 332.372711181641 259.617645263672 286.435943603516 310.956451416016 358.88818359375 331.669799804688 273.019104003906 267.391021728516 273.038146972656 246.996994018555 233.255233764648 221.226654052734 202.432434082031 182.936218261719 174.335342407227 172.257064819336 175.881454467773 187.585388183594 201.783874511719 208.918792724609 230.316589355469 261.985137939453 282.54638671875 295.113342285156 308.045227050781 318.620849609375 325.316955566406 324.622222900391 300.259429931641 280.425445556641 269.459838867188 246.434463500977 222.854431152344 208.732437133789 215.417175292969 223.860260009766 217.666580200195 212.464462280273 225.296813964844 232.076095581055 221.654815673828 212.019546508789 210.153961181641 211.551910400391 207.429718017578 206.74089050293 211.533203125 211.322937011719 208.790069580078 207.051696777344 198.661605834961 195.69743347168 191.156448364258 182.854064941406 174.80339050293 168.506271362305 167.945938110352 172.149337768555 176.593078613281 180.676910400391 185.50146484375
-9999 -9999 -9999 -9999 -9999 290.10083770752 343.305725097656 323.162506103516 319.23046875 278.78759765625 273.578430175781 327.496887207031 376.088287353516 383.927764892578 325.359588623047 270.144592285156 255.173446655273 227.997909545898 205.118316650391 196.584396362305 188.634460449219 172.444900512695 160.697677612305 152.850021362305 150.563247680664 150.913040161133 158.963394165039 175.446197509766 192.726806640625 221.687606811523 254.681976318359 272.045562744141 289.526245117188 301.679626464844 312.632507324219 338.801177978516 335.250183105469 299.349670410156 283.895568847656 257.421356201172 234.552764892578 227.200012207031 215.639465332031 225.794219970703 237.846221923828 229.961349487305 217.941665649414 222.665740966797 223.167266845703 217.562530517578 212.958923339844 210.975692749023 211.968505859375 211.475631713867 208.39192199707 207.437118530273 211.122299194336 215.317825317383 220.872451782227 210.2490234375 204.060348510742 199.909057617188 193.321731567383 183.725448608398 180.806610107422 177.54557800293 178.390213012695 183.100067138672 184.593505859375 187.451385498047
-9999 -9999 -9999 -9999 273.094421386719 266.144775390625 277.858428955078 289.204315185547 297.713409423828 302.314178466797 305.031860351562 370.859100341797 350.399169921875 302.464385986328 269.592102050781 252.894256591797 228.287704467773 206.711456298828 209.900283813477 204.683929443359 185.128448486328 163.316665649414 148.824676513672 144.613983154297 145.874710083008 147.577438354492 153.573822021484 162.244064331055 180.761001586914 208.623352050781 244.116027832031 267.6494140625 289.430969238281 298.113739013672 314.101898193359 344.745971679688 314.253662109375 284.019958496094 283.557952880859 253.462417602539 232.277618408203 228.393508911133 221.578048706055 238.109802246094 245.552429199219 229.27116394043 215.900909423828 215.667892456055 220.849380493164 218.53547668457 214.34651184082 212.709182739258 212.966430664062 213.869934082031 217.920150756836 217.227935791016 214.437072753906 215.905426025391 219.791061401367 225.412948608398 215.787628173828 205.941482543945 201.691360473633 192.155136108398 193.338195800781 191.175445556641 186.875717163086 189.616592407227 189.758972167969 190.261535644531
-9999 -9999 -9999 257.735557556152 257.858245849609 259.245147705078 314.420257568359 342.566070556641 357.142120361328 356.349517822266 346.438995361328 340.287994384766 319.9267578125 298.873107910156 259.203063964844 230.947463989258 206.955627441406 186.921829223633 168.635223388672 159.450393676758 152.251052856445 145.45524597168 142.751342773438 143.503662109375 147.50163269043 152.523040771484 157.890197753906 163.746353149414 176.679733276367 197.337417602539 236.865020751953 265.906494140625 292.137969970703 304.062561035156 323.527770996094 342.598510742188 294.714019775391 282.465393066406 284.525085449219 242.004974365234 226.446441650391 228.839935302734 227.069152832031 245.430877685547 247.762954711914 228.1904296875 220.586700439453 222.869567871094 227.781646728516 224.992431640625 219.489730834961 217.944915771484 218.866165161133 219.155670166016 218.786026000977 222.47151184082 217.830368041992 209.406036376953 206.830169677734 221.880569458008 231.612899780273 222.748260498047 212.932403564453 204.476959228516 200.977722167969 200.976440429688 206.588409423828 204.522705078125 205.945404052734 203.536285400391
-9999 -9999 -9999 254.033950805664 245.955612182617 315.340850830078 400.185394287109 443.4677734375 444.476013183594 362.855285644531 333.316741943359 324.823059082031 290.732940673828 265.888275146484 238.062194824219 215.132080078125 205.693389892578 203.057678222656 189.006332397461 162.83171081543 145.667938232422 140.753265380859 136.384384155273 138.978820800781 146.359359741211 150.267379760742 158.562622070312 167.700439453125 184.080688476562 202.114608764648 234.485900878906 269.092529296875 294.401336669922 309.790222167969 331.823150634766 329.468597412109 285.188049316406 283.606750488281 283.009948730469 241.350631713867 226.64958190918 232.346206665039 236.005401611328 252.915069580078 252.518539428711 235.888931274414 229.161712646484 232.119720458984 238.71745300293 232.882247924805 225.056884765625 221.949920654297 220.964859008789 220.41423034668 219.536804199219 219.619400024414 220.32292175293 217.319061279297 207.684768676758 203.708267211914 215.7373046875 230.306594848633 226.530319213867 223.385131835938 216.197296142578 207.334823608398 206.042144775391 208.373809814453 212.675643920898 213.927093505859
