NCOLS 35 
NROWS 26 
XLLCORNER -80 
YLLCORNER 33 
CELLSIZE 0.5 
NODATA_value -9999 
-9999.000000000000000 -9999 -9999 -9999 -9999 -9999 -9999 -9999 -9999 -9999 -9999 -9999 -9999 -9999 -9999 -9999 -9999 -9999 -9999 -9999 -9999 -9999 -9999 -9999 -9999 -9999 -9999 -9999 -9999 -9999 -9999 -9999 -9999 -9999 -9999
-9999 -9999 -9999 -9999 -9999 -9999 -9999 -9999 -9999 -9999 -9999 -9999 -9999 -9999 -9999 -9999 -9999 -9999 -9999 -9999 -9999 -9999 -9999 -9999 -9999 -9999 -9999 -9999 -9999 204.099297515202 -9999 -9999 -9999 -9999 -9999
-9999 -9999 -9999 -9999 -9999 -9999 -9999 -9999 -9999 -9999 -9999 -9999 -9999 -9999 -9999 -9999 -9999 -9999 -9999 -9999 -9999 -9999 -9999 -9999 -9999 -9999 339.193255527969 323.308590976497 129.06908034824 71.4795705059544 -9999 -9999 -9999 -9999 -9999
-9999 -9999 -9999 -9999 -9999 -9999 -9999 -9999 -9999 -9999 -9999 -9999 -9999 -9999 -9999 -9999 -9999 -9999 -9999 -9999 -9999 -9999 -9999 236.303528289072 361.52213283025 329.51976162071 294.110688062773 75.9771801695338 -9999 -9999 -9999 226.822719376606 214.794270836219 189.479383218942 173.947869577486
-9999 -9999 -9999 -9999 -9999 -9999 -9999 -9999 -9999 -9999 -9999 -9999 -9999 -9999 -9999 -9999 -9999 -9999 -9999 -9999 231.338312404374 287.325726078909 344.60751419619 206.963594834907 162.100205923883 174.153051074254 250.800493847518 214.050434738703 -9999 -9999 165.281844912228 173.78866331572 146.753485207127 131.97496149136 132.94752664373
-9999 -9999 -9999 -9999 -9999 -9999 -9999 -9999 -9999 -9999 -9999 -9999 -9999 -9999 -9999 -9999 -9999 -9999 -9999 196.245527591529 246.014146791829 313.941045383261 314.698958632366 201.26385530386 136.962145883978 143.03466472438 204.924267098505 240.799881210428 209.437195709395 195.747372143441 165.351405061316 142.54736912235 121.922845994799 83.6950528196983 89.9361501973141
-9999 -9999 -9999 -9999 -9999 -9999 -9999 -9999 -9999 -9999 -9999 -9999 -9999 -9999 -9999 -9999 -9999 -9999 -9999 195.754106003355 165.31351441006 164.05089959444 205.598971725351 178.260718991651 140.440950503567 147.358485547588 147.224196377454 131.460164292283 138.64481973815 140.105379783941 135.893540313062 123.493821595503 91.537257643789 84.4107867857075 86.918130539542
-9999 -9999 -9999 -9999 -9999 -9999 -9999 -9999 -9999 -9999 -9999 -9999 -9999 -9999 -9999 -9999 -9999 -9999 -9999 138.926306194816 141.779380801824 125.589503234669 118.110250740256 127.657668590049 140.592677287755 139.533842385565 125.937200911403 115.899980694795 120.953867100031 127.801260100892 129.992816900863 111.537015296511 87.1989073984107 84.4018568509291 90.6450555029348
-9999 -9999 -9999 -9999 -9999 -9999 -9999 -9999 -9999 -9999 -9999 -9999 -9999 -9999 -9999 -9999 -9999 -9999 -9999 39.662439496177 156.410426204753 118.013367484979 109.767872309851 101.536333668322 123.86495109467 137.937428526069 133.483542106911 120.615885269572 100.089072805666 98.3597603683823 114.119534068066 98.5428960083554 86.9761025542484 92.4175206901919 111.073295287247
-9999 -9999 -9999 -9999 -9999 -9999 -9999 -9999 -9999 -9999 -9999 -9999 -9999 -9999 -9999 -9999 -9999 253.061849245662 205.474788067367 169.130959410196 157.851874354548 110.028033854196 84.4034618251229 107.49848828224 117.90382469434 131.897947135601 135.434448965876 109.655650267415 100.005208671371 109.849928916446 108.787337453066 100.038843911262 89.2091011693509 97.4909308500921 200.250050069222
-9999 -9999 -9999 -9999 -9999 -9999 -9999 -9999 -9999 -9999 -9999 -9999 -9999 -9999 391.65424775973 395.668323806158 220.324424762711 137.987678447595 130.074070460652 135.087723651823 143.032443331362 123.370106906616 128.895416209986 129.190615102158 121.207051583953 125.51534589398 223.922860864151 424.426252794929 476.364508917939 408.274211896503 209.914899117287 111.274041640937 95.0143410296173 118.096364057626 233.749263914125
-9999 -9999 -9999 -9999 -9999 -9999 -9999 -9999 -9999 -9999 -9999 -9999 374.40386683993 283.153196272939 195.434932016537 133.654496065829 113.65713469373 110.486375105066 111.429215639961 120.433030060566 131.657120169413 131.391212165347 123.764152888402 162.105139364511 250.941377417183 423.536725301239 461.446884058913 399.735877638527 283.547599427951 243.605603332678 321.066762761432 304.256784072609 144.431280193038 189.038986671886 225.834170138466
-9999 -9999 -9999 -9999 -9999 -9999 -9999 -9999 -9999 -9999 -9999 -9999 180.307262304065 137.442043741981 137.178554946512 147.852158982245 225.024899332537 246.915076424394 220.542211153754 174.80920444186 190.867600796786 258.426640878352 349.452558846356 343.569985960945 398.713358157712 472.109222332304 511.534934098501 420.440322113982 263.534422724925 193.291913684813 175.356042963236 271.028550265167 272.0206432698 205.985571158545 214.318978862109
-9999 -9999 -9999 -9999 -9999 -9999 -9999 -9999 -9999 14.9838091756016 14.9988935910791 375.789448964207 176.486912701156 155.146274334815 255.183122904411 361.682861641306 390.094536407903 393.63338277351 399.922394156228 344.98959657178 313.234730436584 209.546595218767 275.452801132453 279.532846409335 320.224604170327 405.049492673492 475.111618255103 427.884386520527 298.683080996032 148.27714853301 102.27547394856 220.057906114983 308.862624288557 223.375720216969 219.364044254358
-9999 -9999 -9999 -9999 -9999 -9999 -9999 -9999 -9999 -9999 400.3000532297 233.233622993089 226.113346008807 399.44703064076 504.962725535601 504.804134028278 461.659822531762 426.450141215154 412.613917289972 387.480405594148 389.334789409996 385.965988302846 386.30895333289 417.904856086032 431.759140091735 418.464253662536 426.056133455243 440.815070626164 284.793530737058 71.110669018189 65.0793601125236 161.627315386356 295.0100483309 254.872871938451 228.535032972873
-9999 -9999 -9999 -9999 -9999 -9999 -9999 822.813140114603 294.008713617439 -9999 241.545861354241 371.583397684564 579.980740819684 582.100239045402 485.136059391161 419.867155198793 314.95821473485 253.257718485093 277.855280889423 319.549460685515 337.425677354905 420.034113369769 481.23175995852 466.672222019752 457.874417326844 423.210271849832 425.800309327571 471.692858901548 238.990676667669 187.634180361333 127.657436368137 134.787170237613 247.917870016765 304.957245849963 307.007046422998
-9999 -9999 -9999 -9999 -9999 -9999 -9999 49.5146575340828 137.135565612085 203.004336926179 360.341663837432 604.379520157004 554.462647722298 500.482088732959 437.931612064616 435.509561598765 403.373467939063 355.542025110039 396.448228623591 443.594663437017 461.90598290745 429.44263089144 437.09254684586 444.814351640644 437.785064941598 409.955069522657 411.877975408398 392.284647650835 293.643084719514 333.916621865432 362.188679468928 356.726724933886 338.102398286011 350.391180680423 354.732324771161
-9999 -9999 -9999 -9999 -9999 -9999 -9999 268.663470876091 -9999 231.468293773734 568.226933267506 574.492690922295 507.189399583507 489.991532206741 479.474783189048 483.762836673499 484.395933144635 419.845552972189 416.669786992657 401.977794278501 396.633742125727 427.326768387334 476.678473862519 465.939923163791 442.098336575937 429.662088116008 432.818311979802 403.172030281929 319.741501011237 310.053873599391 351.763684268187 365.764555674823 300.432447008523 259.767953278531 252.193924317063
-9999 -9999 -9999 -9999 -9999 -9999 -9999 -9999 204.248766299654 241.591786296552 546.639237268072 530.689450602779 485.660264730167 464.103196288614 454.624823593047 467.512759511338 511.855209207248 495.851148260778 419.695809388422 375.394508579126 426.587339972692 483.361715236277 503.967785676047 454.085933542778 436.789316061434 428.285858361681 422.677666242858 488.08254649799 389.685415053137 349.870081744461 381.569288095347 403.306193485103 345.531809133895 306.855593210328 276.893403913484
-9999 -9999 -9999 -9999 -9999 -9999 -9999 -9999 -9999 316.937722246988 534.970521514811 504.732248375388 450.132608656626 419.574870875612 395.665662069471 404.410224469231 441.068510780593 513.520623990495 568.495670066206 512.964908781196 504.302026965942 520.879549405577 477.520428416236 432.042566602372 476.141779815414 392.043878389152 330.324797797626 478.632237527018 552.610579398745 457.45126715548 441.291251177253 421.314677917062 409.118916303863 377.240177931515 315.33413063027
-9999 -9999 -9999 -9999 -9999 -9999 -9999 -9999 -9999 282.404190224871 561.073528325401 467.212992637486 415.103540974334 381.16751597792 380.405907639844 389.090101171947 396.123470109747 415.274560449076 457.504896652233 488.094028430057 476.834880296016 445.163552557132 410.936463838914 442.36860147713 349.356916488773 226.845656219472 297.460735223682 373.063468943274 583.168160619796 549.296677922977 476.269025102196 446.688466293325 434.374892689523 369.177059794538 373.382795605015
-9999 -9999 -9999 -9999 -9999 -9999 -9999 0 87.8011290979902 466.183893070351 499.811824647742 433.610115348896 392.160303339265 369.794926744035 403.151619223362 401.013590453661 385.427993974962 412.745321473355 430.640968515548 426.225670469162 417.862461427399 413.598135056624 448.47505181555 382.325134485063 220.788106855836 253.304551175799 285.501619380066 368.832839599111 493.749619674962 502.748984437147 444.309000444246 420.084888801023 349.440154760403 287.913314411318 282.668747905653
-9999 -9999 -9999 -9999 -9999 -9999 92.5003790415279 199.608992367004 394.708884643133 435.783124702065 407.759594640253 395.881196839069 389.290544376633 346.349383900351 418.657895839764 315.27821998287 262.162144396926 317.273081369198 332.791966575091 359.287858416662 340.948703415447 424.836626327839 464.072691664483 352.900726260147 242.277663059089 277.408656582436 300.952681526756 325.861534640425 346.580436148111 355.39226760973 350.062835558315 356.183312068185 330.298113346649 281.851294437701 269.698127054538
-9999 -9999 -9999 -9999 280.246123135734 241.680037255339 242.559306508368 352.486849162479 399.968122245255 401.211228580248 386.899620319178 365.79321765531 318.631069217218 342.296418342197 470.542638645237 255.932701353258 278.119403605614 288.208773596065 315.432708306003 365.490082498724 416.157739627297 496.871245323302 392.865709384565 287.820694864301 270.333920424726 280.592262702227 288.482495725067 293.114275596245 291.721076137444 287.336061707709 297.143765465905 318.18627558476 348.199905703766 323.334190853464 306.889724218597
-9999 -9999 -9999 326.102911281586 285.689167890446 290.694356734936 358.240855893004 387.424837339964 400.084924202069 325.478354535845 270.220657070244 252.78150456407 318.646748814838 460.403052224569 394.815937273308 376.279489699809 350.961209709868 359.901657253982 381.350355314964 448.196510953263 468.991411396195 468.115298427315 448.095758901368 319.255926122043 285.807871362588 291.779232434913 308.414354526946 310.51031791327 300.884388169675 302.972283184566 295.686942105756 297.623795014429 311.924893149143 318.027831379918 320.206413080672
-9999 -9999 242.307726026891 341.69384858058 384.173019278718 360.743519342509 366.114102892808 357.371250910808 275.397301678708 231.462204225667 257.42475063854 288.527436047426 371.049225464078 399.584258177802 399.922521486053 433.035677335766 406.432027640049 427.064388008075 447.865083800465 471.084153951812 498.017445810282 496.953332060324 459.505411934583 344.688286643833 296.129813062433 292.002056755967 293.210802669784 294.132114280092 297.391556364224 296.81485642658 294.178633157242 291.700585144784 297.787916334645 320.976756845238 329.415432413598
