NCOLS 70 
NROWS 52 
XLLCORNER -80 
YLLCORNER 33 
CELLSIZE 0.25 
NODATA_value -9999 
-9999.000000000000000 -9999 -9999 -9999 -9999 -9999 -9999 -9999 -9999 -9999 -9999 -9999 -9999 -9999 -9999 -9999 -9999 -9999 -9999 -9999 -9999 -9999 -9999 -9999 -9999 -9999 -9999 -9999 -9999 -9999 -9999 -9999 -9999 -9999 -9999 -9999 -9999 -9999 -9999 -9999 -9999 -9999 -9999 -9999 -9999 -9999 -9999 -9999 -9999 -9999 -9999 -9999 -9999 -9999 -9999 -9999 -9999 -9999 -9999 -9999 -9999 -9999 -9999 -9999 -9999 -9999 -9999 -9999 -9999 -9999
-9999 -9999 -9999 -9999 -9999 -9999 -9999 -9999 -9999 -9999 -9999 -9999 -9999 -9999 -9999 -9999 -9999 -9999 -9999 -9999 -9999 -9999 -9999 -9999 -9999 -9999 -9999 -9999 -9999 -9999 -9999 -9999 -9999 -9999 -9999 -9999 -9999 -9999 -9999 -9999 -9999 -9999 -9999 -9999 -9999 -9999 -9999 -9999 -9999 -9999 -9999 -9999 -9999 -9999 -9999 -9999 -9999 -9999 -9999 -9999 -9999 -9999 -9999 -9999 -9999 -9999 -9999 -9999 -9999 -9999
-9999 -9999 -9999 -9999 -9999 -9999 -9999 -9999 -9999 -9999 -9999 -9999 -9999 -9999 -9999 -9999 -9999 -9999 -9999 -9999 -9999 -9999 -9999 -9999 -9999 -9999 -9999 -9999 -9999 -9999 -9999 -9999 -9999 -9999 -9999 -9999 -9999 -9999 -9999 -9999 -9999 -9999 -9999 -9999 -9999 -9999 -9999 -9999 -9999 -9999 -9999 -9999 -9999 -9999 -9999 -9999 -9999 -9999 -9999 568.864868164062 -9999 -9999 -9999 -9999 -9999 -9999 -9999 -9999 -9999 -9999
-9999 -9999 -9999 -9999 -9999 -9999 -9999 -9999 -9999 -9999 -9999 -9999 -9999 -9999 -9999 -9999 -9999 -9999 -9999 -9999 -9999 -9999 -9999 -9999 -9999 -9999 -9999 -9999 -9999 -9999 -9999 -9999 -9999 -9999 -9999 -9999 -9999 -9999 -9999 -9999 -9999 -9999 -9999 -9999 -9999 -9999 -9999 -9999 -9999 -9999 -9999 -9999 -9999 -9999 -9999 356.804168701172 360.521697998047 413.048034667969 423.323181152344 510.454284667969 -9999 -9999 -9999 -9999 -9999 -9999 -9999 -9999 -9999 -9999
-9999 -9999 -9999 -9999 -9999 -9999 -9999 -9999 -9999 -9999 -9999 -9999 -9999 -9999 -9999 -9999 -9999 -9999 -9999 -9999 -9999 -9999 -9999 -9999 -9999 -9999 -9999 -9999 -9999 -9999 -9999 -9999 -9999 -9999 -9999 -9999 -9999 -9999 -9999 -9999 -9999 -9999 -9999 -9999 -9999 -9999 -9999 -9999 -9999 -9999 -9999 -9999 313.793884277344 275.341583251953 269.738891601562 293.806457519531 290.322723388672 301.324798583984 -9999 -9999 -9999 -9999 -9999 -9999 -9999 -9999 -9999 -9999 -9999 -9999
-9999 -9999 -9999 -9999 -9999 -9999 -9999 -9999 -9999 -9999 -9999 -9999 -9999 -9999 -9999 -9999 -9999 -9999 -9999 -9999 -9999 -9999 -9999 -9999 -9999 -9999 -9999 -9999 -9999 -9999 -9999 -9999 -9999 -9999 -9999 -9999 -9999 -9999 -9999 -9999 -9999 -9999 -9999 -9999 -9999 -9999 -9999 -9999 -9999 -9999 324.397668457031 369.987274169922 290.146789550781 200.918975830078 148.06477355957 127.092712402344 -9999 -9999 -9999 -9999 -9999 -9999 -9999 -9999 -9999 -9999 -9999 141.740412394206 141.697017669678 168.539123535156
-9999 -9999 -9999 -9999 -9999 -9999 -9999 -9999 -9999 -9999 -9999 -9999 -9999 -9999 -9999 -9999 -9999 -9999 -9999 -9999 -9999 -9999 -9999 -9999 -9999 -9999 -9999 -9999 -9999 -9999 -9999 -9999 -9999 -9999 -9999 -9999 -9999 -9999 -9999 -9999 -9999 -9999 -9999 -9999 417.189727783203 -9999 -9999 256.734111785889 298.696350097656 303.889129638672 305.454864501953 280.301391601562 200.533386230469 127.165565490723 99.5338363647461 -9999 -9999 -9999 -9999 -9999 -9999 -9999 -9999 157.141784667969 151.23176574707 151.732299804688 152.355133056641 141.830505371094 131.035598754883 125.382843017578
-9999 -9999 -9999 -9999 -9999 -9999 -9999 -9999 -9999 -9999 -9999 -9999 -9999 -9999 -9999 -9999 -9999 -9999 -9999 -9999 -9999 -9999 -9999 -9999 -9999 -9999 -9999 -9999 -9999 -9999 -9999 -9999 -9999 -9999 -9999 -9999 -9999 -9999 -9999 -9999 -9999 -9999 -9999 -9999 427.733062744141 370.578063964844 297.319946289062 233.750411987305 197.169738769531 164.524536132812 135.830261230469 118.19165802002 104.841270446777 94.0494003295898 103.657272338867 -9999 -9999 -9999 -9999 -9999 -9999 -9999 136.609222412109 136.163757324219 127.708770751953 121.197593688965 117.246589660645 114.572547912598 114.619018554688 112.812026977539
-9999 -9999 -9999 -9999 -9999 -9999 -9999 -9999 -9999 -9999 -9999 -9999 -9999 -9999 -9999 -9999 -9999 -9999 -9999 -9999 -9999 -9999 -9999 -9999 -9999 -9999 -9999 -9999 -9999 -9999 -9999 -9999 -9999 -9999 -9999 -9999 -9999 -9999 -9999 -9999 269.162882486979 254.368464152018 294.720394897461 325.747253417969 280.747344970703 201.743057250977 154.339889526367 129.506454467773 114.09977722168 105.76220703125 102.322700500488 100.249893188477 96.5895080566406 93.8802871704102 104.037580871582 -9999 -9999 -9999 -9999 -9999 115.651725769043 115.773284912109 115.588661193848 111.18187713623 107.904365539551 108.226440429688 108.704818725586 108.738288879395 108.213638305664 106.709350585938
-9999 -9999 -9999 -9999 -9999 -9999 -9999 -9999 -9999 -9999 -9999 -9999 -9999 -9999 -9999 -9999 -9999 -9999 -9999 -9999 -9999 -9999 -9999 -9999 -9999 -9999 -9999 -9999 -9999 -9999 -9999 -9999 -9999 -9999 -9999 -9999 -9999 -9999 -9999 279.599212646484 271.074157714844 256.815277099609 235.215957641602 202.5654296875 171.36540222168 148.271591186523 135.64128112793 128.675842285156 125.483612060547 123.36304473877 121.344345092773 114.878364562988 103.628562927246 97.4859390258789 113.283836364746 121.488441467285 -9999 -9999 -9999 115.125276565552 120.072525024414 111.109367370605 106.432098388672 103.708389282227 105.165718078613 108.255554199219 110.049873352051 110.176544189453 108.710914611816 106.466529846191
-9999 -9999 -9999 -9999 -9999 -9999 -9999 -9999 -9999 -9999 -9999 -9999 -9999 -9999 -9999 -9999 -9999 -9999 -9999 -9999 -9999 -9999 -9999 -9999 -9999 -9999 -9999 -9999 -9999 -9999 -9999 -9999 -9999 -9999 -9999 -9999 -9999 -9999 348.122265625 298.626770019531 267.424407958984 226.453277587891 185.717422485352 162.390182495117 157.389511108398 158.062286376953 156.998199462891 155.052093505859 153.987548828125 153.527328491211 148.978820800781 130.719299316406 108.09935760498 96.7606430053711 99.7477874755859 102.694351196289 98.1387100219727 112.329823811849 117.209945678711 110.270683288574 112.947952270508 110.888427734375 105.679100036621 102.813537597656 104.49658203125 107.446319580078 110.020141601562 113.029106140137 113.456314086914 111.12329864502
-9999 -9999 -9999 -9999 -9999 -9999 -9999 -9999 -9999 -9999 -9999 -9999 -9999 -9999 -9999 -9999 -9999 -9999 -9999 -9999 -9999 -9999 -9999 -9999 -9999 -9999 -9999 -9999 -9999 -9999 -9999 -9999 -9999 -9999 -9999 -9999 -9999 454.705261230469 399.698822021484 307.981262207031 239.322525024414 198.92790222168 179.683685302734 173.776382446289 169.985870361328 168.912673950195 168.858123779297 167.348358154297 161.600631713867 157.206741333008 156.282119750977 137.674163818359 111.488739013672 97.8348770141602 96.8516845703125 101.178123474121 107.397216796875 111.401397705078 114.702293395996 118.856430053711 124.328018188477 121.197891235352 112.071891784668 106.086601257324 105.524383544922 107.793334960938 111.910675048828 120.406784057617 128.531280517578 130.923187255859
-9999 -9999 -9999 -9999 -9999 -9999 -9999 -9999 -9999 -9999 -9999 -9999 -9999 -9999 -9999 -9999 -9999 -9999 -9999 -9999 -9999 -9999 -9999 -9999 -9999 -9999 -9999 -9999 -9999 -9999 -9999 -9999 -9999 -9999 -9999 -9999 -9999 466.918121337891 403.967224121094 303.217407226562 232.84748840332 197.539306640625 184.483016967773 182.008483886719 184.198760986328 187.323455810547 188.614120483398 184.313873291016 173.48974609375 162.414459228516 154.910079956055 139.362548828125 117.309432983398 102.326080322266 98.1928482055664 100.68180847168 104.767112731934 108.936408996582 113.232002258301 118.542175292969 126.995788574219 133.000778198242 133.405242919922 131.405471801758 125.188659667969 122.025482177734 126.085334777832 143.785095214844 165.688446044922 187.674453735352
-9999 -9999 -9999 -9999 -9999 -9999 -9999 -9999 -9999 -9999 -9999 -9999 -9999 -9999 -9999 -9999 -9999 -9999 -9999 -9999 -9999 -9999 -9999 -9999 -9999 -9999 -9999 -9999 -9999 -9999 -9999 -9999 -9999 -9999 -9999 -9999 -9999 535.938781738281 419.887084960938 311.438110351562 238.623077392578 198.923706054688 185.824905395508 187.255859375 191.392166137695 194.501525878906 196.338287353516 193.940048217773 185.804382324219 173.932281494141 160.898590087891 142.56575012207 120.551200866699 107.283737182617 104.027793884277 103.071617126465 101.285530090332 101.078002929688 104.042671203613 112.229881286621 129.948104858398 153.678268432617 198.549514770508 249.902816772461 249.855270385742 226.36474609375 207.965179443359 204.162384033203 222.609680175781 274.914093017578
-9999 -9999 -9999 -9999 -9999 -9999 -9999 -9999 -9999 -9999 -9999 -9999 -9999 -9999 -9999 -9999 -9999 -9999 -9999 -9999 -9999 -9999 -9999 -9999 -9999 -9999 -9999 -9999 -9999 -9999 -9999 -9999 -9999 -9999 -9999 -9999 726.901062011719 591.179321289062 434.317749023438 329.706817626953 259.525085449219 214.20475769043 194.242492675781 193.793304443359 200.629928588867 208.530776977539 212.381866455078 209.667587280273 204.658126831055 197.695648193359 185.345413208008 160.283538818359 132.676742553711 116.067321777344 114.59708404541 117.890655517578 116.992652893066 117.671875 139.036636352539 183.459609985352 210.501968383789 225.379409790039 305.049865722656 401.743041992188 424.884094238281 425.711822509766 410.765747070312 361.038757324219 359.83203125 417.458404541016
-9999 -9999 -9999 -9999 -9999 -9999 -9999 -9999 -9999 -9999 -9999 -9999 -9999 -9999 -9999 -9999 -9999 -9999 -9999 -9999 -9999 -9999 -9999 -9999 -9999 -9999 -9999 -9999 -9999 -9999 -9999 -9999 -9999 -9999 -9999 -9999 -9999 508.511169433594 456.154632568359 366.666717529297 298.923065185547 251.27961730957 222.100433349609 217.633239746094 228.302185058594 239.739761352539 242.400833129883 239.496398925781 243.620330810547 252.434799194336 246.266555786133 211.259994506836 176.157272338867 149.82844543457 139.175643920898 142.362411499023 158.046264648438 187.973937988281 261.715362548828 372.375457763672 417.205871582031 392.402618408203 391.310974121094 368.100891113281 377.433563232422 502.110687255859 560.635314941406 521.582275390625 515.263366699219 513.435607910156
-9999 -9999 -9999 -9999 -9999 -9999 -9999 -9999 -9999 -9999 -9999 -9999 -9999 -9999 -9999 -9999 -9999 -9999 -9999 -9999 -9999 -9999 -9999 -9999 -9999 -9999 -9999 -9999 -9999 -9999 -9999 -9999 -9999 -9999 -9999 -9999 -9999 -9999 436.020050048828 -9999 325.668792724609 292.998840332031 266.474609375 257.42724609375 259.444671630859 259.512176513672 262.9931640625 277.965911865234 297.522430419922 318.355407714844 302.515014648438 261.462951660156 231.331024169922 195.584106445312 168.385284423828 169.574264526367 216.584259033203 302.765747070312 366.512298583984 406.232574462891 429.787414550781 397.295776367188 361.187561035156 378.61572265625 442.846832275391 580.072082519531 580.431823730469 562.61767578125 551.806640625 564.2041015625
-9999 -9999 -9999 -9999 -9999 -9999 -9999 -9999 -9999 -9999 -9999 -9999 -9999 -9999 -9999 -9999 -9999 -9999 -9999 -9999 -9999 -9999 -9999 -9999 -9999 -9999 -9999 -9999 -9999 -9999 -9999 -9999 -9999 -9999 -9999 -9999 -9999 -9999 -9999 -9999 305.958862304688 320.565734863281 315.192474365234 307.101684570312 294.467132568359 290.652008056641 335.017517089844 407.049896240234 412.540008544922 369.561767578125 314.000915527344 290.341918945312 270.218902587891 230.247161865234 197.144348144531 212.72038269043 312.446868896484 443.887878417969 457.600341796875 406.349456787109 354.971069335938 370.284088134766 412.625518798828 460.738739013672 558.436218261719 599.409790039062 593.950317382812 582.75634765625 551.289672851562 580.036804199219
-9999 -9999 -9999 -9999 -9999 -9999 -9999 -9999 -9999 -9999 -9999 -9999 -9999 -9999 -9999 -9999 -9999 -9999 -9999 -9999 -9999 -9999 -9999 -9999 -9999 -9999 -9999 -9999 -9999 -9999 -9999 -9999 -9999 -9999 317.831748962402 286.2275390625 243.487701416016 -9999 211.418869018555 241.207214355469 297.564361572266 326.937194824219 325.510192871094 314.361389160156 312.705596923828 366.430389404297 488.714324951172 572.372497558594 531.019714355469 445.396423339844 377.448638916016 339.141143798828 296.571411132812 257.592895507812 252.023284912109 303.099822998047 435.466735839844 537.31396484375 568.132568359375 531.440795898438 470.354583740234 440.606231689453 486.720428466797 504.196411132812 569.923156738281 595.8193359375 582.47705078125 550.817932128906 552.915405273438 554.421936035156
-9999 -9999 -9999 -9999 -9999 -9999 -9999 -9999 -9999 -9999 -9999 -9999 -9999 -9999 -9999 -9999 -9999 -9999 -9999 -9999 -9999 -9999 -9999 -9999 -9999 -9999 -9999 1018.25787353516 1018.25787353516 751.217956542969 568.511413574219 482.302886962891 420.400299072266 368.018218994141 322.002960205078 295.078277587891 267.777709960938 255.365341186523 256.647277832031 279.617523193359 333.867156982422 341.01171875 319.498352050781 308.305084228516 341.910858154297 456.975067138672 584.399658203125 613.453125 542.579711914062 474.145751953125 426.069519042969 399.892364501953 370.114685058594 359.920501708984 414.354125976562 490.225219726562 575.350036621094 599.142272949219 616.632568359375 613.324523925781 636.528930664062 566.874389648438 568.021301269531 564.974365234375 577.098876953125 549.642700195312 560.222351074219 547.167114257812 550.190002441406 557.804443359375
-9999 -9999 -9999 -9999 -9999 -9999 -9999 -9999 -9999 -9999 -9999 -9999 -9999 -9999 -9999 -9999 -9999 -9999 -9999 -9999 -9999 -9999 -9999 -9999 -9999 -9999 -9999 -9999 -9999 -9999 400.513000488281 386.907684326172 351.707366943359 312.929534912109 296.085174560547 305.333923339844 318.190338134766 334.098541259766 337.873413085938 341.045013427734 364.079254150391 356.796539306641 330.221008300781 328.485046386719 383.984191894531 483.269714355469 572.078918457031 583.578735351562 546.757202148438 509.878875732422 493.280731201172 488.103363037109 522.660095214844 556.12255859375 608.802856445312 626.437255859375 614.374633789062 592.358764648438 581.240417480469 602.113952636719 580.07373046875 636.354309082031 662.749145507812 643.337524414062 587.404541015625 541.556213378906 553.3916015625 560.585266113281 566.137084960938 563.105895996094
-9999 -9999 -9999 -9999 -9999 -9999 -9999 -9999 -9999 -9999 -9999 -9999 -9999 -9999 -9999 -9999 -9999 -9999 -9999 -9999 -9999 -9999 -9999 -9999 -9999 438.570963541667 326.233317057292 268.374938964844 259.49577331543 272.330383300781 305.991668701172 337.309844970703 340.945831298828 338.067565917969 354.819580078125 375.665405273438 392.796875 403.826782226562 400.377777099609 393.412170410156 385.687194824219 371.365295410156 360.44140625 371.933013916016 417.607086181641 443.405395507812 486.681518554688 478.657745361328 467.007354736328 427.698822021484 466.776245117188 528.008178710938 615.435119628906 621.681030273438 588.272644042969 553.402160644531 521.191528320312 502.344757080078 478.545471191406 517.705505371094 510.555633544922 539.290405273438 603.228332519531 648.485534667969 634.953430175781 595.02587890625 571.881408691406 572.50390625 576.983337402344 568.892578125
-9999 -9999 -9999 -9999 -9999 -9999 -9999 -9999 -9999 -9999 -9999 -9999 -9999 -9999 -9999 -9999 -9999 -9999 -9999 -9999 -9999 -9999 -9999 -9999 593.3203125 419.794799804688 302.597778320312 256.307373046875 246.219665527344 263.125671386719 306.593414306641 343.843322753906 375.477935791016 410.827026367188 441.261779785156 461.110900878906 474.338897705078 483.950988769531 479.479522705078 463.736572265625 454.198028564453 439.915802001953 432.396942138672 452.505767822266 446.182861328125 427.615600585938 453.954284667969 450.318054199219 467.080200195312 463.361633300781 517.946044921875 571.837280273438 580.431518554688 535.409912109375 498.807373046875 485.916687011719 484.005126953125 480.573822021484 479.720672607422 482.145233154297 496.499450683594 479.043548583984 489.635040283203 574.078491210938 636.120300292969 636.615173339844 609.148132324219 593.450439453125 584.369384765625 579.682006835938
-9999 -9999 -9999 -9999 -9999 -9999 -9999 -9999 -9999 -9999 -9999 -9999 -9999 -9999 -9999 -9999 -9999 -9999 -9999 -9999 -9999 -9999 -9999 -9999 497.366241455078 287.797210693359 185.331909179688 195.332763671875 240.097625732422 300.312286376953 354.471435546875 388.303527832031 426.047882080078 475.715789794922 517.922058105469 542.756530761719 555.712768554688 567.711364746094 576.378540039062 572.797912597656 572.433410644531 550.463623046875 534.389587402344 560.834533691406 553.692687988281 561.208923339844 538.133666992188 510.278289794922 538.317260742188 567.743530273438 557.751525878906 517.634826660156 502.702758789062 499.855560302734 498.896392822266 494.801116943359 488.221252441406 480.739898681641 478.927673339844 472.656433105469 477.002624511719 478.555877685547 451.491363525391 490.001312255859 568.603454589844 618.211120605469 621.440002441406 608.6103515625 596.988830566406 596.193786621094
-9999 -9999 -9999 -9999 -9999 -9999 -9999 -9999 -9999 -9999 -9999 -9999 -9999 -9999 -9999 -9999 -9999 -9999 -9999 -9999 -9999 -9999 -9999 438.567665100098 433.435791015625 253.972183227539 179.301071166992 213.829650878906 279.545471191406 340.410278320312 376.703643798828 392.982788085938 420.319152832031 473.544677734375 518.427185058594 543.268493652344 572.350158691406 598.7294921875 617.922973632812 627.278625488281 629.118225097656 615.600891113281 612.024353027344 623.989868164062 629.878845214844 613.530090332031 549.203430175781 505.430847167969 506.625213623047 503.2880859375 494.662017822266 493.158020019531 496.482147216797 497.529846191406 498.827972412109 497.555877685547 493.047241210938 487.399047851562 485.699981689453 481.114868164062 478.535034179688 469.864532470703 460.177032470703 461.436767578125 498.762634277344 551.060485839844 585.619750976562 603.944763183594 610.56591796875 615.890563964844
-9999 -9999 -9999 -9999 -9999 -9999 -9999 -9999 -9999 -9999 -9999 -9999 -9999 -9999 -9999 -9999 -9999 -9999 -9999 -9999 -9999 -9999 -9999 454.7841796875 368.684448242188 241.213836669922 207.176651000977 250.200866699219 308.879119873047 350.721099853516 385.2607421875 428.570678710938 465.0634765625 489.123260498047 484.519104003906 478.972198486328 520.332336425781 576.641479492188 608.303527832031 620.178833007812 617.587585449219 597.738098144531 590.816223144531 584.401245117188 562.35888671875 521.403686523438 487.556457519531 477.157257080078 478.474731445312 481.293334960938 489.214080810547 498.912384033203 508.272705078125 516.712280273438 523.263000488281 527.091613769531 526.755920410156 522.590393066406 517.685302734375 504.101715087891 493.531616210938 478.393310546875 463.709075927734 465.679718017578 478.981262207031 503.495178222656 534.859191894531 570.133728027344 591.741821289062 602.718994140625
-9999 -9999 -9999 -9999 -9999 -9999 -9999 -9999 -9999 -9999 -9999 -9999 -9999 -9999 -9999 -9999 -9999 -9999 -9999 -9999 -9999 -9999 483.977111816406 414.170501708984 321.393829345703 246.031707763672 244.736267089844 282.953308105469 327.8876953125 383.776794433594 466.065673828125 550.244262695312 590.732849121094 571.360107421875 505.684265136719 452.108825683594 464.463073730469 531.664489746094 583.31396484375 599.870300292969 593.029174804688 561.98046875 542.7333984375 524.790588378906 495.7197265625 474.106964111328 465.884033203125 465.777404785156 470.779418945312 483.777313232422 505.093566894531 528.010986328125 547.664978027344 562.679870605469 573.566040039062 578.222595214844 574.994140625 565.583923339844 553.369934082031 529.915405273438 511.145965576172 496.632995605469 483.048156738281 484.390045166016 496.920288085938 502.339447021484 513.621643066406 532.225952148438 545.434631347656 547.127075195312
-9999 -9999 -9999 -9999 -9999 -9999 -9999 -9999 -9999 -9999 -9999 -9999 -9999 -9999 1124.93522813585 -9999 -9999 -9999 -9999 1193.58154296875 -9999 503.015106201172 414.853790283203 332.064666748047 272.365966796875 248.607849121094 271.583892822266 318.284637451172 376.084381103516 444.647918701172 518.712463378906 573.635498046875 600.828430175781 605.426025390625 593.362609863281 552.984436035156 508.301300048828 516.796813964844 563.288452148438 593.870971679688 570.259155273438 528.369873046875 516.28076171875 497.482788085938 470.473968505859 461.980041503906 466.857055664062 480.998779296875 504.326812744141 532.914794921875 562.717163085938 587.682006835938 601.567626953125 603.506530761719 600.890625 595.851806640625 583.583801269531 569.570434570312 554.150573730469 537.077026367188 530.191040039062 523.869201660156 506.684997558594 503.79150390625 513.98095703125 513.774047851562 509.818237304688 503.797241210938 508.277893066406 505.837005615234
-9999 -9999 -9999 -9999 -9999 -9999 -9999 -9999 -9999 -9999 -9999 -9999 -9999 -9999 1119.03753662109 -9999 -9999 -9999 -9999 1028.78121948242 681.886822509766 463.298400878906 307.676177978516 262.245178222656 248.215682983398 257.237152099609 295.373626708984 365.932830810547 447.631896972656 511.15087890625 555.823791503906 591.460327148438 613.388122558594 631.027038574219 653.05517578125 656.642211914062 640.89453125 634.992248535156 654.959655761719 664.807067871094 606.665954589844 537.231811523438 518.294311523438 509.109039306641 496.323944091797 497.995239257812 515.59765625 547.035461425781 580.433776855469 601.609130859375 604.454040527344 605.844482421875 609.459350585938 602.211730957031 585.653015136719 568.249145507812 553.14501953125 548.376281738281 545.363525390625 543.857360839844 551.533081054688 539.937927246094 515.089050292969 506.183624267578 521.725402832031 537.453796386719 544.882202148438 545.924133300781 538.391479492188 524.544189453125
-9999 -9999 -9999 -9999 -9999 -9999 -9999 -9999 -9999 -9999 -9999 -9999 -9999 -9999 1145.5771484375 -9999 -9999 -9999 -9999 -9999 380.084030151367 385.558166503906 269.552337646484 273.193450927734 312.816467285156 388.539642333984 491.650909423828 574.71875 622.885375976562 645.499328613281 649.119201660156 648.651672363281 642.886657714844 637.176147460938 636.50537109375 644.098693847656 667.036560058594 698.974914550781 720.488403320312 721.242553710938 683.639404296875 625.178100585938 586.622253417969 562.033325195312 546.168823242188 549.793212890625 576.179382324219 604.874206542969 615.564086914062 617.560668945312 611.85498046875 607.8515625 593.259338378906 563.339904785156 553.481994628906 542.917785644531 509.85205078125 496.352325439453 515.442810058594 547.063903808594 563.030883789062 545.127075195312 531.375183105469 536.874084472656 566.777221679688 592.762817382812 594.268737792969 587.547912597656 575.910339355469 564.903930664062
-9999 -9999 -9999 -9999 -9999 -9999 -9999 -9999 -9999 -9999 -9999 -9999 -9999 -9999 1052.55697631836 -9999 1039.41870117188 -9999 -9999 -9999 337.415679931641 334.063873291016 294.588439941406 394.1396484375 544.939880371094 655.955139160156 718.234436035156 739.009948730469 724.292724609375 697.898010253906 667.463195800781 643.451721191406 626.002197265625 616.395751953125 610.460205078125 604.684509277344 611.15966796875 637.972717285156 670.022277832031 692.692199707031 696.861267089844 675.920654296875 641.999450683594 611.031677246094 585.137878417969 581.113159179688 593.818298339844 604.346130371094 611.025695800781 612.498840332031 597.191040039062 587.091979980469 588.030700683594 575.869445800781 578.019470214844 580.171020507812 554.0556640625 531.350158691406 536.906127929688 553.674438476562 554.3125 545.374328613281 556.281188964844 580.663818359375 616.414855957031 629.870300292969 608.565002441406 592.888977050781 586.379150390625 587.968444824219
-9999 -9999 -9999 -9999 -9999 -9999 -9999 -9999 -9999 -9999 -9999 -9999 -9999 -9999 1052.55697631836 959.536804199219 755.997680664062 -9999 -9999 352.36833190918 352.461853027344 354.388214111328 389.201171875 536.639953613281 690.481323242188 750.579162597656 739.369262695312 710.630798339844 676.418518066406 640.002197265625 610.934204101562 592.146606445312 583.161499023438 578.760070800781 574.084411621094 569.317993164062 569.134155273438 578.49365234375 593.715515136719 612.790344238281 641.849304199219 661.664489746094 651.543518066406 631.747131347656 606.471923828125 585.071838378906 581.543334960938 601.498168945312 597.11328125 575.620727539062 585.720458984375 597.645874023438 606.683898925781 608.902648925781 607.813720703125 609.265930175781 598.187072753906 575.588012695312 558.745727539062 549.63818359375 547.259643554688 555.501403808594 570.978881835938 602.637878417969 646.651062011719 657.665466308594 630.481323242188 619.628051757812 611.9775390625 608.059387207031
-9999 -9999 -9999 -9999 -9999 -9999 -9999 -9999 -9999 -9999 -9999 -9999 -9999 -9999 -9999 665.43671875 592.021179199219 -9999 418.199882507324 350.700347900391 368.895446777344 402.733062744141 504.80078125 632.281677246094 683.99609375 703.950317382812 689.372131347656 638.085571289062 594.854553222656 565.917724609375 554.132507324219 550.127319335938 553.401184082031 557.53271484375 557.626342773438 556.035827636719 550.181579589844 544.919128417969 545.067749023438 549.080627441406 575.196228027344 621.316833496094 643.968933105469 632.30126953125 607.930053710938 589.87158203125 593.642211914062 619.08740234375 606.48193359375 586.555603027344 621.372192382812 643.052917480469 634.589782714844 624.546264648438 622.0009765625 618.05126953125 600.774841308594 574.05322265625 553.688598632812 544.828979492188 550.831726074219 565.426391601562 583.843139648438 614.194763183594 661.629943847656 679.766540527344 660.104675292969 642.484497070312 631.677673339844 616.579467773438
-9999 -9999 -9999 -9999 -9999 -9999 -9999 -9999 -9999 -9999 -9999 -9999 -9999 -9999 -9999 518.752136230469 500.875793457031 -9999 353.273803710938 348.430480957031 382.825317382812 504.624969482422 658.615051269531 703.00439453125 684.996398925781 664.292297363281 633.471862792969 580.534851074219 559.200500488281 553.469787597656 544.587768554688 533.540832519531 523.951171875 519.533813476562 513.185241699219 518.456665039062 536.441589355469 545.005981445312 543.0439453125 534.044616699219 532.894714355469 571.682983398438 625.67529296875 632.838500976562 607.413879394531 593.302490234375 604.897766113281 637.702880859375 638.927124023438 624.024108886719 635.798278808594 654.356750488281 644.302185058594 636.658874511719 633.265808105469 617.802673339844 596.021911621094 571.526733398438 558.498046875 560.59033203125 571.137390136719 588.2548828125 608.645324707031 625.701782226562 661.293395996094 674.935913085938 662.859558105469 641.522644042969 619.619323730469 587.979309082031
-9999 -9999 -9999 -9999 -9999 -9999 -9999 -9999 -9999 -9999 -9999 -9999 -9999 -9999 -9999 469.1484375 -9999 391.785003662109 368.831970214844 341.949493408203 424.693237304688 594.376770019531 683.500122070312 663.343627929688 654.850280761719 624.603576660156 597.184265136719 581.717041015625 580.938903808594 552.186584472656 498.230987548828 460.615936279297 449.620330810547 451.035217285156 450.208343505859 462.575042724609 501.001037597656 540.226135253906 557.042541503906 550.859313964844 533.138488769531 536.998474121094 596.86279296875 640.238464355469 620.720153808594 601.775329589844 613.160888671875 646.676696777344 655.976318359375 642.15771484375 614.606384277344 634.097290039062 648.557250976562 650.423706054688 641.786560058594 621.623779296875 603.373291015625 583.127319335938 576.015441894531 583.609619140625 597.215515136719 617.631896972656 637.270935058594 640.909973144531 654.618713378906 661.833740234375 654.857971191406 641.232788085938 610.546447753906 570.750244140625
-9999 -9999 -9999 -9999 -9999 -9999 -9999 -9999 -9999 -9999 -9999 -9999 -9999 -9999 469.1484375 416.200012207031 367.211090087891 377.64990234375 362.411956787109 351.5537109375 472.931457519531 646.55322265625 654.037841796875 631.115234375 614.907592773438 600.287780761719 610.020385742188 645.997497558594 654.771301269531 590.42626953125 498.045654296875 439.819549560547 427.552429199219 429.662109375 433.697326660156 443.180114746094 469.2685546875 511.090576171875 542.598754882812 553.506713867188 548.011291503906 543.622131347656 583.488403320312 638.074890136719 621.169372558594 602.985168457031 597.026733398438 624.61376953125 645.782348632812 649.849731445312 628.986022949219 639.328308105469 670.703796386719 683.015319824219 665.954711914062 641.9638671875 624.355712890625 604.455383300781 606.605895996094 619.226379394531 632.693786621094 653.011047363281 658.444519042969 648.139343261719 644.829956054688 645.434265136719 639.058654785156 640.7900390625 619.924621582031 579.38134765625
-9999 -9999 -9999 -9999 -9999 -9999 -9999 -9999 -9999 -9999 -9999 -9999 -9999 -9999 -9999 -9999 359.79859161377 372.677764892578 337.517364501953 348.497131347656 477.520935058594 642.325622558594 620.8232421875 614.595275878906 590.707580566406 583.127563476562 617.681884765625 683.693237304688 719.874877929688 672.218627929688 578.139404296875 501.896331787109 470.417694091797 458.044281005859 456.413024902344 460.652099609375 468.77294921875 487.140350341797 506.542327880859 522.365966796875 544.248596191406 567.33349609375 588.362060546875 631.482482910156 618.826293945312 595.580322265625 597.375793457031 619.6376953125 625.033203125 615.324340820312 613.053466796875 627.828674316406 663.861877441406 696.579895019531 696.659240722656 681.528747558594 663.165771484375 649.767272949219 655.391723632812 667.959716796875 684.97705078125 679.633666992188 648.056945800781 626.088256835938 617.849304199219 616.724304199219 614.124145507812 628.099487304688 632.177368164062 593.234802246094
-9999 -9999 -9999 -9999 -9999 -9999 -9999 -9999 -9999 -9999 -9999 -9999 -9999 -9999 -9999 -9999 347.166687011719 321.655609130859 320.580108642578 356.443176269531 488.407684326172 635.587707519531 604.754943847656 591.257690429688 572.498962402344 577.810302734375 610.496337890625 668.109069824219 713.734497070312 701.819702148438 662.587585449219 619.503784179688 566.981567382812 509.334075927734 476.559661865234 479.979583740234 490.996551513672 495.504699707031 495.452758789062 505.573760986328 541.68994140625 588.708923339844 607.731567382812 619.493591308594 602.341857910156 574.147644042969 587.873718261719 624.5146484375 637.327209472656 610.422058105469 582.636474609375 575.153930664062 594.108032226562 640.35693359375 685.57861328125 708.747680664062 715.252380371094 716.293762207031 722.210998535156 721.422058105469 696.620300292969 644.052673339844 596.36083984375 576.488037109375 571.479614257812 578.749877929688 589.123901367188 608.771301269531 634.279968261719 609.508056640625
-9999 -9999 -9999 -9999 -9999 -9999 -9999 -9999 -9999 -9999 -9999 -9999 -9999 -9999 -9999 -9999 -9999 319.934814453125 320.867706298828 404.357238769531 548.970031738281 646.578308105469 608.633911132812 595.496337890625 562.589172363281 572.972106933594 582.656433105469 606.096923828125 646.769470214844 668.452880859375 675.760070800781 678.55810546875 650.510559082031 583.573425292969 510.618743896484 481.897491455078 507.930816650391 526.505065917969 512.916137695312 514.917663574219 548.73828125 592.604675292969 619.995727539062 610.771240234375 582.94873046875 570.645202636719 597.68896484375 640.511901855469 659.662658691406 623.716918945312 587.179504394531 558.94580078125 551.174682617188 577.728576660156 630.299987792969 674.478942871094 697.221130371094 710.79833984375 714.3310546875 692.183227539062 634.7158203125 573.893005371094 537.919555664062 515.733825683594 507.714050292969 519.046508789062 549.107971191406 582.905578613281 622.997253417969 628.401184082031
-9999 -9999 -9999 -9999 -9999 -9999 -9999 -9999 -9999 -9999 -9999 -9999 -9999 -9999 328.033378601074 321.655609130859 319.244506835938 318.751770019531 316.635833740234 435.619110107422 621.477905273438 629.529174804688 592.402282714844 586.75634765625 544.806091308594 554.433654785156 561.12646484375 562.719116210938 573.693664550781 604.097473144531 637.111877441406 662.632446289062 670.497314453125 651.951904296875 615.760620117188 562.599060058594 543.540954589844 562.534729003906 560.574523925781 555.649353027344 574.993713378906 606.25830078125 630.957153320312 623.882080078125 597.812805175781 604.163940429688 641.948974609375 671.073608398438 667.114074707031 627.576049804688 584.248596191406 553.573486328125 538.309631347656 536.462158203125 569.211486816406 609.375427246094 640.603942871094 659.94775390625 655.692565917969 618.925109863281 566.60205078125 526.124389648438 488.866485595703 449.489318847656 454.975372314453 470.054351806641 496.955535888672 539.446594238281 589.551818847656 633.803955078125
-9999 -9999 -9999 -9999 -9999 -9999 -9999 -9999 -9999 -9999 -9999 -9999 -9999 -9999 -9999 -9999 -9999 -9999 415.693733215332 444.165222167969 626.8203125 581.973205566406 548.268249511719 545.454223632812 527.502197265625 527.654968261719 536.994567871094 545.103454589844 546.255981445312 549.418273925781 566.656555175781 592.178344726562 617.0625 637.979125976562 653.945190429688 652.264526367188 619.148620605469 600.565795898438 601.516235351562 600.95361328125 614.565490722656 637.2802734375 663.052917480469 660.331359863281 650.906677246094 659.52294921875 674.279235839844 679.070190429688 655.482116699219 613.525024414062 567.206848144531 543.402404785156 528.922668457031 500.660766601562 519.897827148438 552.606201171875 590.098449707031 608.454284667969 597.002319335938 567.106201171875 530.385803222656 489.766693115234 439.199554443359 434.887878417969 469.672729492188 490.840911865234 491.353454589844 501.846069335938 543.367004394531 601.865417480469
-9999 -9999 -9999 -9999 -9999 -9999 -9999 -9999 -9999 -9999 -9999 -9999 -9999 -9999 -9999 -9999 -9999 328.195159912109 443.063812255859 466.354766845703 639.885925292969 576.694519042969 514.383239746094 493.518249511719 488.786651611328 487.403991699219 495.385559082031 503.040466308594 515.088012695312 525.797546386719 526.099914550781 529.979614257812 543.948303222656 564.918762207031 591.967468261719 630.973449707031 654.706176757812 655.1767578125 628.947387695312 580.583251953125 597.097961425781 632.718017578125 667.432556152344 684.605346679688 694.199157714844 705.672790527344 700.886779785156 674.755187988281 626.464111328125 582.342712402344 548.95751953125 535.580322265625 520.201049804688 481.562835693359 481.267700195312 520.396789550781 554.832458496094 567.005554199219 552.390747070312 526.504699707031 491.052795410156 450.823120117188 420.514556884766 464.141693115234 502.621734619141 512.884643554688 509.514099121094 497.268737792969 507.122711181641 544.258544921875
-9999 -9999 -9999 -9999 -9999 -9999 -9999 -9999 -9999 -9999 -9999 -9999 -9999 272.253356933594 276.083628336589 -9999 297.640472412109 345.495933532715 328.195159912109 533.540100097656 595.109924316406 574.930297851562 527.562866210938 495.783721923828 483.115875244141 477.615783691406 474.478424072266 472.699493408203 481.351806640625 493.732452392578 503.298858642578 504.664886474609 493.294738769531 499.170959472656 517.962707519531 539.765075683594 587.965270996094 645.989440917969 675.888000488281 665.664001464844 621.266052246094 626.492126464844 666.760498046875 681.756896972656 682.014465332031 675.421997070312 659.663391113281 619.010864257812 584.218017578125 562.155334472656 552.441101074219 541.616271972656 509.567016601562 460.068969726562 441.785339355469 461.195831298828 481.573455810547 487.613586425781 475.187805175781 459.001647949219 441.860321044922 422.656219482422 439.693145751953 487.21435546875 497.043426513672 488.417205810547 488.865875244141 491.225891113281 492.291107177734 501.093780517578
-9999 -9999 -9999 -9999 -9999 -9999 -9999 -9999 -9999 -9999 -9999 -9999 -9999 -9999 272.253356933594 298.600158691406 257.397369384766 337.883575439453 458.507629394531 540.09814453125 550.610229492188 530.244201660156 507.920837402344 490.486724853516 476.685150146484 463.703125 452.441162109375 443.594207763672 441.929229736328 458.285339355469 484.034057617188 496.777008056641 492.155120849609 486.656768798828 498.004364013672 506.083068847656 507.729278564453 533.362121582031 591.67626953125 659.244445800781 690.858215332031 676.806274414062 668.149230957031 670.520629882812 659.459655761719 630.206726074219 599.689758300781 575.306579589844 568.644592285156 564.75390625 562.482299804688 542.787292480469 488.804351806641 450.846435546875 410.990814208984 392.788940429688 405.806335449219 415.253753662109 425.351470947266 436.073638916016 433.040588378906 446.922637939453 478.697357177734 478.895294189453 456.328735351562 437.605377197266 432.920104980469 442.884063720703 458.68505859375 471.068969726562
-9999 -9999 -9999 -9999 -9999 -9999 -9999 -9999 -9999 -9999 -9999 -9999 -9999 -9999 286.238174438477 272.253356933594 366.149749755859 470.075927734375 516.943542480469 547.698425292969 542.685546875 516.169738769531 489.961212158203 468.065277099609 444.087829589844 423.287994384766 407.106323242188 395.617828369141 393.308990478516 404.008239746094 430.63330078125 460.251403808594 474.157409667969 475.33251953125 479.487457275391 490.710876464844 493.124603271484 486.456665039062 484.879516601562 515.786743164062 601.032043457031 679.57373046875 695.085693359375 672.348999023438 636.089965820312 608.991027832031 584.067687988281 571.189880371094 566.190734863281 547.1357421875 542.057067871094 501.945648193359 448.692749023438 441.650207519531 393.828460693359 380.614440917969 401.505859375 402.625854492188 432.331481933594 458.515625 464.635711669922 481.131103515625 474.154846191406 442.305603027344 409.018615722656 387.323822021484 383.083557128906 394.862121582031 415.898529052734 430.996826171875
-9999 -9999 -9999 -9999 -9999 -9999 -9999 -9999 -9999 -9999 -9999 237.906036376953 251.031311035156 256.455657958984 259.637023925781 356.606658935547 522.381530761719 544.6435546875 558.536682128906 545.452514648438 510.609649658203 466.091003417969 430.922027587891 402.769927978516 381.318298339844 374.119445800781 367.804809570312 359.83642578125 357.598846435547 361.386444091797 376.269226074219 399.592498779297 419.179168701172 435.010925292969 442.874877929688 447.529968261719 451.470794677734 447.604278564453 431.7890625 415.070678710938 487.133514404297 597.117736816406 666.2890625 673.63427734375 634.966491699219 594.258117675781 559.321716308594 531.326599121094 508.588653564453 491.093811035156 481.000152587891 436.304840087891 412.980072021484 433.132202148438 392.974609375 393.979888916016 415.996368408203 404.052093505859 444.434539794922 480.536499023438 478.226226806641 464.814758300781 439.845306396484 403.963562011719 372.599304199219 360.740814208984 376.131378173828 393.79345703125 400.607177734375 401.434326171875
-9999 -9999 -9999 -9999 -9999 -9999 -9999 -9999 -9999 376.168395996094 261.090240478516 233.352661132812 280.281188964844 289.896667480469 332.385040283203 477.467681884766 540.413024902344 567.226867675781 541.651000976562 488.498291015625 424.001373291016 391.694274902344 377.840789794922 386.349731445312 404.298309326172 414.137908935547 421.041412353516 424.015930175781 418.074279785156 400.715362548828 386.061187744141 379.986602783203 379.341583251953 387.609466552734 394.261383056641 392.517028808594 380.790100097656 378.918579101562 375.817993164062 398.126037597656 529.8828125 631.100280761719 623.10791015625 608.852844238281 592.006958007812 547.902526855469 495.179992675781 440.902770996094 418.398284912109 408.780090332031 397.038818359375 380.464172363281 385.666870117188 416.246490478516 399.652679443359 403.349853515625 426.890869140625 416.856079101562 444.10205078125 473.88427734375 465.583282470703 434.154968261719 403.606719970703 369.388671875 341.119476318359 352.728759765625 386.194671630859 412.771636962891 422.4072265625 417.206726074219
-9999 -9999 -9999 -9999 -9999 -9999 -9999 -9999 -9999 370.980773925781 261.984924316406 273.124084472656 320.802062988281 347.054229736328 389.705780029297 480.012634277344 533.220153808594 528.027465820312 466.831451416016 400.369689941406 371.327087402344 380.925628662109 408.085754394531 436.904418945312 452.660308837891 463.229400634766 460.149749755859 458.389434814453 453.582611083984 438.725219726562 419.442443847656 403.390777587891 382.777374267578 357.018859863281 345.442810058594 343.028900146484 333.972930908203 342.013092041016 361.76220703125 439.050659179688 568.643127441406 636.830017089844 589.805114746094 558.683715820312 544.640380859375 492.093627929688 427.402618408203 386.649322509766 368.965850830078 361.217712402344 347.411407470703 363.389434814453 397.125305175781 409.246978759766 403.286468505859 409.549865722656 434.173767089844 435.462158203125 427.966247558594 449.067932128906 441.727386474609 401.759552001953 364.430023193359 335.925109863281 325.085540771484 353.334167480469 398.716735839844 431.700744628906 440.969024658203 438.830230712891
-9999 -9999 -9999 -9999 -9999 283.805240631104 357.968017578125 329.525665283203 327.679809570312 275.041687011719 273.192932128906 333.081237792969 385.358001708984 480.162048339844 510.468383789062 523.541320800781 511.764617919922 456.517456054688 389.100738525391 362.504730224609 367.519989013672 410.854614257812 425.596160888672 438.284149169922 440.813018798828 430.490447998047 427.775085449219 434.335174560547 439.950408935547 431.200958251953 417.882751464844 413.161682128906 403.796142578125 385.042297363281 363.159637451172 353.210784912109 352.545623779297 364.704284667969 392.260925292969 499.682495117188 629.953979492188 673.916015625 573.287902832031 520.924987792969 473.08203125 402.456024169922 372.648162841797 358.180847167969 352.959869384766 348.072662353516 332.178009033203 340.23974609375 380.048370361328 397.490142822266 398.154968261719 399.993743896484 405.898223876953 427.087921142578 404.997253417969 411.276916503906 404.3828125 361.249603271484 328.039215087891 314.135894775391 312.015686035156 347.125610351562 397.830261230469 436.585357666016 444.792846679688 442.828857421875
-9999 -9999 -9999 -9999 267.790985107422 257.949798583984 251.512161254883 259.590301513672 282.3740234375 279.334594726562 285.489898681641 372.638702392578 448.157379150391 474.427642822266 512.45458984375 502.795013427734 441.014282226562 365.980010986328 348.26904296875 364.124542236328 389.420166015625 427.796600341797 452.853179931641 446.575622558594 432.024810791016 420.808288574219 423.722747802734 431.851348876953 431.360260009766 426.296020507812 422.242156982422 412.910949707031 408.878479003906 414.495086669922 415.717071533203 408.980041503906 394.753479003906 397.580230712891 449.649353027344 567.221008300781 649.416564941406 565.580871582031 481.202301025391 430.471160888672 357.781646728516 312.886413574219 309.815826416016 308.690551757812 327.181793212891 337.727416992188 326.733001708984 327.493621826172 342.429870605469 340.358032226562 338.354187011719 330.452117919922 341.038482666016 388.252105712891 381.870666503906 382.711456298828 381.471710205078 339.835235595703 312.275238037109 304.289123535156 300.866973876953 328.375518798828 376.751403808594 417.614013671875 435.555450439453 438.368194580078
-9999 -9999 -9999 242.076568603516 244.169860839844 229.030746459961 289.247344970703 299.672546386719 308.345886230469 316.803131103516 356.674011230469 411.842620849609 438.380401611328 481.930328369141 488.798156738281 446.671081542969 357.185760498047 320.45068359375 343.805603027344 362.822479248047 394.592895507812 451.561340332031 476.373809814453 455.801391601562 441.363159179688 426.726837158203 435.071441650391 454.509338378906 458.762725830078 454.354766845703 445.893798828125 435.614593505859 433.424072265625 431.781951904297 413.887878417969 395.203918457031 422.577941894531 473.370300292969 538.462158203125 594.512878417969 557.984985351562 459.798583984375 373.575866699219 309.099822998047 263.562652587891 248.141738891602 255.006164550781 270.390747070312 294.465545654297 313.943603515625 316.584289550781 309.025817871094 301.879180908203 288.363952636719 271.322204589844 271.847137451172 304.793212890625 360.165100097656 363.696014404297 356.250427246094 357.102996826172 323.32763671875 295.898101806641 291.402130126953 286.091339111328 293.383026123047 330.678466796875 374.648834228516 402.354461669922 417.979553222656
-9999 -9999 -9999 237.712036132812 218.633392333984 274.079193115234 338.517211914062 404.225036621094 422.3818359375 486.128509521484 403.600402832031 407.565155029297 446.684387207031 481.307983398438 470.106018066406 382.435241699219 307.839904785156 308.782409667969 329.833160400391 345.803680419922 399.651702880859 462.247039794922 477.077301025391 471.975128173828 460.361846923828 449.976043701172 446.006042480469 441.088043212891 436.897216796875 437.886413574219 438.797119140625 431.536865234375 423.652984619141 427.753997802734 455.213287353516 499.487182617188 546.820434570312 570.099182128906 556.279174804688 510.750457763672 414.6796875 330.71533203125 267.088134765625 215.638198852539 190.191528320312 191.77571105957 206.532806396484 224.599029541016 245.992935180664 268.064514160156 280.876495361328 280.998107910156 273.806182861328 261.488739013672 260.616882324219 278.130798339844 305.273620605469 330.348449707031 328.461700439453 321.149810791016 325.214752197266 298.488128662109 268.359130859375 267.132720947266 261.988372802734 251.30158996582 270.538452148438 312.680847167969 336.325225830078 352.013061523438
