NCOLS 35 
NROWS 26 
XLLCORNER -80 
YLLCORNER 33 
CELLSIZE 0.5 
NODATA_value -9999 
-9999.000000000000000 -9999 -9999 -9999 -9999 -9999 -9999 -9999 -9999 -9999 -9999 -9999 -9999 -9999 -9999 -9999 -9999 -9999 -9999 -9999 -9999 -9999 -9999 -9999 -9999 -9999 -9999 -9999 -9999 -9999 -9999 -9999 -9999 -9999 -9999
-9999 -9999 -9999 -9999 -9999 -9999 -9999 -9999 -9999 -9999 -9999 -9999 -9999 -9999 -9999 -9999 -9999 -9999 -9999 -9999 -9999 -9999 -9999 -9999 -9999 -9999 -9999 -9999 -9999 168.253090449494 -9999 -9999 -9999 -9999 -9999
-9999 -9999 -9999 -9999 -9999 -9999 -9999 -9999 -9999 -9999 -9999 -9999 -9999 -9999 -9999 -9999 -9999 -9999 -9999 -9999 -9999 -9999 -9999 -9999 -9999 -9999 140.273557653607 137.05055255887 69.5550831803902 57.7013489061824 -9999 -9999 -9999 -9999 -9999
-9999 -9999 -9999 -9999 -9999 -9999 -9999 -9999 -9999 -9999 -9999 -9999 -9999 -9999 -9999 -9999 -9999 -9999 -9999 -9999 -9999 -9999 -9999 112.968237373757 138.641652404553 103.892159389576 64.1578896617624 17.2108927671546 -9999 -9999 -9999 72.2047563354556 78.9290176794665 66.2534343581029 54.3263885800466
-9999 -9999 -9999 -9999 -9999 -9999 -9999 -9999 -9999 -9999 -9999 -9999 -9999 -9999 -9999 -9999 -9999 -9999 -9999 -9999 98.5690400783834 111.132189844419 124.30908423721 78.3507154918998 53.739184385601 41.7653413672219 41.4937651755903 36.2483837885354 -9999 -9999 54.5993063587424 58.0830510893908 48.0786501862511 42.5219025182566 38.3688580996806
-9999 -9999 -9999 -9999 -9999 -9999 -9999 -9999 -9999 -9999 -9999 -9999 -9999 -9999 -9999 -9999 -9999 -9999 -9999 95.0233896359183 105.724122343093 79.3148951267444 54.0113176450827 44.9167873334441 42.4557547893505 42.9702534482851 42.5309640349279 49.2204856696323 49.7076776495507 56.8533251242866 49.7587101394387 45.8586449593127 42.995035616684 35.5235844298133 30.3438999576781
-9999 -9999 -9999 -9999 -9999 -9999 -9999 -9999 -9999 -9999 -9999 -9999 -9999 -9999 -9999 -9999 -9999 -9999 -9999 115.694778830797 68.5244552387428 57.2196504216038 51.5125183114266 51.5929569714322 50.8782084192004 48.1532967828184 45.5554086723926 44.4405740603938 45.6072615908326 45.4844112574921 45.5611848519932 47.4263100790275 46.4393738937254 42.5013536275007 32.2918610175836
-9999 -9999 -9999 -9999 -9999 -9999 -9999 -9999 -9999 -9999 -9999 -9999 -9999 -9999 -9999 -9999 -9999 -9999 -9999 91.5095820425804 69.5096034569307 55.1206853996818 51.6804440641802 53.5925655953746 61.7657914073639 65.5959306854324 68.8172382701334 53.4344141721752 55.4291004835781 76.0617662937151 66.5608529869869 69.8346747420128 93.9930690755382 73.162034714085 41.8320855513365
-9999 -9999 -9999 -9999 -9999 -9999 -9999 -9999 -9999 -9999 -9999 -9999 -9999 -9999 -9999 -9999 -9999 -9999 -9999 23.6081942380132 108.883260646989 67.1540099570928 60.6548343419541 81.1000295708298 116.163842116611 95.7900126833798 75.4547778043118 67.4765786118293 115.901501829667 223.48140170628 224.136120984145 168.031070601973 123.440842567096 136.994314189286 68.8770442825849
-9999 -9999 -9999 -9999 -9999 -9999 -9999 -9999 -9999 -9999 -9999 -9999 -9999 -9999 -9999 -9999 -9999 146.116669453109 146.578000561746 120.067733596445 93.7142041824677 71.3579629080913 75.4089107942348 84.3779793253964 94.485655754346 99.5275391272137 102.297302091826 127.611606009747 196.710961864023 235.937428391917 235.038620117539 205.522335259146 168.295969491193 133.904027517247 75.2705956882424
-9999 -9999 -9999 -9999 -9999 -9999 -9999 -9999 -9999 -9999 -9999 -9999 -9999 -9999 106.142813076817 116.4887507326 95.4162600432122 95.0957200527192 103.661800506252 110.604739801569 110.960217339128 79.8339371130361 73.1340897191357 73.2066653196954 96.2245182915376 123.294782867086 156.682378304001 221.875667733337 254.950687909033 256.494710004873 250.247208657982 257.522899230844 199.677974012809 114.521600613937 94.5194267848141
-9999 -9999 -9999 -9999 -9999 -9999 -9999 -9999 -9999 -9999 -9999 -9999 289.025005974609 120.724158499266 76.8341363663196 71.6078601693058 72.2560660981542 67.1899009140637 67.4336555433345 75.8847775375244 78.1468934266612 83.3741561056658 93.7842409384489 113.236614080912 158.059856114394 193.368530662593 216.017693630789 247.960877562918 248.140278636717 220.037190001812 207.859600633487 213.750625131908 228.573439087625 217.314361890154 182.222032320545
-9999 -9999 -9999 -9999 -9999 -9999 -9999 -9999 -9999 -9999 -9999 -9999 161.69239285752 88.7791383761629 81.1634753708001 117.995409592593 198.302039281311 221.555152817852 212.678074752727 164.987907134953 144.909125439702 128.122846456699 143.151316124006 158.382719484651 176.009829570126 171.868883230748 208.210317284539 252.672388890753 238.730765332804 204.80957471631 192.511107199921 180.969795077888 184.734145674908 197.02350534995 206.638923392769
-9999 -9999 -9999 -9999 -9999 -9999 -9999 -9999 -9999 8.45377361172155 6.69238692063784 211.602412923353 113.959718155337 98.3657921871643 182.335745571214 253.207045735551 254.404664393443 248.60748718458 247.271407365463 261.503140725469 273.862418004648 279.717421282934 285.860382591374 242.879063845413 166.14460760187 157.15151250387 188.034795311183 250.112217963036 250.374601098466 210.494644994768 201.912060745137 179.889247943539 167.126317138748 168.190001034598 169.573870520932
-9999 -9999 -9999 -9999 -9999 -9999 -9999 -9999 -9999 -9999 218.784776511559 152.182254946363 132.355915021437 198.944397693891 267.511966942142 266.10733413716 265.890245943224 269.07975738146 273.820025800987 278.93036531218 269.561889350629 259.782987793146 258.96963988759 275.974689519742 282.76759942372 210.833574623886 172.723192627123 229.96169695344 250.884596315375 222.898129389121 195.890315207543 196.663497855435 190.896482616196 181.641874552806 175.748222732989
-9999 -9999 -9999 -9999 -9999 -9999 -9999 450.603577854879 171.940631216704 -9999 218.324740402515 212.860250986997 301.617854704405 320.116342964838 300.509837087317 296.207478016353 282.13028843774 279.331188510411 266.808882843137 242.076824813408 210.992268494937 184.410509027731 181.760966563658 210.760357393 262.465876653857 280.130011759255 239.843813249292 239.851471281649 249.399421466187 226.443692435666 169.015342966128 121.497977814796 118.059813252967 126.188036733225 140.802811134646
-9999 -9999 -9999 -9999 -9999 -9999 -9999 33.4969982734073 89.1974450142859 169.610188879811 253.529363074669 344.515767142984 370.918301127775 316.337574582588 306.674529750026 304.284508452826 295.624624441207 271.979943376651 247.339677254425 210.333230039108 176.5664018914 160.861281848 155.700966062056 156.75739644758 202.882316801816 265.173427183753 268.617865025322 260.234289417678 247.535627347493 221.141450314875 187.651990985429 121.837199233484 106.931931703619 118.903949635979 124.569318199007
-9999 -9999 -9999 -9999 -9999 -9999 -9999 192.628078984694 -9999 231.933905581589 350.033095424921 421.360303199526 373.599365790564 342.908356464689 332.657058517954 319.989588283998 296.086246457156 280.743107239234 262.874334095374 242.077688285341 204.201086915957 164.61243780606 150.51864764107 145.728624233589 170.458531816544 242.078581635951 263.65629544571 246.963704331683 211.387266399143 203.99652679677 198.527890739022 152.557472010376 115.20278045198 127.383367795639 136.827640432041
-9999 -9999 -9999 -9999 -9999 -9999 -9999 -9999 194.517024966646 237.925147866679 383.113969384441 398.22048264963 374.749450691187 356.849977677424 339.00313444388 333.454360762012 324.000989275255 302.563075818724 282.713150537356 272.332648132798 253.364889884421 194.693489460831 170.968109215831 162.955701001456 203.5197172084 246.968506922097 228.177805031183 202.634822101626 201.032808841158 204.454562318736 193.617857031547 175.578204310783 152.06562387182 149.440976983203 142.428493053764
-9999 -9999 -9999 -9999 -9999 -9999 -9999 -9999 -9999 316.437332098825 402.884110932042 411.337471793494 374.101755870161 350.038126300793 340.570586220283 332.398469652883 328.096714123482 313.22263960847 287.005076552282 262.524380718254 272.797633822896 214.369847800523 197.890417622775 212.571645035386 236.313693282673 230.087545066775 179.503867961436 189.708021047678 200.662731417388 194.060006488514 190.611976881706 175.988070071164 160.555085167654 145.788432258798 129.41829077434
-9999 -9999 -9999 -9999 -9999 -9999 -9999 -9999 -9999 257.690793504824 410.665892708966 388.976708342275 355.095161996801 317.238327489291 274.397426987256 238.799214625722 216.942411823593 236.541000800969 255.059699392722 248.040639539727 266.074158179733 192.270317612524 170.467096183118 204.404296064417 233.659153359728 228.24257806844 187.016786237628 200.54742284961 210.294807915029 182.384590842928 181.793383705274 157.923150833972 124.903551295667 96.2262792257632 82.2731424864714
-9999 -9999 -9999 -9999 -9999 -9999 -9999 0 105.213650935036 372.393484393317 382.074016220686 319.673971881733 225.077171626819 155.083149375235 106.919654345783 72.5713484311519 58.7934072762196 100.205181747019 204.436000780249 242.495514667824 261.684699439464 154.397199440493 124.068304291201 157.175683904923 192.350553098042 226.150912995574 229.912177816694 224.228999840007 207.702514250028 164.72806919825 96.2460134419727 78.7875562238363 64.7310513367046 71.5184082634198 79.7732536835151
-9999 -9999 -9999 -9999 -9999 -9999 108.816695897661 233.680634068923 385.225122987451 328.858315899711 230.765680968552 116.330826602136 62.2429748578806 47.7709581301107 48.0476670237804 56.8994742617278 60.9786583037187 92.6885724248502 233.178036696188 248.503725419219 220.852986939449 109.520228309066 101.879641684487 129.13602779483 143.171476717182 157.522164818917 180.217760742338 187.787220318721 181.501412712388 139.909989651677 55.183645953471 51.7062957001568 63.3072728023551 87.8881252767278 113.68005770184
-9999 -9999 -9999 -9999 220.640211065514 288.439280031015 289.525276593848 337.060777059773 299.932771149204 198.035062297511 71.7224813039468 41.5008334413076 43.9553159009517 47.976192469351 50.8527205263624 67.0213682283008 93.8023572709289 172.199421926146 268.72067041671 257.832277361243 192.24291014277 78.6654367974487 70.297951522402 87.3604678106985 119.150048014296 133.501019906581 138.500409212676 151.052813813216 153.680655121822 105.233202379635 38.5985023048339 35.563464592548 35.0332803495431 54.9226878108512 86.9581232361989
-9999 -9999 -9999 308.435585286067 295.0830467811 295.131495072816 309.091207106972 286.472726003732 200.027368429903 78.4795842215015 39.0729337134102 41.3753701019484 48.2009731146144 47.1970310600228 56.9544797828289 91.3659350032887 138.90418916854 199.095145101091 247.637345987019 229.786094858768 134.89783164277 54.4994701319735 42.8706920989532 62.3759825738048 102.471081467336 121.091853482238 120.000997138856 121.796263677553 121.208217828405 79.0993293713125 44.9126712786227 39.2727226709917 32.9854991075325 28.9885863993241 38.0282532509536
-9999 -9999 275.823384279733 319.741393756866 304.034194428769 290.007918587587 287.053640405893 209.581640708179 112.385225627834 43.8698946780493 36.6196402233862 40.117874779586 48.0894663550074 47.6203324161435 64.9653528296825 107.621397181425 139.889887914127 177.881404996076 208.707477535689 170.794598398579 81.0663651048035 35.4367273245966 32.5149467448618 48.2075360654022 72.2233895490347 85.8856384317197 88.6396158239392 88.0770061979546 78.9764335287037 59.4897066532013 42.1666298986677 31.7867553773791 30.108430643296 30.9895982903559 29.8477487992658
