NCOLS 35 
NROWS 26 
XLLCORNER -80 
YLLCORNER 33 
CELLSIZE 0.5 
NODATA_value -9999 
-9999.000000000000000 -9999 -9999 -9999 -9999 -9999 -9999 -9999 -9999 -9999 -9999 -9999 -9999 -9999 -9999 -9999 -9999 -9999 -9999 -9999 -9999 -9999 -9999 -9999 -9999 -9999 -9999 -9999 -9999 -9999 -9999 -9999 -9999 -9999 -9999
-9999 -9999 -9999 -9999 -9999 -9999 -9999 -9999 -9999 -9999 -9999 -9999 -9999 -9999 -9999 -9999 -9999 -9999 -9999 -9999 -9999 -9999 -9999 -9999 -9999 -9999 -9999 -9999 -9999 277.694593436754 -9999 -9999 -9999 -9999 -9999
-9999 -9999 -9999 -9999 -9999 -9999 -9999 -9999 -9999 -9999 -9999 -9999 -9999 -9999 -9999 -9999 -9999 -9999 -9999 -9999 -9999 -9999 -9999 -9999 -9999 -9999 401.861182636964 360.031766553051 139.604305595616 85.5569686794225 -9999 -9999 -9999 -9999 -9999
-9999 -9999 -9999 -9999 -9999 -9999 -9999 -9999 -9999 -9999 -9999 -9999 -9999 -9999 -9999 -9999 -9999 -9999 -9999 -9999 -9999 -9999 -9999 265.602537917391 362.00245905436 305.77257960833 285.038566106805 81.7115537687685 -9999 -9999 -9999 225.932498831789 209.559404945943 177.738037143755 155.965248280034
-9999 -9999 -9999 -9999 -9999 -9999 -9999 -9999 -9999 -9999 -9999 -9999 -9999 -9999 -9999 -9999 -9999 -9999 -9999 -9999 309.82931272528 330.383967951125 395.172167240183 294.948653879269 309.813879238747 278.131857096872 211.27642270036 184.838225891313 -9999 -9999 152.113636894874 176.441018461546 145.139755433455 129.242451577702 124.656139789869
-9999 -9999 -9999 -9999 -9999 -9999 -9999 -9999 -9999 -9999 -9999 -9999 -9999 -9999 -9999 -9999 -9999 -9999 -9999 279.518027259357 354.148561013559 454.946253302055 316.360675504266 138.494119437185 189.231590107402 165.081940730753 174.6162277824 203.025226510806 162.799914516262 151.34235243256 149.931557742134 148.500497969304 140.335488993708 107.652723380308 108.759251503038
-9999 -9999 -9999 -9999 -9999 -9999 -9999 -9999 -9999 -9999 -9999 -9999 -9999 -9999 -9999 -9999 -9999 -9999 -9999 277.095123527872 241.816387712443 239.203423996029 150.867715931084 114.009617937348 109.792387039286 128.992032268678 126.959989117496 125.868926377568 131.138610343622 123.834765654363 122.146586151677 119.947212212236 109.086902213407 107.356667813484 106.903375304785
-9999 -9999 -9999 -9999 -9999 -9999 -9999 -9999 -9999 -9999 -9999 -9999 -9999 -9999 -9999 -9999 -9999 -9999 -9999 213.04216240198 177.866076073571 124.286656771552 100.42658699638 97.4042289161347 101.079222144818 106.801212154899 113.59160711089 113.088565139514 112.93610339051 113.192873125986 106.107222721561 112.468144978789 107.954645493445 93.9626895842566 87.3259092856874
-9999 -9999 -9999 -9999 -9999 -9999 -9999 -9999 -9999 -9999 -9999 -9999 -9999 -9999 -9999 -9999 -9999 -9999 -9999 53.3918261517541 232.979666473267 150.069831356483 131.192803560216 99.2424101889833 99.6259064118163 94.8842360982036 96.7344377599985 110.525291938483 108.745833191039 110.405526642543 123.072187126947 147.116539412669 156.245613859657 170.965979165818 155.172409603708
-9999 -9999 -9999 -9999 -9999 -9999 -9999 -9999 -9999 -9999 -9999 -9999 -9999 -9999 -9999 -9999 -9999 203.158930448388 176.938415146398 167.97263245635 231.384268190016 178.636828550983 148.663999131845 141.035332953406 143.556579473386 157.477943462789 122.780983245029 118.157910651263 190.030279777388 213.628589000972 202.339687293804 258.187838576685 233.778234794754 184.013969225568 185.803129278501
-9999 -9999 -9999 -9999 -9999 -9999 -9999 -9999 -9999 -9999 -9999 -9999 -9999 -9999 224.739020496413 212.569308636477 152.614037313762 119.332655789761 126.468815701086 162.108773378553 208.485239649343 191.517518780306 160.935236645596 162.622829885896 145.603785081838 143.500999936881 172.260672236503 271.195217310828 295.300752496758 199.66594574631 158.287563269088 138.294884920464 125.513340833464 119.467442965589 135.437030874588
-9999 -9999 -9999 -9999 -9999 -9999 -9999 -9999 -9999 -9999 -9999 -9999 456.865293806721 271.705138941516 152.861425858079 127.762421334183 133.450091440403 156.393324035722 150.379476269165 158.102293127562 166.134900141376 173.213322680446 216.967175016587 271.574695263357 299.304330828145 317.513651889077 314.534350004897 198.896983954884 167.165134350324 191.167855989622 201.772758402684 182.054504391322 153.543927342536 131.569331607186 148.483093171935
-9999 -9999 -9999 -9999 -9999 -9999 -9999 -9999 -9999 -9999 -9999 -9999 209.892430847818 143.650009308412 179.523415259018 406.088148585426 533.193012512784 554.100763363956 538.6255573306 490.18561626636 459.590302368483 379.574690128842 319.746807277214 353.629153864769 383.010119292967 269.785303249813 212.034605815831 199.095251801782 208.373215157432 236.614752253337 243.192642719364 227.579097987912 185.577323107815 181.797943983544 186.045034920643
-9999 -9999 -9999 -9999 -9999 -9999 -9999 -9999 -9999 17.0161132351444 13.6373858818688 250.028243087415 155.822858726585 200.021290947218 355.898384617909 588.506132598074 453.192389183504 290.882930041631 225.580415813833 225.621394165896 234.158622085917 346.846638299984 357.733251845515 364.597757687109 338.305690412684 271.916485465749 262.165647477886 221.364070253923 247.592953745259 261.59739664252 272.158773133806 271.117668116437 270.50415230215 268.132474853459 187.11679183111
-9999 -9999 -9999 -9999 -9999 -9999 -9999 -9999 -9999 -9999 433.945741536068 165.926321570691 160.677593723102 296.564734500137 550.697102991265 445.347405371747 291.366711717179 222.33790468926 201.846536125779 251.007391205717 391.705903679721 342.027507324434 267.719914867667 237.357314204016 249.890412340443 312.199387487671 284.107994134452 267.045208177542 245.451823445304 252.019018610071 290.201943399822 294.027664416523 255.145948217926 234.525536020796 268.192022228176
-9999 -9999 -9999 -9999 -9999 -9999 -9999 853.120478850163 305.958841139415 -9999 304.499766760606 272.611955476592 492.495469932515 488.255208520633 511.541609517769 399.996699413839 286.850598549604 227.216052489069 277.437242906761 375.146392681994 463.703926635025 335.968802102011 249.586615639166 119.015489924251 148.218639276406 210.696555743825 283.689279495912 267.782773372492 264.776283082841 275.386325669091 283.749605148028 260.028337386662 226.13421147724 194.727537756258 182.816939610685
-9999 -9999 -9999 -9999 -9999 -9999 -9999 45.4776804263748 133.38679528918 176.625455557647 278.352578478593 568.668705477522 669.92911106158 549.668750654232 592.696524158356 486.478527092934 427.975379458034 486.773566431653 543.596168195965 520.56623881036 452.290440061594 350.931627704127 305.170128478111 259.781940298747 224.803736851779 217.650129396827 241.979415104793 235.963436711211 236.494608788899 230.048646107582 218.570093205334 179.596511745804 151.052525148809 151.349924362133 161.832745379725
-9999 -9999 -9999 -9999 -9999 -9999 -9999 243.760041797559 -9999 232.785418085475 484.434390768871 730.294483057303 617.402493349511 590.158525570932 597.337667999006 560.632718044395 582.107342086244 596.58256032296 572.728056889062 510.255827753289 481.715755104428 440.984929108305 367.798830047517 268.126382014951 319.689621585661 281.49745584807 206.328028124571 186.504326330235 159.367166208414 147.213341813576 119.264755344988 101.346448714573 106.73434810717 125.758744197568 147.764752441079
-9999 -9999 -9999 -9999 -9999 -9999 -9999 -9999 220.713331849232 265.578034063487 590.050039234069 757.823173718333 530.123333290854 567.072002608746 566.39687369995 564.467578804736 566.775294688353 581.173796344808 565.088296900275 506.89099103067 467.415149099572 388.338572355743 463.230563680137 393.12954592852 387.57667716971 361.557307075712 209.586892527248 150.446942620205 156.307025625532 155.784225226757 135.675733694627 101.200085733831 112.201596973525 111.659565988945 143.892882295562
-9999 -9999 -9999 -9999 -9999 -9999 -9999 -9999 -9999 321.472437122891 680.79920150776 665.200965883978 595.887642741486 623.165565312525 583.110889499384 569.882178711679 548.596029830288 524.434510113755 544.361501859063 522.137816413711 452.426953781531 329.216255568415 404.835583123584 430.013684567344 392.310827306725 389.842807868163 321.767311697665 171.057045055287 199.757972306439 206.980621609305 189.326861800174 161.182056250796 104.519661882094 106.982126315257 123.710078952408
-9999 -9999 -9999 -9999 -9999 -9999 -9999 -9999 -9999 271.648254870324 612.80496994742 603.246795832314 554.307208064251 526.895446210188 521.650625638424 528.115872799394 523.043023476896 515.139299839353 530.246904581088 568.410073085546 419.720319356113 340.163679542485 367.554576158979 427.283668160279 433.224234570607 388.079582493551 439.058469341846 222.623084496502 219.51634788867 253.870779803752 205.449745458598 170.415317418426 191.700780152881 145.321821240225 127.0296470688
-9999 -9999 -9999 -9999 -9999 -9999 -9999 0 104.633314726902 467.36490253882 558.329480504172 572.336853271789 562.334173603733 572.043989848892 573.592234230284 563.571882981482 549.367833528574 548.753081778687 574.926302991115 594.363715530223 419.94828595113 378.088802428428 295.185508662712 361.147113015887 412.556173446302 412.765797250956 432.188376578764 380.077176970851 233.523077764272 255.141666670399 255.616359865816 190.978983426171 205.033435630437 168.429325181837 141.964462203777
-9999 -9999 -9999 -9999 -9999 -9999 102.99977331057 232.412339488233 515.488938860904 517.554469388063 543.56613746351 490.531649112292 340.164335471378 235.497725510662 184.604177998304 195.825791596332 194.760328537809 325.755160062931 515.842837764485 580.508078352983 494.003761011215 419.891920351361 365.700670947764 361.467586594927 323.724119802041 290.532353140582 360.809671247491 459.161357327544 374.543102732614 310.527165695087 289.969888017927 223.793657065697 211.770527486699 223.491270963912 156.252983238425
-9999 -9999 -9999 -9999 272.063610781145 288.061196466068 342.814352278656 416.549834964309 495.796277382787 507.558134594921 484.608921275731 302.549735446386 157.21402967058 150.169524717375 143.788158180143 190.014353060222 214.875286163583 262.595670500269 483.442861128212 536.134663470232 501.864384438526 491.88845806365 426.757435580101 386.255912087328 208.488161881326 225.277446821921 276.315728055826 420.836058002088 403.902037971786 356.110773824303 310.327736894307 216.267445730089 202.86559899225 257.710157446907 179.667727143621
-9999 -9999 -9999 332.261565890679 308.512503737147 356.601011280438 473.450212552246 470.836957331402 466.308169015494 465.295249664908 406.152273708964 232.258685689466 180.464353607916 189.543535037405 221.783795357827 281.571456634349 297.745020154303 259.786435203385 411.377466012245 557.170029607696 560.677627475991 587.937715719176 505.740622652034 348.695293668244 163.582286279516 180.15691095995 252.904343038156 362.587938300295 370.892584950011 345.904842035238 286.236200987246 152.326349529395 192.896006362696 271.980068934872 212.576535956529
-9999 -9999 273.35407265988 398.039217112614 477.773709429302 468.170619126085 449.827228937995 431.761494080887 390.965713625199 418.057587186382 333.903876459602 248.673864271992 214.261896921649 212.344051451407 218.218345841765 242.571612937331 310.249547902357 324.883920463232 316.661950829333 426.196484217465 534.382644792349 508.04820929497 408.070125021006 210.02704365568 193.579964768786 208.059096642493 267.882811830755 350.649844988325 396.229122716923 326.48652574371 190.591408082546 167.78733429221 209.564516091724 229.525924065785 219.356368377653
