NCOLS 35 
NROWS 26 
XLLCORNER -80 
YLLCORNER 33 
CELLSIZE 0.5 
NODATA_value -9999 
-9999.000000000000000 -9999 -9999 -9999 -9999 -9999 -9999 -9999 -9999 -9999 -9999 -9999 -9999 -9999 -9999 -9999 -9999 -9999 -9999 -9999 -9999 -9999 -9999 -9999 -9999 -9999 -9999 -9999 -9999 -9999 -9999 -9999 -9999 -9999 -9999
-9999 -9999 -9999 -9999 -9999 -9999 -9999 -9999 -9999 -9999 -9999 -9999 -9999 -9999 -9999 -9999 -9999 -9999 -9999 -9999 -9999 -9999 -9999 -9999 -9999 -9999 -9999 -9999 -9999 205.637244298979 -9999 -9999 -9999 -9999 -9999
-9999 -9999 -9999 -9999 -9999 -9999 -9999 -9999 -9999 -9999 -9999 -9999 -9999 -9999 -9999 -9999 -9999 -9999 -9999 -9999 -9999 -9999 -9999 -9999 -9999 -9999 286.747539264788 269.271621963711 114.791492059532 70.1285195230364 -9999 -9999 -9999 -9999 -9999
-9999 -9999 -9999 -9999 -9999 -9999 -9999 -9999 -9999 -9999 -9999 -9999 -9999 -9999 -9999 -9999 -9999 -9999 -9999 -9999 -9999 -9999 -9999 194.214499335996 290.700584537813 237.989049320746 224.276902576416 57.4458503990946 -9999 -9999 -9999 188.738231765608 173.964109896496 164.449573568032 159.456494693819
-9999 -9999 -9999 -9999 -9999 -9999 -9999 -9999 -9999 -9999 -9999 -9999 -9999 -9999 -9999 -9999 -9999 -9999 -9999 -9999 208.053660841731 203.388225440458 272.250936758016 252.936468237037 231.363771799953 200.429075797318 170.973730350827 106.777387270525 -9999 -9999 147.156356829313 180.420551756131 178.071687125417 178.667165234259 179.76708732198
-9999 -9999 -9999 -9999 -9999 -9999 -9999 -9999 -9999 -9999 -9999 -9999 -9999 -9999 -9999 -9999 -9999 -9999 -9999 208.221004558362 280.340423831534 270.965081204756 204.425214418927 194.718908094259 218.048324025069 192.610251400483 168.962411423522 158.398205496642 165.093653102107 184.778430270279 182.284514895175 168.610159435308 142.33620540752 137.526868364307 153.200826686209
-9999 -9999 -9999 -9999 -9999 -9999 -9999 -9999 -9999 -9999 -9999 -9999 -9999 -9999 -9999 -9999 -9999 -9999 -9999 241.398812418264 290.811788543771 286.999474139702 226.488495600004 157.765153707106 163.428852699318 168.052156828484 159.484492494096 161.579731901476 167.083396517851 166.4361727283 153.065204963677 134.175770963831 122.316275602967 127.71467559514 133.73720727144
-9999 -9999 -9999 -9999 -9999 -9999 -9999 -9999 -9999 -9999 -9999 -9999 -9999 -9999 -9999 -9999 -9999 -9999 -9999 222.337017216242 256.923362935212 252.478275127061 199.496437622419 158.537660591005 133.207574696364 144.977133027805 128.377067060313 143.852345886973 166.664755682785 151.216914929549 133.408987023263 125.24329913282 112.382357438474 111.946134741818 121.595852768021
-9999 -9999 -9999 -9999 -9999 -9999 -9999 -9999 -9999 -9999 -9999 -9999 -9999 -9999 -9999 -9999 -9999 -9999 -9999 50.3479719455432 209.769747270524 203.776164105698 205.475395437192 168.430598547451 147.209139538556 137.153800144272 127.773953867605 142.318180327748 178.486202924223 175.356126879088 154.143693040403 135.123003002952 133.765741218548 153.45026525606 170.929961061452
-9999 -9999 -9999 -9999 -9999 -9999 -9999 -9999 -9999 -9999 -9999 -9999 -9999 -9999 -9999 -9999 -9999 168.559781037846 170.212955879379 195.302380046216 275.009822344257 192.825909700767 203.498167661113 223.211422340687 197.903171630089 202.02682942324 180.604712357978 187.480306924261 221.787704838189 194.569355432177 156.041956028763 172.177305056506 180.16585077812 184.694520884938 152.392473627328
-9999 -9999 -9999 -9999 -9999 -9999 -9999 -9999 -9999 -9999 -9999 -9999 -9999 -9999 188.744355388267 180.374478164349 170.645255154568 187.806682168434 220.285966676635 254.857812640431 283.709946746617 227.419076984269 225.456132465012 214.049460925039 222.859660594509 253.861079874732 261.012221609568 213.657534640128 84.6605078475433 72.2537538190141 115.338730151006 137.953528475364 136.364581655477 129.84624336484 144.310528055297
-9999 -9999 -9999 -9999 -9999 -9999 -9999 -9999 -9999 -9999 -9999 -9999 375.919589761849 277.765910110107 169.515527117972 172.860940460386 213.021969896064 260.179384759126 272.785248742204 281.590638595246 276.127313755897 270.173166604179 215.885198718189 219.371177654638 203.345959545745 206.681721918943 109.968775182738 78.6573300676669 93.0219280812035 99.651196507029 101.715787356066 95.2270991468371 85.7281700671538 78.7730096978079 75.8231617044566
-9999 -9999 -9999 -9999 -9999 -9999 -9999 -9999 -9999 -9999 -9999 -9999 258.669357356134 180.211113788696 215.897228687642 329.358832146158 214.39394314623 128.011353114901 198.819624811264 148.60084313674 111.404553896189 106.208180548652 92.4955440498712 94.1019726955635 84.2149848135619 77.5466655654731 88.4165559955268 97.8566060185759 101.298201598469 103.494211433885 112.082566833259 120.031335380974 109.989638619538 110.781141586781 125.441579495054
-9999 -9999 -9999 -9999 -9999 -9999 -9999 -9999 -9999 8.06091225173739 7.40634899139662 235.513843723444 226.797145164275 254.40644162479 327.026580030263 274.662867929255 190.636037130408 165.967897646452 179.393260193871 138.115527609326 141.238261397721 106.63628756318 112.681823829796 99.6866487511529 99.8868914922417 96.4881486403442 99.9341643542955 104.166856519837 106.895366564062 113.616728913571 133.484029998649 158.952999839645 170.231555246063 148.416773408957 125.952090502432
-9999 -9999 -9999 -9999 -9999 -9999 -9999 -9999 -9999 -9999 293.019072855436 269.971478926219 304.312379844241 359.880990524375 370.081883432765 369.093308228253 318.524212915104 278.608679847802 292.966605941647 187.599412718577 130.711775055195 195.20789774355 201.414791775863 197.234652123985 193.320689560817 171.439320419302 163.669275661888 174.149450523198 188.037833758437 210.308350979873 233.767963267806 227.2456717681 198.36559489297 178.148033110494 171.683863535254
-9999 -9999 -9999 -9999 -9999 -9999 -9999 656.463235236801 249.62255824792 -9999 362.389318612906 316.982891162738 386.867139222193 309.649044762227 278.204588789034 241.153408342108 243.993830053283 264.740135861184 284.245414377189 295.391315522271 223.021740274459 190.414150704813 213.122531254772 250.934826092255 259.555968937299 240.36358704364 221.399732536681 212.10187984423 216.58246988204 207.631676942132 162.779843521295 118.121498372305 106.116059050937 126.659206429468 136.364573232469
-9999 -9999 -9999 -9999 -9999 -9999 -9999 38.9044596598675 113.881317335699 228.546055939174 292.439906806212 344.579695855308 279.329196484708 247.715334891886 126.712609531029 62.2612829634595 50.021128113863 78.8616792628761 177.259853054637 220.42681607731 234.379382092173 210.011588505959 236.167555960987 330.804758207709 263.152066749705 183.335908570851 163.547942568796 140.776226642772 122.106932810006 96.683834141839 68.5060701000943 58.2269714305607 53.78865118161 61.0659399942383 90.8729913505508
-9999 -9999 -9999 -9999 -9999 -9999 -9999 208.927711759299 -9999 266.965511000549 339.341054319189 276.895245839895 239.490650524798 176.238066889572 108.632572749414 36.3357951034228 30.9136231361264 31.9517078919766 59.5342423492913 126.115732715709 185.407112848899 175.888441776475 261.756593033942 311.850193596162 239.245951594342 198.539067678182 185.000758982756 185.102535598491 179.224676225005 89.5719300213591 67.6623768141719 71.4455735382982 70.5852775446915 77.2975777919068 103.751948264458
-9999 -9999 -9999 -9999 -9999 -9999 -9999 -9999 206.198296574181 294.313360718319 422.747343214136 320.473909011701 217.541145629003 190.058855381443 209.908530529851 94.3441612232518 37.606919391354 30.6247465640504 35.9209020409357 71.5251941105692 132.02594701761 180.015997458182 214.572042022338 227.177897097037 214.812748757807 214.162778540111 250.430707973263 229.588662792767 179.758131001266 118.451717308649 84.3937960708985 82.8458218787438 88.8688821666642 97.5393224166839 105.81447846772
-9999 -9999 -9999 -9999 -9999 -9999 -9999 -9999 -9999 343.262694733484 438.376680392581 325.707564503297 204.023196276044 221.316234599855 275.242870795501 289.467763596904 206.788678856994 132.718096180935 111.266824875243 106.97811008332 124.213515811941 180.27045421867 191.575734696153 219.505532806616 265.554582054075 254.211057021149 302.212628216526 236.728933581883 182.730569957622 190.534495698062 140.735166126629 105.389617452724 87.7332197328298 87.9977593845821 92.6135922063009
-9999 -9999 -9999 -9999 -9999 -9999 -9999 -9999 -9999 298.058330305334 366.894581169198 289.645407674624 241.711836211591 216.852976315378 221.874861435805 245.204390211313 264.02983802631 282.931936357779 284.498700962257 275.490017821835 262.126609487444 240.135654833534 196.518687364923 195.634635852132 251.122716143747 248.888295829976 287.603856603528 216.77188370252 188.222861406338 140.901073431008 161.377726638129 154.801797156756 130.507466457641 108.159067618293 98.340519418768
-9999 -9999 -9999 -9999 -9999 -9999 -9999 0 100.931712845393 409.920861678967 290.001244575912 266.347185667733 260.752625325091 262.88560186945 262.148592053594 261.015234034186 260.642760113449 273.239416486057 283.949015238163 275.499384056518 255.59468615158 244.177712328829 143.684056250176 137.100998688122 218.943433621949 260.399763842725 220.555758877282 149.272118329224 137.798599959807 116.430007166837 125.908217189587 121.963650054771 114.892029376629 105.822946398666 100.406051438285
-9999 -9999 -9999 -9999 -9999 -9999 98.1600029232767 243.81354276165 404.270738244018 393.228345807064 300.293086139203 270.595731282759 254.998758241666 258.171345641539 283.414885874613 280.155647830564 272.773311788309 277.793010720209 308.845772867139 315.9987070759 299.79943883531 254.805503696517 238.765746612682 178.210498259454 263.646653012337 265.270402732723 172.568003966467 158.234062354275 165.708181421817 150.254441253795 121.167059701372 115.369522143549 106.385463880764 96.0683112023277 97.3682571463475
-9999 -9999 -9999 -9999 217.869222622119 226.355328038236 280.906493781686 365.811300080526 373.657740752276 345.782440363095 313.225686679075 296.550542250512 286.023611912365 274.584446319556 281.185022876627 291.415753554322 315.882631618342 299.032176094392 320.492950976815 330.325532889592 316.567493079332 270.108364850418 274.43243199845 215.995849302205 259.939019666925 276.273804141934 175.000599463902 177.039547378449 152.251205640194 155.693894674613 188.400384466375 173.112963119514 150.816154065388 141.469821035551 131.699776329058
-9999 -9999 -9999 303.92710420902 269.664672623101 279.761963561865 369.138118904365 343.667386030601 310.046146259006 289.823413919156 275.925377794637 262.113679987836 250.507128501706 247.223536682844 252.897577525798 260.765317714576 269.681179000801 281.43427747601 299.180776356226 306.121356904397 304.02073804601 293.632993564541 278.025717763827 302.871283145305 282.737638551385 259.927259083633 199.57882756224 214.523795035963 194.877831821787 155.307089230646 145.705668286808 186.060449046591 171.899314431284 152.633432070505 176.36797188758
-9999 -9999 244.901667123312 343.327262291541 388.75517316271 376.893475508378 337.848302782205 315.066616664958 298.317670153649 260.09965821262 204.545115359032 171.969508755038 165.222639720083 184.669595579007 203.901483665605 222.923495196822 253.222654572292 271.540281830278 270.447640551146 260.719919107807 222.816743869534 238.735177934037 273.775829507252 290.227764943326 311.279548912308 268.55888177812 220.947847004999 230.136195938827 234.466760844622 172.673889939821 152.354811601966 161.342548279176 154.055327504667 161.014684798182 157.362041704661
