NCOLS 35 
NROWS 26 
XLLCORNER -80 
YLLCORNER 33 
CELLSIZE 0.5 
NODATA_value -9999 
-9999.000000000000000 -9999 -9999 -9999 -9999 -9999 -9999 -9999 -9999 -9999 -9999 -9999 -9999 -9999 -9999 -9999 -9999 -9999 -9999 -9999 -9999 -9999 -9999 -9999 -9999 -9999 -9999 -9999 -9999 -9999 -9999 -9999 -9999 -9999 -9999
-9999 -9999 -9999 -9999 -9999 -9999 -9999 -9999 -9999 -9999 -9999 -9999 -9999 -9999 -9999 -9999 -9999 -9999 -9999 -9999 -9999 -9999 -9999 -9999 -9999 -9999 -9999 -9999 -9999 263.780304552973 -9999 -9999 -9999 -9999 -9999
-9999 -9999 -9999 -9999 -9999 -9999 -9999 -9999 -9999 -9999 -9999 -9999 -9999 -9999 -9999 -9999 -9999 -9999 -9999 -9999 -9999 -9999 -9999 -9999 -9999 -9999 312.852406922986 284.157614448215 122.527813686759 84.1028087522979 -9999 -9999 -9999 -9999 -9999
-9999 -9999 -9999 -9999 -9999 -9999 -9999 -9999 -9999 -9999 -9999 -9999 -9999 -9999 -9999 -9999 -9999 -9999 -9999 -9999 -9999 -9999 -9999 99.69459725304 113.312234063485 120.844157501234 127.315058062541 40.399052018229 -9999 -9999 -9999 82.6247840789935 76.068072158741 60.6757737809824 51.8805695609659
-9999 -9999 -9999 -9999 -9999 -9999 -9999 -9999 -9999 -9999 -9999 -9999 -9999 -9999 -9999 -9999 -9999 -9999 -9999 -9999 112.509997302523 97.004451137612 83.9445931532608 52.9166700243933 44.7126211289871 51.9313030930912 78.4300702299668 77.1888368934972 -9999 -9999 68.1259436236249 64.3976870619398 54.559076868009 50.5192729274635 46.2858934182534
-9999 -9999 -9999 -9999 -9999 -9999 -9999 -9999 -9999 -9999 -9999 -9999 -9999 -9999 -9999 -9999 -9999 -9999 -9999 84.8166028640485 67.0759495587939 57.9829224614666 50.0978522835324 38.4724528005975 38.9435801688186 42.522086963944 50.8814732626933 73.4569848692762 65.2503447632372 68.9226893928957 60.6432632131611 54.1477493343006 52.3972225786512 49.1011086659642 47.8694630824572
-9999 -9999 -9999 -9999 -9999 -9999 -9999 -9999 -9999 -9999 -9999 -9999 -9999 -9999 -9999 -9999 -9999 -9999 -9999 83.0877310416891 45.064040640256 41.6932585184005 39.5321816890168 42.5857324654891 46.3292228694292 44.1410259184737 44.555594415221 50.9391702687633 53.7134331575595 53.3638149615776 53.4089136718157 55.6518621946882 53.3037552282332 51.0840513422147 50.2975444137522
-9999 -9999 -9999 -9999 -9999 -9999 -9999 -9999 -9999 -9999 -9999 -9999 -9999 -9999 -9999 -9999 -9999 -9999 -9999 74.0728878917621 66.1168998531526 44.7304263303382 52.2785474622908 72.2000206792029 59.6611976496912 47.1846483921626 45.1533968981407 63.1716266778033 94.9817013631921 90.8493197518036 146.050951867065 183.499337050691 158.740220180333 127.738335635857 99.1977364485461
-9999 -9999 -9999 -9999 -9999 -9999 -9999 -9999 -9999 -9999 -9999 -9999 -9999 -9999 -9999 -9999 -9999 -9999 -9999 20.069855131946 72.843771186602 54.5225014567256 96.4683605307156 178.28897004066 143.207000892767 76.5686943763233 81.8548439246859 122.161145705719 180.621405888267 200.642195619274 203.531050417947 203.010041526547 211.382652935876 222.677582090992 221.69027871931
-9999 -9999 -9999 -9999 -9999 -9999 -9999 -9999 -9999 -9999 -9999 -9999 -9999 -9999 -9999 -9999 -9999 159.152650099536 113.780184655662 73.7314340177474 67.0851956182785 99.1359648957987 192.028434687233 193.000547520146 98.9193690015719 76.1208588446889 152.626719395964 150.221981216938 184.601204370291 185.056634039138 158.85731927302 143.440698506856 135.996832741232 126.92449801438 111.887880121735
-9999 -9999 -9999 -9999 -9999 -9999 -9999 -9999 -9999 -9999 -9999 -9999 -9999 -9999 271.92553254851 352.99489599689 367.690136757788 344.737827209326 341.381689526223 230.01085445383 180.136055812207 246.834568822712 273.640654209551 160.9704364755 152.14862660353 149.953008035783 137.072038125145 146.772098229079 155.055468121287 100.641236630015 117.606770938793 162.675873598425 183.372647674962 183.772798689914 178.163230740294
-9999 -9999 -9999 -9999 -9999 -9999 -9999 -9999 -9999 -9999 -9999 -9999 382.735300933919 359.435382278149 409.351755256443 374.074228525293 384.197077514657 407.666994227813 409.9349256035 401.666412374791 361.481223028933 320.452253728127 340.828715083717 343.352540138922 324.92076494945 300.624226166446 256.220879142685 201.627738008059 158.413333096105 130.221183614677 208.55313050655 242.514979279395 265.52555259239 296.669911898241 306.344654575189
-9999 -9999 -9999 -9999 -9999 -9999 -9999 -9999 -9999 -9999 -9999 -9999 358.5536437349 409.345328414833 408.817964417725 420.167430195802 424.433105315517 395.822334133729 355.865525010165 323.796973824839 318.584726832426 336.717463471847 340.335024327609 329.461594242574 331.968842530254 349.202933239227 370.426264404492 380.314499774534 354.44836273773 318.569008350341 300.567965385194 312.518607032139 338.772129074733 331.202383421779 289.963631978762
-9999 -9999 -9999 -9999 -9999 -9999 -9999 -9999 -9999 8.94259456802525 7.20400050236879 355.629988417783 416.948164389685 451.810408461487 400.060205355003 372.927055199046 321.717551557112 287.046603168484 263.571982592056 273.417197192387 301.098647222167 252.048426549967 128.450998622752 72.752521913572 59.5374128922966 66.6113647438393 91.9015454706882 152.646249286102 230.027896158966 265.069035620463 258.19075400908 222.46213129451 171.33886726917 109.011966867616 78.8037250087317
-9999 -9999 -9999 -9999 -9999 -9999 -9999 -9999 -9999 -9999 303.486657392062 449.246530944697 435.322470321761 378.971868883699 358.334306455566 352.959434009076 309.112238805351 257.973847456218 231.389983347275 238.555330933947 276.631551924288 261.400247119793 137.269670067732 81.0003772009392 64.5435616202365 99.0333105020817 101.379065892942 86.7194001427946 74.8069441562945 80.0382046268937 98.9061836130039 106.183974022413 80.2574362022499 78.7811683487055 81.570910288867
-9999 -9999 -9999 -9999 -9999 -9999 -9999 452.071829470969 178.606355059283 -9999 375.89911579719 391.067280324869 342.071389349352 277.406508658184 235.497306216247 229.104051504708 264.269660057341 279.381609459452 257.075184131784 239.093539305049 255.85368174016 249.492708401658 160.786664691122 97.448609373495 57.1672927009436 64.1104850388321 63.6298656518947 61.4254653179301 64.2724508516706 65.2900152952318 67.7035886522967 58.474960398003 48.8462502842517 46.38837810117 54.8823045557852
-9999 -9999 -9999 -9999 -9999 -9999 -9999 37.5847864150979 104.18076559633 251.052959184334 416.957810317553 355.67131700485 240.977998709723 196.477206229765 157.050944527381 135.983772973817 158.905773597871 209.909755333428 249.087800851479 255.023683460649 263.211699666354 238.801209620749 154.53618602951 139.738740541994 73.2700069242989 84.0796990322552 85.6038899945809 62.3433751287223 55.7424571281281 56.9735947888858 52.3728240516511 43.997692009638 38.1338851967061 40.4620234026379 49.4285672478775
-9999 -9999 -9999 -9999 -9999 -9999 -9999 213.740479972341 -9999 378.636486052419 373.770764614714 245.785434153407 211.89877348777 164.72344771357 111.272648823552 104.509186315544 104.741929344935 118.906389005103 170.489409842664 217.091423093306 239.149715396141 190.971785230086 143.985163531714 143.603567994596 108.404158650966 114.275396333044 148.99228180618 137.664551536516 91.5385667343364 55.9839999100555 49.0605506773141 42.7319077816181 40.5919274435513 50.0798123078254 72.589763852657
-9999 -9999 -9999 -9999 -9999 -9999 -9999 -9999 244.522484070911 398.601518050394 366.434969991357 216.893663915787 174.483282616398 153.123825497762 105.235895285852 97.0735103247208 85.7440976393287 98.284714449956 124.138524375672 179.324034847415 206.726346528994 159.481714679862 119.472205162752 105.859325949317 127.167913569351 115.851236226464 114.512961919626 107.002291390928 110.23506389443 111.483352698225 91.8751541275642 75.3217994513403 77.6219357940219 95.4120520380973 95.9404597821002
-9999 -9999 -9999 -9999 -9999 -9999 -9999 -9999 -9999 441.334992265702 289.854244467862 192.354952500467 165.666994642611 148.497582129386 105.540604953924 91.9404337167905 83.4795695393612 95.7986689059476 146.104998538947 189.957183711179 164.365252598693 157.972842930482 106.725683743563 78.8475681990772 123.021799184692 110.400166980086 96.4970029812762 88.5232154617283 94.5139954147327 88.7246045854367 91.0324022786334 109.683950472263 84.2426545012546 61.7830698256 77.9528887424802
-9999 -9999 -9999 -9999 -9999 -9999 -9999 -9999 -9999 296.811716963176 287.519990563927 193.386729769888 168.097951862919 143.45438775768 99.8264424642402 93.9534012136246 97.8021304589267 141.462803179405 189.602955725001 152.077493781332 130.893595162763 146.21192338066 98.6642339160558 59.7435038476546 83.1969753208243 110.669481286077 102.229779080133 87.1247080115457 88.735256846482 95.1052644335862 63.6514296210725 49.2199838290037 43.5924450268315 45.1502117583455 57.453299927976
-9999 -9999 -9999 -9999 -9999 -9999 -9999 0 102.124428661052 381.453914705905 286.026881701253 189.087130151183 154.770448495362 110.473229504389 88.0337668350691 99.5724265059286 133.838761959885 187.022289681526 171.757208166612 111.411006516385 130.070064376455 140.278349702212 82.0160826784283 50.700448008394 50.8385409321042 86.6892400665699 107.504495511452 102.998315853888 96.3886744143953 91.1510446620539 87.8964484969064 41.6937330757303 36.08942857391 34.8501019209821 35.5796124514675
-9999 -9999 -9999 -9999 -9999 -9999 86.335979888206 194.100559132443 258.420869965393 213.799484667017 174.801493423827 135.747417783545 98.4164367796109 78.9170798907571 91.9663142717547 120.207494833951 164.983481577825 192.782202066483 165.887293422653 144.107300682308 156.318413702499 111.882998940514 60.559574974398 45.0283670438031 43.3905917737082 53.0940824538594 81.2678029102691 93.0536756038415 84.552167233421 73.668620029189 98.1689245117001 51.1621799508778 37.2512306804027 37.0652860218073 36.7138084266491
-9999 -9999 -9999 -9999 222.539906057412 224.670949437592 181.333423648038 181.702303093971 177.715798980059 154.624195403595 101.639102741488 72.2761057371603 67.6234754848938 91.77129568183 125.482904797146 143.960435113188 163.378627061058 173.265474981577 173.186505202513 154.570136128545 106.59933688453 63.5343268609986 48.0817959166731 46.0878728823876 45.4241388680059 47.2110270302967 58.3595938010751 65.6487171193927 67.3167968931166 77.1361928578137 94.2434098633105 56.6356380073699 40.4327932788253 42.007839044446 41.800644554241
-9999 -9999 -9999 302.37519266422 260.172468499824 199.978814531159 174.011874180536 166.726636176562 139.615037225761 84.2870694095973 57.9933713146787 59.961056328162 93.1055190174377 114.163132430076 97.3853974048676 83.3426092771236 75.9111340370754 69.2431327085303 63.3072977987824 56.861714294976 55.5289500152246 52.6953945211266 49.1839708034152 52.2247777096472 54.3953910048962 56.9565613218064 61.2249610440247 63.3377320475647 66.1962001912981 75.245735046335 72.6222127116675 50.6734253502275 44.0198450281461 43.1107922616589 40.3260980565297
-9999 -9999 256.687716022953 208.025678069775 160.606004195403 146.700386112 144.382145409302 138.852843668841 76.0240954637255 48.8730749547597 49.6063561108491 71.4973941713559 102.30227986134 74.8939947592703 59.3753303850789 69.4175611762363 64.5572246236801 54.3556892669054 52.0580869187545 54.5958754903305 54.2782137192302 48.1445357010791 54.6690417907093 55.9379196418124 54.8516626049012 52.9737653557014 50.1754015445687 46.8464961174561 43.5851834248268 42.8123087165519 44.1427807480023 41.6822260564171 38.5622704225904 35.4995259592452 33.8149991025755
