NCOLS 70 
NROWS 52 
XLLCORNER -80 
YLLCORNER 33 
CELLSIZE 0.25 
NODATA_value -9999 
-9999.000000000000000 -9999 -9999 -9999 -9999 -9999 -9999 -9999 -9999 -9999 -9999 -9999 -9999 -9999 -9999 -9999 -9999 -9999 -9999 -9999 -9999 -9999 -9999 -9999 -9999 -9999 -9999 -9999 -9999 -9999 -9999 -9999 -9999 -9999 -9999 -9999 -9999 -9999 -9999 -9999 -9999 -9999 -9999 -9999 -9999 -9999 -9999 -9999 -9999 -9999 -9999 -9999 -9999 -9999 -9999 -9999 -9999 -9999 -9999 -9999 -9999 -9999 -9999 -9999 -9999 -9999 -9999 -9999 -9999 -9999
-9999 -9999 -9999 -9999 -9999 -9999 -9999 -9999 -9999 -9999 -9999 -9999 -9999 -9999 -9999 -9999 -9999 -9999 -9999 -9999 -9999 -9999 -9999 -9999 -9999 -9999 -9999 -9999 -9999 -9999 -9999 -9999 -9999 -9999 -9999 -9999 -9999 -9999 -9999 -9999 -9999 -9999 -9999 -9999 -9999 -9999 -9999 -9999 -9999 -9999 -9999 -9999 -9999 -9999 -9999 -9999 -9999 -9999 -9999 -9999 -9999 -9999 -9999 -9999 -9999 -9999 -9999 -9999 -9999 -9999
-9999 -9999 -9999 -9999 -9999 -9999 -9999 -9999 -9999 -9999 -9999 -9999 -9999 -9999 -9999 -9999 -9999 -9999 -9999 -9999 -9999 -9999 -9999 -9999 -9999 -9999 -9999 -9999 -9999 -9999 -9999 -9999 -9999 -9999 -9999 -9999 -9999 -9999 -9999 -9999 -9999 -9999 -9999 -9999 -9999 -9999 -9999 -9999 -9999 -9999 -9999 -9999 -9999 -9999 -9999 -9999 -9999 -9999 -9999 392.771942138672 -9999 -9999 -9999 -9999 -9999 -9999 -9999 -9999 -9999 -9999
-9999 -9999 -9999 -9999 -9999 -9999 -9999 -9999 -9999 -9999 -9999 -9999 -9999 -9999 -9999 -9999 -9999 -9999 -9999 -9999 -9999 -9999 -9999 -9999 -9999 -9999 -9999 -9999 -9999 -9999 -9999 -9999 -9999 -9999 -9999 -9999 -9999 -9999 -9999 -9999 -9999 -9999 -9999 -9999 -9999 -9999 -9999 -9999 -9999 -9999 -9999 -9999 -9999 -9999 -9999 400.340545654297 393.844879150391 389.373107910156 382.167785644531 351.226287841797 -9999 -9999 -9999 -9999 -9999 -9999 -9999 -9999 -9999 -9999
-9999 -9999 -9999 -9999 -9999 -9999 -9999 -9999 -9999 -9999 -9999 -9999 -9999 -9999 -9999 -9999 -9999 -9999 -9999 -9999 -9999 -9999 -9999 -9999 -9999 -9999 -9999 -9999 -9999 -9999 -9999 -9999 -9999 -9999 -9999 -9999 -9999 -9999 -9999 -9999 -9999 -9999 -9999 -9999 -9999 -9999 -9999 -9999 -9999 -9999 -9999 -9999 443.604644775391 433.083312988281 424.29296875 401.621429443359 372.623382568359 351.011016845703 -9999 -9999 -9999 -9999 -9999 -9999 -9999 -9999 -9999 -9999 -9999 -9999
-9999 -9999 -9999 -9999 -9999 -9999 -9999 -9999 -9999 -9999 -9999 -9999 -9999 -9999 -9999 -9999 -9999 -9999 -9999 -9999 -9999 -9999 -9999 -9999 -9999 -9999 -9999 -9999 -9999 -9999 -9999 -9999 -9999 -9999 -9999 -9999 -9999 -9999 -9999 -9999 -9999 -9999 -9999 -9999 -9999 -9999 -9999 -9999 -9999 -9999 394.121051025391 413.646728515625 418.451995849609 398.265869140625 376.890472412109 361.419525146484 -9999 -9999 -9999 -9999 -9999 -9999 -9999 -9999 -9999 -9999 -9999 272.397308349609 270.846519470215 294.812438964844
-9999 -9999 -9999 -9999 -9999 -9999 -9999 -9999 -9999 -9999 -9999 -9999 -9999 -9999 -9999 -9999 -9999 -9999 -9999 -9999 -9999 -9999 -9999 -9999 -9999 -9999 -9999 -9999 -9999 -9999 -9999 -9999 -9999 -9999 -9999 -9999 -9999 -9999 -9999 -9999 -9999 -9999 -9999 -9999 422.004964192708 -9999 -9999 426.750961303711 435.659454345703 408.459808349609 350.034729003906 354.916778564453 369.708221435547 346.268157958984 332.732971191406 -9999 -9999 -9999 -9999 -9999 -9999 -9999 -9999 302.990936279297 300.085296630859 291.514007568359 284.185485839844 271.867797851562 261.138641357422 255.567199707031
-9999 -9999 -9999 -9999 -9999 -9999 -9999 -9999 -9999 -9999 -9999 -9999 -9999 -9999 -9999 -9999 -9999 -9999 -9999 -9999 -9999 -9999 -9999 -9999 -9999 -9999 -9999 -9999 -9999 -9999 -9999 -9999 -9999 -9999 -9999 -9999 -9999 -9999 -9999 -9999 -9999 -9999 -9999 -9999 417.745758056641 433.006805419922 439.129943847656 424.547332763672 407.667114257812 385.067779541016 356.814819335938 332.090362548828 318.529510498047 295.887390136719 305.564758300781 -9999 -9999 -9999 -9999 -9999 -9999 -9999 260.619903564453 259.619506835938 257.906890869141 250.290100097656 243.179641723633 242.24055480957 244.876174926758 248.15983581543
-9999 -9999 -9999 -9999 -9999 -9999 -9999 -9999 -9999 -9999 -9999 -9999 -9999 -9999 -9999 -9999 -9999 -9999 -9999 -9999 -9999 -9999 -9999 -9999 -9999 -9999 -9999 -9999 -9999 -9999 -9999 -9999 -9999 -9999 -9999 -9999 -9999 -9999 -9999 -9999 370.544087727865 376.714782714844 390.069671630859 422.014862060547 400.311828613281 377.710418701172 372.127624511719 375.027587890625 382.588623046875 387.667938232422 367.828399658203 322.679656982422 278.368072509766 247.370513916016 245.46696472168 -9999 -9999 -9999 -9999 -9999 206.425811767578 228.580200195312 226.18196105957 222.579864501953 222.810638427734 225.014389038086 228.646286010742 233.947570800781 238.874633789062 243.031692504883
-9999 -9999 -9999 -9999 -9999 -9999 -9999 -9999 -9999 -9999 -9999 -9999 -9999 -9999 -9999 -9999 -9999 -9999 -9999 -9999 -9999 -9999 -9999 -9999 -9999 -9999 -9999 -9999 -9999 -9999 -9999 -9999 -9999 -9999 -9999 -9999 -9999 -9999 -9999 358.324462890625 370.904357910156 382.403442382812 376.836547851562 353.831176757812 323.873016357422 297.352172851562 284.806335449219 286.345855712891 301.284790039062 332.358489990234 353.266693115234 335.308166503906 281.449371337891 227.037582397461 224.740158081055 232.299179077148 -9999 -9999 -9999 171.715625762939 195.626541137695 195.070693969727 195.182586669922 201.280807495117 208.663604736328 216.015823364258 222.08154296875 227.213256835938 233.237319946289 239.463928222656
-9999 -9999 -9999 -9999 -9999 -9999 -9999 -9999 -9999 -9999 -9999 -9999 -9999 -9999 -9999 -9999 -9999 -9999 -9999 -9999 -9999 -9999 -9999 -9999 -9999 -9999 -9999 -9999 -9999 -9999 -9999 -9999 -9999 -9999 -9999 -9999 -9999 -9999 305.128021240234 298.2080078125 302.916107177734 312.690185546875 336.557708740234 360.173461914062 340.900146484375 264.228271484375 184.846252441406 157.682235717773 181.434646606445 241.795013427734 302.764556884766 314.414855957031 264.166076660156 205.6484375 192.745941162109 217.677734375 208.899978637695 181.761049906413 175.104049682617 157.648681640625 158.48323059082 162.997436523438 169.286407470703 178.805084228516 191.836303710938 204.216293334961 207.414077758789 207.012054443359 212.814987182617 221.644180297852
-9999 -9999 -9999 -9999 -9999 -9999 -9999 -9999 -9999 -9999 -9999 -9999 -9999 -9999 -9999 -9999 -9999 -9999 -9999 -9999 -9999 -9999 -9999 -9999 -9999 -9999 -9999 -9999 -9999 -9999 -9999 -9999 -9999 -9999 -9999 -9999 -9999 337.140197753906 301.141754150391 230.82568359375 188.238708496094 200.111999511719 256.735412597656 325.210571289062 332.817626953125 247.124984741211 151.74153137207 120.008277893066 139.297805786133 200.208526611328 270.092681884766 282.847290039062 225.97688293457 170.870223999023 154.547500610352 158.958602905273 165.234237670898 155.7841796875 147.585342407227 148.877990722656 156.09912109375 163.957122802734 172.652816772461 182.131103515625 191.192794799805 191.8115234375 180.83366394043 170.384338378906 169.296035766602 172.460662841797
-9999 -9999 -9999 -9999 -9999 -9999 -9999 -9999 -9999 -9999 -9999 -9999 -9999 -9999 -9999 -9999 -9999 -9999 -9999 -9999 -9999 -9999 -9999 -9999 -9999 -9999 -9999 -9999 -9999 -9999 -9999 -9999 -9999 -9999 -9999 -9999 -9999 336.906890869141 281.383453369141 189.193283081055 168.840759277344 213.355072021484 273.047882080078 315.677825927734 279.530822753906 183.945083618164 124.603462219238 111.961891174316 121.32048034668 166.566772460938 229.118850708008 236.11962890625 188.358016967773 147.455535888672 136.3203125 136.311019897461 137.956039428711 139.573928833008 143.282699584961 150.228469848633 159.950119018555 168.475555419922 175.979141235352 178.661575317383 175.079452514648 161.961441040039 144.498886108398 134.184020996094 131.195526123047 134.063613891602
-9999 -9999 -9999 -9999 -9999 -9999 -9999 -9999 -9999 -9999 -9999 -9999 -9999 -9999 -9999 -9999 -9999 -9999 -9999 -9999 -9999 -9999 -9999 -9999 -9999 -9999 -9999 -9999 -9999 -9999 -9999 -9999 -9999 -9999 -9999 -9999 -9999 354.472564697266 254.381484985352 167.084869384766 176.32356262207 239.214996337891 281.419891357422 260.760070800781 176.710342407227 123.025604248047 121.231727600098 127.888603210449 135.774810791016 164.15934753418 196.421478271484 196.099243164062 168.137451171875 142.416885375977 132.636016845703 131.229293823242 133.520645141602 136.585662841797 140.682525634766 149.218353271484 157.849365234375 162.349761962891 163.10466003418 161.919067382812 157.94450378418 148.323104858398 135.674957275391 132.822616577148 133.789306640625 133.706344604492
-9999 -9999 -9999 -9999 -9999 -9999 -9999 -9999 -9999 -9999 -9999 -9999 -9999 -9999 -9999 -9999 -9999 -9999 -9999 -9999 -9999 -9999 -9999 -9999 -9999 -9999 -9999 -9999 -9999 -9999 -9999 -9999 -9999 -9999 -9999 -9999 498.797058105469 374.429443359375 227.165283203125 153.390960693359 157.796493530273 189.584182739258 209.065795898438 168.360061645508 121.892478942871 120.350654602051 133.375747680664 145.040603637695 155.497924804688 165.990585327148 172.094757080078 168.790328979492 156.584030151367 143.092178344727 134.587600708008 129.625350952148 131.151123046875 139.166076660156 149.40966796875 159.888412475586 165.95442199707 176.697052001953 195.031784057617 220.331649780273 200.747955322266 176.120651245117 162.247634887695 157.479415893555 160.175079345703 160.920928955078
-9999 -9999 -9999 -9999 -9999 -9999 -9999 -9999 -9999 -9999 -9999 -9999 -9999 -9999 -9999 -9999 -9999 -9999 -9999 -9999 -9999 -9999 -9999 -9999 -9999 -9999 -9999 -9999 -9999 -9999 -9999 -9999 -9999 -9999 -9999 -9999 -9999 347.531860351562 282.853942871094 199.908660888672 160.38737487793 139.87532043457 137.943283081055 125.924507141113 114.492309570312 120.391952514648 130.91227722168 145.52815246582 160.850296020508 164.365631103516 159.918273925781 153.025039672852 145.261199951172 138.126266479492 135.132507324219 132.556442260742 134.412109375 150.635528564453 179.691436767578 212.160659790039 239.140914916992 278.983978271484 335.152923583984 375.094085693359 270.846038818359 184.768020629883 181.451110839844 172.796920776367 187.030715942383 231.308456420898
-9999 -9999 -9999 -9999 -9999 -9999 -9999 -9999 -9999 -9999 -9999 -9999 -9999 -9999 -9999 -9999 -9999 -9999 -9999 -9999 -9999 -9999 -9999 -9999 -9999 -9999 -9999 -9999 -9999 -9999 -9999 -9999 -9999 -9999 -9999 -9999 -9999 -9999 344.757476806641 -9999 192.927062988281 146.503982543945 124.492774963379 117.993095397949 115.659362792969 122.28783416748 140.950988769531 176.173034667969 211.792495727539 209.936172485352 177.815490722656 157.591156005859 147.118728637695 140.964324951172 136.572326660156 135.200622558594 140.513580322266 166.416290283203 213.307846069336 270.332305908203 315.871246337891 359.345275878906 408.930480957031 415.584808349609 324.316925048828 212.382858276367 181.352493286133 194.914260864258 245.141387939453 333.635345458984
-9999 -9999 -9999 -9999 -9999 -9999 -9999 -9999 -9999 -9999 -9999 -9999 -9999 -9999 -9999 -9999 -9999 -9999 -9999 -9999 -9999 -9999 -9999 -9999 -9999 -9999 -9999 -9999 -9999 -9999 -9999 -9999 -9999 -9999 -9999 -9999 -9999 -9999 -9999 -9999 173.025329589844 151.651138305664 125.959144592285 118.76912689209 122.35327911377 139.559906005859 183.674285888672 237.225524902344 273.210723876953 265.185211181641 216.819061279297 188.244644165039 174.487564086914 165.171691894531 147.601516723633 143.196044921875 156.048721313477 189.872528076172 221.060791015625 241.493209838867 270.927490234375 307.853790283203 366.137939453125 425.455474853516 421.181457519531 335.267395019531 273.485198974609 253.824661254883 304.616058349609 347.302185058594
-9999 -9999 -9999 -9999 -9999 -9999 -9999 -9999 -9999 -9999 -9999 -9999 -9999 -9999 -9999 -9999 -9999 -9999 -9999 -9999 -9999 -9999 -9999 -9999 -9999 -9999 -9999 -9999 -9999 -9999 -9999 -9999 -9999 -9999 197.837791442871 204.187286376953 183.218032836914 -9999 149.172348022461 162.354034423828 181.428924560547 165.881057739258 137.480010986328 130.635986328125 141.789016723633 182.185150146484 240.442672729492 277.646545410156 288.278930664062 266.964599609375 227.036590576172 196.228134155273 183.800308227539 177.068115234375 158.018432617188 162.180389404297 193.737808227539 224.4912109375 220.684555053711 223.908767700195 252.743835449219 304.548217773438 352.965301513672 396.236633300781 425.825744628906 436.407531738281 407.680572509766 354.057037353516 334.312438964844 299.24267578125
-9999 -9999 -9999 -9999 -9999 -9999 -9999 -9999 -9999 -9999 -9999 -9999 -9999 -9999 -9999 -9999 -9999 -9999 -9999 -9999 -9999 -9999 -9999 -9999 -9999 -9999 -9999 706.145812988281 706.145812988281 570.956970214844 410.963439941406 307.330230712891 254.359588623047 216.153503417969 193.550064086914 177.460311889648 157.922241210938 150.648071289062 154.109115600586 168.147750854492 190.763565063477 192.010101318359 167.864212036133 159.557571411133 180.099578857422 230.840148925781 262.135833740234 263.940612792969 252.511032104492 229.236938476562 205.724380493164 191.623687744141 188.097930908203 192.144500732422 200.175903320312 222.633895874023 255.668426513672 263.298431396484 250.999618530273 259.068908691406 323.793273925781 386.171966552734 409.006256103516 406.931549072266 412.594757080078 413.943450927734 407.965148925781 398.375427246094 387.7861328125 353.884460449219
-9999 -9999 -9999 -9999 -9999 -9999 -9999 -9999 -9999 -9999 -9999 -9999 -9999 -9999 -9999 -9999 -9999 -9999 -9999 -9999 -9999 -9999 -9999 -9999 -9999 -9999 -9999 -9999 -9999 -9999 245.217697143555 216.753616333008 184.362655639648 154.70556640625 150.402954101562 162.183456420898 175.616897583008 190.23210144043 195.412414550781 205.268630981445 225.253692626953 228.739181518555 208.004943847656 203.498413085938 227.235534667969 252.801666259766 260.202972412109 257.461486816406 252.865661621094 250.61701965332 261.802947998047 290.761444091797 316.358856201172 324.365600585938 294.603515625 278.639923095703 289.640197753906 302.573547363281 307.530120849609 308.569915771484 372.380004882812 417.379272460938 424.583953857422 415.150970458984 412.992156982422 411.540374755859 398.670776367188 385.446197509766 385.565979003906 386.85791015625
-9999 -9999 -9999 -9999 -9999 -9999 -9999 -9999 -9999 -9999 -9999 -9999 -9999 -9999 -9999 -9999 -9999 -9999 -9999 -9999 -9999 -9999 -9999 -9999 -9999 435.891123453776 300.500544230143 192.274337768555 141.009300231934 133.213180541992 150.47966003418 167.368637084961 172.993133544922 183.020812988281 209.296020507812 236.666198730469 257.916595458984 271.683532714844 265.524688720703 260.761657714844 267.911834716797 267.983978271484 253.480667114258 253.150115966797 267.865875244141 273.462982177734 281.079437255859 294.913665771484 325.818359375 348.149810791016 385.892822265625 439.661224365234 444.29345703125 393.521331787109 306.989929199219 259.203033447266 275.830627441406 298.045654296875 317.886169433594 345.589996337891 378.625549316406 431.627044677734 465.439727783203 471.490112304688 485.503295898438 481.643646240234 459.203948974609 438.703521728516 427.291137695312 426.873870849609
-9999 -9999 -9999 -9999 -9999 -9999 -9999 -9999 -9999 -9999 -9999 -9999 -9999 -9999 -9999 -9999 -9999 -9999 -9999 -9999 -9999 -9999 -9999 -9999 572.722595214844 454.823974609375 280.126800537109 166.550857543945 130.145355224609 134.127807617188 155.027420043945 175.366897583008 200.095565795898 238.629501342773 286.054077148438 322.224945068359 346.906372070312 366.547302246094 365.958404541016 347.595642089844 330.924011230469 313.150909423828 298.315246582031 299.645935058594 312.36328125 329.509338378906 362.831146240234 358.069641113281 366.752655029297 381.105682373047 401.639282226562 409.876251220703 348.216613769531 261.848175048828 242.018142700195 250.579086303711 271.236907958984 288.302856445312 328.621032714844 385.276916503906 461.527160644531 531.055603027344 564.219177246094 566.523315429688 575.5791015625 547.037658691406 505.000366210938 471.997314453125 460.933227539062 444.401092529297
-9999 -9999 -9999 -9999 -9999 -9999 -9999 -9999 -9999 -9999 -9999 -9999 -9999 -9999 -9999 -9999 -9999 -9999 -9999 -9999 -9999 -9999 -9999 -9999 538.066162109375 366.796203613281 184.527404785156 123.149124145508 127.155853271484 150.942047119141 181.183135986328 219.470825195312 266.749450683594 313.630859375 357.826843261719 394.572631835938 419.517974853516 441.786315917969 462.238494873047 453.856201171875 413.915283203125 371.523742675781 386.204071044922 407.666839599609 406.893951416016 419.421508789062 454.669158935547 439.564758300781 388.279327392578 350.727966308594 321.131256103516 289.577117919922 226.542892456055 196.980087280273 201.592544555664 225.457138061523 260.245971679688 292.699371337891 344.264434814453 421.459075927734 511.274993896484 584.344299316406 626.313537597656 629.913208007812 622.936645507812 576.35498046875 505.510833740234 438.134368896484 420.691619873047 417.943359375
-9999 -9999 -9999 -9999 -9999 -9999 -9999 -9999 -9999 -9999 -9999 -9999 -9999 -9999 -9999 -9999 -9999 -9999 -9999 -9999 -9999 -9999 -9999 412.599227905273 446.655029296875 282.519866943359 152.482208251953 128.240036010742 153.852951049805 197.498764038086 252.390075683594 297.421081542969 346.984954833984 406.870941162109 449.387939453125 480.740844726562 508.411895751953 526.93115234375 555.7958984375 564.418395996094 529.355346679688 501.376800537109 536.713500976562 549.947814941406 529.021057128906 513.385803222656 515.054626464844 522.551025390625 481.947113037109 427.319091796875 358.933715820312 301.200164794922 224.617691040039 193.514266967773 184.714340209961 205.758941650391 252.896560668945 300.841033935547 363.895660400391 454.728851318359 549.883178710938 624.029541015625 667.032348632812 670.226440429688 653.746032714844 596.884033203125 500.390869140625 393.997100830078 339.396942138672 358.968597412109
-9999 -9999 -9999 -9999 -9999 -9999 -9999 -9999 -9999 -9999 -9999 -9999 -9999 -9999 -9999 -9999 -9999 -9999 -9999 -9999 -9999 -9999 -9999 346.373107910156 319.302612304688 213.786041259766 146.160629272461 150.04850769043 198.276779174805 267.418029785156 318.180389404297 334.995178222656 355.495361328125 380.65771484375 400.693481445312 420.276489257812 451.889404296875 475.915313720703 502.459014892578 529.117309570312 547.130981445312 558.760314941406 564.564514160156 557.754516601562 542.317016601562 520.634582519531 505.742218017578 499.560607910156 493.764373779297 490.690856933594 446.949127197266 404.444976806641 346.862152099609 304.945251464844 268.080444335938 239.103286743164 249.223373413086 301.63232421875 382.656646728516 485.264556884766 579.352355957031 650.716613769531 688.386840820312 692.283508300781 681.816223144531 623.191345214844 518.37548828125 412.064910888672 338.242919921875 326.120330810547
-9999 -9999 -9999 -9999 -9999 -9999 -9999 -9999 -9999 -9999 -9999 -9999 -9999 -9999 -9999 -9999 -9999 -9999 -9999 -9999 -9999 -9999 276.598815917969 249.591156005859 219.297698974609 189.801498413086 192.274826049805 227.21826171875 272.169982910156 311.167236328125 336.143585205078 355.168884277344 365.378936767578 334.276000976562 308.639678955078 307.541778564453 314.478637695312 313.495056152344 331.101135253906 376.888519287109 442.841613769531 497.507629394531 525.14892578125 510.87158203125 463.147369384766 437.962219238281 425.421630859375 424.375122070312 442.593872070312 465.056915283203 464.865570068359 453.983520507812 437.615051269531 421.385498046875 375.668762207031 332.476867675781 303.252105712891 317.518341064453 389.130218505859 492.481597900391 584.729675292969 649.783874511719 680.842712402344 686.846557617188 691.734985351562 655.510620117188 557.757141113281 446.427856445312 368.838928222656 323.362854003906
-9999 -9999 -9999 -9999 -9999 -9999 -9999 -9999 -9999 -9999 -9999 -9999 -9999 -9999 1191.13875325521 -9999 -9999 -9999 -9999 912.252014160156 -9999 408.363647460938 253.892822265625 198.38671875 207.350997924805 234.6259765625 274.745635986328 315.779357910156 333.332702636719 329.581939697266 346.530609130859 370.914978027344 378.490966796875 363.054016113281 361.529144287109 380.653350830078 379.688903808594 367.171325683594 380.786254882812 419.208923339844 472.2421875 518.1162109375 526.409057617188 490.777862548828 453.659454345703 450.889862060547 450.959136962891 453.050506591797 467.456756591797 485.355743408203 491.544921875 472.70556640625 466.602416992188 476.031768798828 451.703002929688 420.300018310547 390.358215332031 373.51953125 408.583068847656 493.179229736328 578.556030273438 637.520202636719 669.331481933594 679.873046875 693.952697753906 684.054626464844 602.673583984375 476.250610351562 374.001312255859 323.666748046875
-9999 -9999 -9999 -9999 -9999 -9999 -9999 -9999 -9999 -9999 -9999 -9999 -9999 -9999 1186.48046875 -9999 -9999 -9999 -9999 821.8330078125 571.7103515625 420.536987304688 239.716659545898 215.02214050293 251.315017700195 288.417327880859 328.2587890625 362.105682373047 365.366851806641 352.605895996094 349.510223388672 356.459533691406 373.746459960938 397.827880859375 443.563629150391 484.616668701172 485.615142822266 480.889801025391 493.910522460938 510.980133056641 521.110168457031 520.748229980469 507.781188964844 499.460113525391 511.977386474609 532.348693847656 540.706909179688 541.095642089844 541.029418945312 538.258239746094 529.59521484375 510.366271972656 492.883422851562 488.515747070312 486.532318115234 471.480102539062 446.900604248047 422.630187988281 423.937164306641 479.768280029297 556.710144042969 617.489440917969 655.230834960938 673.989135742188 696.763977050781 698.813842773438 630.188293457031 501.678405761719 386.288818359375 331.879058837891
-9999 -9999 -9999 -9999 -9999 -9999 -9999 -9999 -9999 -9999 -9999 -9999 -9999 -9999 1207.44274902344 -9999 -9999 -9999 -9999 -9999 389.924926757812 385.985107421875 241.983184814453 248.046447753906 296.084716796875 363.820251464844 440.271911621094 489.486633300781 484.81396484375 442.730224609375 389.075164794922 359.874053955078 381.692169189453 445.878021240234 507.431030273438 516.249572753906 507.769989013672 519.655151367188 531.703125 533.121276855469 527.034729003906 522.604675292969 529.190307617188 544.18310546875 560.830383300781 575.585327148438 581.043395996094 579.072998046875 571.340270996094 561.5341796875 552.492614746094 538.44580078125 512.624877929688 480.094451904297 466.692138671875 464.536315917969 455.200286865234 442.660736083984 440.681579589844 475.688049316406 530.764587402344 581.190307617188 623.449951171875 658.728881835938 694.456115722656 698.917724609375 625.545776367188 505.025146484375 398.660125732422 340.851806640625
-9999 -9999 -9999 -9999 -9999 -9999 -9999 -9999 -9999 -9999 -9999 -9999 -9999 -9999 1102.81811523438 -9999 1123.59362792969 -9999 -9999 -9999 404.498260498047 348.679351806641 246.944702148438 284.295104980469 394.177368164062 520.771911621094 591.619079589844 593.907470703125 546.538940429688 487.280883789062 440.016448974609 420.095520019531 445.381927490234 503.747985839844 530.012817382812 509.645050048828 518.400390625 554.66845703125 563.974426269531 557.534729003906 551.283447265625 548.8994140625 558.852600097656 576.008056640625 589.890563964844 596.220764160156 594.549682617188 587.172241210938 574.691772460938 561.536315917969 551.44580078125 543.751708984375 533.159118652344 509.837829589844 486.402008056641 478.048980712891 474.014099121094 458.082885742188 450.977294921875 471.115570068359 497.641845703125 543.246459960938 604.216796875 650.028381347656 682.453552246094 671.627563476562 583.713317871094 475.958953857422 401.725555419922 349.186065673828
-9999 -9999 -9999 -9999 -9999 -9999 -9999 -9999 -9999 -9999 -9999 -9999 -9999 -9999 1102.81811523438 998.193481445312 808.614501953125 -9999 -9999 346.929321289062 372.364654541016 310.427795410156 268.105133056641 355.560852050781 500.747619628906 594.170959472656 630.037902832031 642.092163085938 603.355712890625 521.747009277344 455.122497558594 441.992706298828 474.861480712891 509.200714111328 519.153198242188 531.029907226562 562.137634277344 587.990295410156 584.234619140625 570.581665039062 562.995544433594 565.4072265625 576.851135253906 590.163146972656 599.819702148438 604.681823730469 602.973937988281 596.150390625 586.073974609375 571.906860351562 556.839294433594 543.894348144531 534.175964355469 520.916748046875 506.891235351562 504.550842285156 501.691131591797 483.560668945312 473.373016357422 477.916656494141 492.667144775391 545.230895996094 606.166870117188 634.803161621094 643.468811035156 601.771240234375 516.280883789062 455.841094970703 410.566284179688 343.215026855469
-9999 -9999 -9999 -9999 -9999 -9999 -9999 -9999 -9999 -9999 -9999 -9999 -9999 -9999 -9999 675.058868408203 594.64208984375 -9999 374.106903076172 295.393402099609 315.460968017578 289.931091308594 317.463165283203 429.769317626953 534.941528320312 574.743835449219 588.119995117188 602.312194824219 612.126342773438 614.480346679688 588.068725585938 518.271850585938 460.702423095703 476.212615966797 546.2001953125 603.842346191406 616.045043945312 606.792419433594 589.466979980469 573.228942871094 567.359680175781 564.774475097656 567.233581542969 583.041748046875 596.750183105469 611.858215332031 626.56982421875 620.938598632812 607.410522460938 598.837951660156 588.5810546875 570.1015625 549.069702148438 529.176208496094 512.22265625 503.524780273438 504.066802978516 500.721466064453 499.225524902344 499.292694091797 514.092041015625 558.005554199219 593.3525390625 597.030151367188 579.71337890625 526.744934082031 474.358123779297 457.194458007812 383.658813476562 241.872268676758
-9999 -9999 -9999 -9999 -9999 -9999 -9999 -9999 -9999 -9999 -9999 -9999 -9999 -9999 -9999 486.45166015625 487.392608642578 -9999 284.496826171875 273.163238525391 268.378479003906 283.749847412109 378.882049560547 507.568084716797 573.404174804688 594.755615234375 596.271484375 589.567626953125 591.9677734375 620.493469238281 655.86767578125 641.80029296875 579.638854980469 563.199157714844 615.450378417969 654.720947265625 648.931396484375 627.379028320312 596.854614257812 570.353332519531 554.42626953125 542.243774414062 546.143493652344 562.44091796875 545.367370605469 510.869506835938 460.075744628906 402.830444335938 382.387664794922 424.45703125 513.361999511719 572.218139648438 565.18359375 532.888793945312 507.711517333984 491.128540039062 485.243377685547 487.692993164062 495.046264648438 496.316589355469 513.204772949219 541.882507324219 552.562744140625 540.023193359375 515.571655273438 477.017578125 458.475280761719 446.703460693359 314.283599853516 176.971221923828
-9999 -9999 -9999 -9999 -9999 -9999 -9999 -9999 -9999 -9999 -9999 -9999 -9999 -9999 -9999 442.353698730469 -9999 334.524636404855 294.420867919922 252.696502685547 251.832458496094 324.799194335938 478.495880126953 580.470397949219 616.542602539062 643.565307617188 657.736206054688 648.312744140625 633.395874023438 626.718444824219 636.462036132812 657.240661621094 663.104736328125 654.38818359375 655.961791992188 651.440856933594 652.580505371094 644.332275390625 594.411682128906 548.713317871094 522.736206054688 513.409362792969 517.788757324219 492.964385986328 440.657165527344 383.432403564453 281.60546875 209.700164794922 197.704788208008 252.310073852539 397.010437011719 526.0849609375 546.189147949219 511.522766113281 487.292144775391 477.249328613281 467.410278320312 464.554870605469 475.58447265625 476.562347412109 480.438049316406 492.646179199219 493.316467285156 488.900268554688 477.809906005859 446.036376953125 439.654144287109 411.952545166016 262.879211425781 226.996826171875
-9999 -9999 -9999 -9999 -9999 -9999 -9999 -9999 -9999 -9999 -9999 -9999 -9999 -9999 442.353698730469 390.665995279948 325.512634277344 285.18505859375 260.532806396484 231.006103515625 291.473937988281 446.680297851562 579.019775390625 631.2236328125 676.221984863281 699.637756347656 664.273193359375 606.427734375 573.419128417969 578.801330566406 604.919982910156 623.300598144531 643.116149902344 652.633972167969 646.54150390625 628.181213378906 647.659057617188 638.181030273438 564.274291992188 515.843139648438 495.669738769531 497.249755859375 492.03076171875 451.589050292969 391.554016113281 318.504364013672 232.107406616211 216.17854309082 232.55419921875 271.502044677734 385.774475097656 501.537231445312 515.955322265625 485.215423583984 465.486999511719 451.688781738281 436.878662109375 422.577239990234 412.894500732422 413.984466552734 409.778991699219 405.570434570312 405.098449707031 412.448699951172 425.089477539062 429.512390136719 425.232452392578 354.772125244141 236.698425292969 301.505981445312
-9999 -9999 -9999 -9999 -9999 -9999 -9999 -9999 -9999 -9999 -9999 -9999 -9999 -9999 -9999 -9999 277.632995605469 261.006256103516 202.149520874023 226.053268432617 357.027618408203 550.091125488281 608.467224121094 654.30322265625 707.124267578125 684.537536621094 585.439270019531 505.619934082031 457.212219238281 456.842926025391 508.432220458984 567.9267578125 600.29931640625 600.650329589844 593.885437011719 619.773559570312 640.799926757812 590.260070800781 519.039367675781 488.335235595703 484.963409423828 492.122650146484 479.771087646484 437.710144042969 386.292602539062 328.929962158203 272.863616943359 278.138763427734 297.661468505859 340.124755859375 426.812164306641 485.892761230469 465.420471191406 445.555297851562 430.089477539062 414.597778320312 406.591247558594 387.663208007812 368.755828857422 360.421569824219 345.978210449219 332.996490478516 333.734985351562 362.128204345703 410.915222167969 434.098510742188 396.675354003906 313.094818115234 279.8662109375 345.131469726562
-9999 -9999 -9999 -9999 -9999 -9999 -9999 -9999 -9999 -9999 -9999 -9999 -9999 -9999 -9999 -9999 249.917144775391 238.828033447266 224.834075927734 297.858642578125 448.940185546875 577.197021484375 602.7763671875 666.294372558594 721.242736816406 672.549377441406 542.644409179688 461.269561767578 408.457611083984 391.098388671875 430.712982177734 508.674957275391 567.818603515625 580.899536132812 594.319396972656 613.957153320312 583.461486816406 521.38037109375 476.149597167969 464.050720214844 478.742279052734 496.174560546875 485.357452392578 436.516723632812 385.857604980469 371.633117675781 366.864593505859 381.241302490234 394.634918212891 430.549987792969 461.842926025391 485.675720214844 457.080230712891 450.663330078125 447.702606201172 440.018951416016 416.213256835938 384.950042724609 358.292114257812 333.018524169922 297.292327880859 290.597442626953 331.8916015625 385.736328125 425.080749511719 425.87841796875 356.031127929688 277.552001953125 326.699340820312 342.688232421875
-9999 -9999 -9999 -9999 -9999 -9999 -9999 -9999 -9999 -9999 -9999 -9999 -9999 -9999 -9999 -9999 -9999 256.171981811523 271.948669433594 392.536468505859 539.126586914062 603.461853027344 601.665954589844 659.150024414062 716.166259765625 695.430725097656 590.286437988281 499.279907226562 423.500671386719 414.841735839844 458.040008544922 519.250427246094 584.930297851562 616.666564941406 613.620910644531 569.773986816406 500.081512451172 461.624572753906 452.521026611328 457.306701660156 472.578338623047 492.990020751953 503.030242919922 462.021881103516 373.022918701172 364.398284912109 380.920257568359 396.925903320312 415.236724853516 447.741760253906 467.560211181641 483.631866455078 475.570770263672 474.753540039062 475.179962158203 444.739196777344 407.125396728516 363.747680664062 325.633514404297 286.641479492188 282.457366943359 303.967956542969 362.267944335938 409.195373535156 422.297943115234 393.461090087891 332.574981689453 307.667236328125 336.241455078125 336.373870849609
-9999 -9999 -9999 -9999 -9999 -9999 -9999 -9999 -9999 -9999 -9999 -9999 -9999 -9999 241.600311279297 238.828033447266 266.147518157959 280.512908935547 289.0771484375 439.435211181641 603.253540039062 604.908386230469 569.034973144531 606.509033203125 675.662719726562 709.067138671875 684.387634277344 640.656127929688 599.7021484375 588.845947265625 594.392272949219 612.526794433594 621.942016601562 595.200805664062 533.008911132812 472.057556152344 442.495056152344 444.354125976562 460.582397460938 479.113983154297 483.291778564453 487.537872314453 533.705993652344 517.990417480469 371.7763671875 342.857116699219 364.710632324219 384.290557861328 407.578247070312 435.847747802734 458.092376708984 470.601165771484 470.275115966797 469.278015136719 431.287506103516 380.018432617188 326.634765625 299.074890136719 293.712127685547 298.415435791016 324.272430419922 354.460571289062 385.784118652344 404.199584960938 394.784912109375 366.993316650391 340.268890380859 339.222564697266 351.755310058594 364.476867675781
-9999 -9999 -9999 -9999 -9999 -9999 -9999 -9999 -9999 -9999 -9999 -9999 -9999 -9999 -9999 -9999 -9999 -9999 413.640914916992 454.867614746094 602.815795898438 576.749816894531 516.8505859375 506.310424804688 541.585754394531 579.429504394531 601.904907226562 602.667175292969 591.029846191406 578.322937011719 560.990356445312 539.983520507812 508.158416748047 466.179870605469 432.439300537109 421.102386474609 427.268798828125 451.43310546875 486.190124511719 500.750335693359 496.321960449219 500.530944824219 550.475952148438 541.57763671875 408.116546630859 347.736419677734 351.847045898438 371.415863037109 396.143218994141 416.698150634766 431.609680175781 427.481231689453 407.460601806641 382.928588867188 360.000335693359 348.785278320312 318.788726806641 309.018249511719 316.162536621094 328.664398193359 351.352508544922 378.495147705078 400.180480957031 421.624237060547 418.188323974609 407.305297851562 384.616180419922 372.022033691406 374.864715576172 364.439544677734
-9999 -9999 -9999 -9999 -9999 -9999 -9999 -9999 -9999 -9999 -9999 -9999 -9999 -9999 -9999 -9999 -9999 337.023162841797 438.768356323242 471.183685302734 575.943969726562 551.792602539062 496.804718017578 420.404174804688 413.673583984375 424.136932373047 431.677215576172 439.139831542969 441.875610351562 436.518646240234 425.482391357422 420.626495361328 420.635589599609 411.772735595703 402.823547363281 410.880920410156 434.526092529297 468.711517333984 489.157562255859 486.61572265625 481.682281494141 501.003967285156 553.757995605469 554.440673828125 457.239074707031 362.272583007812 339.635070800781 352.394470214844 371.113433837891 382.31640625 386.061798095703 359.723602294922 321.247253417969 311.246917724609 326.172576904297 338.955932617188 340.494812011719 342.473724365234 350.401641845703 364.481048583984 369.563934326172 365.375885009766 373.281982421875 416.946594238281 388.719451904297 359.638275146484 338.447692871094 348.217132568359 350.505096435547 304.687866210938
-9999 -9999 -9999 -9999 -9999 -9999 -9999 -9999 -9999 -9999 -9999 -9999 -9999 239.258209228516 237.203403049045 -9999 261.257385253906 314.658096313477 337.023162841797 491.998962402344 506.836853027344 496.77685546875 466.213592529297 398.124877929688 380.894470214844 379.962890625 370.704223632812 370.543304443359 376.369659423828 385.807952880859 395.269256591797 413.345153808594 421.26806640625 410.853057861328 404.140533447266 412.9853515625 433.395538330078 462.998718261719 481.137878417969 475.003631591797 466.215881347656 484.728851318359 525.20068359375 556.404663085938 512.298522949219 409.381591796875 337.245666503906 328.486694335938 339.632537841797 352.750671386719 354.532928466797 320.227905273438 288.509002685547 289.435638427734 298.106262207031 323.079162597656 342.037139892578 347.957550048828 353.413024902344 368.475738525391 370.693756103516 310.168060302734 343.060729980469 363.325866699219 323.538360595703 296.449096679688 305.168151855469 307.245422363281 277.375518798828 295.244567871094
-9999 -9999 -9999 -9999 -9999 -9999 -9999 -9999 -9999 -9999 -9999 -9999 -9999 -9999 239.258209228516 252.010904947917 220.341094970703 302.173675537109 399.094451904297 453.330596923828 443.822204589844 428.706390380859 429.9736328125 416.2861328125 413.293701171875 410.737060546875 396.334625244141 389.565460205078 396.969757080078 395.653991699219 398.553283691406 422.656433105469 428.591583251953 417.855712890625 417.675720214844 426.471984863281 441.544586181641 462.864929199219 479.839233398438 475.468933105469 461.669342041016 468.358337402344 494.587310791016 525.062316894531 531.918395996094 491.028961181641 424.015167236328 381.199066162109 356.322357177734 331.447082519531 311.917663574219 289.206878662109 267.546600341797 255.889205932617 257.07470703125 286.046417236328 329.236053466797 361.506286621094 359.721740722656 380.402313232422 385.270446777344 344.445434570312 345.90185546875 317.361724853516 292.768890380859 290.172149658203 314.434722900391 300.939117431641 285.345703125 291.007904052734
-9999 -9999 -9999 -9999 -9999 -9999 -9999 -9999 -9999 -9999 -9999 -9999 -9999 -9999 248.814666748047 239.258209228516 296.433410644531 322.567016601562 352.708679199219 370.333801269531 379.31005859375 387.264495849609 392.226104736328 392.046997070312 396.332977294922 404.896453857422 417.895874023438 431.278076171875 433.571960449219 421.359741210938 419.853546142578 439.144073486328 442.742767333984 430.985046386719 429.505462646484 435.674041748047 450.641265869141 473.845520019531 491.594848632812 490.821044921875 482.516143798828 471.304321289062 464.998901367188 469.595672607422 490.382873535156 507.275177001953 488.609710693359 478.255187988281 476.437469482422 467.669342041016 460.185913085938 422.5 368.146087646484 340.069763183594 310.206665039062 273.325500488281 284.528289794922 321.001007080078 342.688995361328 381.008544921875 392.988403320312 377.127532958984 352.254760742188 328.722045898438 301.348907470703 307.427612304688 322.541656494141 293.739105224609 292.125701904297 259.494232177734
-9999 -9999 -9999 -9999 -9999 -9999 -9999 -9999 -9999 -9999 -9999 204.662719726562 233.418304443359 240.279159545898 238.78840637207 276.932891845703 318.606170654297 334.181213378906 356.014892578125 371.438262939453 379.924194335938 382.774444580078 385.832977294922 389.204162597656 394.599822998047 403.241851806641 414.113555908203 428.899139404297 441.240631103516 435.884674072266 435.818878173828 460.68212890625 458.162872314453 431.112182617188 421.021301269531 424.085845947266 442.202972412109 467.263458251953 489.808502197266 503.070617675781 498.934997558594 479.23193359375 469.734985351562 458.249359130859 457.269012451172 476.096618652344 470.110687255859 450.861968994141 458.257049560547 469.071807861328 480.989593505859 488.852752685547 502.312438964844 510.607391357422 514.09619140625 508.728240966797 498.774108886719 490.258056640625 477.712005615234 463.058197021484 442.819854736328 430.893676757812 403.470703125 364.700988769531 317.534454345703 313.379577636719 306.09765625 272.491302490234 268.57275390625 269.416229248047
-9999 -9999 -9999 -9999 -9999 -9999 -9999 -9999 -9999 371.153717041016 212.771957397461 188.003372192383 235.428405761719 268.823394775391 301.02978515625 327.864166259766 356.440704345703 367.917907714844 384.816101074219 391.888732910156 393.773834228516 397.111877441406 398.883575439453 397.069152832031 398.480346679688 403.9541015625 417.581329345703 431.703308105469 440.220550537109 443.290863037109 452.356109619141 466.642578125 454.939453125 432.391021728516 414.057312011719 406.151275634766 411.818603515625 424.951812744141 447.213348388672 472.619750976562 483.969818115234 471.914794921875 461.591979980469 458.562774658203 477.416900634766 479.051177978516 460.186462402344 428.163452148438 424.717926025391 425.615844726562 420.669738769531 411.177764892578 412.461975097656 423.541076660156 436.081115722656 457.591766357422 474.559295654297 480.173858642578 493.835632324219 482.558258056641 471.358428955078 447.221740722656 419.910797119141 375.161041259766 339.102905273438 340.249877929688 340.901245117188 285.073120117188 293.570556640625 307.412048339844
-9999 -9999 -9999 -9999 -9999 -9999 -9999 -9999 -9999 361.640319824219 210.831573486328 216.340576171875 257.758605957031 300.800689697266 302.688385009766 327.444793701172 371.103210449219 389.475982666016 392.040618896484 392.581848144531 393.000427246094 386.233306884766 378.572143554688 374.581329345703 373.563537597656 378.8896484375 397.604309082031 418.064361572266 433.815856933594 444.750457763672 460.825958251953 469.046905517578 443.993377685547 412.080963134766 394.717895507812 393.025115966797 399.21728515625 408.745819091797 427.388092041016 439.512542724609 433.821075439453 415.887542724609 417.543121337891 437.218780517578 480.743591308594 495.316101074219 460.483276367188 422.339019775391 399.088562011719 379.652221679688 377.249481201172 369.722869873047 366.283630371094 368.111450195312 365.199096679688 374.758178710938 396.849182128906 396.443145751953 438.476470947266 433.239227294922 449.102996826172 429.299987792969 408.495452880859 368.128845214844 344.923583984375 349.459594726562 323.914306640625 303.741851806641 317.256561279297 332.258422851562
-9999 -9999 -9999 -9999 -9999 299.13009262085 418.876678466797 368.023376464844 336.4873046875 243.020645141602 232.516708374023 265.740905761719 310.275390625 326.914154052734 342.847198486328 373.374359130859 388.640319824219 390.189331054688 386.831726074219 382.423431396484 372.472900390625 361.394317626953 357.465911865234 359.969787597656 367.359039306641 371.702484130859 381.320922851562 398.065521240234 421.425476074219 440.272979736328 453.239807128906 453.402435302734 419.857940673828 385.436614990234 372.511108398438 369.854064941406 371.938262939453 384.697967529297 417.205871582031 438.394165039062 429.848754882812 395.892761230469 368.673278808594 381.206573486328 444.360809326172 486.306762695312 463.936553955078 416.306457519531 375.195861816406 352.72314453125 365.127563476562 367.927856445312 368.413757324219 367.479339599609 364.678985595703 360.554016113281 363.042297363281 350.231140136719 380.213104248047 386.252288818359 412.3525390625 405.575653076172 384.965179443359 359.343475341797 351.529388427734 343.357574462891 267.725769042969 269.597412109375 250.618240356445 291.876373291016
-9999 -9999 -9999 -9999 274.969696044922 262.238067626953 240.435928344727 226.61376953125 241.781646728516 242.973037719727 265.680725097656 311.165710449219 321.600952148438 353.307647705078 376.527221679688 378.019836425781 377.437957763672 372.072937011719 356.713104248047 342.154571533203 336.560363769531 329.722320556641 318.491485595703 312.250701904297 302.055389404297 308.926544189453 350.342498779297 385.243560791016 406.234436035156 430.117828369141 443.648620605469 436.515991210938 404.355163574219 373.316497802734 354.744079589844 351.373382568359 355.21533203125 362.288696289062 394.7236328125 418.230224609375 415.496917724609 392.597290039062 366.318420410156 356.902648925781 411.451904296875 468.051940917969 472.350555419922 425.764404296875 373.689788818359 353.515930175781 369.873870849609 378.951507568359 372.070281982422 363.111114501953 365.361328125 363.23681640625 366.032104492188 346.494140625 364.246978759766 360.171569824219 365.629852294922 366.774505615234 349.145721435547 343.653411865234 362.972045898438 337.530975341797 285.972503662109 263.055633544922 269.390716552734 301.728668212891
-9999 -9999 -9999 251.937194824219 252.524520874023 217.378219604492 285.557037353516 310.075805664062 331.692138671875 341.685821533203 399.531463623047 351.492431640625 352.608520507812 365.540985107422 368.96923828125 367.4931640625 354.641387939453 337.676544189453 325.783843994141 326.300567626953 323.479187011719 327.064605712891 338.960876464844 334.481750488281 317.458526611328 298.653961181641 302.760437011719 347.318054199219 393.429382324219 414.871154785156 437.428649902344 431.205810546875 399.721710205078 370.043975830078 353.117858886719 339.719573974609 342.28955078125 361.161712646484 394.595794677734 415.294067382812 407.843688964844 381.250335693359 357.225280761719 343.103485107422 371.445281982422 434.479309082031 463.464599609375 434.529174804688 379.142883300781 366.228851318359 382.589599609375 384.226470947266 361.809234619141 350.340423583984 359.0908203125 368.659027099609 376.692413330078 355.883758544922 357.822204589844 350.851745605469 337.283752441406 339.211791992188 333.229949951172 342.428466796875 376.379943847656 358.479888916016 328.7744140625 291.509033203125 297.300170898438 301.115051269531
-9999 -9999 -9999 254.619537353516 225.635025024414 290.869415283203 382.874328613281 394.000396728516 422.732604980469 375.338714599609 349.894073486328 358.950439453125 360.402496337891 361.299713134766 358.145904541016 341.575927734375 321.387329101562 311.717224121094 317.605163574219 321.439483642578 336.537353515625 339.617340087891 333.094360351562 332.132293701172 315.857177734375 293.075775146484 289.495513916016 318.351928710938 367.77197265625 403.605194091797 421.798065185547 437.546112060547 418.315002441406 392.125122070312 371.837463378906 358.131164550781 355.303344726562 379.205963134766 415.925231933594 418.993041992188 402.503936767578 372.988616943359 346.116607666016 334.170806884766 352.164855957031 402.597503662109 445.01318359375 436.416687011719 382.489837646484 378.302276611328 387.090515136719 370.754364013672 341.455657958984 327.129455566406 337.369659423828 370.096405029297 391.73388671875 407.690155029297 361.956756591797 350.767883300781 346.127624511719 335.12158203125 332.011047363281 362.730041503906 379.240539550781 368.137084960938 353.688598632812 325.260101318359 326.55224609375 336.388854980469
