NCOLS 35 
NROWS 26 
XLLCORNER -80 
YLLCORNER 33 
CELLSIZE 0.5 
NODATA_value -9999 
-9999.000000000000000 -9999 -9999 -9999 -9999 -9999 -9999 -9999 -9999 -9999 -9999 -9999 -9999 -9999 -9999 -9999 -9999 -9999 -9999 -9999 -9999 -9999 -9999 -9999 -9999 -9999 -9999 -9999 -9999 -9999 -9999 -9999 -9999 -9999 -9999
-9999 -9999 -9999 -9999 -9999 -9999 -9999 -9999 -9999 -9999 -9999 -9999 -9999 -9999 -9999 -9999 -9999 -9999 -9999 -9999 -9999 -9999 -9999 -9999 -9999 -9999 -9999 -9999 -9999 158.953861723621 -9999 -9999 -9999 -9999 -9999
-9999 -9999 -9999 -9999 -9999 -9999 -9999 -9999 -9999 -9999 -9999 -9999 -9999 -9999 -9999 -9999 -9999 -9999 -9999 -9999 -9999 -9999 -9999 -9999 -9999 -9999 146.481210459579 180.436338393227 76.5238436656207 50.2710425482634 -9999 -9999 -9999 -9999 -9999
-9999 -9999 -9999 -9999 -9999 -9999 -9999 -9999 -9999 -9999 -9999 -9999 -9999 -9999 -9999 -9999 -9999 -9999 -9999 -9999 -9999 -9999 -9999 81.2774621947948 111.326784857255 107.875101774238 101.231000293975 27.1686984606319 -9999 -9999 -9999 110.975064309257 104.168499537004 104.202509997818 105.4831581338
-9999 -9999 -9999 -9999 -9999 -9999 -9999 -9999 -9999 -9999 -9999 -9999 -9999 -9999 -9999 -9999 -9999 -9999 -9999 -9999 94.5081160793515 86.4889227612324 120.592112356794 107.271279140072 111.143867178653 125.527879453632 116.50263228121 72.475042380393 -9999 -9999 87.1752548866747 108.993986197962 112.091747582562 116.199471905626 113.132178349223
-9999 -9999 -9999 -9999 -9999 -9999 -9999 -9999 -9999 -9999 -9999 -9999 -9999 -9999 -9999 -9999 -9999 -9999 -9999 98.0744990881487 108.104406868269 104.362456036473 106.620853042602 107.296540803215 107.153724781405 128.861936123711 126.872596070135 112.043978369958 107.245432340832 119.484947905502 120.70600035424 125.332354380317 138.718472328163 162.382350635639 135.442209466155
-9999 -9999 -9999 -9999 -9999 -9999 -9999 -9999 -9999 -9999 -9999 -9999 -9999 -9999 -9999 -9999 -9999 -9999 -9999 119.647649167485 126.424577363847 118.75108084436 119.030340744945 132.61406503666 129.456346704003 139.818813088339 147.147895090735 130.427518837487 125.63238668789 131.368010916614 150.209642759513 172.311640500892 174.87774981589 194.431484517519 192.867642785159
-9999 -9999 -9999 -9999 -9999 -9999 -9999 -9999 -9999 -9999 -9999 -9999 -9999 -9999 -9999 -9999 -9999 -9999 -9999 154.901092965051 139.091652889025 140.218690454664 152.205169644911 153.837737267439 156.81567122608 139.023223936884 154.863031596391 164.695094426698 176.503121575274 185.766036293021 171.300875035129 123.573556370671 152.955404611974 167.003378658185 167.399108563293
-9999 -9999 -9999 -9999 -9999 -9999 -9999 -9999 -9999 -9999 -9999 -9999 -9999 -9999 -9999 -9999 -9999 -9999 -9999 48.6160053766696 155.479681579862 156.799266256801 142.320099942661 151.812113592921 175.464878533836 163.463392693046 171.919806804508 161.032161013541 129.345400087019 102.012715093982 117.500462614446 122.646168107384 118.064135256287 113.194829455082 107.98516429768
-9999 -9999 -9999 -9999 -9999 -9999 -9999 -9999 -9999 -9999 -9999 -9999 -9999 -9999 -9999 -9999 -9999 158.553131818773 171.945297844855 258.591744715303 261.604462530588 163.269831196171 171.856191406197 199.58752989638 197.961309372462 193.578857111047 173.196239199726 111.54074287756 87.4708016404381 84.1743279764807 106.63459935937 101.678674617347 99.8212352320189 98.2652904923021 96.6883796697032
-9999 -9999 -9999 -9999 -9999 -9999 -9999 -9999 -9999 -9999 -9999 -9999 -9999 -9999 130.447656836878 173.512788193305 171.578644106926 202.688710737758 212.784632556996 233.131704311057 221.899371361733 177.899338793982 193.434495917665 179.26232191547 154.847236385712 124.632359258684 92.1237168191549 96.6793494760164 76.9910937513693 78.041215973466 99.5258287829413 99.4290843680816 97.5707880058754 94.0016201540487 90.7185410318903
-9999 -9999 -9999 -9999 -9999 -9999 -9999 -9999 -9999 -9999 -9999 -9999 263.572546182096 177.682777274834 192.985323166062 218.739901343852 261.18427831154 294.100580322673 277.524756319835 241.693825563487 220.85849309438 213.476539531238 202.198382534484 102.728854860356 115.632825902167 110.915722931605 93.2456162616692 79.4771066108658 67.488555249625 65.6829365265223 71.3869617311481 85.4168200079247 85.9160678566559 84.8231513546535 85.2395974849115
-9999 -9999 -9999 -9999 -9999 -9999 -9999 -9999 -9999 -9999 -9999 -9999 225.927201647024 192.981579873358 264.846850623322 296.026698904687 194.784565661775 116.061196781217 127.553726168068 152.478738793339 183.47673393295 150.500737157208 128.304585330624 123.679293779634 142.338487627234 147.54480268443 131.770255234103 108.39490447439 84.3745597580793 76.5256980305517 74.967158176009 79.6302369104555 89.568524231827 98.0067747889965 76.4711727631291
-9999 -9999 -9999 -9999 -9999 -9999 -9999 -9999 -9999 6.13990492139766 6.68256636399722 242.205565682349 217.642069426212 258.485993080735 242.643986261011 135.756528699016 107.657181477387 98.4088253927452 99.9210523645811 116.21330809524 113.541761235234 106.448841434506 113.333731451261 146.688384270013 176.422239282544 165.579510146511 142.656547130522 126.379181314229 116.122613779356 92.9990284313378 77.5601384935256 85.1264464415395 95.0880460929085 81.4193942735483 72.3133496956184
-9999 -9999 -9999 -9999 -9999 -9999 -9999 -9999 -9999 -9999 271.607668920664 234.03471665985 266.893267430775 269.397581953131 172.192995110362 153.921509738987 134.400371573303 109.885138774443 105.391136655125 103.932119420429 121.504795719455 162.925103114942 156.853765357163 118.756804882819 82.3652888231222 56.3730662886375 51.2812707407691 74.3773854777709 95.5149614886707 111.30438024086 87.7398147896093 84.0729839628657 97.8967826985396 90.2394744466621 83.2896215871427
-9999 -9999 -9999 -9999 -9999 -9999 -9999 515.311094404588 197.000218022531 -9999 273.14772939682 230.99570893023 211.040750713486 196.532448958309 173.272993854738 155.883038936534 148.00699549701 138.718877690056 128.783443888322 129.914199353017 149.358710466915 128.874530207406 99.4922227598318 86.680726413783 67.4892570860935 48.6401141919593 44.5860007452852 47.9468981771842 68.4273105433931 105.860957608716 95.8976037636233 84.1624645403634 101.509844605084 95.7268301414592 92.6431064269007
-9999 -9999 -9999 -9999 -9999 -9999 -9999 33.4529869373008 96.9784239653735 187.192706037618 241.393509076192 222.902506269805 168.514566447861 116.927532608996 75.6749096544609 63.1650924375465 75.5129429407808 114.717970818761 106.930040757387 130.119699239262 139.025428252922 105.044360343481 98.6554103418775 93.3861208501015 86.3361589254237 60.2962685366713 50.0953614184652 48.3447347330731 61.6132873495613 94.1533858601679 95.8319246455208 88.1168026740287 109.464797066627 104.052636895206 105.246625219891
-9999 -9999 -9999 -9999 -9999 -9999 -9999 182.272510109371 -9999 232.304890398665 291.235561338841 176.248630325632 118.378379191344 64.2361058399411 31.4534737344133 23.8064417224702 38.9581070001743 70.1157816009452 96.6747307172398 154.928254381932 116.301170986699 108.582851121382 108.791740041636 109.592175468717 107.694866526688 104.996578334512 69.0145093191962 59.3489242413869 65.7378178174291 84.2055641735319 89.87195935043 95.1842953036611 129.191784421392 108.395115961315 112.741055597431
-9999 -9999 -9999 -9999 -9999 -9999 -9999 -9999 229.012216976708 252.670511982206 384.338212660413 141.649730346138 52.95335266948 25.4807285903218 18.1414241447717 19.7544879190808 35.2533602286809 70.6560471811907 116.435260610913 187.373437903912 120.026467696696 118.997893996348 114.405489920508 121.81548331259 124.802851632764 120.575967329262 122.669288303613 78.066559228962 73.6814172670165 83.9475887377276 108.059428161766 145.182470006456 127.922708139517 122.994420827447 123.543688339352
-9999 -9999 -9999 -9999 -9999 -9999 -9999 -9999 -9999 291.857124076571 354.920062330159 98.9778362834082 51.1549746045571 33.686593117379 30.8326802980254 43.1736426082726 72.8590170492023 148.311519229785 196.858265604608 122.642279342793 124.381375506673 128.902012589292 121.906925184386 136.173677153885 148.757802160084 144.10622617613 140.302812210151 148.264583184185 104.704905466522 108.23842282713 120.645535926858 134.154212328984 132.317223945339 135.378083656515 145.375889438654
-9999 -9999 -9999 -9999 -9999 -9999 -9999 -9999 -9999 255.526647601026 347.612115478484 182.400956589942 105.880170489091 91.0624679559423 102.099030372325 128.815876606411 168.425223984995 180.676407750696 163.889852657098 144.632423141061 148.727152191692 153.184514286427 154.793514348129 150.594385293172 169.502936748003 178.757824987912 156.687989222971 165.921700761788 160.665630530856 147.21749057519 137.835833211294 152.55510428511 154.572002956562 140.585757231258 137.958928036125
-9999 -9999 -9999 -9999 -9999 -9999 -9999 0 88.1860961788296 375.180289101328 337.26610344195 194.349907112345 173.520870612709 181.505435863821 175.874776228263 169.588099128925 162.724460300017 166.812160579242 183.863605367516 200.086843371671 207.778478520111 200.973586491941 187.318713630637 171.704974975974 160.896218933533 190.328007282066 179.495855327442 198.065270166206 148.717375236963 146.472306166976 135.123056635351 124.031996242702 130.914344201074 127.943090507686 130.64257909289
-9999 -9999 -9999 -9999 -9999 -9999 101.04030908543 215.464033852571 404.552330211677 397.727094601877 343.629218780883 308.863730323223 292.663626655094 277.79389717299 268.679162846322 257.932310800707 258.963955906193 256.79142614825 257.384710484498 247.357938488288 238.285390248091 233.202321305018 222.935285065639 212.069479851611 209.261877487205 203.298050601014 196.376439164071 211.711390567583 145.29688861385 115.431907692869 122.052378579025 131.356691622618 116.841629588166 126.058446401151 136.934742527971
-9999 -9999 -9999 -9999 211.445923744445 280.868757894537 320.852702966628 371.764284618708 399.267433259823 341.86851210657 294.669569149664 272.218207919895 258.12801039271 239.008091345347 231.669130079978 227.145862483097 217.03206873002 203.456674913428 189.489744365527 173.738710301353 165.085125429664 185.664853695536 221.837188159801 232.331127897413 219.499024733395 206.077370435857 194.258657210279 213.746622135643 190.454701328918 133.950651414213 133.497862348282 126.965939281011 127.310665308317 133.874450673016 142.559069656659
-9999 -9999 -9999 286.684030342102 271.27284736843 338.703012951783 423.455644390192 379.570078098484 328.958434206822 290.29570312714 260.398202003999 229.991593401018 188.845683383307 165.662332576913 146.634489434022 148.548669193805 133.13749468068 120.662440904416 100.564273764837 67.4536213083694 62.6241535748673 76.1901495139783 110.739538089546 196.855252289775 233.13594397088 210.608611305398 199.325714032008 202.951273201385 233.220230142361 159.399891887273 142.893114637339 140.951707248542 141.045519069104 144.131827597572 150.074545278917
-9999 -9999 257.225717974233 396.563778224357 397.340632311741 370.145388416324 350.351078950002 313.657567985153 296.696960871343 249.26406108537 216.947898321885 172.594415534306 117.427505667529 84.9922673924306 92.2928696648186 99.9541939809835 108.04387690357 107.944947392855 64.8995514617774 39.3774135479868 42.4140197278377 61.7858129773005 106.753966435616 169.377222408231 223.941615725366 204.393011511977 201.323471902917 200.865306983538 222.31275518934 205.727463183759 167.09198351368 170.104874388069 169.87736732832 168.748867020355 170.709627865645
