NCOLS 35 
NROWS 26 
XLLCORNER -80 
YLLCORNER 33 
CELLSIZE 0.5 
NODATA_value -9999 
-9999.000000000000000 -9999 -9999 -9999 -9999 -9999 -9999 -9999 -9999 -9999 -9999 -9999 -9999 -9999 -9999 -9999 -9999 -9999 -9999 -9999 -9999 -9999 -9999 -9999 -9999 -9999 -9999 -9999 -9999 -9999 -9999 -9999 -9999 -9999 -9999
-9999 -9999 -9999 -9999 -9999 -9999 -9999 -9999 -9999 -9999 -9999 -9999 -9999 -9999 -9999 -9999 -9999 -9999 -9999 -9999 -9999 -9999 -9999 -9999 -9999 -9999 -9999 -9999 -9999 147.812274058706 -9999 -9999 -9999 -9999 -9999
-9999 -9999 -9999 -9999 -9999 -9999 -9999 -9999 -9999 -9999 -9999 -9999 -9999 -9999 -9999 -9999 -9999 -9999 -9999 -9999 -9999 -9999 -9999 -9999 -9999 -9999 201.863634038986 202.610120961006 80.6578298954571 53.2673129351237 -9999 -9999 -9999 -9999 -9999
-9999 -9999 -9999 -9999 -9999 -9999 -9999 -9999 -9999 -9999 -9999 -9999 -9999 -9999 -9999 -9999 -9999 -9999 -9999 -9999 -9999 -9999 -9999 133.202185746937 192.72460522767 188.91236596081 171.631334570116 40.6033494417306 -9999 -9999 -9999 144.467328889381 143.864412537999 139.55755720677 134.290265434859
-9999 -9999 -9999 -9999 -9999 -9999 -9999 -9999 -9999 -9999 -9999 -9999 -9999 -9999 -9999 -9999 -9999 -9999 -9999 -9999 133.74889251203 114.174138956889 147.438925202862 151.141667328748 154.41095353473 152.871649748714 137.616641332762 79.7794033676533 -9999 -9999 98.7525852538517 128.609466000407 120.816077423946 116.144911870684 115.258933510161
-9999 -9999 -9999 -9999 -9999 -9999 -9999 -9999 -9999 -9999 -9999 -9999 -9999 -9999 -9999 -9999 -9999 -9999 -9999 156.873086746662 171.425209878167 144.247539738383 129.73683959588 114.698265580444 107.129832051874 141.767452047292 138.531871982914 112.108947444687 109.397727162059 116.352872543941 119.136305728419 117.91871694245 111.949163126682 104.927108374232 94.7558268991535
-9999 -9999 -9999 -9999 -9999 -9999 -9999 -9999 -9999 -9999 -9999 -9999 -9999 -9999 -9999 -9999 -9999 -9999 -9999 160.826938959976 134.263126472171 151.909440680424 164.953562768379 110.459791617511 108.652664740631 142.25982888013 132.793556461758 121.170097229902 137.554524935995 131.542906788058 131.427513678259 183.681471648292 162.695806596914 146.621495475129 125.071894094703
-9999 -9999 -9999 -9999 -9999 -9999 -9999 -9999 -9999 -9999 -9999 -9999 -9999 -9999 -9999 -9999 -9999 -9999 -9999 141.564434417614 140.471354895395 140.618770344117 118.579513544459 122.931823849431 160.964439492178 178.416944302386 172.88727018339 197.432979897988 197.917721250376 180.759065576155 154.644440488994 100.69583624739 89.9002034732084 108.316835284286 132.739124766307
-9999 -9999 -9999 -9999 -9999 -9999 -9999 -9999 -9999 -9999 -9999 -9999 -9999 -9999 -9999 -9999 -9999 -9999 -9999 39.8411401921581 136.010360134333 129.976757380135 124.936893572629 141.181898699828 193.749142955827 217.002831206872 234.748812731611 202.680139599031 118.404550651215 104.537571597368 88.5969026980819 89.3817529133055 87.4412415704925 81.3640155615673 70.6313240088211
-9999 -9999 -9999 -9999 -9999 -9999 -9999 -9999 -9999 -9999 -9999 -9999 -9999 -9999 -9999 -9999 -9999 158.282113166958 142.736488495293 114.5130248861 135.077827737014 128.132205370107 146.305784091696 161.921700941599 176.69645313483 217.419084275506 223.034603674447 119.048540063775 114.855814597895 91.4866418116859 98.0131299216833 101.799805209977 105.446728731307 114.926068913506 116.101452031632
-9999 -9999 -9999 -9999 -9999 -9999 -9999 -9999 -9999 -9999 -9999 -9999 -9999 -9999 138.079918788031 176.938472351661 141.581542832019 130.902762895593 132.358544566457 141.606394506745 156.549800379066 164.744693768761 175.443330700253 184.643228278448 176.29567299256 144.935995019662 121.330163129208 109.698476164667 132.067090828092 155.309108806572 145.844875122918 140.618879480322 131.50345462246 124.226035552976 136.38464772095
-9999 -9999 -9999 -9999 -9999 -9999 -9999 -9999 -9999 -9999 -9999 -9999 390.276060148908 205.881556295563 213.234846823033 243.912262205608 292.705274792357 224.797479443108 198.514915854564 244.220263426023 203.187722975671 195.389362708626 163.360671363991 163.772536683706 200.855136139979 203.420226406835 208.555572101171 199.32101148256 165.793841703393 125.845138172881 110.638052566309 116.649908659129 145.258764722471 172.995353657428 146.108744487938
-9999 -9999 -9999 -9999 -9999 -9999 -9999 -9999 -9999 -9999 -9999 -9999 275.463214245471 210.923380321199 269.611222046942 191.758067355445 119.684462926383 149.806191918349 157.991955404619 209.422551173893 262.651980082646 294.008392116531 247.56964263138 223.015529602055 217.782940073686 214.585067311767 216.031189025492 223.809167874354 203.522654904091 150.196980031448 133.659040399859 135.150364736747 141.073071210383 142.264551490014 132.52327221701
-9999 -9999 -9999 -9999 -9999 -9999 -9999 -9999 -9999 8.31162910671326 8.89812906705725 249.454097253675 195.287177292856 285.870623917763 369.371117951214 330.07078771091 266.786239527938 224.667762086595 201.167437878636 210.844165984414 233.435499807868 261.865793093598 275.693053657777 236.857312376277 207.125034524083 188.161477674328 188.333153176693 205.785791374388 210.208786788323 167.476023303408 128.49903886948 128.150784960447 144.707639971837 146.967510542219 133.893266821143
-9999 -9999 -9999 -9999 -9999 -9999 -9999 -9999 -9999 -9999 337.035808680608 249.7030432502 320.796810982646 405.426079458373 471.416758062197 423.260437624695 379.342173568063 369.225965222723 342.461349803986 288.969075506922 222.205664409512 231.413210783232 276.12595817571 235.276067046177 188.991511021625 136.697499376712 127.228309510792 152.723682892602 206.26561389791 182.467150776998 127.933405521167 135.915227417367 158.478661355943 155.006922675335 132.584765066823
-9999 -9999 -9999 -9999 -9999 -9999 -9999 609.331711438999 220.931310271176 -9999 299.935925270961 334.235353163048 472.647195348599 489.351766505532 363.666770197403 321.632117406205 321.08926911925 325.642468524532 327.710076697165 311.01241807329 293.233367375493 262.720557406072 274.352307064147 222.445301287867 178.136571070738 130.527191213615 115.092896142917 122.132320507388 168.616353674815 201.357357870234 163.987687365763 160.823096247879 180.879184177765 158.646488176439 129.123845236151
-9999 -9999 -9999 -9999 -9999 -9999 -9999 36.5919656019923 103.898437977889 217.692354903904 353.615953720532 474.373065961733 463.290570681964 402.681691206733 347.444538655134 316.470120232788 299.682815780124 285.607408816983 282.296382478789 300.687737672674 316.15720049258 308.847964313334 243.161664769332 220.147734879798 176.526489736441 134.738246704013 121.23617791762 113.284177986557 133.720491431782 178.643995553595 189.296028359511 190.960942037289 182.321029425673 148.014553179081 127.075818144522
-9999 -9999 -9999 -9999 -9999 -9999 -9999 204.316811037592 -9999 310.138135196874 496.569303136279 496.277756250672 424.792981416791 363.900410868067 323.125033159696 294.952924784362 269.767814455898 246.856210627389 239.327143599133 248.910099585668 278.873185937179 306.661049265575 258.367780098095 231.456518229598 194.128204808145 137.61680334777 125.698466851883 101.034071626011 111.578465871829 135.115382538163 165.615848254864 171.766427598937 152.108562177088 134.789224440653 129.100404854626
-9999 -9999 -9999 -9999 -9999 -9999 -9999 -9999 219.431081608361 351.627606442212 528.16290650747 473.206036856515 392.227698811758 338.478264149115 282.945200810543 229.041070172195 167.134230943597 134.174491717229 147.963432992478 193.813747712351 242.438518974413 289.663532204685 267.664131717735 252.322600884515 216.548365731964 162.375799541667 130.802150201422 121.706599511121 126.822681710309 134.311071732928 131.023968217874 123.84762813426 121.792000790219 127.133132459135 139.181455340392
-9999 -9999 -9999 -9999 -9999 -9999 -9999 -9999 -9999 406.554460906983 484.42886912946 431.086996969372 358.890949657133 284.211485462547 195.44779718601 138.423761630662 103.917612378789 101.604008758382 114.931161877381 147.625328801312 226.459615834279 271.329344056783 282.62559583308 260.163452898639 225.856617086948 208.75010692029 156.274716512251 134.108445167315 143.917331413612 170.07251209702 179.881454875456 131.47933482008 126.86017752971 137.718399841345 156.932778076827
-9999 -9999 -9999 -9999 -9999 -9999 -9999 -9999 -9999 275.061712074284 426.845645686702 363.598328520641 309.910007202949 202.57212970946 155.557879879073 131.214170016626 116.757972267905 118.515066637138 130.776104271863 168.46626571673 226.610048880367 261.931695526018 274.658855829603 251.067286083274 221.019262435138 196.543486036258 184.236346943633 140.047619823186 154.306812471226 177.555801582256 179.87206035122 161.8358445451 144.690274185532 152.992386613966 170.735205983362
-9999 -9999 -9999 -9999 -9999 -9999 -9999 0 98.3700232317152 382.293278409138 335.696643234385 310.464259570515 224.007583274448 174.797876807234 158.084128342269 172.296921638465 178.198118041618 200.46892666404 200.593621599105 214.357522153862 229.133071804405 236.503774064335 253.448672870122 231.186101319544 205.342025430408 199.785646581317 204.63642144765 158.193119206172 169.662886651404 195.386332315723 196.441599778345 176.14927034921 152.445117695318 158.363450769179 165.934301356873
-9999 -9999 -9999 -9999 -9999 -9999 111.761791697705 252.265992072917 421.334743684638 337.49100582407 296.138083246829 228.877773189493 185.435948634508 187.74789243752 189.857538910618 208.913016351241 224.938916792709 231.338059172168 236.177285589825 235.273419019937 221.044712568107 219.759722447534 204.16615844535 197.162241368465 185.438400189861 189.056315442395 214.178814129133 170.961544931817 180.493469136011 206.145227210369 210.800612915787 209.582994180434 205.052713631728 214.557255269 228.224772551098
-9999 -9999 -9999 -9999 241.208705227182 304.608189426149 344.457804494375 372.919777481491 325.389027507743 299.838859446303 248.209200850781 204.448019653874 203.139844081504 214.386209683003 224.084164244374 247.033442002385 271.982093783035 284.714492564882 278.601918096213 242.943751894265 215.46826614544 199.49749461829 182.407472415709 177.568326656948 177.032589451297 199.047328265363 219.227953215084 191.161902688135 202.351829341016 210.698744811172 215.659696983864 219.355775071645 228.424359338199 233.573898233916 240.26920631655
-9999 -9999 -9999 324.786672907609 319.020940044949 352.638349356756 384.227885505356 339.70397250281 286.776581460074 265.559309543662 233.693898598603 221.4974693467 227.241706504499 240.139517775172 255.108252228027 279.716573108501 294.84066141971 287.019237379343 283.899971552685 245.382965428541 203.153428062926 183.78554591608 176.159620231046 181.718664852949 192.390926973084 211.986394350818 223.227772356132 212.167972374444 221.739528265701 223.027789663885 227.084527049461 233.058566293964 253.281575320314 243.035284980693 249.825013894808
-9999 -9999 282.31861943989 393.793383128826 406.199951851317 370.979248828993 316.998900471117 271.620744158343 258.036102723943 243.629644057164 247.073267117327 237.05700048079 230.031590221841 241.560786333369 252.612276139566 265.475234475795 272.649345239982 265.891985784191 248.911891440695 215.816897552269 199.489382414925 183.71002810216 187.243575439524 190.145320848785 202.42774908588 214.003794417518 222.767487206426 226.66094863529 239.105727003079 246.057758598816 254.048488095099 257.447228556861 240.416034269416 240.452274714239 258.662141868475
