NCOLS 35 
NROWS 26 
XLLCORNER -80 
YLLCORNER 33 
CELLSIZE 0.5 
NODATA_value -9999 
-9999.000000000000000 -9999 -9999 -9999 -9999 -9999 -9999 -9999 -9999 -9999 -9999 -9999 -9999 -9999 -9999 -9999 -9999 -9999 -9999 -9999 -9999 -9999 -9999 -9999 -9999 -9999 -9999 -9999 -9999 -9999 -9999 -9999 -9999 -9999 -9999
-9999 -9999 -9999 -9999 -9999 -9999 -9999 -9999 -9999 -9999 -9999 -9999 -9999 -9999 -9999 -9999 -9999 -9999 -9999 -9999 -9999 -9999 -9999 -9999 -9999 -9999 -9999 -9999 -9999 134.082242984155 -9999 -9999 -9999 -9999 -9999
-9999 -9999 -9999 -9999 -9999 -9999 -9999 -9999 -9999 -9999 -9999 -9999 -9999 -9999 -9999 -9999 -9999 -9999 -9999 -9999 -9999 -9999 -9999 -9999 -9999 -9999 143.286710964321 123.632255523811 58.6935358697255 40.9019372174803 -9999 -9999 -9999 -9999 -9999
-9999 -9999 -9999 -9999 -9999 -9999 -9999 -9999 -9999 -9999 -9999 -9999 -9999 -9999 -9999 -9999 -9999 -9999 -9999 -9999 -9999 -9999 -9999 107.107393466104 145.862774256617 115.631287695385 91.8086139525056 20.1247123253516 -9999 -9999 -9999 79.7757901712392 81.4558519144251 84.4720332746876 86.6876509502675
-9999 -9999 -9999 -9999 -9999 -9999 -9999 -9999 -9999 -9999 -9999 -9999 -9999 -9999 -9999 -9999 -9999 -9999 -9999 -9999 80.3740183501865 92.5763075372292 129.930018455242 98.4248078539446 78.1929950826893 74.318334711501 69.3714741206738 49.6644212685242 -9999 -9999 61.9613375716891 84.0387084727621 85.0695777405987 79.8981769909944 74.610904998466
-9999 -9999 -9999 -9999 -9999 -9999 -9999 -9999 -9999 -9999 -9999 -9999 -9999 -9999 -9999 -9999 -9999 -9999 -9999 80.387022051308 113.669109794489 107.707943180379 94.0027772430118 85.8678803351582 87.5023387559044 80.6499032939521 75.0136802521453 74.5252997745033 71.3673185957079 84.8122414193423 85.1105582035835 80.9451964077052 63.0454177363254 45.7861894731128 47.2800570691342
-9999 -9999 -9999 -9999 -9999 -9999 -9999 -9999 -9999 -9999 -9999 -9999 -9999 -9999 -9999 -9999 -9999 -9999 -9999 106.396955780219 96.0438603323703 96.3287585358147 99.9020654227153 125.716222843961 110.302620713566 89.0625959033081 83.3251592776614 82.5830433482437 82.8253893055687 81.9066558949517 72.9841429349358 61.0212048256663 57.2445770851098 65.2791421815619 76.0708463737206
-9999 -9999 -9999 -9999 -9999 -9999 -9999 -9999 -9999 -9999 -9999 -9999 -9999 -9999 -9999 -9999 -9999 -9999 -9999 112.667755580682 93.6410164137383 96.9189606516071 115.530898273118 130.421235750802 118.186818148397 105.058397860106 105.078253825529 98.8530062851718 95.3670133910582 84.7237992920533 66.7983343653704 58.2088459684364 66.2435648239481 78.0504431111806 89.2199497926379
-9999 -9999 -9999 -9999 -9999 -9999 -9999 -9999 -9999 -9999 -9999 -9999 -9999 -9999 -9999 -9999 -9999 -9999 -9999 35.5283852765852 103.849411298538 100.164277843817 104.362274236297 129.231286770586 133.253281742929 127.471423657337 127.135343471988 107.822180881636 98.1075602999086 75.9523544035171 64.6957547568014 63.1921466479177 64.7834599948245 72.041294759064 78.2185862165567
-9999 -9999 -9999 -9999 -9999 -9999 -9999 -9999 -9999 -9999 -9999 -9999 -9999 -9999 -9999 -9999 -9999 123.493186327129 165.343704182237 177.003863694118 163.565606737138 112.162279926074 134.387224156793 127.605708755504 127.00756008625 144.60735654867 134.81086228688 110.949411832858 100.661263703322 131.971909017294 159.104547141646 145.747310129056 131.303452917102 113.753458112059 97.6712762783953
-9999 -9999 -9999 -9999 -9999 -9999 -9999 -9999 -9999 -9999 -9999 -9999 -9999 -9999 125.873219483765 153.684306059925 143.915565867378 156.716623833546 162.571369679829 170.101770445672 160.358238014284 137.752729294883 169.016870461977 180.85700675629 175.208598783383 163.981313137563 124.773581336983 117.064126895998 149.607276122431 125.273815519318 105.427411000883 117.05241331893 128.541226105083 127.215453358311 127.689049782761
-9999 -9999 -9999 -9999 -9999 -9999 -9999 -9999 -9999 -9999 -9999 -9999 217.161979265265 151.27083917437 154.657860774391 178.972841448853 209.935440836143 236.758485070287 216.454326089186 194.571698066068 178.549992546169 173.407429013983 165.646175563327 139.737552502789 156.367134858135 165.254620251512 166.903178400749 177.95503407211 181.132282665341 168.291067134535 167.215511155637 159.00184782933 149.864827018808 141.168307409983 126.355759475636
-9999 -9999 -9999 -9999 -9999 -9999 -9999 -9999 -9999 -9999 -9999 -9999 239.97675534133 167.128029386552 197.637033178928 186.071533910972 91.2989955607969 158.184194550366 186.390476452358 178.102045881194 223.789760213183 202.032769589585 173.574034968657 133.69209107694 130.322843839888 122.135211702764 114.981604755759 111.374908983721 109.199299167913 106.935792071497 104.51688498065 96.8078586028317 93.3180900638334 109.085130381429 130.389020552959
-9999 -9999 -9999 -9999 -9999 -9999 -9999 -9999 -9999 5.32876937572966 6.18331831418766 301.623811819789 206.557109151567 193.356769750947 183.603344775205 151.791587142965 156.084478459933 157.002988072114 164.22438481607 162.493946068305 164.105370067334 175.976835992907 176.486343907615 134.976004102744 124.770415317683 118.420595530139 115.864844524587 115.229041617041 108.853702804941 89.4057992850114 70.0396712347044 59.9404604455599 60.5036505196436 93.4692715141162 137.797422770696
-9999 -9999 -9999 -9999 -9999 -9999 -9999 -9999 -9999 -9999 239.67569732666 205.893243590817 194.243087951299 197.440568829206 143.535177398591 182.360184546911 204.196215826262 216.781756122703 212.590103316125 190.764539126823 178.796888564269 167.077598299028 161.663314382994 172.968135818947 137.584719704144 125.096053001903 121.917613960031 124.59468353765 147.714244466017 113.924849066565 59.1297498839812 48.2714700165204 50.9422747687446 75.1031013372101 111.879714478695
-9999 -9999 -9999 -9999 -9999 -9999 -9999 530.950607703294 204.922646180882 -9999 245.877214285043 199.149087141634 155.063164526862 151.331997697513 188.166371573808 202.124215201426 207.995033931721 220.323043575932 206.369036491365 168.131741865908 163.513214689114 162.728579079655 155.741241172981 154.66173854047 164.757608668019 143.19424894603 125.328167514168 125.310888315484 124.665876495758 155.688656770628 107.938333387328 63.5548793738279 57.0902313672129 60.9248070166007 87.0509688440422
-9999 -9999 -9999 -9999 -9999 -9999 -9999 35.7127963579597 103.823733182009 196.996197969051 218.404074093012 246.689731799981 202.813245866421 218.887323754966 218.549038052337 229.569457325273 255.971677315664 271.253158946163 231.507927923819 165.141516897437 156.824027257735 149.977049221838 114.408777314922 127.677123282905 156.015201297755 162.914871651891 140.778200855111 132.706805933256 130.256705332607 125.318963931067 162.588415257951 112.201575612119 85.4925602307685 85.035505788643 84.7498650095291
-9999 -9999 -9999 -9999 -9999 -9999 -9999 190.312122014857 -9999 232.993441301911 252.72961713729 350.569997041621 266.275391630966 291.250325469193 312.433203085937 327.319093864288 331.776102269417 334.882642035903 266.570117101343 186.387602270485 172.781490393918 169.488935827361 119.641989468335 105.680074495762 128.468386029754 153.89237724295 154.438339753364 149.792588474501 142.816535137582 132.271436524046 142.970498195137 194.82426939344 119.628802640916 113.46520361622 110.758203162466
-9999 -9999 -9999 -9999 -9999 -9999 -9999 -9999 190.419801248821 228.069937234135 304.236021823602 369.660748149959 363.27996391873 365.904208927809 352.388196415318 357.963592007743 331.749208222868 321.774650064447 275.839950195374 212.458273250317 194.12851553072 203.367213153136 173.533126809494 125.642157101864 112.277758300951 127.212318289409 142.070038538468 142.25299068598 142.966522952818 148.997930516676 142.953151977406 201.560152804298 173.135022989864 139.883589154318 134.635952890075
-9999 -9999 -9999 -9999 -9999 -9999 -9999 -9999 -9999 273.91216505255 373.520550002848 445.72407934175 375.817503964409 297.895803930747 260.733390191087 262.386496656221 281.985683878489 283.978582653554 262.411574588881 227.017675565324 212.547874492079 223.76177760959 240.818500554078 209.645289327232 150.922959219478 135.364499781257 137.340824895565 141.097775000879 155.699901129379 156.97694261867 146.278531812119 197.538566537295 157.507104120617 151.66405118938 164.825576029866
-9999 -9999 -9999 -9999 -9999 -9999 -9999 -9999 -9999 237.595187091307 389.783279174537 398.361108542185 343.500029339324 318.472796577016 266.294498696399 270.936680260848 300.40360821259 275.902240674279 261.014933110442 227.629748991755 224.048781847674 245.437741114926 247.207530802955 241.875891905625 205.955786235774 199.230113246034 200.60126399625 194.444586414812 164.824945809934 134.476052122686 149.47640060789 160.183201569255 138.812479578204 165.348351817851 162.109959154923
-9999 -9999 -9999 -9999 -9999 -9999 -9999 0 92.801577642461 377.545326645155 407.716626438871 389.562278675079 346.379881760515 321.69760741536 302.030301295023 294.767187198726 321.239005681022 282.453870471763 261.181105818699 247.413801915425 260.286212111004 289.334241707218 274.02550315703 271.59511588454 249.740419326808 202.846486124044 215.704387871158 230.985720158013 191.814292706262 147.88412157342 136.348013114475 136.693476539342 164.521994997023 172.294119094881 158.029492913177
-9999 -9999 -9999 -9999 -9999 -9999 95.9700383416928 228.127079096474 398.575569340956 383.797990932721 369.037170799644 330.405342984512 303.702562557752 275.186443725425 279.881710264917 289.756808262166 299.982486005787 278.621834775821 268.216991160722 310.560383071136 347.03158246767 309.646117638079 277.13601167895 278.015222726685 265.831956036517 235.228348553446 229.175871427977 238.49816091251 204.689832321367 209.31878819605 172.183411661218 160.780497035866 199.443233441781 178.668317617462 158.749121477663
-9999 -9999 -9999 -9999 223.074403134012 248.326699857659 295.931604796189 395.664523020334 382.700053583818 345.391236772506 314.260530232292 265.340828542394 235.437147765932 217.619975670447 231.851886707908 300.92849019702 319.77977760029 295.160592271479 314.666139158026 371.029798708452 320.479015162636 264.11078583131 234.716718708412 252.488631739988 264.839970233948 255.112729944971 240.90131986176 265.740019677854 204.838988119931 197.885643270515 204.831846385227 228.150027110182 222.22045960783 199.221585198282 196.286047736261
-9999 -9999 -9999 292.172769062336 281.566383675167 327.107016926808 435.928667900075 386.048475391243 343.242466404978 310.351855467612 247.720614685011 210.727301888447 200.83667225381 208.983160608305 253.563223505404 331.97419672772 338.696256058834 323.325695489091 377.442566557875 347.697780970983 266.269589125818 218.152695251313 211.067519268494 231.091872994248 248.062814388528 272.641854086182 252.54136814766 285.330357313488 233.492913314933 223.700876622678 235.807589504102 241.341459693011 223.701371487383 195.256167016283 169.92890878926
-9999 -9999 248.208792765062 386.877263487301 417.266602232637 421.870618556949 389.151660998398 327.803155833399 328.534463675221 238.585691469359 209.114482753249 191.783780772269 221.444758416841 273.781901061376 295.144647962358 344.169849145125 333.510305516656 296.836554423356 343.409420554793 280.279789638561 223.799430171348 214.490279398393 213.892991265332 227.462770604198 236.958408465925 228.211397973588 234.929971663752 292.820742968193 291.670972669661 284.591668484349 281.210486739835 259.545740066227 259.794379054705 241.95340023041 233.717532250609
