NCOLS 35 
NROWS 26 
XLLCORNER -80 
YLLCORNER 33 
CELLSIZE 0.5 
NODATA_value -9999 
-9999.000000000000000 -9999 -9999 -9999 -9999 -9999 -9999 -9999 -9999 -9999 -9999 -9999 -9999 -9999 -9999 -9999 -9999 -9999 -9999 -9999 -9999 -9999 -9999 -9999 -9999 -9999 -9999 -9999 -9999 -9999 -9999 -9999 -9999 -9999 -9999
-9999 -9999 -9999 -9999 -9999 -9999 -9999 -9999 -9999 -9999 -9999 -9999 -9999 -9999 -9999 -9999 -9999 -9999 -9999 -9999 -9999 -9999 -9999 -9999 -9999 -9999 -9999 -9999 -9999 388.471833885681 -9999 -9999 -9999 -9999 -9999
-9999 -9999 -9999 -9999 -9999 -9999 -9999 -9999 -9999 -9999 -9999 -9999 -9999 -9999 -9999 -9999 -9999 -9999 -9999 -9999 -9999 -9999 -9999 -9999 -9999 -9999 465.518954553489 328.415996265402 173.914034199713 124.027798123199 -9999 -9999 -9999 -9999 -9999
-9999 -9999 -9999 -9999 -9999 -9999 -9999 -9999 -9999 -9999 -9999 -9999 -9999 -9999 -9999 -9999 -9999 -9999 -9999 -9999 -9999 -9999 -9999 212.681493480078 281.998875203652 225.324260369817 124.732537098108 26.2367425665041 -9999 -9999 -9999 162.572522994933 147.095740761895 126.686012181819 103.619104161349
-9999 -9999 -9999 -9999 -9999 -9999 -9999 -9999 -9999 -9999 -9999 -9999 -9999 -9999 -9999 -9999 -9999 -9999 -9999 -9999 222.412191872414 174.68872336262 166.304424910709 116.507390653002 91.440114208153 76.8519586614234 74.5373299821946 82.7864051810824 -9999 -9999 108.080464058014 101.837565829042 83.7700077417966 95.9597354844734 102.428264372388
-9999 -9999 -9999 -9999 -9999 -9999 -9999 -9999 -9999 -9999 -9999 -9999 -9999 -9999 -9999 -9999 -9999 -9999 -9999 207.590962269357 177.676526996183 115.454439664027 99.0997717369618 89.9312387743721 73.1331005564125 69.2560678205755 71.8922495645294 80.8591274320873 86.600234753859 96.3343854073304 90.0857609323339 88.9891935213639 99.2563388498564 110.854395415628 112.752532635352
-9999 -9999 -9999 -9999 -9999 -9999 -9999 -9999 -9999 -9999 -9999 -9999 -9999 -9999 -9999 -9999 -9999 -9999 -9999 218.717787191477 96.4414847039331 64.840333335894 59.8206751275596 58.9247657274873 66.356627755193 71.4232739758632 73.8681246429341 73.0729666042274 77.4937027474334 86.6129547545686 98.6320166702799 113.809193092427 154.797767242894 193.336293049168 244.167024052008
-9999 -9999 -9999 -9999 -9999 -9999 -9999 -9999 -9999 -9999 -9999 -9999 -9999 -9999 -9999 -9999 -9999 -9999 -9999 191.854003445087 103.124796017938 68.4258251829525 65.334188482429 68.3537354934619 72.1922006037854 69.1832475317053 69.6539038036148 75.5621756429386 86.1312206557975 108.496793809356 124.345537788713 150.205055010268 223.571605190434 280.333351292001 311.877601291796
-9999 -9999 -9999 -9999 -9999 -9999 -9999 -9999 -9999 -9999 -9999 -9999 -9999 -9999 -9999 -9999 -9999 -9999 -9999 42.6283473407834 122.328764580518 82.7557105806352 71.5347689195661 98.8043889015281 105.089472965531 89.0984811498078 80.8274440976576 82.4528965274187 131.747584828089 270.698577491174 371.70273387586 329.010238642243 263.113959678221 247.497560661166 268.819141470245
-9999 -9999 -9999 -9999 -9999 -9999 -9999 -9999 -9999 -9999 -9999 -9999 -9999 -9999 -9999 -9999 -9999 182.239000384627 103.269327739831 87.1927033424376 96.0831791583489 81.1623527294915 119.606973580934 166.427146513122 137.728179585017 123.682169272022 138.42096313555 147.795359097078 190.826306961395 316.042708103983 402.948204731712 489.003870269473 440.411343578584 402.85531232665 311.93125331813
-9999 -9999 -9999 -9999 -9999 -9999 -9999 -9999 -9999 -9999 -9999 -9999 -9999 -9999 142.204398169886 219.366146164019 139.179496634267 94.8635800595467 106.275108623439 103.87784298737 114.448887326691 120.593167431702 239.770567949329 219.641043062099 198.166141318759 206.076974296447 239.784996955045 307.027965622802 355.965020046173 359.413367416902 429.281925064737 501.6146837335 510.400794305549 503.74302134166 441.301579244107
-9999 -9999 -9999 -9999 -9999 -9999 -9999 -9999 -9999 -9999 -9999 -9999 390.193498286568 126.889268151875 109.48759295364 118.918546003103 131.364864809959 145.857347574802 142.226365453549 161.586421758735 182.323023621091 219.338716893235 292.526509179498 366.315127566281 434.442327771647 448.740184930059 422.585292539506 406.783853450489 485.270453175337 531.300489356105 561.121397558479 552.286811956098 583.036913554174 491.703998643746 430.525680246571
-9999 -9999 -9999 -9999 -9999 -9999 -9999 -9999 -9999 -9999 -9999 -9999 263.131002583345 101.979897491225 108.161620757672 176.248698061949 284.278977622587 326.094572233758 353.179875807237 340.057335863886 378.06623896173 380.727527363526 427.258415088966 471.73371776104 504.738209768301 513.47694048864 537.635874857414 545.779383593906 546.456314207624 528.316087544703 514.613385374104 490.878206362793 498.809705902755 545.02826259851 588.036667522462
-9999 -9999 -9999 -9999 -9999 -9999 -9999 -9999 -9999 12.5257327614295 9.35010314354855 272.016224873199 160.477329589508 117.181999166818 183.307606169773 283.10517663232 334.309624419953 475.7918582421 400.96706560164 326.229495114479 272.022031591274 264.111296910401 369.381472418193 465.448592475761 461.43082484445 444.081697799514 459.673224021809 501.244113500628 541.15437734193 557.62109689789 558.706123133021 543.086101355775 541.223632583856 521.076173691467 530.29548713337
-9999 -9999 -9999 -9999 -9999 -9999 -9999 -9999 -9999 -9999 265.048375012325 154.897326547367 136.13098915871 197.423867360124 346.704733582816 416.019013106207 452.934525671406 466.65028052444 458.334763804909 352.189187225238 289.177249960623 300.054201270037 414.303267842777 461.511174776301 463.666897302346 478.236226827411 450.033367213439 462.298209825088 488.596907929399 521.282703551043 557.79288274072 572.148177198372 543.669671640032 531.069327687882 501.150094243114
-9999 -9999 -9999 -9999 -9999 -9999 -9999 713.690001885985 259.394679323142 -9999 183.532460421782 184.878058868335 374.425095832689 492.119759485686 444.335524634223 404.582676001002 385.930983027542 425.21471763985 465.616828101864 432.504411266346 363.219705093717 360.777598129031 446.914662891922 452.691731360296 543.626204801919 537.458057546915 486.981199845952 472.568555598055 469.676057240302 486.940629519522 556.27577273087 556.453814028584 493.075824390069 473.762011616102 553.620542348554
-9999 -9999 -9999 -9999 -9999 -9999 -9999 45.9051132202121 127.547221661666 158.479317259528 205.16162503866 317.172555146239 470.483793275582 440.935080729358 354.975993905106 300.16563889514 289.297311267011 297.888417347908 327.04779281143 427.773876601666 449.641857969465 410.472578342826 443.666720781582 462.264112340759 543.390109547581 549.826548522901 498.561872072322 487.877497043109 486.660348425868 522.240744498228 567.818370765534 574.917505349428 596.344486192816 592.415606429929 545.112305771744
-9999 -9999 -9999 -9999 -9999 -9999 -9999 244.937533441486 -9999 234.699772275148 227.66817146933 384.91894584555 436.403018550331 353.378170512309 276.344861970908 320.218819020865 340.533794330686 330.131623953769 336.186266530251 320.529773057177 424.9310443845 425.169411664317 446.926936172816 470.442729424824 549.608836882727 534.661866655633 505.762535937167 498.347190851631 499.466248699137 528.403791157191 536.067039141844 537.74388986112 520.163727383435 516.967939952802 520.725947878614
-9999 -9999 -9999 -9999 -9999 -9999 -9999 -9999 205.962099770135 196.614886817828 294.05605907867 418.196033338659 398.143202985021 261.541946063409 328.779783419088 344.598850649048 336.499220920416 342.817093665088 339.210453366022 327.253967620238 403.160575024433 430.819092322577 455.700203294236 423.185209843473 520.281794743803 547.381420234918 517.642926864398 501.776342139217 483.261540272973 423.218607588216 445.352853868121 483.265836224927 468.134603352911 503.225660829849 557.184544545866
-9999 -9999 -9999 -9999 -9999 -9999 -9999 -9999 -9999 332.405710424697 431.118256385776 441.115279517476 315.395414821277 258.102883313914 325.630466808887 354.035707181635 341.13116854619 324.214981210076 343.620847263062 349.242016311391 421.850364265282 439.890851971019 465.026856953231 410.055867240122 401.596312701205 464.566259058295 468.628771194752 492.241794604556 379.070823489389 295.043611692718 325.928606093611 401.051515550748 452.519930537796 485.19510870109 525.01153311831
-9999 -9999 -9999 -9999 -9999 -9999 -9999 -9999 -9999 269.857976827521 483.053869934478 427.132300181117 247.499092878411 297.142554994653 334.2971781767 333.986293184609 337.429228405806 333.094598097903 348.233331632449 358.140543692567 443.028974412361 447.08338735987 486.43057873514 387.600031929968 353.792466946976 431.866686430016 429.584028720622 437.630759559383 363.075429757026 276.168432876765 329.255051905978 411.107335993565 456.482547391734 483.446310330251 494.568106395206
-9999 -9999 -9999 -9999 -9999 -9999 -9999 0 95.8681439787469 475.113906886745 465.985339501965 301.684542720452 200.249726134514 329.40666220108 346.733000703241 343.785107251114 355.036656877627 351.80565934 372.800292601028 370.800910606465 451.821059226648 448.317450966778 468.390655300047 307.423490143684 318.044215317693 429.282915981667 413.699129817003 410.684562565101 420.566725632252 401.185961153945 425.369501088734 450.207039376665 463.845568313048 474.981558673974 483.380573449485
-9999 -9999 -9999 -9999 -9999 -9999 106.618627319758 217.612823150974 449.489766985531 409.703660201843 289.68955394461 194.591280928849 186.262416976989 363.212847018827 301.601436875392 318.715601885356 341.801873417741 341.871453760279 333.348755632112 353.263443425791 379.506216473766 400.464759109382 320.596541753712 285.368294512701 311.067313078235 387.234941225844 384.474960638498 380.899124313781 402.578098172678 424.990077627528 443.582950091756 438.24319727381 442.184249104948 460.515515972794 460.839657942622
-9999 -9999 -9999 -9999 244.112236844567 296.010831622239 329.640378737187 376.546428056345 352.823664598882 280.913836984743 183.125225122958 139.82486371279 188.442167081726 306.023797304431 213.204364063955 259.244985047074 325.834091881654 322.739366259126 292.43066450616 329.915746279804 341.884350175736 304.355346130276 390.645521505323 385.172052922574 346.029642298497 395.136683288904 425.399156004152 436.50313245272 445.469361611603 443.120736387606 429.224799035112 413.899516812303 416.388421950921 429.449562818951 424.733769400248
-9999 -9999 -9999 301.573360993312 307.37518904969 360.530486422319 369.541947199498 300.344577541021 255.014103753846 169.177294635879 120.948198587333 116.481572709253 186.976017325749 243.669044782508 176.077994288328 187.470137823408 249.871464888854 300.083321534173 246.360078675739 261.729564077317 317.06907899021 355.611255106561 392.035436717995 392.957867893764 399.690282144739 413.973217302202 415.367984886301 414.053381889272 412.529649905114 404.358585518561 386.495381300186 364.154991664478 347.176634254752 370.242556695396 394.225104125687
-9999 -9999 256.493176842784 381.979267494494 396.780184130106 326.863098616561 270.779016005077 242.581456165559 175.528591758558 105.759344014818 97.3912365347859 108.807021294593 181.584147426989 228.811329618112 178.868789446505 173.801926999909 238.485454886627 247.77104152526 301.820697896515 235.359257952143 309.361473193286 328.368633820131 334.695833008954 348.354298388223 357.283735104563 360.086115469754 366.02987004123 364.356526942568 340.805179387353 324.088068116276 316.816661877363 333.12065949231 286.047832117495 217.28581458781 200.842604033407
