NCOLS 35 
NROWS 26 
XLLCORNER -80 
YLLCORNER 33 
CELLSIZE 0.5 
NODATA_value -9999 
-9999.000000000000000 -9999 -9999 -9999 -9999 -9999 -9999 -9999 -9999 -9999 -9999 -9999 -9999 -9999 -9999 -9999 -9999 -9999 -9999 -9999 -9999 -9999 -9999 -9999 -9999 -9999 -9999 -9999 -9999 -9999 -9999 -9999 -9999 -9999 -9999
-9999 -9999 -9999 -9999 -9999 -9999 -9999 -9999 -9999 -9999 -9999 -9999 -9999 -9999 -9999 -9999 -9999 -9999 -9999 -9999 -9999 -9999 -9999 -9999 -9999 -9999 -9999 -9999 -9999 164.787019058943 -9999 -9999 -9999 -9999 -9999
-9999 -9999 -9999 -9999 -9999 -9999 -9999 -9999 -9999 -9999 -9999 -9999 -9999 -9999 -9999 -9999 -9999 -9999 -9999 -9999 -9999 -9999 -9999 -9999 -9999 -9999 212.880189625788 233.268356352242 75.7986017839832 57.0753598950016 -9999 -9999 -9999 -9999 -9999
-9999 -9999 -9999 -9999 -9999 -9999 -9999 -9999 -9999 -9999 -9999 -9999 -9999 -9999 -9999 -9999 -9999 -9999 -9999 -9999 -9999 -9999 -9999 131.280418193014 132.72391651744 119.291409415882 117.942867981179 44.616374536943 -9999 -9999 -9999 75.4318232402205 84.1716490503846 70.9204038706212 65.4454846802867
-9999 -9999 -9999 -9999 -9999 -9999 -9999 -9999 -9999 -9999 -9999 -9999 -9999 -9999 -9999 -9999 -9999 -9999 -9999 -9999 142.700547124332 82.2720754102864 83.34416516892 72.5503966541371 64.9717715410059 57.1471111683877 75.7771491776714 76.7894454930843 -9999 -9999 71.0234797915565 66.4815662260181 59.3910775569061 61.0955914232528 63.3801841222049
-9999 -9999 -9999 -9999 -9999 -9999 -9999 -9999 -9999 -9999 -9999 -9999 -9999 -9999 -9999 -9999 -9999 -9999 -9999 79.2296740396335 70.9349322749168 54.3097928090089 57.4556588475627 55.1268795151378 57.7927672399445 59.3650406007344 58.2069962869033 76.376044276017 80.8709015376862 109.615303034366 91.138016191485 74.7926894293624 71.7914763526749 71.9751134938574 67.3964243340726
-9999 -9999 -9999 -9999 -9999 -9999 -9999 -9999 -9999 -9999 -9999 -9999 -9999 -9999 -9999 -9999 -9999 -9999 -9999 81.608734422606 59.4578965081542 58.3162253649573 59.6921744659495 61.8520194555117 60.2368774322473 62.8040726118441 57.7774211536985 59.997311378563 64.2523030261376 75.1782178510113 81.1271502198376 70.0445201860912 66.5804610268128 71.272503820529 72.6793903383663
-9999 -9999 -9999 -9999 -9999 -9999 -9999 -9999 -9999 -9999 -9999 -9999 -9999 -9999 -9999 -9999 -9999 -9999 -9999 105.966134032906 74.4202956825223 60.6437028082198 57.9930648645378 61.6681350683195 65.475248360281 64.7276805869642 65.3487917917841 75.4193847944953 85.9927910949338 95.0632899903955 96.4908685039949 89.532578540475 84.9637246122071 88.7451050612581 79.2351129683985
-9999 -9999 -9999 -9999 -9999 -9999 -9999 -9999 -9999 -9999 -9999 -9999 -9999 -9999 -9999 -9999 -9999 -9999 -9999 22.3001772817677 83.2549253445153 68.2306652240403 62.3055761024448 64.2615154142199 87.8014213635801 83.768295823447 79.9327779832245 92.1724782280706 111.980989189408 142.156944505492 147.686524649765 141.111082227309 125.162373903016 106.157918364476 74.2064398294082
-9999 -9999 -9999 -9999 -9999 -9999 -9999 -9999 -9999 -9999 -9999 -9999 -9999 -9999 -9999 -9999 -9999 144.681131381257 104.921108577408 106.145501210139 75.8726693998328 65.8571195126214 63.5132131396516 83.1322688319199 89.1702762867397 96.2378401193646 93.5738318457053 119.824832534759 145.132352834404 149.248256669936 150.135966443893 150.670455085403 150.199393125944 141.583787680281 83.9820404692445
-9999 -9999 -9999 -9999 -9999 -9999 -9999 -9999 -9999 -9999 -9999 -9999 -9999 -9999 159.154418065 206.793083366981 176.03703951829 142.498787810023 115.071508446238 80.2735888276777 57.2191902962851 68.995156220224 91.6522441657033 100.088562721767 97.9507568816726 97.6868296190033 102.455710984526 102.045155252425 104.305418827031 110.292439312936 122.631589339598 131.004452916546 135.628809479102 160.351175243385 134.728253256773
-9999 -9999 -9999 -9999 -9999 -9999 -9999 -9999 -9999 -9999 -9999 -9999 469.748954694346 246.621652951608 191.813005420139 169.005408446867 163.515670481914 150.890480140367 144.10103181996 146.76797617624 144.20214800409 103.3654968209 121.439813495789 151.706300805636 178.409406866466 177.63682735777 175.577419606203 171.797989043405 166.405898288777 164.159626151943 160.449731759058 154.858477214391 151.495732648984 159.725979165312 191.592794462125
-9999 -9999 -9999 -9999 -9999 -9999 -9999 -9999 -9999 -9999 -9999 -9999 353.790482783056 245.291611093218 191.208121492673 172.206963223088 138.874398609171 140.656085119028 155.199340423143 160.185459719128 159.869455680214 171.423808112468 176.522316758937 168.615173506648 139.369567381948 121.556772408863 110.69899443868 112.817546646169 113.525667420812 112.498895755232 112.215430642784 113.307400519435 114.965368926922 121.656241045354 146.384301462264
-9999 -9999 -9999 -9999 -9999 -9999 -9999 -9999 -9999 8.88371694166904 6.53984975081451 287.021537005772 294.779923795343 233.000623373016 235.982196473871 186.979323619969 153.050034795896 141.341240097375 129.231739635114 146.461961806723 158.165425560615 168.673971168316 155.165749310846 108.938018483359 108.598524907136 103.928848319883 103.76156868256 107.354539493691 111.096890402348 119.83066868572 111.159433959317 110.097365437381 111.866956853086 111.732692821416 139.422396051486
-9999 -9999 -9999 -9999 -9999 -9999 -9999 -9999 -9999 -9999 325.819869276194 305.413577997293 272.783681502709 262.730608568975 265.43893041011 246.907192338977 229.696464055325 225.702143013059 219.428854216975 168.382891571613 154.623991982998 163.119165148486 172.786731297936 136.535070493736 101.469042957787 101.177395413894 98.3785515168999 105.610632747155 117.551256820404 128.944054913998 129.114068035778 120.85768429986 123.670323071015 133.38263677666 117.202601299774
-9999 -9999 -9999 -9999 -9999 -9999 -9999 479.280452571083 180.691486048442 -9999 306.934408517984 312.015199167388 325.641659234363 262.666357753758 183.838660326147 134.013409609991 120.816535680824 131.040945368567 169.080153213574 210.209215311055 179.708357108503 153.036671099612 163.889647398616 171.686204059956 137.484560305479 103.17176271873 88.9072490514804 88.8691081387679 96.9856819993598 99.2708612617038 113.203856157715 110.021263650091 104.360061946606 91.047915390226 84.4874896589511
-9999 -9999 -9999 -9999 -9999 -9999 -9999 35.8626571068376 87.1409626337228 186.267772846433 332.354078443234 379.259196885771 250.41136140578 126.972920840723 97.7818984244306 101.435207059362 104.422938225152 102.849512786293 100.935482224415 128.491153954877 183.908332848212 162.312247180705 155.727059845413 164.710328192158 166.08459387822 130.165366784292 93.798234877683 84.4174284467865 99.142877576765 99.2203312828532 93.0385830500337 96.9883693901765 101.026687759672 91.5040846081641 87.3376130132193
-9999 -9999 -9999 -9999 -9999 -9999 -9999 196.964861534458 -9999 249.913565423463 351.395108045627 322.834979293019 154.281284123821 96.077377084359 101.630682793384 99.2565190563409 90.5346098704778 88.3320089369353 94.4553547076536 104.389402563266 141.850111604919 174.935611605678 158.907192240245 163.639573942743 163.437441544185 151.252271084954 106.318537541557 88.9794780151988 106.692261159054 99.9882852785523 93.4841295444898 88.8732047826146 93.8058627751773 97.0213164462514 93.2767507262847
-9999 -9999 -9999 -9999 -9999 -9999 -9999 -9999 181.463628332953 234.196376124058 327.276613223841 256.865945040576 106.399259970935 91.9421041458108 93.9991906908706 97.4194225629736 98.0546270173083 94.9218219268587 90.420783342388 97.7828108136534 110.783323515913 159.600665587763 165.172304178206 161.70043793966 159.484458345149 153.990411037965 123.511110701319 94.2043027712115 108.029344352283 99.414107763555 88.9656352602728 85.1837557004768 88.5995730482684 89.0526909533517 90.9331714141802
-9999 -9999 -9999 -9999 -9999 -9999 -9999 -9999 -9999 272.59187412262 356.59945529221 233.708331083593 100.500606509915 85.3418607315862 82.204601153175 81.891129566755 83.3448082579389 89.250725993872 97.0108330815803 95.2735666777654 98.7120129588208 126.708870197157 154.325597893313 153.578862662413 148.638764760258 146.708713851115 127.936055775828 98.786238000301 107.923198686665 96.2500446824991 82.1723452289467 82.8948213532883 87.7710863095391 84.1625347395215 85.3137877617978
-9999 -9999 -9999 -9999 -9999 -9999 -9999 -9999 -9999 188.753613864461 405.607690268983 198.973420225924 102.534959147101 81.4847660583477 69.3980321437492 66.284226779216 67.3839477065358 70.5471924965797 76.8248235575367 88.1814636509432 94.4464692016012 99.471708191 119.00019331294 127.3413833035 125.352800448741 123.168617619263 122.19131979584 100.771001162031 106.970717688228 98.7047732187376 80.151638325994 79.6364808732491 85.8681066247007 91.7777773852401 91.1643773051923
-9999 -9999 -9999 -9999 -9999 -9999 -9999 0 84.4778388405887 333.756838021182 247.589009789942 111.733417147426 85.1825984404433 82.521498361057 64.7807314461161 59.4994851998687 61.0036868214045 65.4571055620013 70.0035281093552 79.2152032577546 85.7835639552638 90.6858650425913 98.3654290093784 100.250722981305 103.917305059861 110.381923979456 108.36752497437 106.335301376365 109.193218623392 93.4671330610983 79.227106077708 71.9613197791341 74.8469390080207 82.4368099932613 85.5590984173764
-9999 -9999 -9999 -9999 -9999 -9999 89.4800714262267 188.050674493499 285.248453257838 183.051252076523 117.260211109057 78.6388478971029 78.743111108525 86.3312971193896 73.5091435799339 63.9243090038768 65.6089318738261 71.4426714477828 76.8449016620506 82.4374201620535 81.8991477459018 82.89387231205 85.5672659558471 85.7830264660806 93.4957877046611 111.813776492122 101.042477266555 106.452492923595 100.32030093931 82.5693363539266 76.2856348786702 69.3696131176051 71.2033337215958 77.2777270968339 86.5591317039327
-9999 -9999 -9999 -9999 214.833748044016 253.822832653548 217.69259701666 193.501833853307 146.744166595071 101.273776177879 74.9896923421233 66.3775149411232 79.435072190374 85.106760373159 85.5682585364122 78.8949282589077 77.8505422832225 84.3929531573479 82.7221738740177 83.6095546030029 82.3937057584703 81.645118486648 87.7520084561394 95.817545666754 92.7574542883182 94.4093948763905 95.0775828242471 98.6348569504342 88.3403029918468 76.7909732023028 76.1668968078266 75.6877824791742 76.2710140002642 89.0233596621738 89.2983375021108
-9999 -9999 -9999 283.11188256924 274.692429978507 249.567530813322 166.604683104693 116.144799762744 94.5335691579355 75.1670082007687 60.942552590199 70.2999734052931 68.158690330111 81.4902331983872 79.8857213733613 80.4984623776084 80.2802520545588 76.1942365871185 75.2873026542354 79.9495974592706 70.4615096029094 75.2748749865872 72.4698166403379 80.3269989599743 78.0944146412156 79.8974102166765 81.3229858073378 83.6432006831213 77.8211428043159 73.184512434664 70.7816665431687 77.3869234822508 66.5410296022591 79.0458405264369 81.2566333940426
-9999 -9999 255.910517372928 249.948259771787 184.626480893931 138.342912630157 102.681894812571 92.6592530314355 78.6788039513818 60.6769266189757 48.491942916412 67.6213809197254 67.8511511731064 66.2744083317164 67.8396867412366 68.7285801381861 76.3153324489235 75.4709071263886 74.1964356329148 72.0412763637188 66.636325505742 63.5476758074738 65.4086927157218 73.2898047811989 81.2020915710405 76.7393430807361 79.6377929479637 80.7796544531331 78.2564116253356 79.0592912020277 83.8465270213546 70.1497829521764 67.3768371957456 65.4007571280907 69.1841667690588
