NCOLS 35 
NROWS 26 
XLLCORNER -80 
YLLCORNER 33 
CELLSIZE 0.5 
NODATA_value -9999 
-9999.000000000000000 -9999 -9999 -9999 -9999 -9999 -9999 -9999 -9999 -9999 -9999 -9999 -9999 -9999 -9999 -9999 -9999 -9999 -9999 -9999 -9999 -9999 -9999 -9999 -9999 -9999 -9999 -9999 -9999 -9999 -9999 -9999 -9999 -9999 -9999
-9999 -9999 -9999 -9999 -9999 -9999 -9999 -9999 -9999 -9999 -9999 -9999 -9999 -9999 -9999 -9999 -9999 -9999 -9999 -9999 -9999 -9999 -9999 -9999 -9999 -9999 -9999 -9999 -9999 109.984013546826 -9999 -9999 -9999 -9999 -9999
-9999 -9999 -9999 -9999 -9999 -9999 -9999 -9999 -9999 -9999 -9999 -9999 -9999 -9999 -9999 -9999 -9999 -9999 -9999 -9999 -9999 -9999 -9999 -9999 -9999 -9999 156.425079409023 128.372303615732 45.5085419859446 31.8878292371448 -9999 -9999 -9999 -9999 -9999
-9999 -9999 -9999 -9999 -9999 -9999 -9999 -9999 -9999 -9999 -9999 -9999 -9999 -9999 -9999 -9999 -9999 -9999 -9999 -9999 -9999 -9999 -9999 118.195926704765 178.267914794265 153.667442112607 136.654084003181 35.5430087276262 -9999 -9999 -9999 121.620247334127 118.665847921185 117.785665831182 113.980925331676
-9999 -9999 -9999 -9999 -9999 -9999 -9999 -9999 -9999 -9999 -9999 -9999 -9999 -9999 -9999 -9999 -9999 -9999 -9999 -9999 90.1548102744498 110.463041454705 161.790292279469 136.589712863175 115.084655770868 108.547333715543 109.181736921509 77.662152976801 -9999 -9999 89.646968110036 109.265674286248 97.2696508365977 90.387700606201 86.0832182505869
-9999 -9999 -9999 -9999 -9999 -9999 -9999 -9999 -9999 -9999 -9999 -9999 -9999 -9999 -9999 -9999 -9999 -9999 -9999 98.2452778772304 121.775060051744 106.202580966139 81.8963654037228 71.5983288141492 84.3538091446678 87.3419214267531 87.4394591616797 105.170171609721 103.658860121265 111.793686762684 100.55516670497 88.1874904733241 75.5944586108199 60.6546378501191 53.6697198931097
-9999 -9999 -9999 -9999 -9999 -9999 -9999 -9999 -9999 -9999 -9999 -9999 -9999 -9999 -9999 -9999 -9999 -9999 -9999 125.719383491546 99.0380522952195 76.1742748791085 65.051552545985 68.9109678283156 79.8007502448199 88.7081875273773 77.8804333278094 79.2000771620576 88.9360591483503 91.6969583775982 86.5074934322021 82.8967993576744 79.2606963606446 80.9233230429746 87.4431963740077
-9999 -9999 -9999 -9999 -9999 -9999 -9999 -9999 -9999 -9999 -9999 -9999 -9999 -9999 -9999 -9999 -9999 -9999 -9999 108.904108871828 90.988916087454 68.5748272867577 73.5695927289234 77.4824610669269 75.673830810172 77.271146097906 75.5426788409305 72.45135342197 72.2239576217371 80.7871402601396 87.5329969184317 101.373652297435 129.072520724056 133.945604566325 129.799047573763
-9999 -9999 -9999 -9999 -9999 -9999 -9999 -9999 -9999 -9999 -9999 -9999 -9999 -9999 -9999 -9999 -9999 -9999 -9999 24.0295577106898 102.818310734677 90.0186326079497 88.6262560962085 97.9050674161499 102.336136460992 106.303614573451 104.200094105221 85.6170062847377 74.0082614883908 100.835445895104 113.934785389534 117.693657618213 119.83848527693 118.684473774146 120.300524199508
-9999 -9999 -9999 -9999 -9999 -9999 -9999 -9999 -9999 -9999 -9999 -9999 -9999 -9999 -9999 -9999 -9999 142.411751472035 126.451203947277 109.540595025283 104.222510003487 93.1477968609472 107.826092233416 129.084592790001 125.391477243717 129.858471566635 113.463395897979 96.9305191130263 121.683677610344 124.390011845527 113.599477044276 128.499719390598 127.95201131675 127.880870306513 133.110173461525
-9999 -9999 -9999 -9999 -9999 -9999 -9999 -9999 -9999 -9999 -9999 -9999 -9999 -9999 153.537608203261 186.43999891124 175.629083088859 167.605208281714 147.658525008455 123.66966772145 110.0793507145 113.882165673146 145.629676123405 165.940760277654 148.173253384806 141.368109251903 170.189370877375 194.700872755176 183.834483870861 148.59180269828 141.957651315209 141.140977255967 133.287941182498 144.643728703928 139.476254165164
-9999 -9999 -9999 -9999 -9999 -9999 -9999 -9999 -9999 -9999 -9999 -9999 275.85066617976 213.328652415957 221.821511412191 272.76808695315 281.235369369486 223.340733454777 282.517770620527 207.972774833859 171.05398646978 164.578280662606 167.541707142125 175.587819636735 223.941201505865 210.782766787208 191.561725435326 174.876717798863 176.343146670328 190.084151222895 185.560595713372 173.312976915389 141.255294561391 141.949521070659 137.573687901618
-9999 -9999 -9999 -9999 -9999 -9999 -9999 -9999 -9999 -9999 -9999 -9999 248.114903266613 225.568902610946 314.88746706719 326.901645750497 319.986191425926 258.940415578081 232.967568145903 214.926282698414 194.150482885386 191.182838981236 194.609286169895 174.478655548075 177.858798291808 174.136199000185 167.016265887476 173.514879184609 180.949349206767 178.55673055861 176.912563031946 182.63152348883 154.733584304374 146.462910447562 147.027773513364
-9999 -9999 -9999 -9999 -9999 -9999 -9999 -9999 -9999 7.85392049223797 7.48594127068413 301.837565347127 246.428948370965 299.630490355701 366.709754811088 310.588680504181 261.191397807059 229.842551742181 211.627028289929 202.663595629174 186.826436314072 164.869369705844 165.156546028896 169.100157169159 170.827131858785 181.081574659706 176.43825803015 197.243765309771 199.641490788217 171.061707749694 188.637100538592 184.591532000299 186.986920184537 171.311951760219 161.111276908608
-9999 -9999 -9999 -9999 -9999 -9999 -9999 -9999 -9999 -9999 280.462799688486 275.244986610098 324.105774638417 367.493000194297 331.84555536982 246.927108540483 215.674166542358 192.737332932317 184.376318525894 184.489944351485 191.165851964803 191.173476652667 191.263015553575 185.243683834689 182.146171503576 188.257164179382 181.010390683737 210.949228697948 217.769354177597 170.404376669796 170.011738300783 192.107216553165 181.959957833196 182.126947983588 169.072076448131
-9999 -9999 -9999 -9999 -9999 -9999 -9999 549.135300667744 203.603440282639 -9999 318.587499537835 340.583298596621 409.366213016323 319.234038280906 264.467158023822 243.857255310508 232.024640006741 215.488841105302 194.643489941778 185.365764872651 182.968796799961 188.068055226832 193.513785205524 189.743144434647 182.704142553256 180.224768805957 178.183475469378 203.904719325518 222.664295262334 175.488952924779 162.158348073022 174.123892503895 191.706250930325 190.076241110129 187.503013378968
-9999 -9999 -9999 -9999 -9999 -9999 -9999 34.8798722487209 97.5502437539186 210.237278989123 329.177179621733 417.999586735568 342.896615039968 301.852017675179 269.385819933274 242.942301351621 222.451136491011 206.416384692797 195.572138607381 187.543204032217 185.206584023884 189.961376955536 187.550781230233 182.489134142752 178.491679206681 175.425755703017 184.410356190066 186.259869978209 217.261656769637 170.951445143211 165.453620303165 170.640974520813 180.164288399045 174.366995393955 172.448434862467
-9999 -9999 -9999 -9999 -9999 -9999 -9999 198.40361128797 -9999 267.322100771914 358.484483541327 393.85812009276 321.912346240848 274.497903969449 235.091919358901 207.869769793876 194.651373998098 189.999784683969 190.098135193001 194.544708403502 198.394476250404 193.032632400229 192.735396366029 204.445983696874 202.678808364021 195.320684651167 195.307486244427 173.539354295902 198.30652357218 178.413457963862 184.072610361267 161.326067443173 161.920814622886 167.569617014141 172.0903088792
-9999 -9999 -9999 -9999 -9999 -9999 -9999 -9999 209.736525481085 280.648148737897 359.66647004214 339.453875853541 292.2377112797 230.201400811772 202.313443570976 188.813031928827 184.817485460467 188.551042705909 194.871444012187 202.553826742467 195.163627786613 187.635959846263 188.75396503036 196.371642794125 199.004035565397 203.024625748348 187.789974383917 183.562879450184 207.295249795258 214.357832194602 176.065607712141 163.352697561866 164.834848793108 163.055381963555 159.722386328276
-9999 -9999 -9999 -9999 -9999 -9999 -9999 -9999 -9999 313.58559331894 353.963819844891 310.046683610957 252.846051515171 217.411776011747 204.155911207591 198.996944780706 191.334861608515 191.07393085055 190.868865932758 190.610649827205 193.750638690839 197.501818439395 201.150250658768 200.206596942273 207.648806093407 206.596802140345 199.723895879322 215.72853048341 213.412126024629 194.368930784689 171.335440590603 169.235463386652 174.209703624436 172.983257612795 172.116567612211
-9999 -9999 -9999 -9999 -9999 -9999 -9999 -9999 -9999 244.423125058481 316.617185700147 251.414585643723 246.678301023034 230.567629261963 220.169796787742 223.406642910844 226.373696792676 233.144708195973 233.241999871115 234.081622318832 230.514437843888 227.388406901331 212.323185818486 215.422164525057 221.621928837859 215.16238755832 206.069895211089 190.777189319687 182.588513530752 185.474746744851 187.789358176932 180.077211938925 177.353486238406 181.909023004696 175.626604291935
-9999 -9999 -9999 -9999 -9999 -9999 -9999 0 90.0265900192672 348.46171988815 295.183834055922 257.837002828325 257.069782193158 245.358859541224 234.461672277504 227.360527476091 224.159453111941 221.882331058219 223.566840246892 234.639603191254 247.689673387581 260.216911656321 264.770557616694 235.020072762714 220.291101282784 214.749591905695 207.817541638118 206.448715424006 206.26509726006 200.684667266844 194.246220411803 187.409357703073 171.593597979738 175.048814764391 175.136850871466
-9999 -9999 -9999 -9999 -9999 -9999 100.583989795227 210.169261963817 331.007403057872 325.760619841433 294.532934676235 295.336464347659 299.48990221448 299.391135950364 301.550533358135 262.954211263462 233.70816629567 254.263002559699 250.035483401257 255.678850956712 264.98143629147 256.593882217997 270.218633056961 265.349110107659 245.459782658549 232.589632216252 226.741028593399 216.524109250838 214.35678952559 209.890279346281 210.856205881782 185.831153850222 134.060834148747 141.191250704055 174.936639438099
-9999 -9999 -9999 -9999 194.423657411002 246.452517823334 272.041333975111 312.983672708207 304.20776268167 291.352268400908 286.128331054871 285.595932041226 273.308348642739 259.944006981723 257.216071302643 287.359438292011 311.385281889358 301.161415104949 268.375938826079 277.577319525196 264.501504517366 272.931110272318 279.961664542786 212.142742549526 191.896516505553 201.283622401884 228.191255670572 227.575560305862 219.482241219334 212.480215461621 209.345690352585 207.457780003862 172.038414904128 98.7331228217183 99.0604421322153
-9999 -9999 -9999 282.887275211628 257.872985653301 283.100615172334 301.289361588678 286.697654974197 277.573694666358 275.820944481407 279.95931486307 277.596511014669 243.955396015028 220.413048995215 219.925870576249 224.387250253169 239.89061616404 252.032705625442 249.303297819904 242.566792888606 241.632486996715 238.01596158798 150.648822178841 62.9692254475664 73.3536113019683 113.810676186385 173.215451779176 216.839942704854 218.470649326512 209.77598945089 185.931442438744 154.021506955745 196.324721335986 158.637403217961 119.422931442408
-9999 -9999 241.826081951896 265.544439480855 268.882949184693 265.27872344357 260.037494073099 252.66705932654 252.395251678556 247.341021170203 246.39786010815 232.033003769737 201.657726562173 210.394547481396 220.39355618905 215.849668135899 212.237397457291 223.733441178246 231.010043775584 231.020525265352 246.949045094551 189.455781554364 118.641064988709 34.1079158798935 38.2533495642261 45.9871303292014 90.1797593590456 142.151568116279 148.271494366455 115.147824531232 72.9208123121299 89.3321577894702 158.303435217512 157.447905582113 138.510111076227
