NCOLS 70 
NROWS 52 
XLLCORNER -80 
YLLCORNER 33 
CELLSIZE 0.25 
NODATA_value -9999 
-9999.000000000000000 -9999 -9999 -9999 -9999 -9999 -9999 -9999 -9999 -9999 -9999 -9999 -9999 -9999 -9999 -9999 -9999 -9999 -9999 -9999 -9999 -9999 -9999 -9999 -9999 -9999 -9999 -9999 -9999 -9999 -9999 -9999 -9999 -9999 -9999 -9999 -9999 -9999 -9999 -9999 -9999 -9999 -9999 -9999 -9999 -9999 -9999 -9999 -9999 -9999 -9999 -9999 -9999 -9999 -9999 -9999 -9999 -9999 -9999 -9999 -9999 -9999 -9999 -9999 -9999 -9999 -9999 -9999 -9999 -9999
-9999 -9999 -9999 -9999 -9999 -9999 -9999 -9999 -9999 -9999 -9999 -9999 -9999 -9999 -9999 -9999 -9999 -9999 -9999 -9999 -9999 -9999 -9999 -9999 -9999 -9999 -9999 -9999 -9999 -9999 -9999 -9999 -9999 -9999 -9999 -9999 -9999 -9999 -9999 -9999 -9999 -9999 -9999 -9999 -9999 -9999 -9999 -9999 -9999 -9999 -9999 -9999 -9999 -9999 -9999 -9999 -9999 -9999 -9999 -9999 -9999 -9999 -9999 -9999 -9999 -9999 -9999 -9999 -9999 -9999
-9999 -9999 -9999 -9999 -9999 -9999 -9999 -9999 -9999 -9999 -9999 -9999 -9999 -9999 -9999 -9999 -9999 -9999 -9999 -9999 -9999 -9999 -9999 -9999 -9999 -9999 -9999 -9999 -9999 -9999 -9999 -9999 -9999 -9999 -9999 -9999 -9999 -9999 -9999 -9999 -9999 -9999 -9999 -9999 -9999 -9999 -9999 -9999 -9999 -9999 -9999 -9999 -9999 -9999 -9999 -9999 -9999 -9999 -9999 248.231201171875 -9999 -9999 -9999 -9999 -9999 -9999 -9999 -9999 -9999 -9999
-9999 -9999 -9999 -9999 -9999 -9999 -9999 -9999 -9999 -9999 -9999 -9999 -9999 -9999 -9999 -9999 -9999 -9999 -9999 -9999 -9999 -9999 -9999 -9999 -9999 -9999 -9999 -9999 -9999 -9999 -9999 -9999 -9999 -9999 -9999 -9999 -9999 -9999 -9999 -9999 -9999 -9999 -9999 -9999 -9999 -9999 -9999 -9999 -9999 -9999 -9999 -9999 -9999 -9999 -9999 239.365447998047 186.37158203125 163.510787963867 167.43928527832 201.352386474609 -9999 -9999 -9999 -9999 -9999 -9999 -9999 -9999 -9999 -9999
-9999 -9999 -9999 -9999 -9999 -9999 -9999 -9999 -9999 -9999 -9999 -9999 -9999 -9999 -9999 -9999 -9999 -9999 -9999 -9999 -9999 -9999 -9999 -9999 -9999 -9999 -9999 -9999 -9999 -9999 -9999 -9999 -9999 -9999 -9999 -9999 -9999 -9999 -9999 -9999 -9999 -9999 -9999 -9999 -9999 -9999 -9999 -9999 -9999 -9999 -9999 -9999 390.585021972656 337.451751708984 289.635375976562 217.538955688477 179.770416259766 168.10725402832 -9999 -9999 -9999 -9999 -9999 -9999 -9999 -9999 -9999 -9999 -9999 -9999
-9999 -9999 -9999 -9999 -9999 -9999 -9999 -9999 -9999 -9999 -9999 -9999 -9999 -9999 -9999 -9999 -9999 -9999 -9999 -9999 -9999 -9999 -9999 -9999 -9999 -9999 -9999 -9999 -9999 -9999 -9999 -9999 -9999 -9999 -9999 -9999 -9999 -9999 -9999 -9999 -9999 -9999 -9999 -9999 -9999 -9999 -9999 -9999 -9999 -9999 218.994589233398 264.817993164062 238.691635131836 225.430786132812 221.338836669922 208.880767822266 -9999 -9999 -9999 -9999 -9999 -9999 -9999 -9999 -9999 -9999 -9999 95.2023391723633 100.175199508667 146.256896972656
-9999 -9999 -9999 -9999 -9999 -9999 -9999 -9999 -9999 -9999 -9999 -9999 -9999 -9999 -9999 -9999 -9999 -9999 -9999 -9999 -9999 -9999 -9999 -9999 -9999 -9999 -9999 -9999 -9999 -9999 -9999 -9999 -9999 -9999 -9999 -9999 -9999 -9999 -9999 -9999 -9999 -9999 -9999 -9999 369.345377604167 -9999 -9999 221.361019134521 165.296142578125 162.288330078125 148.496658325195 140.408477783203 140.462295532227 213.123886108398 225.891906738281 -9999 -9999 -9999 -9999 -9999 -9999 -9999 -9999 158.105133056641 157.733505249023 131.572891235352 105.911087036133 94.246826171875 85.449104309082 74.7479705810547
-9999 -9999 -9999 -9999 -9999 -9999 -9999 -9999 -9999 -9999 -9999 -9999 -9999 -9999 -9999 -9999 -9999 -9999 -9999 -9999 -9999 -9999 -9999 -9999 -9999 -9999 -9999 -9999 -9999 -9999 -9999 -9999 -9999 -9999 -9999 -9999 -9999 -9999 -9999 -9999 -9999 -9999 -9999 -9999 371.212677001953 378.805511474609 316.855224609375 233.171157836914 170.121551513672 121.079147338867 93.0147399902344 85.1962203979492 99.1582183837891 155.375534057617 177.989385604858 -9999 -9999 -9999 -9999 -9999 -9999 -9999 123.907783508301 109.60188293457 102.101669311523 88.007568359375 72.7613067626953 67.5689544677734 66.0625686645508 64.7220687866211
-9999 -9999 -9999 -9999 -9999 -9999 -9999 -9999 -9999 -9999 -9999 -9999 -9999 -9999 -9999 -9999 -9999 -9999 -9999 -9999 -9999 -9999 -9999 -9999 -9999 -9999 -9999 -9999 -9999 -9999 -9999 -9999 -9999 -9999 -9999 -9999 -9999 -9999 -9999 -9999 271.446573893229 263.871297200521 277.675073242188 289.244750976562 224.608657836914 162.782211303711 128.916488647461 108.254844665527 92.3359909057617 75.6578369140625 64.7775573730469 63.3437995910645 77.8315582275391 117.566215515137 133.453028869629 -9999 -9999 -9999 -9999 -9999 127.429852803548 132.718963623047 107.937873840332 83.1734924316406 71.945930480957 66.7516174316406 63.8895034790039 63.6761207580566 64.2168273925781 64.6037368774414
-9999 -9999 -9999 -9999 -9999 -9999 -9999 -9999 -9999 -9999 -9999 -9999 -9999 -9999 -9999 -9999 -9999 -9999 -9999 -9999 -9999 -9999 -9999 -9999 -9999 -9999 -9999 -9999 -9999 -9999 -9999 -9999 -9999 -9999 -9999 -9999 -9999 -9999 -9999 274.191589355469 272.861785888672 267.286346435547 251.465759277344 222.360565185547 180.695983886719 141.409118652344 110.384979248047 89.7707366943359 76.1087951660156 65.1361083984375 59.9796714782715 61.0886840820312 70.7634506225586 102.840148925781 153.519058227539 137.96418762207 -9999 -9999 -9999 114.563684463501 139.644943237305 109.925651550293 85.3580780029297 73.6595916748047 67.6717834472656 65.4454193115234 65.0632553100586 66.0660705566406 66.9730758666992 67.0452423095703
-9999 -9999 -9999 -9999 -9999 -9999 -9999 -9999 -9999 -9999 -9999 -9999 -9999 -9999 -9999 -9999 -9999 -9999 -9999 -9999 -9999 -9999 -9999 -9999 -9999 -9999 -9999 -9999 -9999 -9999 -9999 -9999 -9999 -9999 -9999 -9999 -9999 -9999 198.809921264648 189.296768188477 175.623397827148 156.812225341797 146.531463623047 133.298370361328 115.578536987305 98.8901748657227 86.8402786254883 78.4417419433594 69.9399566650391 63.3692436218262 61.1846046447754 61.8821601867676 65.1810531616211 83.5702743530273 116.915435791016 120.279457092285 103.787651062012 105.029777526855 124.552360534668 106.603797912598 87.4536361694336 74.4342498779297 70.2089920043945 69.0937042236328 66.9233703613281 65.5525283813477 66.0586547851562 66.3510208129883 66.5788879394531 66.3763961791992
-9999 -9999 -9999 -9999 -9999 -9999 -9999 -9999 -9999 -9999 -9999 -9999 -9999 -9999 -9999 -9999 -9999 -9999 -9999 -9999 -9999 -9999 -9999 -9999 -9999 -9999 -9999 -9999 -9999 -9999 -9999 -9999 -9999 -9999 -9999 -9999 -9999 201.984313964844 180.762954711914 147.813980102539 128.987442016602 105.946998596191 85.5203475952148 73.4254379272461 66.7000961303711 66.3247299194336 68.2924499511719 68.3866500854492 65.5533142089844 63.3018264770508 63.5422706604004 64.0370483398438 63.7692947387695 68.343879699707 78.1402359008789 84.7514724731445 91.3579635620117 91.6255950927734 84.1913375854492 74.8879470825195 67.3281021118164 64.0958862304688 64.5422592163086 65.7925567626953 66.2064971923828 66.8089065551758 66.3668212890625 63.3924522399902 63.376838684082 64.2155151367188
-9999 -9999 -9999 -9999 -9999 -9999 -9999 -9999 -9999 -9999 -9999 -9999 -9999 -9999 -9999 -9999 -9999 -9999 -9999 -9999 -9999 -9999 -9999 -9999 -9999 -9999 -9999 -9999 -9999 -9999 -9999 -9999 -9999 -9999 -9999 -9999 -9999 240.155517578125 204.922180175781 146.425857543945 108.736419677734 82.6728744506836 66.7050704956055 61.0476112365723 60.6745834350586 62.4530143737793 63.513671875 63.7172584533691 63.6187629699707 64.3505630493164 65.1875 64.6438903808594 63.7721786499023 64.0120391845703 64.9178466796875 65.7396087646484 67.4604644775391 68.5660247802734 67.4677047729492 65.8902206420898 64.8093490600586 64.6237258911133 64.8734893798828 66.1718902587891 68.373893737793 68.8718109130859 64.2674942016602 61.2495269775391 63.8112487792969 69.2198181152344
-9999 -9999 -9999 -9999 -9999 -9999 -9999 -9999 -9999 -9999 -9999 -9999 -9999 -9999 -9999 -9999 -9999 -9999 -9999 -9999 -9999 -9999 -9999 -9999 -9999 -9999 -9999 -9999 -9999 -9999 -9999 -9999 -9999 -9999 -9999 -9999 -9999 260.030670166016 182.333145141602 127.664489746094 92.2228622436523 71.6341552734375 63.9903526306152 61.6250076293945 61.7591247558594 62.842113494873 63.5126914978027 63.6843338012695 64.1500473022461 65.2363586425781 65.3316345214844 64.2144393920898 63.3157157897949 63.5405769348145 64.7413787841797 65.5669784545898 65.9660491943359 66.430549621582 66.7443542480469 66.6924057006836 66.7807922363281 66.4583206176758 64.5629653930664 67.4479675292969 73.1579818725586 73.7004318237305 71.1610946655273 73.9094161987305 76.460823059082 85.5908889770508
-9999 -9999 -9999 -9999 -9999 -9999 -9999 -9999 -9999 -9999 -9999 -9999 -9999 -9999 -9999 -9999 -9999 -9999 -9999 -9999 -9999 -9999 -9999 -9999 -9999 -9999 -9999 -9999 -9999 -9999 -9999 -9999 -9999 -9999 -9999 -9999 429.217834472656 278.556823730469 144.025604248047 99.8817901611328 82.1893920898438 69.8912506103516 64.1607360839844 61.8236808776855 60.661060333252 60.611701965332 61.4881286621094 63.0573616027832 64.0899276733398 64.5946044921875 64.3746109008789 64.0155334472656 64.3129730224609 65.3111038208008 67.9110412597656 69.9717788696289 70.2912750244141 70.4725646972656 70.1942443847656 70.1037063598633 71.230110168457 71.3152313232422 70.5771713256836 76.9409332275391 85.2546081542969 89.348274230957 91.8078689575195 98.7183380126953 101.535820007324 109.381050109863
-9999 -9999 -9999 -9999 -9999 -9999 -9999 -9999 -9999 -9999 -9999 -9999 -9999 -9999 -9999 -9999 -9999 -9999 -9999 -9999 -9999 -9999 -9999 -9999 -9999 -9999 -9999 -9999 -9999 -9999 -9999 -9999 -9999 -9999 -9999 -9999 -9999 190.716857910156 144.300277709961 98.1576385498047 86.3727111816406 75.3592147827148 67.2189025878906 62.9948616027832 60.9067306518555 60.4034957885742 59.9494552612305 60.7839393615723 61.4269905090332 63.4556884765625 64.0457992553711 63.6932830810547 63.8388442993164 64.4218063354492 67.1799163818359 70.0659637451172 70.1933059692383 71.918098449707 72.6665420532227 71.8899307250977 75.4347457885742 79.4414215087891 83.6794128417969 92.8857421875 100.461883544922 106.013648986816 112.591979980469 118.393898010254 121.985710144043 131.091506958008
-9999 -9999 -9999 -9999 -9999 -9999 -9999 -9999 -9999 -9999 -9999 -9999 -9999 -9999 -9999 -9999 -9999 -9999 -9999 -9999 -9999 -9999 -9999 -9999 -9999 -9999 -9999 -9999 -9999 -9999 -9999 -9999 -9999 -9999 -9999 -9999 -9999 -9999 129.965255737305 -9999 96.5295944213867 83.1547241210938 72.3045883178711 66.4169464111328 62.9077758789062 61.9490394592285 62.6329612731934 64.3227157592773 66.3451614379883 67.6856079101562 65.6662750244141 63.3659324645996 60.9118766784668 62.7657737731934 66.6414947509766 70.4174652099609 71.9986877441406 76.1715698242188 80.7318801879883 80.6962280273438 82.1514282226562 87.5089645385742 94.7822189331055 103.492401123047 109.313812255859 114.94856262207 121.351722717285 127.894943237305 134.253967285156 143.100952148438
-9999 -9999 -9999 -9999 -9999 -9999 -9999 -9999 -9999 -9999 -9999 -9999 -9999 -9999 -9999 -9999 -9999 -9999 -9999 -9999 -9999 -9999 -9999 -9999 -9999 -9999 -9999 -9999 -9999 -9999 -9999 -9999 -9999 -9999 -9999 -9999 -9999 -9999 -9999 -9999 81.3793640136719 76.2542343139648 70.039436340332 66.1990661621094 64.0417861938477 64.1039505004883 68.4799880981445 71.5512237548828 70.5730361938477 68.3423233032227 63.9668846130371 62.6468811035156 61.690788269043 65.285270690918 67.9694671630859 69.4182510375977 71.8410720825195 78.6914749145508 86.5750961303711 88.8050765991211 89.3464889526367 92.2623519897461 96.956169128418 102.063835144043 106.428047180176 111.597579956055 117.183609008789 123.995346069336 131.703170776367 141.201034545898
-9999 -9999 -9999 -9999 -9999 -9999 -9999 -9999 -9999 -9999 -9999 -9999 -9999 -9999 -9999 -9999 -9999 -9999 -9999 -9999 -9999 -9999 -9999 -9999 -9999 -9999 -9999 -9999 -9999 -9999 -9999 -9999 -9999 -9999 240.099903106689 261.994445800781 217.130676269531 -9999 113.880432128906 85.7333374023438 66.39306640625 65.4730453491211 69.6625213623047 68.1915893554688 67.3832168579102 70.6507873535156 77.9005355834961 80.1039733886719 69.2314453125 72.1647186279297 72.3938751220703 68.7306442260742 73.0973129272461 76.2606658935547 72.7916717529297 69.91357421875 72.7604751586914 82.3230819702148 87.5473327636719 88.1217651367188 89.4333419799805 91.3294677734375 94.4143600463867 96.3232803344727 98.7848587036133 101.568000793457 105.813430786133 109.942596435547 115.050331115723 119.93212890625
-9999 -9999 -9999 -9999 -9999 -9999 -9999 -9999 -9999 -9999 -9999 -9999 -9999 -9999 -9999 -9999 -9999 -9999 -9999 -9999 -9999 -9999 -9999 -9999 -9999 -9999 -9999 648.274780273438 648.274780273438 506.683959960938 388.286560058594 316.061981201172 297.205230712891 274.174468994141 238.567657470703 185.663040161133 126.311698913574 95.9228591918945 81.2568893432617 68.3180923461914 60.3873443603516 58.9540939331055 67.4005508422852 72.0997619628906 74.1435394287109 81.904182434082 86.9023666381836 85.489631652832 81.0587768554688 77.1917037963867 76.8918609619141 76.868537902832 78.7255020141602 79.0482864379883 76.3133392333984 76.8720474243164 80.1411361694336 84.9342422485352 85.2190170288086 86.1907730102539 87.7636489868164 90.2647933959961 95.1736450195312 98.7551574707031 100.498550415039 101.678550720215 103.928283691406 106.450408935547 109.06583404541 111.40852355957
-9999 -9999 -9999 -9999 -9999 -9999 -9999 -9999 -9999 -9999 -9999 -9999 -9999 -9999 -9999 -9999 -9999 -9999 -9999 -9999 -9999 -9999 -9999 -9999 -9999 -9999 -9999 -9999 -9999 -9999 221.189758300781 194.679702758789 167.009094238281 120.716377258301 96.5878829956055 79.6854705810547 71.1567687988281 72.1383209228516 70.8616256713867 63.8816299438477 67.9520797729492 65.4775848388672 69.5280914306641 76.7237548828125 81.7956008911133 90.0133972167969 90.5342330932617 87.684814453125 83.1920547485352 81.2794036865234 80.2522888183594 80.2698822021484 78.5576477050781 75.6708831787109 79.3179473876953 86.7929229736328 88.5342864990234 87.0031356811523 84.2131195068359 84.9749374389648 86.1515350341797 89.3046798706055 98.336296081543 103.283309936523 103.501129150391 102.465545654297 105.519599914551 110.159690856934 114.304428100586 117.350250244141
-9999 -9999 -9999 -9999 -9999 -9999 -9999 -9999 -9999 -9999 -9999 -9999 -9999 -9999 -9999 -9999 -9999 -9999 -9999 -9999 -9999 -9999 -9999 -9999 -9999 465.697723388672 327.440607706706 212.63520304362 137.198345184326 129.962448120117 116.81859588623 108.74528503418 94.2463684082031 82.1148300170898 77.3544387817383 75.9848861694336 75.9939422607422 76.9450302124023 79.3765563964844 77.2683639526367 79.7107696533203 81.7420501708984 80.4441452026367 82.8599090576172 87.9840850830078 91.3968200683594 91.1066360473633 88.3223037719727 85.7711029052734 85.0171585083008 84.7853317260742 85.2535934448242 83.4067306518555 81.5683670043945 84.3722686767578 90.4084396362305 88.3413848876953 86.5750503540039 86.616943359375 86.5901565551758 85.1773910522461 90.7263488769531 102.402687072754 102.632461547852 97.5060501098633 99.5969619750977 108.381141662598 118.090461730957 125.644676208496 129.689147949219
-9999 -9999 -9999 -9999 -9999 -9999 -9999 -9999 -9999 -9999 -9999 -9999 -9999 -9999 -9999 -9999 -9999 -9999 -9999 -9999 -9999 -9999 -9999 -9999 606.323181152344 474.859069824219 315.910919189453 191.551834106445 130.442855834961 96.8362426757812 89.0121612548828 85.8384857177734 82.7904815673828 82.1380157470703 83.2674865722656 85.6906051635742 86.6792678833008 84.7066345214844 82.6100311279297 81.204345703125 80.3739471435547 80.5943298339844 82.7886352539062 86.5740127563477 90.7963562011719 94.6498489379883 99.1627044677734 104.496910095215 109.108833312988 111.450469970703 112.267593383789 112.798561096191 111.431098937988 107.959045410156 103.572326660156 100.873008728027 93.8281173706055 86.7784805297852 87.9313735961914 89.8976516723633 86.4735641479492 93.411750793457 102.809547424316 98.4590911865234 94.4348678588867 103.005790710449 117.296600341797 130.911956787109 139.442840576172 143.039489746094
-9999 -9999 -9999 -9999 -9999 -9999 -9999 -9999 -9999 -9999 -9999 -9999 -9999 -9999 -9999 -9999 -9999 -9999 -9999 -9999 -9999 -9999 -9999 -9999 438.672973632812 242.256820678711 128.116424560547 95.8270568847656 86.3004684448242 82.9303665161133 83.3845825195312 84.6375579833984 87.2610321044922 91.6751098632812 97.9593276977539 104.861053466797 107.102363586426 103.186393737793 97.1332321166992 91.8291549682617 88.2350997924805 87.4354019165039 91.3225708007812 100.300910949707 112.357620239258 124.69938659668 133.394470214844 136.699645996094 136.158401489258 136.220092773438 137.786407470703 139.214233398438 138.695816040039 136.6982421875 133.044982910156 125.230560302734 114.261657714844 99.8244171142578 91.162239074707 90.0364837646484 87.504035949707 94.7332992553711 100.593101501465 95.9066543579102 96.2295227050781 108.279510498047 125.251167297363 139.992523193359 147.431716918945 154.56608581543
-9999 -9999 -9999 -9999 -9999 -9999 -9999 -9999 -9999 -9999 -9999 -9999 -9999 -9999 -9999 -9999 -9999 -9999 -9999 -9999 -9999 -9999 -9999 305.309135437012 340.661254882812 199.858779907227 116.447875976562 88.8606414794922 83.2496795654297 84.0337905883789 88.154899597168 94.4477844238281 104.366760253906 118.338874816895 133.106094360352 141.627899169922 142.031600952148 137.308837890625 129.719940185547 121.56608581543 114.099960327148 110.410835266113 116.972557067871 130.213760375977 145.231033325195 153.507293701172 152.160903930664 145.462661743164 137.033279418945 133.853820800781 137.33740234375 141.369735717773 142.831497192383 142.966049194336 144.400009155273 142.706756591797 136.8017578125 124.158058166504 111.851547241211 99.6530456542969 90.0982055664062 94.5476150512695 98.0924911499023 97.0015716552734 99.8053359985352 112.126457214355 130.049728393555 144.951293945312 152.374771118164 170.956497192383
-9999 -9999 -9999 -9999 -9999 -9999 -9999 -9999 -9999 -9999 -9999 -9999 -9999 -9999 -9999 -9999 -9999 -9999 -9999 -9999 -9999 -9999 -9999 223.236785888672 218.66552734375 157.657501220703 109.619941711426 89.214469909668 87.0488128662109 91.6590042114258 101.465240478516 112.292541503906 124.721817016602 141.118988037109 156.332992553711 159.38688659668 154.891204833984 151.337677001953 147.302154541016 143.120727539062 137.644638061523 131.507095336914 133.604583740234 138.709503173828 143.285018920898 141.779342651367 134.935882568359 129.893142700195 127.929389953613 130.524703979492 137.447784423828 141.07194519043 138.637329101562 135.720596313477 135.581832885742 140.089111328125 145.697509765625 144.901107788086 138.483306884766 119.517753601074 98.3624267578125 93.9251251220703 96.2035522460938 98.7669906616211 102.404708862305 113.691719055176 131.715057373047 145.831741333008 155.068832397461 185.135787963867
-9999 -9999 -9999 -9999 -9999 -9999 -9999 -9999 -9999 -9999 -9999 -9999 -9999 -9999 -9999 -9999 -9999 -9999 -9999 -9999 -9999 -9999 294.260314941406 180.709335327148 141.285583496094 118.488471984863 92.8190689086914 91.1399459838867 99.5182113647461 109.940032958984 118.756904602051 123.577293395996 127.676765441895 135.331130981445 144.191818237305 145.560333251953 142.329559326172 140.843307495117 139.543472290039 139.44482421875 139.270553588867 135.526382446289 131.611785888672 128.440460205078 127.118286132812 126.912231445312 125.224494934082 123.310203552246 123.123687744141 127.669525146484 135.609313964844 138.724975585938 133.8134765625 128.805480957031 127.450996398926 130.380065917969 137.930191040039 148.282836914062 149.426254272461 137.239837646484 113.55054473877 97.2406158447266 94.8633499145508 98.359992980957 103.301513671875 114.654945373535 132.049652099609 144.784255981445 156.500350952148 187.810897827148
-9999 -9999 -9999 -9999 -9999 -9999 -9999 -9999 -9999 -9999 -9999 -9999 -9999 -9999 773.221411810981 -9999 -9999 -9999 -9999 638.226379394531 -9999 316.263336181641 251.956573486328 144.117126464844 116.851066589355 103.673049926758 99.0787124633789 109.15242767334 122.324897766113 128.048690795898 126.018142700195 122.717750549316 121.790115356445 125.52367401123 133.615905761719 139.099761962891 138.267486572266 134.873718261719 131.84342956543 131.648727416992 134.952728271484 137.419845581055 133.751052856445 126.492294311523 123.608123779297 123.580635070801 121.864822387695 120.07861328125 120.324363708496 124.697685241699 131.995208740234 136.407470703125 133.506637573242 129.385498046875 129.975387573242 130.913757324219 133.286743164062 141.538604736328 149.894668579102 149.335601806641 130.373779296875 107.168426513672 97.192756652832 98.2766876220703 104.674606323242 117.038055419922 132.265472412109 143.619216918945 155.329055786133 180.023971557617
-9999 -9999 -9999 -9999 -9999 -9999 -9999 -9999 -9999 -9999 -9999 -9999 -9999 -9999 768.976898193359 -9999 -9999 -9999 -9999 560.1962890625 372.532943725586 256.386535644531 151.740112304688 112.548965454102 104.938323974609 107.167694091797 116.938529968262 131.341079711914 138.2705078125 135.234603881836 129.501159667969 125.736770629883 124.425827026367 127.218284606934 136.405090332031 143.319808959961 138.869827270508 130.603439331055 125.843070983887 125.62622833252 128.971984863281 135.338973999023 137.712158203125 130.347427368164 124.158248901367 122.995063781738 120.829696655273 118.407577514648 117.952499389648 121.21257019043 127.744636535645 133.567260742188 133.356018066406 129.636840820312 129.631546020508 132.391357421875 133.939346313477 137.074188232422 147.22444152832 152.545944213867 139.951461791992 118.376319885254 104.45979309082 102.522430419922 108.718475341797 120.849296569824 133.477783203125 143.007369995117 151.904922485352 169.446151733398
-9999 -9999 -9999 -9999 -9999 -9999 -9999 -9999 -9999 -9999 -9999 -9999 -9999 -9999 788.077209472656 -9999 -9999 -9999 -9999 -9999 166.06485748291 169.622268676758 117.736190795898 116.660568237305 124.043518066406 134.182281494141 144.562957763672 151.977828979492 149.776062011719 145.037307739258 140.156234741211 136.114898681641 134.273666381836 137.791732788086 146.078247070312 145.661758422852 134.762115478516 126.647392272949 122.086273193359 122.32112121582 127.381820678711 132.557907104492 137.213455200195 133.718933105469 126.167541503906 122.986473083496 120.930976867676 118.841667175293 117.561134338379 119.586502075195 125.450096130371 131.193176269531 131.780120849609 127.96265411377 126.527618408203 131.551788330078 135.761199951172 135.603424072266 142.428726196289 149.972229003906 143.470825195312 126.692558288574 113.813995361328 111.005027770996 116.139701843262 126.033409118652 135.975708007812 143.736709594727 148.267562866211 158.664260864258
-9999 -9999 -9999 -9999 -9999 -9999 -9999 -9999 -9999 -9999 -9999 -9999 -9999 -9999 727.883056640625 -9999 711.675964355469 -9999 -9999 -9999 112.10620880127 126.144416809082 127.514015197754 139.377151489258 154.574829101562 161.349044799805 161.358032226562 158.00163269043 152.590179443359 147.747161865234 143.576629638672 141.224075317383 140.842361450195 145.731048583984 151.014022827148 142.35432434082 129.085815429688 125.016761779785 121.010498046875 118.059341430664 120.939270019531 124.631629943848 130.6259765625 133.369659423828 128.908340454102 124.560638427734 122.306869506836 120.742240905762 119.543090820312 120.938697814941 125.31371307373 128.691635131836 128.163757324219 125.165260314941 124.400863647461 128.541900634766 134.186447143555 134.704116821289 137.248748779297 145.731185913086 145.561126708984 132.809616088867 121.929931640625 119.56681060791 123.65404510498 130.795150756836 138.209716796875 144.895355224609 145.794982910156 148.886215209961
-9999 -9999 -9999 -9999 -9999 -9999 -9999 -9999 -9999 -9999 -9999 -9999 -9999 -9999 727.883056640625 667.688903808594 523.175109863281 -9999 -9999 151.043558120728 134.071746826172 150.169540405273 150.399505615234 164.819259643555 169.00798034668 162.783950805664 158.387100219727 154.412231445312 149.498245239258 144.741348266602 141.316680908203 139.27507019043 138.130920410156 141.453430175781 145.828872680664 138.311813354492 128.675964355469 128.051773071289 126.36279296875 123.201179504395 122.417617797852 121.904296875 123.048072814941 125.058616638184 124.820686340332 124.230453491211 123.42520904541 121.18628692627 119.042060852051 119.135322570801 121.631172180176 124.059677124023 124.010375976562 122.099082946777 122.342208862305 125.18286895752 130.582717895508 133.827758789062 133.476043701172 141.37532043457 145.853820800781 136.080184936523 127.148071289062 125.006843566895 128.203506469727 133.39387512207 138.48908996582 144.303268432617 144.794631958008 142.698196411133
-9999 -9999 -9999 -9999 -9999 -9999 -9999 -9999 -9999 -9999 -9999 -9999 -9999 -9999 -9999 476.872601318359 430.994995117188 -9999 268.367515563965 182.579010009766 175.417266845703 178.682418823242 168.57160949707 172.126983642578 166.092407226562 160.367126464844 155.89306640625 150.419708251953 144.188446044922 138.577407836914 134.897766113281 133.089492797852 132.057266235352 134.256530761719 138.312149047852 133.635726928711 126.211883544922 124.322631835938 122.960952758789 122.558723449707 123.960601806641 123.340995788574 121.188522338867 120.46501159668 120.309326171875 120.795860290527 120.808570861816 119.349044799805 117.497283935547 116.530311584473 117.565925598145 120.137397766113 121.474494934082 120.204704284668 120.673957824707 123.769721984863 128.486419677734 132.401382446289 131.41340637207 136.319976806641 143.430633544922 137.867950439453 130.170639038086 128.499664306641 130.53515625 133.693023681641 136.425674438477 142.052017211914 145.691131591797 142.41845703125
-9999 -9999 -9999 -9999 -9999 -9999 -9999 -9999 -9999 -9999 -9999 -9999 -9999 -9999 -9999 387.324645996094 375.179351806641 -9999 247.085372924805 206.188858032227 190.396621704102 175.39274597168 169.046875 167.000991821289 164.564895629883 159.81217956543 152.166946411133 142.867538452148 133.820739746094 126.355911254883 121.772048950195 120.736137390137 122.678855895996 128.155975341797 134.316299438477 131.084716796875 122.623222351074 118.115676879883 115.265113830566 114.347305297852 115.950759887695 115.895973205566 114.608177185059 114.371246337891 113.726104736328 113.104072570801 112.959434509277 112.785980224609 112.335403442383 111.875938415527 112.402816772461 115.13843536377 118.954010009766 119.036224365234 119.451675415039 123.553398132324 126.961395263672 128.836853027344 129.483963012695 131.052642822266 139.21305847168 140.188537597656 133.164642333984 130.815292358398 131.250839233398 132.661315917969 134.857940673828 140.97314453125 146.392425537109 144.946533203125
-9999 -9999 -9999 -9999 -9999 -9999 -9999 -9999 -9999 -9999 -9999 -9999 -9999 -9999 -9999 341.23095703125 -9999 261.292755126953 258.010650634766 205.717880249023 194.939025878906 170.052673339844 169.146286010742 167.252777099609 164.288787841797 155.532211303711 143.799667358398 130.167694091797 118.512023925781 110.884552001953 106.988204956055 106.241798400879 108.706726074219 116.079727172852 126.615928649902 128.805480957031 121.69815826416 115.726051330566 111.95849609375 110.38362121582 111.717468261719 111.158058166504 110.380142211914 110.320106506348 108.740310668945 107.451042175293 107.103454589844 107.026512145996 106.910850524902 106.657737731934 106.789680480957 109.641609191895 115.75080871582 117.024604797363 116.957542419434 123.944213867188 127.601257324219 126.132339477539 126.425827026367 125.704040527344 132.7919921875 138.664749145508 135.783493041992 132.765274047852 131.644653320312 131.833786010742 133.622955322266 138.632049560547 142.329635620117 142.776657104492
-9999 -9999 -9999 -9999 -9999 -9999 -9999 -9999 -9999 -9999 -9999 -9999 -9999 -9999 341.23095703125 287.467107137044 226.090927124023 203.330139160156 224.273406982422 190.62727355957 190.631362915039 171.166519165039 169.896347045898 167.762710571289 161.781845092773 148.222778320312 129.702880859375 114.101737976074 105.177825927734 101.39436340332 100.006011962891 100.004196166992 100.602966308594 103.960929870605 114.545234680176 123.615539550781 121.305511474609 114.697402954102 110.073867797852 108.41707611084 110.304290771484 110.227752685547 110.252578735352 109.543266296387 106.652923583984 105.71427154541 105.897933959961 105.779022216797 104.942916870117 104.183525085449 104.226684570312 106.499458312988 112.773025512695 115.059867858887 114.705009460449 123.274063110352 130.10400390625 125.830062866211 126.619987487793 124.589080810547 126.79322052002 132.791778564453 134.420455932617 132.913024902344 131.372817993164 130.389541625977 130.268859863281 132.573440551758 133.871932983398 134.236724853516
-9999 -9999 -9999 -9999 -9999 -9999 -9999 -9999 -9999 -9999 -9999 -9999 -9999 -9999 -9999 -9999 189.032615661621 176.725173950195 135.39762878418 145.359375 180.563629150391 170.476577758789 168.186599731445 167.167144775391 158.728363037109 139.318634033203 116.039070129395 103.46159362793 99.3779144287109 98.5306243896484 98.5356903076172 99.495849609375 101.342506408691 101.514083862305 105.491073608398 115.199806213379 118.401290893555 113.77318572998 108.655433654785 107.486068725586 109.31517791748 108.65983581543 109.47779083252 108.102905273438 104.92650604248 105.51448059082 106.209686279297 105.585494995117 104.108444213867 102.8310546875 102.63623046875 104.297645568848 110.322845458984 115.174369812012 118.554908752441 124.866981506348 132.713653564453 127.717636108398 124.567855834961 122.072967529297 122.19465637207 126.708999633789 129.646759033203 129.715881347656 128.581344604492 127.561248779297 126.702461242676 126.758644104004 126.809104919434 127.034675598145
-9999 -9999 -9999 -9999 -9999 -9999 -9999 -9999 -9999 -9999 -9999 -9999 -9999 -9999 -9999 -9999 163.354698181152 149.984222412109 120.586555480957 125.838340759277 163.278457641602 173.534576416016 174.597366333008 173.79899597168 152.842102050781 126.489639282227 105.348899841309 98.086067199707 96.2790679931641 95.9292526245117 96.0045547485352 96.9784088134766 99.6327743530273 101.66283416748 102.109733581543 106.448318481445 111.687911987305 111.582527160645 108.159385681152 107.504379272461 108.213706970215 105.868530273438 107.197944641113 105.969123840332 103.413345336914 104.664962768555 105.04613494873 103.900978088379 102.423828125 101.237037658691 101.193618774414 103.706382751465 111.316444396973 117.281646728516 116.690765380859 112.708396911621 115.769920349121 121.309669494629 121.773345947266 120.750633239746 121.142951965332 123.345100402832 124.986175537109 125.191703796387 124.719017028809 124.223587036133 122.967193603516 121.393981933594 120.334892272949 119.866836547852
-9999 -9999 -9999 -9999 -9999 -9999 -9999 -9999 -9999 -9999 -9999 -9999 -9999 -9999 -9999 -9999 -9999 131.257823944092 132.294021606445 145.182922363281 173.822479248047 186.539413452148 184.911163330078 179.842819213867 142.409210205078 112.371864318848 97.3584365844727 93.8984832763672 92.9551620483398 92.5653533935547 92.6620101928711 94.3948287963867 96.8488235473633 100.503547668457 102.999504089355 102.896881103516 103.698806762695 104.879898071289 104.39421081543 104.983169555664 104.389114379883 101.97102355957 105.081001281738 104.993423461914 102.524971008301 102.744560241699 102.660629272461 101.513618469238 100.316223144531 100.28857421875 102.939743041992 109.558013916016 115.253273010254 111.870681762695 104.469398498535 101.719444274902 101.276931762695 105.903205871582 110.105361938477 114.48316192627 118.069488525391 120.741004943848 122.087577819824 121.933990478516 121.368919372559 120.434593200684 119.003639221191 118.544364929199 119.607147216797 120.634185791016
-9999 -9999 -9999 -9999 -9999 -9999 -9999 -9999 -9999 -9999 -9999 -9999 -9999 -9999 153.32684135437 149.984222412109 132.659700393677 127.23025894165 122.166496276855 154.223358154297 195.299758911133 201.782363891602 195.015899658203 172.283447265625 129.641052246094 102.62183380127 92.9818115234375 90.8312606811523 89.9672164916992 90.0881195068359 92.0372848510742 94.6360473632812 95.7064743041992 97.6167755126953 101.818946838379 104.212524414062 102.947158813477 101.32039642334 100.185661315918 100.677787780762 100.261962890625 100.449089050293 105.02806854248 105.873954772949 103.589836120605 102.345291137695 101.368286132812 101.181205749512 102.382255554199 105.575149536133 110.073043823242 111.314964294434 106.051322937012 99.5174942016602 97.5235290527344 96.2064819335938 95.1181106567383 96.526969909668 98.9737396240234 102.615226745605 106.909797668457 110.584312438965 112.623397827148 112.627510070801 112.223281860352 111.933395385742 112.482353210449 114.811248779297 116.227523803711 119.175338745117
-9999 -9999 -9999 -9999 -9999 -9999 -9999 -9999 -9999 -9999 -9999 -9999 -9999 -9999 -9999 -9999 -9999 -9999 152.106416702271 159.189453125 206.222869873047 207.250701904297 204.521224975586 156.07861328125 117.474998474121 96.6659393310547 90.0963363647461 88.3207931518555 88.4532089233398 90.1948394775391 93.880615234375 97.7721557617188 99.9642791748047 100.614479064941 101.686187744141 104.114608764648 104.428466796875 102.561073303223 100.837882995605 100.649063110352 99.207893371582 100.567848205566 105.009925842285 106.480964660645 105.573234558105 104.407768249512 104.041412353516 104.923805236816 106.584762573242 107.608764648438 105.904838562012 101.054222106934 99.7075424194336 97.5070877075195 96.0060958862305 95.2123794555664 94.9570541381836 94.4869003295898 94.6208572387695 95.746223449707 97.043571472168 99.0089721679688 100.782447814941 101.132858276367 102.802177429199 107.359878540039 109.347923278809 110.127944946289 113.75609588623 121.60326385498
-9999 -9999 -9999 -9999 -9999 -9999 -9999 -9999 -9999 -9999 -9999 -9999 -9999 -9999 -9999 -9999 -9999 148.945556640625 177.291198730469 172.84635925293 226.503448486328 205.144836425781 192.097595214844 135.613098144531 108.641426086426 91.7204818725586 87.571044921875 86.2893600463867 87.9455032348633 91.8129501342773 96.5648345947266 100.039169311523 103.270088195801 105.376205444336 105.090507507324 104.849365234375 105.081733703613 103.633361816406 101.42463684082 100.552253723145 100.1142578125 100.148696899414 100.321685791016 100.59317779541 102.966484069824 105.091323852539 105.567672729492 104.931785583496 103.822326660156 101.416625976562 97.7396545410156 96.296501159668 97.1683197021484 95.739616394043 95.0254592895508 95.9442443847656 96.6617584228516 96.3832321166992 94.9127578735352 93.3188552856445 92.7152252197266 93.2113342285156 94.1144180297852 95.0572891235352 97.6406631469727 107.442825317383 111.030082702637 112.868041992188 122.007171630859 126.308906555176
-9999 -9999 -9999 -9999 -9999 -9999 -9999 -9999 -9999 -9999 -9999 -9999 -9999 198.547836303711 196.35629442003 -9999 217.28736114502 211.799129486084 148.945556640625 228.18342590332 221.145492553711 176.834045410156 147.627731323242 117.124984741211 102.852058410645 90.5872650146484 86.6701507568359 85.0843276977539 87.1037292480469 91.6176986694336 97.1648254394531 100.82600402832 104.190010070801 106.213516235352 105.406661987305 104.290107727051 104.396675109863 102.85400390625 100.82935333252 100.915069580078 100.024291992188 99.2938385009766 98.7111434936523 94.0698928833008 90.772346496582 93.5926742553711 98.2239532470703 100.612403869629 100.692100524902 99.0143203735352 97.3552398681641 96.6434555053711 93.5854263305664 91.5573577880859 91.1558151245117 91.6928253173828 93.9054641723633 96.711067199707 97.2470245361328 94.9135665893555 91.7726364135742 89.6033096313477 90.7825088500977 93.3308639526367 97.1383972167969 110.016464233398 114.508255004883 120.935203552246 127.208381652832 124.757286071777
-9999 -9999 -9999 -9999 -9999 -9999 -9999 -9999 -9999 -9999 -9999 -9999 -9999 -9999 198.547836303711 204.987813313802 185.533233642578 249.041488647461 263.676239013672 223.680801391602 182.035903930664 147.023773193359 126.92985534668 113.954803466797 101.608238220215 93.4830856323242 87.8632507324219 85.0030822753906 85.9889373779297 89.9842529296875 95.2802352905273 98.8100051879883 102.32950592041 103.172119140625 102.279159545898 102.476066589355 102.819038391113 101.193061828613 99.4581756591797 98.4450225830078 96.9408645629883 97.3716583251953 98.3175201416016 98.0571365356445 99.3106918334961 102.877868652344 105.182891845703 103.227325439453 101.616806030273 100.464752197266 97.0624008178711 93.1654357910156 89.2769012451172 85.5642318725586 83.4330825805664 83.5005569458008 86.8788681030273 92.9219970703125 97.669921875 97.6349334716797 94.3095550537109 89.4338912963867 87.7379608154297 91.3007354736328 96.0675430297852 111.266723632812 118.10205078125 125.319351196289 125.891914367676 120.86735534668
-9999 -9999 -9999 -9999 -9999 -9999 -9999 -9999 -9999 -9999 -9999 -9999 -9999 -9999 193.03332901001 198.547836303711 230.882369995117 231.658340454102 187.665115356445 161.724700927734 143.26887512207 129.774703979492 122.804229736328 115.56103515625 105.838088989258 101.503456115723 94.7602233886719 88.4532012939453 85.0181579589844 86.9495620727539 91.4453659057617 93.7395629882812 96.2091903686523 97.5498962402344 97.6029434204102 98.4267196655273 98.6802825927734 97.6094284057617 96.4847793579102 95.5693817138672 95.5875473022461 96.5643920898438 96.1369323730469 95.8110198974609 95.8149719238281 96.2528762817383 98.4953918457031 102.069038391113 104.842361450195 105.460304260254 102.300224304199 95.0795516967773 88.7690505981445 84.5655212402344 82.2067184448242 80.0952072143555 81.668342590332 88.4047241210938 96.3943023681641 98.8439712524414 96.9433288574219 92.8048706054688 86.2223281860352 88.7220001220703 93.7688064575195 111.94457244873 119.47582244873 126.447723388672 124.696144104004 118.379364013672
-9999 -9999 -9999 -9999 -9999 -9999 -9999 -9999 -9999 -9999 -9999 205.2099609375 203.272079467773 203.909820556641 182.648452758789 187.027206420898 215.539489746094 183.525726318359 150.231399536133 143.331130981445 134.083786010742 122.569580078125 119.637283325195 115.556610107422 110.470367431641 109.732696533203 107.138511657715 100.355819702148 89.815055847168 82.4955978393555 85.8947296142578 91.6116561889648 91.204948425293 92.6335983276367 96.4336242675781 97.1588592529297 95.2777557373047 93.9796752929688 93.1495590209961 93.3457565307617 94.7829360961914 94.8639831542969 94.2204971313477 94.0876312255859 91.9879302978516 90.0555725097656 90.2971878051758 91.8270568847656 96.258056640625 101.884178161621 105.895263671875 103.111396789551 94.473991394043 86.6807403564453 82.4130477905273 80.408332824707 81.1408920288086 86.8085632324219 95.4234313964844 98.9558258056641 97.7077026367188 95.386962890625 86.1806411743164 86.9371948242188 91.1479797363281 107.917709350586 115.26831817627 122.312217712402 125.442420959473 122.00984954834
-9999 -9999 -9999 -9999 -9999 -9999 -9999 -9999 -9999 324.052032470703 235.930480957031 185.560287475586 174.54328918457 131.562759399414 148.650009155273 190.159088134766 174.390686035156 154.374298095703 141.297760009766 142.485427856445 132.929672241211 120.796615600586 118.92204284668 115.186981201172 110.072006225586 110.653854370117 112.260604858398 112.11939239502 104.060684204102 88.8002777099609 80.1483383178711 84.9353790283203 90.4082183837891 90.1216659545898 91.1494979858398 93.1149749755859 94.9775161743164 95.9658203125 94.718620300293 94.6661834716797 95.627555847168 94.5061874389648 93.4998931884766 93.5344848632812 91.0613403320312 91.2869033813477 94.6418685913086 95.8907318115234 95.8207092285156 97.4289321899414 101.365325927734 105.258071899414 103.091133117676 96.0677871704102 89.2914199829102 84.7715072631836 84.5808639526367 89.3359985351562 95.9693298339844 98.7529678344727 97.0796203613281 95.3626098632812 88.0956192016602 85.2228698730469 87.634651184082 98.7705230712891 106.499183654785 111.694313049316 116.239143371582 117.023109436035
-9999 -9999 -9999 -9999 -9999 -9999 -9999 -9999 -9999 312.175842285156 215.331802368164 160.505889892578 151.412521362305 157.008178710938 171.473983764648 148.400253295898 152.927764892578 142.388793945312 137.985015869141 138.247863769531 139.61882019043 127.565773010254 112.733306884766 111.832565307617 109.456718444824 108.379539489746 108.524276733398 110.728073120117 109.951156616211 101.951988220215 88.8372802734375 79.8075256347656 81.0901870727539 85.5493087768555 88.1701278686523 89.3680648803711 90.6334228515625 91.3636245727539 91.5145721435547 92.85302734375 93.6680297851562 92.9270248413086 92.1619262695312 92.1731491088867 89.880241394043 92.9347534179688 99.0690612792969 101.54418182373 101.598129272461 100.437713623047 99.5429458618164 101.469047546387 103.849380493164 102.920692443848 99.0986862182617 94.9613265991211 93.40380859375 95.0262832641602 97.5369186401367 97.9284591674805 95.9401626586914 94.0070877075195 90.3064346313477 84.1429595947266 84.5250549316406 88.8686599731445 94.4401245117188 100.032211303711 104.496170043945 106.722785949707
-9999 -9999 -9999 -9999 -9999 256.802001953125 303.118682861328 277.154266357422 280.9189453125 224.168197631836 209.70524597168 175.679321289062 170.735015869141 184.138900756836 161.736740112305 153.409194946289 148.438995361328 142.931777954102 141.622619628906 140.026672363281 141.874176025391 142.399169921875 129.279693603516 114.586723327637 110.184326171875 107.779197692871 105.596397399902 107.842460632324 107.670936584473 102.011711120605 93.0925140380859 87.6929397583008 85.5072555541992 82.9570846557617 82.3958511352539 83.126091003418 85.0981826782227 86.7971496582031 88.2114944458008 89.7170486450195 90.3285827636719 89.9716644287109 89.7317733764648 90.5827407836914 88.80859375 93.9424362182617 101.625862121582 103.045799255371 101.653297424316 101.996856689453 100.966812133789 99.4566955566406 100.504737854004 101.89493560791 101.585166931152 99.8432464599609 98.1108093261719 97.6844940185547 97.3686447143555 96.3884201049805 94.5501098632812 92.6578216552734 90.4829025268555 83.9347457885742 82.8391571044922 83.5353851318359 83.6398468017578 84.7393035888672 87.3996810913086 89.105110168457
-9999 -9999 -9999 -9999 241.386596679688 241.50830078125 241.194427490234 196.761947631836 209.579177856445 204.273025512695 178.141571044922 187.886749267578 180.17756652832 166.139144897461 158.525085449219 154.016738891602 150.58576965332 147.550964355469 144.546844482422 141.365539550781 139.051971435547 140.123504638672 143.58903503418 132.235427856445 116.749008178711 108.976699829102 106.004997253418 107.543601989746 107.748527526855 102.474868774414 92.3353118896484 85.4360122680664 85.4888916015625 86.4868240356445 86.5694046020508 85.2753067016602 83.9648895263672 83.2240753173828 83.1055679321289 83.545166015625 84.5114059448242 85.6581954956055 87.2853240966797 89.136344909668 87.9329071044922 94.2192916870117 103.542770385742 104.298355102539 102.176139831543 101.33952331543 100.801658630371 98.9436340332031 97.965705871582 98.8040237426758 99.3937683105469 98.9955520629883 97.8161315917969 96.780647277832 95.7733535766602 95.2442855834961 93.4153137207031 91.5746231079102 89.9177703857422 84.5834426879883 82.1080474853516 81.5825119018555 80.5560836791992 78.7501754760742 78.6212539672852 80.6591262817383
-9999 -9999 -9999 232.372737884521 235.8056640625 219.690872192383 219.193161010742 191.617309570312 174.914520263672 153.103637695312 186.012405395508 166.214813232422 159.23503112793 155.662094116211 153.976409912109 152.517608642578 149.883422851562 147.044967651367 143.728286743164 140.55158996582 138.622253417969 138.134582519531 139.817398071289 137.903045654297 125.676933288574 112.870658874512 108.310531616211 108.814567565918 107.966690063477 102.272407531738 91.5978698730469 85.0498046875 83.5590362548828 82.714111328125 84.6665878295898 86.2803192138672 86.336051940918 85.6983871459961 85.1241912841797 84.8225402832031 85.1676559448242 85.7300491333008 86.4058227539062 88.1193008422852 87.6473846435547 94.443603515625 101.095603942871 102.805786132812 102.657424926758 101.942832946777 102.006797790527 100.088859558105 97.8266372680664 97.181755065918 97.3619232177734 97.0089111328125 96.0957946777344 95.1957702636719 95.2124633789062 94.6240768432617 91.8870620727539 90.5382308959961 89.6658554077148 85.9104080200195 82.7411956787109 80.478385925293 78.9829711914062 77.4187545776367 76.691032409668 77.7271194458008
-9999 -9999 -9999 242.008697509766 210.289993286133 234.580520629883 223.769134521484 209.824996948242 188.422698974609 172.210906982422 163.525772094727 159.519348144531 159.861129760742 155.86589050293 151.981323242188 147.429794311523 141.549057006836 135.166107177734 129.606384277344 126.242897033691 125.289276123047 125.906455993652 128.084655761719 130.868881225586 126.530899047852 115.868194580078 109.694313049316 108.026611328125 105.396659851074 99.5334930419922 88.2233581542969 82.712287902832 82.9234771728516 83.0560455322266 86.7340545654297 88.9472961425781 88.19970703125 86.291877746582 83.9233627319336 82.0921936035156 81.4707717895508 80.9091262817383 82.2876358032227 87.1202087402344 87.55615234375 89.7481842041016 96.6575317382812 103.626075744629 104.668113708496 101.422035217285 100.213539123535 99.9518127441406 98.7922821044922 97.4857330322266 96.7063369750977 96.2448883056641 95.9842758178711 95.8948135375977 93.9359512329102 89.6924133300781 86.7469482421875 86.8932952880859 88.2063217163086 86.520866394043 83.1797256469727 79.5248870849609 76.1468963623047 73.7183380126953 72.7898788452148 73.2312469482422
