NCOLS 70 
NROWS 52 
XLLCORNER -80 
YLLCORNER 33 
CELLSIZE 0.25 
NODATA_value -9999 
-9999.000000000000000 -9999 -9999 -9999 -9999 -9999 -9999 -9999 -9999 -9999 -9999 -9999 -9999 -9999 -9999 -9999 -9999 -9999 -9999 -9999 -9999 -9999 -9999 -9999 -9999 -9999 -9999 -9999 -9999 -9999 -9999 -9999 -9999 -9999 -9999 -9999 -9999 -9999 -9999 -9999 -9999 -9999 -9999 -9999 -9999 -9999 -9999 -9999 -9999 -9999 -9999 -9999 -9999 -9999 -9999 -9999 -9999 -9999 -9999 -9999 -9999 -9999 -9999 -9999 -9999 -9999 -9999 -9999 -9999 -9999
-9999 -9999 -9999 -9999 -9999 -9999 -9999 -9999 -9999 -9999 -9999 -9999 -9999 -9999 -9999 -9999 -9999 -9999 -9999 -9999 -9999 -9999 -9999 -9999 -9999 -9999 -9999 -9999 -9999 -9999 -9999 -9999 -9999 -9999 -9999 -9999 -9999 -9999 -9999 -9999 -9999 -9999 -9999 -9999 -9999 -9999 -9999 -9999 -9999 -9999 -9999 -9999 -9999 -9999 -9999 -9999 -9999 -9999 -9999 -9999 -9999 -9999 -9999 -9999 -9999 -9999 -9999 -9999 -9999 -9999
-9999 -9999 -9999 -9999 -9999 -9999 -9999 -9999 -9999 -9999 -9999 -9999 -9999 -9999 -9999 -9999 -9999 -9999 -9999 -9999 -9999 -9999 -9999 -9999 -9999 -9999 -9999 -9999 -9999 -9999 -9999 -9999 -9999 -9999 -9999 -9999 -9999 -9999 -9999 -9999 -9999 -9999 -9999 -9999 -9999 -9999 -9999 -9999 -9999 -9999 -9999 -9999 -9999 -9999 -9999 -9999 -9999 -9999 -9999 482.618835449219 -9999 -9999 -9999 -9999 -9999 -9999 -9999 -9999 -9999 -9999
-9999 -9999 -9999 -9999 -9999 -9999 -9999 -9999 -9999 -9999 -9999 -9999 -9999 -9999 -9999 -9999 -9999 -9999 -9999 -9999 -9999 -9999 -9999 -9999 -9999 -9999 -9999 -9999 -9999 -9999 -9999 -9999 -9999 -9999 -9999 -9999 -9999 -9999 -9999 -9999 -9999 -9999 -9999 -9999 -9999 -9999 -9999 -9999 -9999 -9999 -9999 -9999 -9999 -9999 -9999 424.403411865234 330.527770996094 311.763519287109 389.886413574219 476.690887451172 -9999 -9999 -9999 -9999 -9999 -9999 -9999 -9999 -9999 -9999
-9999 -9999 -9999 -9999 -9999 -9999 -9999 -9999 -9999 -9999 -9999 -9999 -9999 -9999 -9999 -9999 -9999 -9999 -9999 -9999 -9999 -9999 -9999 -9999 -9999 -9999 -9999 -9999 -9999 -9999 -9999 -9999 -9999 -9999 -9999 -9999 -9999 -9999 -9999 -9999 -9999 -9999 -9999 -9999 -9999 -9999 -9999 -9999 -9999 -9999 -9999 -9999 483.556427001953 416.927917480469 402.505950927734 376.4404296875 325.684204101562 300.525451660156 -9999 -9999 -9999 -9999 -9999 -9999 -9999 -9999 -9999 -9999 -9999 -9999
-9999 -9999 -9999 -9999 -9999 -9999 -9999 -9999 -9999 -9999 -9999 -9999 -9999 -9999 -9999 -9999 -9999 -9999 -9999 -9999 -9999 -9999 -9999 -9999 -9999 -9999 -9999 -9999 -9999 -9999 -9999 -9999 -9999 -9999 -9999 -9999 -9999 -9999 -9999 -9999 -9999 -9999 -9999 -9999 -9999 -9999 -9999 -9999 -9999 -9999 377.019964599609 466.544891357422 348.62646484375 225.067306518555 186.861999511719 194.855514526367 -9999 -9999 -9999 -9999 -9999 -9999 -9999 -9999 -9999 -9999 -9999 171.398066202799 172.332233428955 196.619064331055
-9999 -9999 -9999 -9999 -9999 -9999 -9999 -9999 -9999 -9999 -9999 -9999 -9999 -9999 -9999 -9999 -9999 -9999 -9999 -9999 -9999 -9999 -9999 -9999 -9999 -9999 -9999 -9999 -9999 -9999 -9999 -9999 -9999 -9999 -9999 -9999 -9999 -9999 -9999 -9999 -9999 -9999 -9999 -9999 438.538614908854 -9999 -9999 271.090858459473 273.840209960938 278.769012451172 294.128326416016 271.448669433594 195.093399047852 132.252014160156 111.350517272949 -9999 -9999 -9999 -9999 -9999 -9999 -9999 -9999 182.150207519531 176.035140991211 175.581909179688 178.771850585938 172.130584716797 163.291763305664 157.287521362305
-9999 -9999 -9999 -9999 -9999 -9999 -9999 -9999 -9999 -9999 -9999 -9999 -9999 -9999 -9999 -9999 -9999 -9999 -9999 -9999 -9999 -9999 -9999 -9999 -9999 -9999 -9999 -9999 -9999 -9999 -9999 -9999 -9999 -9999 -9999 -9999 -9999 -9999 -9999 -9999 -9999 -9999 -9999 -9999 450.328826904297 432.822662353516 343.558166503906 255.371810913086 211.593246459961 187.109771728516 165.111038208008 147.384552001953 130.21369934082 111.489379882812 114.134492874146 -9999 -9999 -9999 -9999 -9999 -9999 -9999 157.672546386719 150.425827026367 134.022277832031 129.388916015625 133.132797241211 133.633438110352 132.475387573242 129.227066040039
-9999 -9999 -9999 -9999 -9999 -9999 -9999 -9999 -9999 -9999 -9999 -9999 -9999 -9999 -9999 -9999 -9999 -9999 -9999 -9999 -9999 -9999 -9999 -9999 -9999 -9999 -9999 -9999 -9999 -9999 -9999 -9999 -9999 -9999 -9999 -9999 -9999 -9999 -9999 -9999 356.721374511719 293.717610677083 288.44924621582 307.512878417969 272.935852050781 210.302093505859 165.115264892578 132.259353637695 108.035499572754 97.4981307983398 96.8672256469727 98.6063003540039 98.6719818115234 101.446060180664 116.60004119873 -9999 -9999 -9999 -9999 -9999 142.178024291992 138.680450439453 127.585380554199 112.609329223633 103.212944030762 103.735321044922 108.502899169922 111.681427001953 111.881393432617 109.14037322998
-9999 -9999 -9999 -9999 -9999 -9999 -9999 -9999 -9999 -9999 -9999 -9999 -9999 -9999 -9999 -9999 -9999 -9999 -9999 -9999 -9999 -9999 -9999 -9999 -9999 -9999 -9999 -9999 -9999 -9999 -9999 -9999 -9999 -9999 -9999 -9999 -9999 -9999 -9999 416.27197265625 365.403472900391 288.488677978516 227.260681152344 186.519638061523 159.101547241211 128.088180541992 99.3026962280273 82.7527008056641 79.6534652709961 83.8392715454102 88.0566024780273 89.032600402832 90.1129989624023 100.540718078613 130.647354125977 138.876693725586 -9999 -9999 -9999 144.923229217529 158.447402954102 129.406219482422 108.055297851562 95.7282257080078 90.5257797241211 90.3909072875977 93.1606216430664 97.4826583862305 100.280517578125 98.9246978759766
-9999 -9999 -9999 -9999 -9999 -9999 -9999 -9999 -9999 -9999 -9999 -9999 -9999 -9999 -9999 -9999 -9999 -9999 -9999 -9999 -9999 -9999 -9999 -9999 -9999 -9999 -9999 -9999 -9999 -9999 -9999 -9999 -9999 -9999 -9999 -9999 -9999 -9999 298.226055908203 323.749664306641 267.416870117188 173.455703735352 119.881721496582 103.314109802246 95.8450546264648 83.6961135864258 76.3850326538086 77.2591781616211 81.6915054321289 87.829216003418 94.7971267700195 95.6037826538086 93.5830154418945 101.869049072266 117.621337890625 121.278526306152 114.705101013184 128.278348286947 146.13899230957 141.041931152344 134.064590454102 115.615646362305 99.5433502197266 90.2268600463867 86.2293472290039 85.2269439697266 87.1826095581055 92.4187164306641 96.484130859375 95.0453109741211
-9999 -9999 -9999 -9999 -9999 -9999 -9999 -9999 -9999 -9999 -9999 -9999 -9999 -9999 -9999 -9999 -9999 -9999 -9999 -9999 -9999 -9999 -9999 -9999 -9999 -9999 -9999 -9999 -9999 -9999 -9999 -9999 -9999 -9999 -9999 -9999 -9999 290.967529296875 259.044403076172 201.096710205078 128.819961547852 80.8017654418945 67.9172058105469 66.8415603637695 70.3603286743164 72.9762878417969 76.1672668457031 81.2314529418945 85.4374923706055 90.9807434082031 99.0944671630859 101.114067077637 99.4744262695312 105.067405700684 112.523612976074 116.673141479492 120.462188720703 122.133605957031 123.902122497559 120.609169006348 109.571769714355 101.137275695801 96.8555221557617 94.7323989868164 91.817512512207 91.5969467163086 96.2334671020508 104.846694946289 108.559501647949 103.853721618652
-9999 -9999 -9999 -9999 -9999 -9999 -9999 -9999 -9999 -9999 -9999 -9999 -9999 -9999 -9999 -9999 -9999 -9999 -9999 -9999 -9999 -9999 -9999 -9999 -9999 -9999 -9999 -9999 -9999 -9999 -9999 -9999 -9999 -9999 -9999 -9999 -9999 317.560333251953 240.768524169922 139.615478515625 89.2517929077148 70.2229080200195 67.0287780761719 66.5185317993164 68.7327880859375 75.4681549072266 85.8807067871094 95.4746475219727 99.2700729370117 102.095146179199 105.736396789551 105.844772338867 104.307319641113 105.388229370117 105.524505615234 104.011611938477 103.755500793457 104.690727233887 104.443115234375 100.538414001465 98.3168716430664 108.129058837891 132.033462524414 145.561294555664 131.048385620117 122.389976501465 123.651802062988 131.624908447266 137.615478515625 133.659576416016
-9999 -9999 -9999 -9999 -9999 -9999 -9999 -9999 -9999 -9999 -9999 -9999 -9999 -9999 -9999 -9999 -9999 -9999 -9999 -9999 -9999 -9999 -9999 -9999 -9999 -9999 -9999 -9999 -9999 -9999 -9999 -9999 -9999 -9999 -9999 -9999 -9999 414.768402099609 247.916412353516 117.740409851074 82.8385772705078 72.8749771118164 71.7786331176758 72.2060241699219 76.302619934082 87.0759201049805 99.0940322875977 106.800277709961 108.156387329102 107.981292724609 108.673713684082 109.129005432129 108.334297180176 107.539459228516 104.674919128418 100.333190917969 97.1107635498047 95.5958557128906 94.0507278442383 94.5120849609375 108.716369628906 162.721099853516 264.185180664062 302.381134033203 267.173370361328 237.402053833008 222.070068359375 216.371887207031 218.908081054688 218.562576293945
-9999 -9999 -9999 -9999 -9999 -9999 -9999 -9999 -9999 -9999 -9999 -9999 -9999 -9999 -9999 -9999 -9999 -9999 -9999 -9999 -9999 -9999 -9999 -9999 -9999 -9999 -9999 -9999 -9999 -9999 -9999 -9999 -9999 -9999 -9999 -9999 614.786499023438 423.513580322266 216.504516601562 122.16039276123 92.3892059326172 78.7722015380859 75.7390594482422 79.2395706176758 85.8009338378906 93.990364074707 100.253395080566 103.792053222656 106.882751464844 109.334976196289 112.869606018066 116.991989135742 119.280044555664 120.225051879883 118.208984375 110.434211730957 105.801826477051 112.322494506836 127.749336242676 153.143310546875 195.507171630859 293.2998046875 408.512359619141 413.401214599609 402.546508789062 384.894592285156 367.494232177734 357.124572753906 354.098724365234 356.357604980469
-9999 -9999 -9999 -9999 -9999 -9999 -9999 -9999 -9999 -9999 -9999 -9999 -9999 -9999 -9999 -9999 -9999 -9999 -9999 -9999 -9999 -9999 -9999 -9999 -9999 -9999 -9999 -9999 -9999 -9999 -9999 -9999 -9999 -9999 -9999 -9999 -9999 318.889953613281 249.928100585938 164.915054321289 122.603401184082 93.9801254272461 79.8001098632812 80.831184387207 86.9084167480469 91.7377548217773 96.0771102905273 102.286254882812 110.373199462891 116.11376953125 123.288757324219 130.642852783203 135.718597412109 138.127685546875 138.569412231445 128.168746948242 134.597564697266 182.83723449707 270.826629638672 325.499633789062 397.29541015625 460.355651855469 435.519714355469 394.987060546875 366.277435302734 362.116668701172 350.052337646484 341.037628173828 337.483764648438 350.273864746094
-9999 -9999 -9999 -9999 -9999 -9999 -9999 -9999 -9999 -9999 -9999 -9999 -9999 -9999 -9999 -9999 -9999 -9999 -9999 -9999 -9999 -9999 -9999 -9999 -9999 -9999 -9999 -9999 -9999 -9999 -9999 -9999 -9999 -9999 -9999 -9999 -9999 -9999 299.0234375 -9999 149.102462768555 112.844497680664 88.9007110595703 81.0827713012695 82.3977890014648 89.0437469482422 100.189575195312 116.689743041992 129.237609863281 132.816421508789 136.844253540039 143.12370300293 150.917068481445 156.946823120117 156.665512084961 146.872711181641 179.814575195312 299.227600097656 426.382781982422 413.362731933594 434.34619140625 413.901214599609 336.458282470703 311.330505371094 313.476531982422 362.595123291016 375.756561279297 360.930389404297 349.613372802734 351.398071289062
-9999 -9999 -9999 -9999 -9999 -9999 -9999 -9999 -9999 -9999 -9999 -9999 -9999 -9999 -9999 -9999 -9999 -9999 -9999 -9999 -9999 -9999 -9999 -9999 -9999 -9999 -9999 -9999 -9999 -9999 -9999 -9999 -9999 -9999 -9999 -9999 -9999 -9999 -9999 -9999 120.398246765137 116.149452209473 99.1447601318359 86.8828201293945 84.786247253418 95.9555053710938 114.381370544434 143.694198608398 148.445251464844 145.614776611328 143.756652832031 160.40576171875 197.893005371094 219.932693481445 207.472671508789 204.219482421875 269.560272216797 428.520874023438 446.394714355469 405.599822998047 365.403778076172 342.614227294922 347.905853271484 356.777648925781 369.593414306641 386.666229248047 395.039123535156 394.914184570312 392.022766113281 387.509643554688
-9999 -9999 -9999 -9999 -9999 -9999 -9999 -9999 -9999 -9999 -9999 -9999 -9999 -9999 -9999 -9999 -9999 -9999 -9999 -9999 -9999 -9999 -9999 -9999 -9999 -9999 -9999 -9999 -9999 -9999 -9999 -9999 -9999 -9999 253.837024688721 261.050964355469 215.946899414062 -9999 133.755813598633 116.550743103027 116.681106567383 115.646293640137 103.417984008789 97.200553894043 100.749465942383 113.500564575195 150.800308227539 199.704162597656 188.80973815918 163.131912231445 176.706649780273 222.872116088867 292.699035644531 322.813354492188 301.149475097656 305.043243408203 399.019256591797 500.932159423828 437.274810791016 405.4013671875 422.887115478516 420.146240234375 427.803680419922 435.892852783203 446.990417480469 452.608825683594 456.504180908203 464.270599365234 472.715057373047 470.853240966797
-9999 -9999 -9999 -9999 -9999 -9999 -9999 -9999 -9999 -9999 -9999 -9999 -9999 -9999 -9999 -9999 -9999 -9999 -9999 -9999 -9999 -9999 -9999 -9999 -9999 -9999 -9999 937.094848632812 937.094848632812 657.954711914062 432.378326416016 355.302459716797 344.801361083984 294.650421142578 251.933944702148 207.712768554688 164.357528686523 142.849533081055 133.374099731445 122.941024780273 118.646507263184 118.265022277832 114.743255615234 117.952537536621 126.951278686523 174.400054931641 252.108505249023 297.907104492188 299.985565185547 286.105438232422 315.070007324219 338.277191162109 359.640350341797 380.173828125 402.859130859375 432.659729003906 506.684875488281 505.736114501953 458.609283447266 454.188110351562 461.965606689453 469.47412109375 480.122955322266 490.882354736328 495.936370849609 497.369171142578 500.894989013672 506.38330078125 509.961120605469 511.242523193359
-9999 -9999 -9999 -9999 -9999 -9999 -9999 -9999 -9999 -9999 -9999 -9999 -9999 -9999 -9999 -9999 -9999 -9999 -9999 -9999 -9999 -9999 -9999 -9999 -9999 -9999 -9999 -9999 -9999 -9999 264.401733398438 266.759948730469 229.744750976562 156.801513671875 135.258285522461 127.445320129395 122.243507385254 124.177955627441 129.579711914062 132.31559753418 133.67529296875 134.885238647461 140.980865478516 164.032119750977 218.188674926758 324.305145263672 401.707336425781 410.797912597656 433.374450683594 463.778900146484 498.171875 461.888366699219 438.626831054688 450.852447509766 489.247222900391 527.711853027344 546.011108398438 538.858642578125 520.253662109375 509.483642578125 507.870666503906 504.253387451172 503.150085449219 489.609924316406 479.839019775391 477.573822021484 485.986297607422 498.942504882812 507.754638671875 511.282043457031
-9999 -9999 -9999 -9999 -9999 -9999 -9999 -9999 -9999 -9999 -9999 -9999 -9999 -9999 -9999 -9999 -9999 -9999 -9999 -9999 -9999 -9999 -9999 -9999 -9999 664.122304280599 419.723495483398 247.038004557292 164.236328125 162.360809326172 165.836990356445 172.867889404297 157.283569335938 138.136672973633 138.274078369141 151.299362182617 153.584167480469 142.576354980469 138.792572021484 143.911010742188 154.591064453125 168.559173583984 188.618286132812 234.748138427734 323.678985595703 389.667541503906 420.428314208984 425.429504394531 460.094848632812 477.151885986328 494.092864990234 480.18603515625 488.768737792969 499.659301757812 510.472290039062 521.454528808594 533.230224609375 547.290588378906 550.171142578125 550.2548828125 549.7978515625 534.852416992188 529.663024902344 516.16357421875 503.550140380859 499.794555664062 505.7265625 514.926940917969 521.610595703125 524.196472167969
-9999 -9999 -9999 -9999 -9999 -9999 -9999 -9999 -9999 -9999 -9999 -9999 -9999 -9999 -9999 -9999 -9999 -9999 -9999 -9999 -9999 -9999 -9999 -9999 944.444091796875 669.586669921875 378.336151123047 211.247665405273 151.530197143555 131.806640625 132.29914855957 140.627746582031 165.199600219727 211.082000732422 252.894134521484 291.175903320312 298.999725341797 256.326843261719 231.740295410156 226.192108154297 223.60237121582 229.46142578125 246.490188598633 289.599822998047 343.598236083984 375.367340087891 404.504821777344 449.872863769531 505.027954101562 521.81591796875 516.004699707031 545.91552734375 568.441650390625 568.226989746094 567.06201171875 566.795776367188 562.370910644531 554.33544921875 554.729309082031 557.025512695312 558.999450683594 559.099487304688 556.875183105469 548.203796386719 538.230712890625 529.639404296875 528.400756835938 536.004638671875 538.080200195312 540.035400390625
-9999 -9999 -9999 -9999 -9999 -9999 -9999 -9999 -9999 -9999 -9999 -9999 -9999 -9999 -9999 -9999 -9999 -9999 -9999 -9999 -9999 -9999 -9999 -9999 691.551513671875 443.908203125 218.375625610352 133.627532958984 125.813255310059 151.967025756836 194.56640625 224.486190795898 284.043212890625 396.279907226562 487.815338134766 538.520385742188 543.29736328125 493.482482910156 474.908294677734 471.021820068359 459.881225585938 453.447143554688 448.835327148438 470.153289794922 513.491394042969 568.873718261719 623.15966796875 665.110229492188 691.439086914062 696.939331054688 670.363708496094 654.5068359375 644.260803222656 642.390686035156 646.782653808594 643.152526855469 633.170166015625 615.008972167969 609.797668457031 612.853210449219 618.673889160156 617.161010742188 610.661071777344 596.679016113281 580.51708984375 562.302124023438 549.341735839844 540.241271972656 508.614501953125 464.321990966797
-9999 -9999 -9999 -9999 -9999 -9999 -9999 -9999 -9999 -9999 -9999 -9999 -9999 -9999 -9999 -9999 -9999 -9999 -9999 -9999 -9999 -9999 -9999 460.209037780762 504.573822021484 295.280700683594 154.199188232422 130.631195068359 167.537689208984 248.650161743164 353.097961425781 410.474060058594 468.063842773438 569.030212402344 651.273559570312 685.6103515625 663.127746582031 629.465454101562 629.741027832031 638.26708984375 655.000732421875 673.198486328125 664.467529296875 664.179138183594 682.326354980469 708.368286132812 734.392700195312 730.767578125 718.190307617188 702.363891601562 637.397155761719 571.544494628906 544.683471679688 541.548583984375 540.905822753906 539.1201171875 535.270263671875 525.835388183594 524.196350097656 518.734436035156 514.781311035156 508.940795898438 493.111846923828 469.209686279297 439.837829589844 406.433013916016 376.583435058594 347.949096679688 305.368927001953 254.822341918945
-9999 -9999 -9999 -9999 -9999 -9999 -9999 -9999 -9999 -9999 -9999 -9999 -9999 -9999 -9999 -9999 -9999 -9999 -9999 -9999 -9999 -9999 -9999 332.413757324219 312.297058105469 206.532623291016 147.121719360352 161.550903320312 230.160003662109 341.575653076172 498.336151123047 594.630859375 604.976196289062 608.963134765625 632.026733398438 644.733276367188 610.492065429688 587.807312011719 585.04443359375 587.766784667969 608.837768554688 626.351684570312 620.270385742188 626.794616699219 652.117797851562 674.617797851562 683.568237304688 689.888977050781 695.205627441406 654.785278320312 548.087219238281 432.308013916016 368.773834228516 336.601593017578 323.619720458984 333.160400390625 343.701416015625 351.731597900391 356.974853515625 347.587860107422 333.715942382812 320.640563964844 299.783264160156 268.664581298828 231.682876586914 189.771194458008 154.648773193359 128.087249755859 109.787872314453 100.442604064941
-9999 -9999 -9999 -9999 -9999 -9999 -9999 -9999 -9999 -9999 -9999 -9999 -9999 -9999 -9999 -9999 -9999 -9999 -9999 -9999 -9999 -9999 286.351226806641 232.200454711914 201.116394042969 176.469955444336 190.369277954102 252.029602050781 326.926300048828 429.331024169922 587.455993652344 689.881164550781 665.092224121094 599.957336425781 575.054870605469 582.447204589844 576.927001953125 573.198669433594 560.231079101562 533.516052246094 530.611145019531 539.278259277344 537.257690429688 544.361633300781 578.214599609375 623.29638671875 643.992492675781 661.803771972656 697.349426269531 668.107360839844 537.861450195312 400.906951904297 312.189697265625 262.862731933594 264.089050292969 288.90185546875 303.890319824219 310.474029541016 311.902252197266 309.002380371094 301.210784912109 290.981475830078 278.226104736328 257.052917480469 227.145812988281 194.841018676758 165.678283691406 143.622955322266 130.587036132812 124.736839294434
-9999 -9999 -9999 -9999 -9999 -9999 -9999 -9999 -9999 -9999 -9999 -9999 -9999 -9999 1142.1996222602 -9999 -9999 -9999 -9999 1604.1162109375 -9999 532.135986328125 281.280426025391 215.231719970703 213.473587036133 222.119644165039 278.296417236328 369.284942626953 430.721069335938 488.583129882812 586.415771484375 662.490661621094 651.167541503906 605.875610351562 590.147094726562 590.753051757812 587.931823730469 589.715637207031 589.403686523438 562.937927246094 524.852661132812 506.950866699219 497.013732910156 487.199798583984 503.837768554688 554.521118164062 602.895446777344 632.546081542969 665.37060546875 685.011962890625 642.97998046875 547.480529785156 425.401947021484 323.447296142578 290.976409912109 310.432006835938 332.057525634766 341.209259033203 345.844573974609 345.393585205078 340.178070068359 330.847137451172 320.918304443359 307.948913574219 291.849182128906 278.661865234375 268.930480957031 264.483581542969 263.036010742188 261.511657714844
-9999 -9999 -9999 -9999 -9999 -9999 -9999 -9999 -9999 -9999 -9999 -9999 -9999 -9999 1135.07717895508 -9999 -9999 -9999 -9999 1400.96508789062 873.6560546875 564.588806152344 288.224273681641 286.455780029297 323.267456054688 349.770751953125 407.145599365234 475.734954833984 519.345520019531 537.430114746094 562.327331542969 592.642333984375 596.71435546875 590.633178710938 592.064636230469 583.803894042969 571.374938964844 569.420349121094 585.435668945312 599.54443359375 586.504272460938 560.365966796875 533.211791992188 502.383361816406 485.58740234375 508.419586181641 560.007446289062 603.705688476562 627.374450683594 655.178527832031 691.661804199219 678.528076171875 563.196044921875 440.541717529297 362.423492431641 335.919799804688 360.688140869141 379.584381103516 389.809478759766 394.040405273438 393.630859375 393.345092773438 392.925872802734 393.973937988281 399.485046386719 409.710327148438 422.412231445312 439.285797119141 459.033294677734 477.105987548828
-9999 -9999 -9999 -9999 -9999 -9999 -9999 -9999 -9999 -9999 -9999 -9999 -9999 -9999 1167.12817382812 -9999 -9999 -9999 -9999 -9999 432.011116027832 469.625305175781 332.009704589844 407.054473876953 481.478393554688 509.953918457031 544.93017578125 574.544982910156 598.881896972656 607.059509277344 602.966003417969 600.029357910156 601.485778808594 606.048156738281 610.1591796875 606.0361328125 594.412414550781 583.981750488281 584.650024414062 599.66943359375 620.575622558594 629.375915527344 609.395568847656 564.5439453125 524.447204589844 518.944274902344 551.762939453125 594.239807128906 614.930419921875 627.335998535156 662.961364746094 696.143310546875 659.592529296875 576.199768066406 472.921783447266 388.314788818359 379.766082763672 396.288665771484 401.432373046875 400.143585205078 403.508270263672 413.669250488281 424.281982421875 433.434936523438 441.57080078125 451.526123046875 467.882080078125 491.30078125 516.451110839844 537.912719726562
-9999 -9999 -9999 -9999 -9999 -9999 -9999 -9999 -9999 -9999 -9999 -9999 -9999 -9999 1067.55917358398 -9999 1038.92419433594 -9999 -9999 -9999 300.310943603516 393.519409179688 410.910278320312 495.554077148438 558.0087890625 585.938171386719 613.8203125 626.267883300781 630.200866699219 624.714782714844 613.714172363281 604.801025390625 604.038696289062 611.05517578125 619.37841796875 623.110656738281 619.995788574219 612.251953125 608.256958007812 613.153991699219 627.608093261719 645.956237792969 648.104248046875 621.03271484375 583.727111816406 566.69091796875 579.515014648438 605.011535644531 616.012573242188 617.535766601562 629.159912109375 658.081848144531 690.37109375 690.833068847656 642.109741210938 522.6650390625 414.601043701172 394.001922607422 395.539733886719 384.335205078125 370.610412597656 362.898132324219 367.636566162109 379.900573730469 390.566131591797 399.989776611328 416.266448974609 436.136627197266 455.756805419922 466.658721923828
-9999 -9999 -9999 -9999 -9999 -9999 -9999 -9999 -9999 -9999 -9999 -9999 -9999 -9999 1067.55917358398 967.990173339844 728.075317382812 -9999 -9999 282.940502166748 276.088226318359 401.956512451172 489.285034179688 532.703002929688 590.162658691406 620.046875 630.23095703125 621.062561035156 603.80419921875 582.458190917969 561.328063964844 547.619140625 544.972290039062 550.706787109375 559.871398925781 569.72119140625 577.545166015625 578.201782226562 572.492980957031 567.94580078125 574.669982910156 593.497192382812 609.912536621094 608.429016113281 592.112548828125 582.385498046875 591.081481933594 606.389831542969 607.675476074219 607.132080078125 610.6279296875 613.554565429688 654.329284667969 718.336730957031 743.33154296875 650.304931640625 476.568786621094 380.273468017578 371.440277099609 362.751586914062 340.439727783203 319.432891845703 314.220550537109 318.790954589844 324.771850585938 334.171051025391 346.481811523438 356.896362304688 370.006866455078 383.056640625
-9999 -9999 -9999 -9999 -9999 -9999 -9999 -9999 -9999 -9999 -9999 -9999 -9999 -9999 -9999 642.777014160156 544.81591796875 -9999 333.665096282959 243.036758422852 312.326080322266 433.144378662109 520.609375 581.126037597656 634.867492675781 634.312133789062 603.768310546875 568.599670410156 539.786499023438 521.069580078125 509.951324462891 502.472290039062 496.785003662109 486.100769042969 478.231628417969 483.735687255859 503.285980224609 531.372375488281 552.221923828125 545.307861328125 520.153564453125 514.492553710938 537.002319335938 556.339904785156 557.810729980469 559.734497070312 573.445373535156 586.568115234375 589.672302246094 595.095153808594 602.10693359375 601.012268066406 631.516357421875 702.775085449219 734.634094238281 669.429809570312 499.157806396484 369.017272949219 344.472198486328 338.831756591797 319.403045654297 298.076324462891 285.901397705078 280.584320068359 277.091827392578 278.867736816406 282.775207519531 285.26220703125 292.461090087891 304.360717773438
-9999 -9999 -9999 -9999 -9999 -9999 -9999 -9999 -9999 -9999 -9999 -9999 -9999 -9999 -9999 494.890777587891 478.112884521484 -9999 245.733337402344 260.820953369141 356.5732421875 488.137481689453 577.954772949219 653.4580078125 657.768249511719 614.697021484375 558.752746582031 521.681030273438 505.692474365234 509.389434814453 517.206909179688 521.486450195312 523.634094238281 500.644104003906 477.282257080078 472.789855957031 487.523071289062 506.659118652344 528.541381835938 547.138916015625 533.8564453125 500.857360839844 499.450012207031 525.110290527344 541.591918945312 556.666687011719 579.173583984375 594.917114257812 601.986022949219 605.051574707031 610.044128417969 602.31005859375 618.752746582031 687.942199707031 692.375366210938 607.20166015625 449.266143798828 346.347381591797 343.498962402344 349.672760009766 331.912384033203 320.072387695312 309.829254150391 302.639434814453 293.424133300781 283.944702148438 276.244232177734 275.834381103516 284.993408203125 298.250885009766
-9999 -9999 -9999 -9999 -9999 -9999 -9999 -9999 -9999 -9999 -9999 -9999 -9999 -9999 -9999 469.156188964844 -9999 346.007947649275 288.570281982422 292.168518066406 409.521636962891 552.603271484375 657.90087890625 682.744140625 633.760131835938 559.103576660156 507.726776123047 505.894744873047 560.748962402344 612.982666015625 612.493835449219 568.942138671875 514.141418457031 473.841918945312 471.988098144531 499.132476806641 526.789611816406 540.439331054688 560.655151367188 580.138244628906 555.919250488281 506.031799316406 523.322570800781 583.625610351562 609.285522460938 627.926513671875 627.130981445312 620.074768066406 626.9794921875 618.088623046875 609.550720214844 584.824768066406 597.712036132812 670.822509765625 647.577453613281 525.036376953125 386.346862792969 339.436676025391 368.158355712891 387.4130859375 382.624542236328 383.032775878906 376.051544189453 365.346496582031 350.554260253906 331.735076904297 315.021240234375 305.109588623047 306.400390625 315.791229248047
-9999 -9999 -9999 -9999 -9999 -9999 -9999 -9999 -9999 -9999 -9999 -9999 -9999 -9999 469.156188964844 417.377471923828 359.155822753906 321.423461914062 305.239440917969 315.77783203125 414.224151611328 569.563110351562 696.039245605469 658.43603515625 575.176818847656 498.924255371094 498.240753173828 567.636962890625 665.179382324219 675.578857421875 625.476257324219 546.754760742188 452.634399414062 396.982269287109 409.741668701172 472.814117431641 527.042724609375 539.365112304688 554.376281738281 566.115966796875 547.537048339844 542.76318359375 597.5576171875 653.410400390625 667.369812011719 670.578247070312 652.412231445312 629.645202636719 619.01513671875 598.973754882812 586.292785644531 553.99658203125 578.979675292969 660.526794433594 630.416137695312 481.872344970703 377.763122558594 386.747406005859 418.038452148438 447.316497802734 464.536529541016 465.155151367188 451.932800292969 431.977478027344 407.968383789062 376.924743652344 358.439666748047 344.240814208984 337.700744628906 338.299530029297
-9999 -9999 -9999 -9999 -9999 -9999 -9999 -9999 -9999 -9999 -9999 -9999 -9999 -9999 -9999 -9999 324.233589172363 318.193237304688 271.255004882812 313.552673339844 403.736450195312 565.239807128906 676.047302246094 615.578735351562 519.725952148438 470.154998779297 534.394348144531 634.913635253906 671.848999023438 629.386169433594 613.367736816406 575.106994628906 505.52392578125 428.534027099609 405.043823242188 467.545257568359 528.166015625 534.216613769531 541.183166503906 549.282958984375 547.791809082031 581.166687011719 640.432006835938 673.456359863281 667.120849609375 647.244018554688 640.072509765625 627.561096191406 620.813598632812 628.802185058594 624.935180664062 574.810180664062 588.683837890625 667.661376953125 639.935119628906 474.477447509766 396.793853759766 422.947174072266 452.758026123047 482.938201904297 492.319854736328 475.882049560547 473.966400146484 474.418518066406 457.018981933594 422.572113037109 393.708099365234 372.17626953125 359.610168457031 365.397705078125
-9999 -9999 -9999 -9999 -9999 -9999 -9999 -9999 -9999 -9999 -9999 -9999 -9999 -9999 -9999 -9999 308.177536010742 298.161834716797 288.987121582031 325.2216796875 407.241119384766 551.138061523438 623.822265625 566.885620117188 479.546356201172 473.246795654297 588.257263183594 675.896606445312 637.827575683594 585.416931152344 614.830261230469 597.475830078125 569.204895019531 526.672302246094 504.465301513672 540.126098632812 558.7666015625 545.673828125 540.50048828125 546.347290039062 570.015258789062 617.390075683594 659.303283691406 658.996154785156 628.548950195312 606.250610351562 616.136474609375 625.192260742188 618.671325683594 629.601501464844 648.748901367188 664.653442382812 657.9892578125 699.858825683594 682.152038574219 548.806335449219 402.658386230469 387.731018066406 435.279632568359 471.621368408203 475.9443359375 455.997192382812 465.804504394531 486.106994628906 481.264099121094 456.135833740234 429.718933105469 407.729583740234 389.254699707031 387.666564941406
-9999 -9999 -9999 -9999 -9999 -9999 -9999 -9999 -9999 -9999 -9999 -9999 -9999 -9999 -9999 -9999 -9999 305.743347167969 317.132995605469 360.422332763672 469.017486572266 598.045104980469 613.611328125 542.978271484375 455.058532714844 491.031616210938 638.050476074219 683.119506835938 610.743041992188 605.679565429688 616.156982421875 605.387573242188 599.091613769531 582.418579101562 575.112182617188 587.183410644531 568.92041015625 534.775756835938 519.694458007812 542.518127441406 587.991577148438 626.504516601562 627.750549316406 579.538391113281 525.896789550781 519.446044921875 560.967163085938 598.861267089844 600.288024902344 593.460998535156 604.93505859375 664.786560058594 693.790344238281 721.643798828125 712.103515625 603.976806640625 447.271331787109 382.275329589844 399.383697509766 429.697509765625 449.511077880859 473.848266601562 500.900299072266 517.969665527344 502.451934814453 473.596252441406 456.701293945312 444.130920410156 429.58056640625 422.852722167969
-9999 -9999 -9999 -9999 -9999 -9999 -9999 -9999 -9999 -9999 -9999 -9999 -9999 -9999 300.665760040283 298.161834716797 310.127208709717 317.912216186523 318.691436767578 392.149810791016 564.691223144531 649.02197265625 606.044250488281 511.960784912109 434.123321533203 509.495666503906 667.529846191406 680.533447265625 596.795715332031 641.925659179688 625.011840820312 613.206848144531 605.860290527344 595.958068847656 604.165649414062 593.665466308594 551.262512207031 521.163696289062 515.901489257812 541.978271484375 580.90576171875 593.396118164062 558.293090820312 485.257598876953 424.515930175781 421.177276611328 481.150634765625 557.792846679688 590.758911132812 570.905090332031 548.297180175781 609.103759765625 646.592468261719 691.88037109375 715.653503417969 674.936279296875 560.794372558594 494.441864013672 486.681610107422 505.397216796875 531.809265136719 561.726135253906 562.538635253906 545.511657714844 511.647216796875 482.784057617188 472.799926757812 468.457672119141 460.91162109375 450.114227294922
-9999 -9999 -9999 -9999 -9999 -9999 -9999 -9999 -9999 -9999 -9999 -9999 -9999 -9999 -9999 -9999 -9999 -9999 398.256370544434 415.737609863281 605.039916992188 643.166625976562 570.666870117188 458.766479492188 422.792755126953 536.0322265625 690.6142578125 686.527526855469 594.22021484375 649.706665039062 632.742797851562 620.894165039062 611.354736328125 616.930786132812 622.817993164062 585.901000976562 544.996398925781 524.122985839844 520.896301269531 543.109619140625 563.695373535156 552.139282226562 505.714050292969 438.672058105469 387.102813720703 387.013366699219 453.458251953125 543.918029785156 589.815490722656 558.822570800781 513.018615722656 555.505310058594 595.039245605469 639.95654296875 673.680480957031 690.429626464844 670.401062011719 645.1357421875 631.884155273438 628.470031738281 626.233337402344 612.036682128906 584.458618164062 548.988647460938 513.350708007812 492.953063964844 488.601348876953 482.462738037109 469.113616943359 461.198394775391
-9999 -9999 -9999 -9999 -9999 -9999 -9999 -9999 -9999 -9999 -9999 -9999 -9999 -9999 -9999 -9999 -9999 329.270751953125 439.803977966309 466.446624755859 633.8134765625 610.002502441406 529.420166015625 419.720825195312 405.559326171875 532.431213378906 705.114196777344 719.7275390625 619.872009277344 666.667358398438 654.970886230469 624.151611328125 613.799072265625 636.213134765625 630.896362304688 589.925415039062 553.314819335938 521.664367675781 511.408782958984 528.332153320312 537.822570800781 528.3984375 502.382110595703 469.115203857422 443.860137939453 453.597595214844 514.010070800781 590.9111328125 606.497192382812 541.095886230469 495.761383056641 548.728454589844 601.345642089844 643.593994140625 641.898071289062 663.552795410156 667.38525390625 655.064575195312 640.184448242188 622.756591796875 605.367431640625 583.434204101562 557.114074707031 529.28515625 514.848449707031 505.848114013672 497.875579833984 488.132507324219 474.600982666016 474.134887695312
-9999 -9999 -9999 -9999 -9999 -9999 -9999 -9999 -9999 -9999 -9999 -9999 -9999 240.90364074707 246.768388536241 -9999 274.327796936035 329.921230316162 329.270751953125 547.760925292969 593.574768066406 550.137817382812 480.085723876953 397.241821289062 398.149017333984 546.844360351562 734.381530761719 774.541137695312 691.700439453125 691.235595703125 695.824035644531 672.903747558594 674.847412109375 695.534851074219 665.486328125 596.453308105469 553.915344238281 520.777160644531 515.928161621094 542.264709472656 560.996276855469 554.961669921875 538.376220703125 526.649108886719 522.177001953125 546.038452148438 596.122192382812 626.540649414062 583.751220703125 499.373321533203 491.116363525391 563.0771484375 638.820251464844 661.411926269531 557.5087890625 603.658508300781 619.294677734375 607.176147460938 590.748901367188 569.91259765625 550.3544921875 537.583679199219 529.449401855469 525.547607421875 534.177490234375 532.896667480469 520.708312988281 511.412078857422 504.650512695312 513.6591796875
-9999 -9999 -9999 -9999 -9999 -9999 -9999 -9999 -9999 -9999 -9999 -9999 -9999 -9999 240.90364074707 262.62489827474 236.776626586914 311.878967285156 441.758575439453 539.253967285156 513.347290039062 480.846435546875 462.343292236328 390.222351074219 381.478179931641 524.366455078125 706.034545898438 753.093811035156 702.808715820312 702.716674804688 729.82275390625 733.584716796875 743.605895996094 732.850280761719 673.685302734375 598.964172363281 560.784057617188 542.062866210938 552.590759277344 583.178344726562 589.341125488281 578.451049804688 577.278686523438 588.80126953125 602.078796386719 613.874633789062 622.968627929688 586.280456542969 504.053009033203 464.919860839844 526.001159667969 593.679260253906 673.752502441406 629.872436523438 495.182312011719 557.289367675781 574.332092285156 586.984191894531 580.813537597656 567.089294433594 552.590759277344 550.184753417969 555.726684570312 558.418884277344 557.180541992188 551.245056152344 546.794555664062 544.17822265625 548.051025390625 561.543640136719
-9999 -9999 -9999 -9999 -9999 -9999 -9999 -9999 -9999 -9999 -9999 -9999 -9999 -9999 238.535808563232 240.90364074707 310.194427490234 368.607666015625 418.002136230469 456.7001953125 458.804840087891 446.128662109375 431.746276855469 373.293029785156 355.484191894531 466.973205566406 643.913024902344 735.849243164062 702.900329589844 708.0283203125 739.84716796875 745.622436523438 732.730712890625 696.92626953125 649.329284667969 606.573425292969 578.709167480469 564.510009765625 573.473937988281 583.991271972656 573.340698242188 561.217163085938 559.451416015625 562.479614257812 563.509704589844 553.92919921875 513.357849121094 458.324890136719 441.239562988281 503.189666748047 571.670471191406 628.261596679688 688.701477050781 620.57958984375 475.316040039062 517.149047851562 554.062133789062 578.191833496094 581.790100097656 577.961608886719 569.143005371094 563.684875488281 562.624450683594 557.063659667969 559.469482421875 568.396423339844 574.81591796875 581.390991210938 598.13427734375 620.483947753906
-9999 -9999 -9999 -9999 -9999 -9999 -9999 -9999 -9999 -9999 -9999 222.208938598633 221.344131469727 218.230682373047 213.587310791016 281.421600341797 385.963165283203 373.036315917969 376.662841796875 395.299652099609 419.861877441406 422.622375488281 396.876312255859 348.570617675781 345.319793701172 469.431396484375 647.131042480469 720.223693847656 667.610595703125 697.20166015625 720.069519042969 720.57958984375 701.520141601562 670.304748535156 634.70947265625 610.236877441406 597.442993164062 582.837768554688 570.209106445312 568.664123535156 559.043518066406 545.587951660156 531.200134277344 516.620727539062 508.601104736328 472.420227050781 436.145416259766 446.499603271484 510.769989013672 584.964294433594 616.274536132812 672.093872070312 692.231323242188 634.857238769531 504.646087646484 541.246887207031 578.284484863281 583.534118652344 575.994323730469 566.381713867188 566.83984375 566.296936035156 568.003051757812 571.666687011719 587.361938476562 605.283020019531 621.340148925781 641.023132324219 670.1943359375 685.490539550781
-9999 -9999 -9999 -9999 -9999 -9999 -9999 -9999 -9999 413.289642333984 254.983428955078 201.530670166016 208.257675170898 199.679306030273 233.890396118164 347.457885742188 376.671905517578 359.459564208984 368.354583740234 382.904998779297 391.723175048828 383.244476318359 355.351501464844 322.977905273438 364.582397460938 529.034729003906 675.633605957031 715.574035644531 668.984802246094 682.095581054688 693.186157226562 691.357604980469 683.213500976562 654.992492675781 622.526550292969 593.435119628906 568.737121582031 548.891662597656 537.517211914062 531.276916503906 527.556579589844 525.349365234375 509.129974365234 484.588226318359 477.271453857422 474.0556640625 486.852416992188 553.008239746094 607.833679199219 642.090942382812 670.20947265625 712.090515136719 671.413208007812 642.23974609375 578.914794921875 609.220947265625 616.577941894531 625.225646972656 625.02001953125 607.8818359375 611.598693847656 607.900268554688 606.944702148438 614.785766601562 635.694885253906 659.260131835938 686.39697265625 713.609130859375 719.320434570312 700.69091796875
-9999 -9999 -9999 -9999 -9999 -9999 -9999 -9999 -9999 398.120361328125 248.629745483398 214.044418334961 227.978363037109 244.022537231445 307.247802734375 418.975128173828 365.524261474609 359.788604736328 370.758209228516 380.430358886719 375.600555419922 351.19189453125 319.439697265625 305.858184814453 388.139343261719 545.700805664062 662.537658691406 716.430358886719 708.097900390625 684.473693847656 666.14453125 656.705505371094 650.734008789062 637.676574707031 610.160949707031 580.635009765625 555.6982421875 537.724792480469 530.629821777344 526.898071289062 525.874145507812 533.347412109375 540.367553710938 537.919128417969 539.238464355469 547.869445800781 551.219787597656 602.177795410156 651.886108398438 682.325317382812 716.167602539062 721.822387695312 654.06005859375 663.775512695312 657.660278320312 651.242553710938 642.965515136719 652.146484375 670.784973144531 660.730163574219 668.756103515625 666.395141601562 666.038696289062 674.776733398438 691.888122558594 710.141967773438 720.088745117188 717.025390625 709.014892578125 690.271362304688
-9999 -9999 -9999 -9999 -9999 276.252517700195 363.187622070312 341.347412109375 345.230072021484 268.705841064453 238.030654907227 246.464645385742 295.805725097656 335.192199707031 344.16796875 359.320587158203 373.533752441406 380.619262695312 372.709869384766 350.941680908203 317.229156494141 292.571716308594 283.688262939453 318.317901611328 422.852111816406 530.539489746094 579.518432617188 555.497741699219 526.524291992188 546.637268066406 587.683532714844 635.495849609375 663.919128417969 670.425109863281 649.952087402344 625.951599121094 623.840148925781 620.155578613281 611.80322265625 606.811279296875 607.646606445312 610.9990234375 614.047973632812 613.964782714844 613.568420410156 610.006469726562 605.667663574219 621.022644042969 647.403381347656 691.7158203125 722.959167480469 693.089599609375 655.631103515625 673.526611328125 674.819091796875 669.259338378906 663.642028808594 666.379943847656 680.401489257812 687.812438964844 686.765991210938 684.745727539062 688.317626953125 689.763671875 696.159423828125 700.506286621094 700.333740234375 692.374816894531 677.9794921875 664.786926269531
-9999 -9999 -9999 -9999 273.645172119141 248.326232910156 219.851043701172 214.78742980957 228.527801513672 225.248229980469 222.532424926758 307.463653564453 350.326446533203 348.142395019531 383.77685546875 401.310363769531 397.219879150391 362.830718994141 308.979858398438 264.301208496094 244.010299682617 247.246765136719 281.70068359375 353.036499023438 429.268585205078 462.420074462891 448.373657226562 393.794403076172 362.204528808594 363.569671630859 394.162353515625 479.696899414062 594.382507324219 665.763427734375 669.302673339844 655.332214355469 654.128784179688 656.539733886719 651.139465332031 641.079284667969 633.286315917969 633.068481445312 643.79248046875 655.868530273438 655.213684082031 643.998168945312 632.901916503906 632.920776367188 652.911010742188 688.794921875 700.865173339844 671.440856933594 657.051574707031 671.762451171875 671.8916015625 667.840515136719 676.265258789062 677.729309082031 673.939392089844 690.418762207031 688.80712890625 684.6123046875 683.646667480469 681.034545898438 678.045593261719 671.156311035156 664.134582519531 654.671569824219 644.674621582031 631.456298828125
-9999 -9999 -9999 235.348613739014 238.650146484375 201.512786865234 221.05403137207 239.388961791992 261.095855712891 289.707244873047 319.606323242188 319.552429199219 329.288848876953 345.606781005859 365.491821289062 358.531219482422 317.86962890625 270.188659667969 228.28581237793 206.287841796875 209.965560913086 237.697814941406 295.678253173828 366.057891845703 408.493591308594 410.108459472656 380.903198242188 328.971649169922 304.395141601562 307.34375 320.965667724609 348.128326416016 428.599334716797 570.502685546875 650.302795410156 629.319274902344 613.421813964844 621.132690429688 632.867370605469 637.98291015625 642.922729492188 650.227355957031 670.025512695312 690.854064941406 686.965942382812 669.141967773438 652.690185546875 648.518127441406 663.024291992188 686.824279785156 691.668579101562 664.940063476562 655.526306152344 660.793701171875 658.577331542969 663.154113769531 688.920776367188 690.348327636719 673.473510742188 678.976623535156 684.50341796875 671.562683105469 657.254150390625 644.463439941406 625.985168457031 604.976501464844 598.619445800781 606.163024902344 611.740112304688 596.601135253906
-9999 -9999 -9999 233.519912719727 195.579223632812 219.912963867188 275.806091308594 348.775909423828 350.718994140625 385.75537109375 336.749633789062 339.317199707031 360.464385986328 361.506958007812 350.218597412109 307.636260986328 258.622283935547 216.780044555664 193.564758300781 190.11865234375 206.960845947266 244.723480224609 306.444915771484 362.973571777344 376.522308349609 368.642669677734 340.428497314453 298.758666992188 282.497467041016 289.223358154297 302.198486328125 298.558074951172 323.497222900391 406.202117919922 532.847290039062 585.083374023438 547.219177246094 536.122253417969 556.132202148438 593.054626464844 637.063415527344 674.861511230469 703.845520019531 720.895141601562 705.526977539062 671.101135253906 645.279724121094 644.350158691406 663.453125 679.40673828125 680.98046875 661.3974609375 638.432861328125 634.779663085938 643.270812988281 666.990173339844 688.764831542969 694.414978027344 678.347595214844 670.451721191406 670.628295898438 657.812561035156 634.596496582031 608.230529785156 565.250122070312 528.895690917969 526.435729980469 559.96240234375 591.490295410156 586.373474121094
