NCOLS 70 
NROWS 52 
XLLCORNER -80 
YLLCORNER 33 
CELLSIZE 0.25 
NODATA_value -9999 
-9999.000000000000000 -9999 -9999 -9999 -9999 -9999 -9999 -9999 -9999 -9999 -9999 -9999 -9999 -9999 -9999 -9999 -9999 -9999 -9999 -9999 -9999 -9999 -9999 -9999 -9999 -9999 -9999 -9999 -9999 -9999 -9999 -9999 -9999 -9999 -9999 -9999 -9999 -9999 -9999 -9999 -9999 -9999 -9999 -9999 -9999 -9999 -9999 -9999 -9999 -9999 -9999 -9999 -9999 -9999 -9999 -9999 -9999 -9999 -9999 -9999 -9999 -9999 -9999 -9999 -9999 -9999 -9999 -9999 -9999 -9999
-9999 -9999 -9999 -9999 -9999 -9999 -9999 -9999 -9999 -9999 -9999 -9999 -9999 -9999 -9999 -9999 -9999 -9999 -9999 -9999 -9999 -9999 -9999 -9999 -9999 -9999 -9999 -9999 -9999 -9999 -9999 -9999 -9999 -9999 -9999 -9999 -9999 -9999 -9999 -9999 -9999 -9999 -9999 -9999 -9999 -9999 -9999 -9999 -9999 -9999 -9999 -9999 -9999 -9999 -9999 -9999 -9999 -9999 -9999 -9999 -9999 -9999 -9999 -9999 -9999 -9999 -9999 -9999 -9999 -9999
-9999 -9999 -9999 -9999 -9999 -9999 -9999 -9999 -9999 -9999 -9999 -9999 -9999 -9999 -9999 -9999 -9999 -9999 -9999 -9999 -9999 -9999 -9999 -9999 -9999 -9999 -9999 -9999 -9999 -9999 -9999 -9999 -9999 -9999 -9999 -9999 -9999 -9999 -9999 -9999 -9999 -9999 -9999 -9999 -9999 -9999 -9999 -9999 -9999 -9999 -9999 -9999 -9999 -9999 -9999 -9999 -9999 -9999 -9999 168.95671081543 -9999 -9999 -9999 -9999 -9999 -9999 -9999 -9999 -9999 -9999
-9999 -9999 -9999 -9999 -9999 -9999 -9999 -9999 -9999 -9999 -9999 -9999 -9999 -9999 -9999 -9999 -9999 -9999 -9999 -9999 -9999 -9999 -9999 -9999 -9999 -9999 -9999 -9999 -9999 -9999 -9999 -9999 -9999 -9999 -9999 -9999 -9999 -9999 -9999 -9999 -9999 -9999 -9999 -9999 -9999 -9999 -9999 -9999 -9999 -9999 -9999 -9999 -9999 -9999 -9999 113.041244506836 110.14867401123 117.435066223145 147.672973632812 164.359481811523 -9999 -9999 -9999 -9999 -9999 -9999 -9999 -9999 -9999 -9999
-9999 -9999 -9999 -9999 -9999 -9999 -9999 -9999 -9999 -9999 -9999 -9999 -9999 -9999 -9999 -9999 -9999 -9999 -9999 -9999 -9999 -9999 -9999 -9999 -9999 -9999 -9999 -9999 -9999 -9999 -9999 -9999 -9999 -9999 -9999 -9999 -9999 -9999 -9999 -9999 -9999 -9999 -9999 -9999 -9999 -9999 -9999 -9999 -9999 -9999 -9999 -9999 137.662551879883 130.325759887695 119.564231872559 117.183799743652 117.182548522949 123.842460632324 -9999 -9999 -9999 -9999 -9999 -9999 -9999 -9999 -9999 -9999 -9999 -9999
-9999 -9999 -9999 -9999 -9999 -9999 -9999 -9999 -9999 -9999 -9999 -9999 -9999 -9999 -9999 -9999 -9999 -9999 -9999 -9999 -9999 -9999 -9999 -9999 -9999 -9999 -9999 -9999 -9999 -9999 -9999 -9999 -9999 -9999 -9999 -9999 -9999 -9999 -9999 -9999 -9999 -9999 -9999 -9999 -9999 -9999 -9999 -9999 -9999 -9999 120.116271972656 123.923301696777 115.187591552734 115.02685546875 119.846229553223 125.084907531738 -9999 -9999 -9999 -9999 -9999 -9999 -9999 -9999 -9999 -9999 -9999 86.8686447143555 80.7985668182373 86.0307388305664
-9999 -9999 -9999 -9999 -9999 -9999 -9999 -9999 -9999 -9999 -9999 -9999 -9999 -9999 -9999 -9999 -9999 -9999 -9999 -9999 -9999 -9999 -9999 -9999 -9999 -9999 -9999 -9999 -9999 -9999 -9999 -9999 -9999 -9999 -9999 -9999 -9999 -9999 -9999 -9999 -9999 -9999 -9999 -9999 129.16938273112 -9999 -9999 123.910612106323 126.249824523926 121.143455505371 110.527870178223 103.464622497559 105.634796142578 114.182662963867 119.082084655762 -9999 -9999 -9999 -9999 -9999 -9999 -9999 -9999 118.936012268066 106.325508117676 99.66357421875 94.372688293457 87.6694412231445 78.5638046264648 70.9302825927734
-9999 -9999 -9999 -9999 -9999 -9999 -9999 -9999 -9999 -9999 -9999 -9999 -9999 -9999 -9999 -9999 -9999 -9999 -9999 -9999 -9999 -9999 -9999 -9999 -9999 -9999 -9999 -9999 -9999 -9999 -9999 -9999 -9999 -9999 -9999 -9999 -9999 -9999 -9999 -9999 -9999 -9999 -9999 -9999 125.484115600586 133.818099975586 136.980590820312 121.807228088379 110.604804992676 104.523895263672 99.1888732910156 96.3505935668945 104.742835998535 118.725967407227 117.459451675415 -9999 -9999 -9999 -9999 -9999 -9999 -9999 119.730949401855 110.091796875 99.667594909668 90.5768508911133 81.0473175048828 73.6812286376953 67.3743743896484 61.4509735107422
-9999 -9999 -9999 -9999 -9999 -9999 -9999 -9999 -9999 -9999 -9999 -9999 -9999 -9999 -9999 -9999 -9999 -9999 -9999 -9999 -9999 -9999 -9999 -9999 -9999 -9999 -9999 -9999 -9999 -9999 -9999 -9999 -9999 -9999 -9999 -9999 -9999 -9999 -9999 -9999 166.748596191406 164.390579223633 154.168447875977 170.826049804688 152.857360839844 129.252563476562 110.242797851562 93.9310302734375 80.0574340820312 72.4328155517578 73.5140151977539 80.6403732299805 96.6108322143555 117.847091674805 131.995051574707 -9999 -9999 -9999 -9999 -9999 122.49164835612 122.298027038574 110.733139038086 94.8613204956055 82.8686294555664 71.3193054199219 56.6072540283203 46.8215446472168 44.2560958862305 45.9759368896484
-9999 -9999 -9999 -9999 -9999 -9999 -9999 -9999 -9999 -9999 -9999 -9999 -9999 -9999 -9999 -9999 -9999 -9999 -9999 -9999 -9999 -9999 -9999 -9999 -9999 -9999 -9999 -9999 -9999 -9999 -9999 -9999 -9999 -9999 -9999 -9999 -9999 -9999 -9999 164.076904296875 168.967926025391 167.200958251953 157.002853393555 147.6064453125 137.063186645508 121.17106628418 101.322631835938 79.165153503418 58.375301361084 47.0890731811523 48.7858695983887 60.3787078857422 82.8788146972656 111.638938903809 146.213012695312 165.550247192383 -9999 -9999 -9999 134.834505081177 129.294342041016 115.88257598877 100.146026611328 87.0443420410156 76.3348541259766 60.2858505249023 43.6418800354004 37.5747604370117 36.9860992431641 37.2292213439941
-9999 -9999 -9999 -9999 -9999 -9999 -9999 -9999 -9999 -9999 -9999 -9999 -9999 -9999 -9999 -9999 -9999 -9999 -9999 -9999 -9999 -9999 -9999 -9999 -9999 -9999 -9999 -9999 -9999 -9999 -9999 -9999 -9999 -9999 -9999 -9999 -9999 -9999 186.857189941406 176.337478637695 166.708312988281 150.555572509766 133.451507568359 124.818260192871 117.936698913574 106.374572753906 88.9854278564453 64.4543685913086 45.6926040649414 38.2176666259766 39.0438804626465 48.6146545410156 71.5822525024414 103.645698547363 140.061157226562 175.658020019531 180.025283813477 161.801263173421 161.570938110352 133.508636474609 114.96410369873 101.25235748291 92.1372299194336 85.6241760253906 75.272087097168 54.7757911682129 40.0303115844727 38.1538276672363 38.8867797851562 38.4943046569824
-9999 -9999 -9999 -9999 -9999 -9999 -9999 -9999 -9999 -9999 -9999 -9999 -9999 -9999 -9999 -9999 -9999 -9999 -9999 -9999 -9999 -9999 -9999 -9999 -9999 -9999 -9999 -9999 -9999 -9999 -9999 -9999 -9999 -9999 -9999 -9999 -9999 219.474685668945 205.500106811523 168.896774291992 137.638488769531 121.53630065918 113.672714233398 114.141746520996 117.832450866699 119.929695129395 109.073959350586 74.9462432861328 51.3566551208496 46.2901344299316 47.4235076904297 53.9986839294434 72.2942886352539 101.151107788086 130.467742919922 154.647384643555 167.720153808594 155.329238891602 124.889091491699 101.704765319824 90.0391845703125 85.5616226196289 84.9011459350586 81.6606140136719 71.8681030273438 53.75146484375 41.2574119567871 39.1307945251465 40.8341484069824 41.9540100097656
-9999 -9999 -9999 -9999 -9999 -9999 -9999 -9999 -9999 -9999 -9999 -9999 -9999 -9999 -9999 -9999 -9999 -9999 -9999 -9999 -9999 -9999 -9999 -9999 -9999 -9999 -9999 -9999 -9999 -9999 -9999 -9999 -9999 -9999 -9999 -9999 -9999 190.727554321289 170.234420776367 134.221817016602 115.92138671875 112.094390869141 114.124473571777 127.217529296875 145.451324462891 147.863586425781 131.080032348633 87.9662246704102 63.324577331543 62.8160705566406 66.3082733154297 70.7081146240234 81.5115814208984 98.7947845458984 117.994522094727 133.77262878418 139.116775512695 126.541091918945 106.332145690918 91.8069000244141 84.2302780151367 84.0577545166016 85.5293655395508 80.9534606933594 71.8938827514648 59.3261985778809 48.0085411071777 44.1696624755859 46.5577087402344 47.3693962097168
-9999 -9999 -9999 -9999 -9999 -9999 -9999 -9999 -9999 -9999 -9999 -9999 -9999 -9999 -9999 -9999 -9999 -9999 -9999 -9999 -9999 -9999 -9999 -9999 -9999 -9999 -9999 -9999 -9999 -9999 -9999 -9999 -9999 -9999 -9999 -9999 -9999 176.543640136719 136.512603759766 114.550964355469 112.580513000488 120.008575439453 133.379760742188 152.131195068359 165.596237182617 160.993423461914 132.672332763672 87.9564361572266 71.0396575927734 74.4756622314453 80.4174423217773 85.2092056274414 91.1069107055664 101.427505493164 113.080917358398 118.986373901367 119.729881286621 113.178840637207 109.446365356445 104.803977966309 105.151054382324 107.74437713623 107.317092895508 100.016670227051 91.3297882080078 81.3636016845703 70.4776916503906 60.7374153137207 57.7807350158691 57.1272163391113
-9999 -9999 -9999 -9999 -9999 -9999 -9999 -9999 -9999 -9999 -9999 -9999 -9999 -9999 -9999 -9999 -9999 -9999 -9999 -9999 -9999 -9999 -9999 -9999 -9999 -9999 -9999 -9999 -9999 -9999 -9999 -9999 -9999 -9999 -9999 -9999 276.027496337891 194.746383666992 126.608680725098 116.994232177734 133.349044799805 154.22233581543 167.011978149414 165.680023193359 157.537185668945 154.572113037109 127.322494506836 93.9872055053711 84.4090118408203 89.9043960571289 96.0866394042969 98.6025390625 105.012306213379 115.886787414551 123.186065673828 118.959930419922 118.96711730957 117.527885437012 121.230979919434 112.514320373535 124.667663574219 129.928314208984 121.476387023926 121.630271911621 120.014450073242 115.021713256836 108.210784912109 102.90877532959 83.3162384033203 69.284309387207
-9999 -9999 -9999 -9999 -9999 -9999 -9999 -9999 -9999 -9999 -9999 -9999 -9999 -9999 -9999 -9999 -9999 -9999 -9999 -9999 -9999 -9999 -9999 -9999 -9999 -9999 -9999 -9999 -9999 -9999 -9999 -9999 -9999 -9999 -9999 -9999 -9999 147.637176513672 140.207595825195 139.389282226562 161.461547851562 183.20783996582 162.802108764648 137.382446289062 135.402954101562 130.230697631836 114.31031036377 104.222625732422 104.02409362793 116.175109863281 121.136779785156 115.624351501465 120.297676086426 130.737701416016 140.261962890625 124.463371276855 128.417098999023 136.930557250977 137.571090698242 125.722068786621 125.309783935547 122.097114562988 112.849342346191 111.222366333008 105.185523986816 104.829772949219 102.021636962891 131.459106445312 125.322235107422 97.7690582275391
-9999 -9999 -9999 -9999 -9999 -9999 -9999 -9999 -9999 -9999 -9999 -9999 -9999 -9999 -9999 -9999 -9999 -9999 -9999 -9999 -9999 -9999 -9999 -9999 -9999 -9999 -9999 -9999 -9999 -9999 -9999 -9999 -9999 -9999 -9999 -9999 -9999 -9999 170.933715820312 -9999 178.747680664062 179.564300537109 153.693542480469 139.242431640625 136.216598510742 126.503814697266 118.895690917969 122.725914001465 128.087524414062 138.874313354492 136.931777954102 127.889694213867 127.084953308105 129.99186706543 134.216125488281 118.425437927246 124.461067199707 140.925262451172 138.21662902832 135.061004638672 128.173721313477 118.053855895996 110.571617126465 106.099632263184 101.302322387695 101.917518615723 96.21240234375 108.017402648926 133.821746826172 135.152420043945
-9999 -9999 -9999 -9999 -9999 -9999 -9999 -9999 -9999 -9999 -9999 -9999 -9999 -9999 -9999 -9999 -9999 -9999 -9999 -9999 -9999 -9999 -9999 -9999 -9999 -9999 -9999 -9999 -9999 -9999 -9999 -9999 -9999 -9999 -9999 -9999 -9999 -9999 -9999 -9999 189.228393554688 188.837249755859 170.306854248047 150.613571166992 139.533325195312 135.398803710938 144.591888427734 152.182647705078 153.426651000977 151.626556396484 144.784698486328 141.496109008789 144.111679077148 144.740310668945 134.769515991211 121.047943115234 129.374893188477 137.118179321289 133.950942993164 126.475601196289 118.761093139648 114.222175598145 109.384857177734 106.090156555176 100.725761413574 98.3307418823242 96.7846908569336 97.2772064208984 106.075057983398 132.423751831055
-9999 -9999 -9999 -9999 -9999 -9999 -9999 -9999 -9999 -9999 -9999 -9999 -9999 -9999 -9999 -9999 -9999 -9999 -9999 -9999 -9999 -9999 -9999 -9999 -9999 -9999 -9999 -9999 -9999 -9999 -9999 -9999 -9999 -9999 207.077857971191 206.580856323242 189.025619506836 -9999 152.250717163086 159.463409423828 195.677597045898 228.111557006836 201.685256958008 158.366302490234 149.056518554688 169.996078491211 193.524139404297 188.633972167969 177.71484375 172.410949707031 167.427001953125 163.932373046875 169.359176635742 165.559188842773 131.114730834961 130.403472900391 135.791961669922 142.10774230957 137.118377685547 130.3525390625 124.850257873535 118.777267456055 111.523147583008 107.568740844727 102.636474609375 100.559707641602 98.2923126220703 97.2772827148438 99.6344909667969 104.111312866211
-9999 -9999 -9999 -9999 -9999 -9999 -9999 -9999 -9999 -9999 -9999 -9999 -9999 -9999 -9999 -9999 -9999 -9999 -9999 -9999 -9999 -9999 -9999 -9999 -9999 -9999 -9999 500.244567871094 500.244567871094 411.443695068359 306.860687255859 243.469924926758 215.961120605469 207.017272949219 208.151153564453 206.562149047852 186.957214355469 168.059158325195 161.615295410156 174.676147460938 215.206481933594 260.267639160156 243.046966552734 190.33332824707 193.564437866211 233.625259399414 235.731521606445 212.897537231445 201.585220336914 192.870559692383 186.861267089844 179.168014526367 171.629302978516 160.73356628418 135.279891967773 159.711502075195 160.525131225586 156.512832641602 146.938125610352 137.59391784668 129.544189453125 123.850532531738 119.65779876709 113.458435058594 110.328559875488 107.120002746582 106.016967773438 103.19571685791 103.574836730957 102.67960357666
-9999 -9999 -9999 -9999 -9999 -9999 -9999 -9999 -9999 -9999 -9999 -9999 -9999 -9999 -9999 -9999 -9999 -9999 -9999 -9999 -9999 -9999 -9999 -9999 -9999 -9999 -9999 -9999 -9999 -9999 245.322692871094 223.272842407227 216.80192565918 214.937561035156 214.442764282227 207.930068969727 193.643264770508 182.785186767578 186.064834594727 210.895706176758 240.904678344727 271.062957763672 262.155120849609 230.114120483398 239.998458862305 264.894226074219 251.342544555664 225.780883789062 212.915237426758 196.206924438477 178.639495849609 159.516754150391 153.479690551758 161.726165771484 182.863189697266 185.197189331055 167.12158203125 151.318695068359 138.516036987305 129.194259643555 122.176345825195 118.174896240234 116.350944519043 113.856521606445 112.56844329834 111.455749511719 112.661994934082 112.152618408203 111.377380371094 109.235221862793
-9999 -9999 -9999 -9999 -9999 -9999 -9999 -9999 -9999 -9999 -9999 -9999 -9999 -9999 -9999 -9999 -9999 -9999 -9999 -9999 -9999 -9999 -9999 -9999 -9999 368.488850911458 341.62348429362 320.935658772786 295.511016845703 276.913299560547 246.79541015625 234.309234619141 239.768829345703 247.40185546875 246.006988525391 232.960342407227 226.010955810547 217.679672241211 213.528396606445 228.343276977539 245.220443725586 257.349822998047 248.898849487305 239.016021728516 245.825119018555 243.353912353516 225.765411376953 204.826065063477 188.121719360352 166.968307495117 160.628677368164 146.244003295898 157.936294555664 175.631362915039 177.165237426758 162.207427978516 143.099563598633 127.689231872559 120.454307556152 116.210029602051 113.858001708984 111.986633300781 110.555122375488 109.073364257812 109.366546630859 108.760452270508 108.311485290527 107.514770507812 106.243034362793 107.579391479492
-9999 -9999 -9999 -9999 -9999 -9999 -9999 -9999 -9999 -9999 -9999 -9999 -9999 -9999 -9999 -9999 -9999 -9999 -9999 -9999 -9999 -9999 -9999 -9999 400.998779296875 363.291351318359 341.176422119141 320.402679443359 301.227874755859 283.500213623047 270.918670654297 261.910461425781 256.58642578125 248.431396484375 236.475875854492 218.137908935547 228.817352294922 233.846069335938 223.603942871094 225.233093261719 235.359680175781 236.682495117188 224.200103759766 218.136383056641 217.624252319336 196.424407958984 174.173873901367 175.003601074219 169.854553222656 161.826583862305 167.355087280273 169.665435791016 174.699920654297 160.834396362305 139.932098388672 128.560012817383 125.281509399414 122.259353637695 119.629692077637 115.780723571777 112.717742919922 108.20694732666 105.615364074707 103.455513000488 103.904342651367 106.490127563477 107.865394592285 107.974868774414 107.06046295166 108.072929382324
-9999 -9999 -9999 -9999 -9999 -9999 -9999 -9999 -9999 -9999 -9999 -9999 -9999 -9999 -9999 -9999 -9999 -9999 -9999 -9999 -9999 -9999 -9999 -9999 312.597076416016 249.248062133789 240.421463012695 262.451263427734 284.768585205078 292.289154052734 283.21728515625 262.901763916016 244.818725585938 221.960601806641 203.584213256836 191.204467773438 204.460723876953 210.814956665039 199.193222045898 197.040771484375 210.094116210938 211.153915405273 195.233734130859 192.645477294922 198.312866210938 193.106597900391 188.536178588867 196.521621704102 199.069259643555 195.018203735352 184.474761962891 173.69221496582 162.350433349609 149.557067871094 136.329940795898 127.449798583984 122.703315734863 120.321441650391 118.298126220703 115.374382019043 111.668045043945 105.334770202637 101.514587402344 99.31982421875 98.6063537597656 101.735237121582 106.219886779785 108.58642578125 109.064086914062 112.478187561035
-9999 -9999 -9999 -9999 -9999 -9999 -9999 -9999 -9999 -9999 -9999 -9999 -9999 -9999 -9999 -9999 -9999 -9999 -9999 -9999 -9999 -9999 -9999 296.080215454102 282.840148925781 257.192443847656 264.301452636719 284.949157714844 287.609069824219 273.188903808594 255.172027587891 232.708694458008 213.655853271484 200.288757324219 190.966445922852 185.143264770508 187.62922668457 186.039108276367 179.772369384766 178.839462280273 188.199737548828 199.417724609375 202.121917724609 204.204391479492 208.890853881836 209.067245483398 205.667007446289 199.514053344727 190.68408203125 182.251861572266 171.526550292969 161.033004760742 151.106597900391 139.228164672852 131.001907348633 127.188430786133 124.74095916748 122.40234375 119.280754089355 116.443290710449 113.396690368652 106.956283569336 101.625305175781 99.6501541137695 98.3149719238281 100.265197753906 106.311500549316 111.089279174805 114.205039978027 119.684211730957
-9999 -9999 -9999 -9999 -9999 -9999 -9999 -9999 -9999 -9999 -9999 -9999 -9999 -9999 -9999 -9999 -9999 -9999 -9999 -9999 -9999 -9999 -9999 290.439392089844 298.444244384766 296.568542480469 299.388305664062 291.074127197266 268.424774169922 252.835739135742 239.84294128418 219.53288269043 197.67106628418 182.953125 178.784103393555 180.806427001953 183.349624633789 183.299392700195 185.062347412109 192.547241210938 205.036605834961 212.123977661133 209.496063232422 206.165435791016 204.558227539062 198.291687011719 189.490509033203 183.070510864258 177.114990234375 170.725372314453 162.627029418945 153.315490722656 143.428512573242 135.937866210938 131.364547729492 127.591262817383 125.152359008789 122.816314697266 120.772216796875 118.896827697754 116.516464233398 110.445686340332 104.427444458008 101.620147705078 101.366310119629 103.971000671387 109.754783630371 115.67497253418 121.030708312988 126.423980712891
-9999 -9999 -9999 -9999 -9999 -9999 -9999 -9999 -9999 -9999 -9999 -9999 -9999 -9999 -9999 -9999 -9999 -9999 -9999 -9999 -9999 -9999 376.551727294922 339.585662841797 314.555053710938 299.663452148438 288.462707519531 282.748229980469 275.290893554688 264.124908447266 240.00373840332 210.534515380859 187.484481811523 177.031127929688 178.792877197266 184.776138305664 187.847778320312 190.139678955078 194.087356567383 197.859359741211 200.03694152832 195.538360595703 188.859191894531 183.845230102539 178.099868774414 172.87370300293 169.017562866211 166.544845581055 164.299041748047 161.468536376953 156.857833862305 150.675094604492 144.169418334961 138.952590942383 135.163650512695 132.397323608398 129.758773803711 125.648834228516 123.159957885742 121.757934570312 120.139976501465 115.415710449219 108.62760925293 104.673439025879 105.968017578125 110.69261932373 115.971633911133 121.524658203125 127.172271728516 132.670440673828
-9999 -9999 -9999 -9999 -9999 -9999 -9999 -9999 -9999 -9999 -9999 -9999 -9999 -9999 727.363547431098 -9999 -9999 -9999 -9999 444.256439208984 -9999 332.789001464844 342.419128417969 315.779205322266 296.128814697266 275.608428955078 266.381866455078 274.238494873047 283.489196777344 273.721862792969 241.563034057617 206.81591796875 184.468948364258 176.597091674805 180.813720703125 185.655639648438 187.587753295898 190.47248840332 190.943603515625 187.619018554688 183.216339111328 179.455749511719 177.79443359375 174.763031005859 169.297775268555 165.196182250977 162.542663574219 159.616851806641 156.53076171875 153.937759399414 151.361938476562 148.092132568359 144.251419067383 140.041976928711 136.353668212891 134.128799438477 131.737686157227 128.296142578125 126.828628540039 125.384269714355 124.692771911621 121.935150146484 114.124946594238 109.304466247559 111.628921508789 117.590316772461 123.040740966797 128.554885864258 133.861068725586 138.631683349609
-9999 -9999 -9999 -9999 -9999 -9999 -9999 -9999 -9999 -9999 -9999 -9999 -9999 -9999 723.861373901367 -9999 -9999 -9999 -9999 409.22966003418 349.129132080078 307.219818115234 291.842437744141 285.414184570312 288.626403808594 279.454010009766 274.517578125 283.698425292969 291.506225585938 277.880035400391 244.367752075195 212.970397949219 194.433044433594 184.737731933594 185.324554443359 190.476181030273 191.953338623047 189.953628540039 186.785369873047 183.660888671875 180.082656860352 177.075164794922 175.621047973633 171.380142211914 165.652572631836 162.66340637207 160.221664428711 156.250671386719 151.401412963867 147.843490600586 145.637405395508 143.069366455078 140.553787231445 138.280014038086 135.574478149414 132.881057739258 130.500335693359 128.780395507812 128.34700012207 126.954116821289 127.767761230469 127.912467956543 120.948318481445 115.202041625977 116.999061584473 122.955184936523 128.654357910156 134.067749023438 138.783615112305 142.221694946289
-9999 -9999 -9999 -9999 -9999 -9999 -9999 -9999 -9999 -9999 -9999 -9999 -9999 -9999 739.621154785156 -9999 -9999 -9999 -9999 -9999 279.809955596924 287.177520751953 286.746002197266 295.384887695312 303.8974609375 302.296752929688 302.816375732422 309.216949462891 307.956146240234 292.220001220703 264.652679443359 238.3974609375 217.560806274414 203.397308349609 200.114166259766 203.348541259766 205.030319213867 201.056213378906 194.326202392578 187.070678710938 179.907806396484 177.136871337891 175.519866943359 170.706146240234 165.776977539062 163.249465942383 160.232177734375 154.822402954102 148.853591918945 145.507171630859 144.205230712891 142.10481262207 139.474914550781 137.291000366211 134.46842956543 131.892669677734 130.331481933594 129.724212646484 129.468948364258 128.840057373047 130.948837280273 133.681884765625 129.251480102539 123.615463256836 124.919174194336 129.846664428711 134.874099731445 139.263412475586 143.24641418457 145.994262695312
-9999 -9999 -9999 -9999 -9999 -9999 -9999 -9999 -9999 -9999 -9999 -9999 -9999 -9999 689.561676025391 -9999 676.58203125 -9999 -9999 -9999 244.37419128418 280.468292236328 290.483673095703 305.591186523438 319.890808105469 327.988128662109 326.958831787109 317.632171630859 300.659118652344 283.795623779297 268.194274902344 254.25666809082 240.515899658203 229.982711791992 223.694839477539 219.675933837891 217.70280456543 212.724792480469 202.313385009766 190.465438842773 182.366088867188 179.023315429688 175.362579345703 169.896530151367 165.384292602539 162.565216064453 158.457931518555 151.653121948242 145.909622192383 143.838562011719 143.446899414062 141.527404785156 138.681655883789 136.399307250977 133.86833190918 132.012359619141 131.812438964844 131.502212524414 130.800598144531 132.586227416992 136.851623535156 141.074829101562 138.235931396484 133.170181274414 136.499038696289 140.177108764648 143.02507019043 147.358932495117 150.96484375 153.103485107422
-9999 -9999 -9999 -9999 -9999 -9999 -9999 -9999 -9999 -9999 -9999 -9999 -9999 -9999 689.561676025391 639.502197265625 519.5126953125 -9999 -9999 256.929504394531 256.819427490234 287.747222900391 299.817840576172 314.803833007812 329.445556640625 332.776092529297 316.742889404297 293.664245605469 272.760009765625 257.147125244141 245.012420654297 235.867736816406 228.436370849609 222.902984619141 217.617050170898 211.840621948242 207.541961669922 203.336471557617 196.109481811523 188.269149780273 183.384246826172 178.58122253418 172.993637084961 167.605010986328 163.520355224609 161.233642578125 156.282516479492 148.511367797852 143.562759399414 141.763656616211 141.702056884766 140.764938354492 138.191360473633 136.647644042969 134.354034423828 132.692245483398 132.647415161133 132.246673583984 133.127349853516 137.700790405273 143.778884887695 147.376007080078 143.764373779297 139.190139770508 146.38688659668 149.587219238281 150.355773925781 153.774215698242 157.681076049805 160.589828491211
-9999 -9999 -9999 -9999 -9999 -9999 -9999 -9999 -9999 -9999 -9999 -9999 -9999 -9999 -9999 456.278961181641 409.936981201172 -9999 301.533939361572 253.518417358398 273.005981445312 293.740295410156 312.853332519531 332.697143554688 334.015533447266 316.785919189453 291.347290039062 268.018127441406 250.303482055664 236.084625244141 222.562210083008 211.558883666992 203.209274291992 198.323852539062 195.012741088867 192.450653076172 190.827560424805 188.377853393555 184.938995361328 181.512237548828 177.437454223633 171.25830078125 165.513916015625 162.175338745117 160.394012451172 159.238372802734 153.40705871582 145.091430664062 141.301116943359 140.654663085938 140.865280151367 140.951553344727 139.032608032227 138.044906616211 136.331268310547 135.191772460938 134.866088867188 134.90380859375 138.289291381836 145.676208496094 153.424819946289 155.513320922852 150.873611450195 146.267501831055 154.215286254883 155.620407104492 155.316787719727 156.511123657227 160.904388427734 165.012161254883
-9999 -9999 -9999 -9999 -9999 -9999 -9999 -9999 -9999 -9999 -9999 -9999 -9999 -9999 -9999 360.422454833984 352.020477294922 -9999 250.723571777344 260.408843994141 279.620178222656 312.625213623047 345.377136230469 348.979370117188 330.735443115234 296.093627929688 268.169158935547 248.169815063477 233.299468994141 218.974166870117 204.470642089844 192.841796875 184.832946777344 180.197265625 177.403045654297 176.135543823242 176.786956787109 175.966384887695 173.403442382812 170.968276977539 167.688446044922 163.044235229492 159.079788208008 156.786590576172 157.134902954102 156.288497924805 149.681045532227 144.175811767578 142.064300537109 140.748931884766 140.13948059082 140.091949462891 139.566116333008 139.155395507812 139.361465454102 139.961334228516 139.99787902832 141.307067871094 147.340179443359 157.823455810547 166.063323974609 164.986282348633 159.683502197266 154.787582397461 156.090911865234 156.030075073242 157.812438964844 161.860794067383 167.711563110352 175.020858764648
-9999 -9999 -9999 -9999 -9999 -9999 -9999 -9999 -9999 -9999 -9999 -9999 -9999 -9999 -9999 335.802154541016 -9999 285.675223214286 270.062103271484 274.115417480469 307.863220214844 354.814758300781 372.684326171875 350.362823486328 320.230377197266 280.778442382812 254.466781616211 237.553253173828 224.293533325195 206.453277587891 189.784271240234 176.380599975586 167.025588989258 160.509841918945 156.446365356445 154.952285766602 155.943496704102 156.36506652832 156.215728759766 155.988479614258 155.154205322266 153.63899230957 153.198455810547 154.961349487305 157.600204467773 153.198745727539 147.030715942383 145.441467285156 145.233367919922 145.533721923828 145.046569824219 143.257598876953 142.922622680664 143.167053222656 144.369918823242 146.222732543945 147.034774780273 149.362640380859 158.371627807617 169.18815612793 174.667266845703 171.077545166016 166.209411621094 160.301910400391 162.304183959961 163.625778198242 167.530151367188 174.752029418945 182.743759155273 189.846618652344
-9999 -9999 -9999 -9999 -9999 -9999 -9999 -9999 -9999 -9999 -9999 -9999 -9999 -9999 335.802154541016 303.617645263672 267.758209228516 273.466430664062 278.403198242188 296.76318359375 340.297546386719 373.099731445312 360.527557373047 335.365447998047 305.708282470703 274.099853515625 251.466949462891 234.765563964844 218.333847045898 195.034759521484 175.501937866211 162.582138061523 155.947967529297 152.858261108398 152.125839233398 150.657684326172 148.666809082031 147.308929443359 148.403137207031 150.338577270508 151.295822143555 151.474517822266 153.687362670898 158.861907958984 158.814376831055 150.606094360352 149.052505493164 150.270538330078 151.386932373047 153.157852172852 152.271820068359 149.636627197266 149.397018432617 149.714614868164 152.004348754883 155.204132080078 155.862991333008 159.388534545898 168.904983520508 177.858367919922 179.41748046875 174.82243347168 167.607315063477 163.545486450195 170.383575439453 178.548614501953 187.333938598633 195.385848999023 201.601501464844 202.584213256836
-9999 -9999 -9999 -9999 -9999 -9999 -9999 -9999 -9999 -9999 -9999 -9999 -9999 -9999 -9999 -9999 272.130104064941 273.988037109375 276.196807861328 303.436004638672 355.223114013672 376.808197021484 348.899719238281 326.62255859375 300.211486816406 276.414947509766 253.566146850586 235.19677734375 216.168975830078 191.391876220703 171.327743530273 160.890869140625 158.630950927734 158.509262084961 157.872055053711 155.476898193359 153.022674560547 150.555053710938 149.813690185547 150.665863037109 151.770462036133 153.340682983398 159.112167358398 161.585739135742 155.721618652344 153.038131713867 156.517395019531 158.890823364258 160.355514526367 161.680358886719 161.155563354492 160.225646972656 160.267608642578 161.245147705078 163.514572143555 166.479125976562 166.881958007812 171.132965087891 179.759078979492 185.760864257812 181.063140869141 173.470626831055 163.438415527344 165.661056518555 184.813247680664 198.225677490234 205.254211425781 209.857879638672 211.822402954102 206.782012939453
-9999 -9999 -9999 -9999 -9999 -9999 -9999 -9999 -9999 -9999 -9999 -9999 -9999 -9999 -9999 -9999 273.647888183594 273.307739257812 292.091705322266 321.227478027344 374.777404785156 381.369537353516 348.686065673828 328.955505371094 303.199249267578 282.764190673828 258.910308837891 236.306427001953 214.893600463867 192.706207275391 174.465530395508 166.049392700195 164.360214233398 165.222869873047 162.083953857422 154.925643920898 151.801193237305 150.382049560547 150.259338378906 150.650177001953 152.933517456055 159.588592529297 165.324630737305 161.396621704102 159.983734130859 164.683883666992 167.859008789062 170.142074584961 169.946350097656 169.900573730469 168.896759033203 169.762115478516 170.184036254883 171.958969116211 174.745483398438 176.595352172852 177.076522827148 182.337783813477 190.973861694336 192.392761230469 182.373626708984 174.009033203125 163.979644775391 178.898361206055 204.674667358398 216.280609130859 215.245574951172 218.245132446289 214.347610473633 208.592193603516
-9999 -9999 -9999 -9999 -9999 -9999 -9999 -9999 -9999 -9999 -9999 -9999 -9999 -9999 -9999 -9999 -9999 291.82861328125 306.493194580078 347.286041259766 386.065582275391 374.119171142578 346.392639160156 327.896057128906 304.416381835938 285.699340820312 263.675262451172 239.530731201172 217.289840698242 194.695220947266 176.756805419922 169.132369995117 166.420715332031 168.153167724609 168.382110595703 159.193145751953 154.132080078125 154.492279052734 153.978042602539 154.278518676758 159.441680908203 167.898132324219 166.664321899414 164.796798706055 169.94091796875 176.053527832031 178.273223876953 180.254577636719 178.132705688477 177.424041748047 176.705902099609 176.479309082031 177.651138305664 179.337936401367 182.457656860352 185.004806518555 185.762084960938 191.089828491211 198.623489379883 192.810592651367 182.756561279297 181.146942138672 179.676651000977 202.010498046875 224.194381713867 223.961334228516 221.236679077148 221.622116088867 206.468551635742 210.550231933594
-9999 -9999 -9999 -9999 -9999 -9999 -9999 -9999 -9999 -9999 -9999 -9999 -9999 -9999 273.392776489258 273.307739257812 290.378917694092 300.957504272461 295.421813964844 343.547912597656 386.104461669922 356.630218505859 339.176025390625 323.9814453125 302.256622314453 281.480255126953 261.320922851562 240.949310302734 220.364837646484 198.364151000977 179.008941650391 171.858489990234 172.230850219727 174.238021850586 177.686172485352 174.445343017578 166.551849365234 163.969482421875 163.357315063477 163.721496582031 169.695159912109 176.140686035156 170.114456176758 170.394577026367 175.7919921875 182.558486938477 185.430892944336 187.454238891602 186.426849365234 185.315078735352 183.523864746094 183.226928710938 185.072677612305 187.232162475586 191.417724609375 194.897018432617 196.243103027344 199.797348022461 202.557998657227 192.792434692383 187.235733032227 194.093078613281 209.310577392578 226.401840209961 232.842010498047 227.918319702148 223.438659667969 208.693572998047 195.238616943359 215.697174072266
-9999 -9999 -9999 -9999 -9999 -9999 -9999 -9999 -9999 -9999 -9999 -9999 -9999 -9999 -9999 -9999 -9999 -9999 323.96484375 331.013916015625 375.139862060547 350.038665771484 330.497375488281 313.635925292969 293.171569824219 271.449645996094 251.281784057617 232.905609130859 213.135375976562 194.684204101562 179.117660522461 172.440734863281 174.262496948242 182.23974609375 188.75798034668 191.806365966797 187.703750610352 180.9716796875 177.44660949707 177.544906616211 181.357925415039 182.813415527344 175.752304077148 174.14128112793 175.927795410156 180.996765136719 187.060607910156 192.479370117188 195.239776611328 194.655990600586 191.987869262695 188.12532043457 190.632369995117 194.761459350586 199.049438476562 203.451248168945 206.088363647461 207.127426147461 205.514221191406 196.402709960938 197.385925292969 210.20263671875 231.547348022461 234.516860961914 236.160842895508 224.624053955078 210.528259277344 196.150299072266 194.207412719727 226.096481323242
-9999 -9999 -9999 -9999 -9999 -9999 -9999 -9999 -9999 -9999 -9999 -9999 -9999 -9999 -9999 -9999 -9999 267.205993652344 319.678787231445 325.875732421875 359.426086425781 339.67578125 319.284118652344 297.001739501953 275.080200195312 252.705810546875 232.738342285156 214.354125976562 196.851333618164 185.009460449219 178.946853637695 174.826019287109 174.358612060547 177.567245483398 180.075592041016 184.59619140625 194.431930541992 198.988327026367 195.769821166992 193.914520263672 191.90657043457 186.266799926758 178.819931030273 173.9482421875 170.449584960938 174.738464355469 186.268356323242 197.362365722656 202.771850585938 203.397323608398 200.028854370117 193.373641967773 193.92756652832 198.622573852539 202.437606811523 208.595855712891 212.079406738281 212.460708618164 212.045989990234 206.84619140625 213.324279785156 222.699127197266 240.84928894043 233.961868286133 219.218658447266 209.157745361328 209.460876464844 206.207794189453 204.324188232422 230.354202270508
-9999 -9999 -9999 -9999 -9999 -9999 -9999 -9999 -9999 -9999 -9999 -9999 -9999 269.561370849609 269.697767469618 -9999 276.384399414062 286.573112487793 267.205993652344 354.619506835938 337.128753662109 314.912536621094 291.062164306641 269.198944091797 249.046630859375 226.141174316406 207.384735107422 191.979751586914 179.457794189453 175.41877746582 178.764617919922 180.212356567383 176.498519897461 173.954574584961 176.635971069336 180.68717956543 189.279373168945 200.191909790039 205.853515625 205.692474365234 200.228515625 191.400085449219 182.652938842773 173.8173828125 168.481552124023 175.52360534668 192.407821655273 206.372116088867 211.317489624023 210.026962280273 205.284439086914 199.386871337891 195.473617553711 198.429046630859 203.284271240234 208.105041503906 210.517852783203 212.662399291992 213.21061706543 213.63232421875 218.907958984375 240.034103393555 239.203384399414 226.467666625977 217.697082519531 216.456680297852 231.060699462891 230.381942749023 220.714736938477 233.875534057617
-9999 -9999 -9999 -9999 -9999 -9999 -9999 -9999 -9999 -9999 -9999 -9999 -9999 -9999 269.561370849609 282.307993570964 257.223937988281 295.544860839844 326.317657470703 322.272857666016 306.706939697266 285.774078369141 264.943634033203 241.437774658203 218.130676269531 196.679840087891 180.877868652344 170.704650878906 168.930709838867 173.196166992188 178.394027709961 181.686172485352 177.31135559082 171.551742553711 172.946197509766 179.028457641602 189.995346069336 199.243392944336 210.694259643555 214.617645263672 209.044692993164 200.792114257812 191.600067138672 184.430297851562 181.588333129883 189.729293823242 205.992645263672 216.387832641602 218.620407104492 217.054550170898 209.946350097656 206.762435913086 202.564270019531 201.172912597656 204.399795532227 207.890640258789 206.408996582031 207.704467773438 212.673858642578 216.779571533203 225.88362121582 234.437301635742 237.951965332031 239.164169311523 229.744232177734 229.098419189453 246.444549560547 245.251113891602 232.118927001953 237.688293457031
-9999 -9999 -9999 -9999 -9999 -9999 -9999 -9999 -9999 -9999 -9999 -9999 -9999 -9999 274.212745666504 269.561370849609 320.138671875 341.229827880859 309.439270019531 298.430541992188 277.123382568359 249.937713623047 221.049896240234 193.91096496582 172.672775268555 158.162521362305 152.286773681641 154.229766845703 160.950988769531 170.40153503418 179.133697509766 184.119567871094 178.799926757812 168.236679077148 166.934204101562 173.817916870117 185.029983520508 197.065658569336 212.780410766602 219.488464355469 217.03044128418 212.149963378906 206.018402099609 203.597122192383 203.77864074707 211.739135742188 221.200653076172 224.704467773438 223.178192138672 218.851425170898 212.632629394531 213.146911621094 211.670852661133 209.263488769531 210.170135498047 209.257385253906 204.995178222656 204.676223754883 203.587738037109 207.891098022461 214.092483520508 221.934127807617 245.529983520508 244.418640136719 216.206588745117 219.043869018555 246.743347167969 251.141891479492 240.993530273438 243.061782836914
-9999 -9999 -9999 -9999 -9999 -9999 -9999 -9999 -9999 -9999 -9999 254.194580078125 272.073608398438 279.005401611328 258.809387207031 289.474822998047 338.112426757812 318.551055908203 288.293884277344 263.902374267578 229.728179931641 193.13542175293 164.146942138672 145.682632446289 135.611358642578 132.336898803711 138.593841552734 150.632186889648 160.841888427734 168.238159179688 175.106536865234 178.553329467773 168.357681274414 157.113418579102 157.17512512207 162.888168334961 172.873794555664 187.892883300781 204.534774780273 215.164459228516 220.460723876953 222.209136962891 220.351531982422 218.809341430664 219.729766845703 225.311447143555 229.013687133789 226.19416809082 220.8740234375 212.223495483398 210.291015625 217.771789550781 218.646286010742 217.429122924805 215.957641601562 213.082534790039 209.116424560547 202.993347167969 203.070388793945 206.591430664062 209.959564208984 221.874267578125 244.913528442383 230.739105224609 178.1591796875 188.622665405273 223.539733886719 241.668991088867 243.322723388672 247.050323486328
-9999 -9999 -9999 -9999 -9999 -9999 -9999 -9999 -9999 329.080169677734 271.930938720703 263.017547607422 278.312683105469 278.293060302734 281.880615234375 345.129943847656 308.772644042969 270.083709716797 250.654403686523 213.400680541992 173.537628173828 146.300811767578 130.581939697266 123.69091796875 122.072967529297 126.794479370117 141.440658569336 160.466613769531 168.734115600586 169.865570068359 173.185440063477 172.309524536133 154.725601196289 141.794189453125 143.613952636719 148.630264282227 155.136413574219 170.464492797852 188.198852539062 198.789886474609 205.868072509766 212.749313354492 217.206604003906 220.777709960938 223.716766357422 225.28662109375 220.042053222656 207.73991394043 196.122756958008 192.986541748047 204.309127807617 220.704071044922 223.364593505859 223.05078125 218.069885253906 214.613311767578 213.772354125977 212.028228759766 214.166213989258 211.088973999023 210.745895385742 226.013687133789 245.009384155273 212.882995605469 134.30876159668 134.913345336914 163.473876953125 184.425476074219 198.531112670898 210.687515258789
-9999 -9999 -9999 -9999 -9999 -9999 -9999 -9999 -9999 336.153381347656 292.034423828125 291.697479248047 294.361328125 319.618988037109 302.592498779297 294.483123779297 283.226623535156 248.94352722168 208.247955322266 168.657012939453 144.055938720703 129.36393737793 121.274085998535 120.704368591309 127.09642791748 142.694198608398 161.723114013672 171.271240234375 174.340026855469 177.91926574707 179.865646362305 172.707748413086 153.657760620117 141.871475219727 140.217666625977 141.124572753906 140.333389282227 146.296020507812 160.094940185547 172.061614990234 181.547302246094 189.039306640625 194.049667358398 197.866302490234 199.239059448242 193.639587402344 185.334716796875 178.186874389648 174.765075683594 179.834503173828 194.151031494141 213.727310180664 222.910186767578 225.552917480469 221.428329467773 220.216278076172 218.319747924805 217.053588867188 205.180068969727 185.55241394043 199.526016235352 228.273071289062 252.5263671875 224.930252075195 153.05451965332 134.860321044922 149.216262817383 153.136001586914 153.524993896484 154.825653076172
-9999 -9999 -9999 -9999 -9999 284.572525024414 319.231597900391 305.140869140625 307.777252197266 285.392456054688 291.120422363281 304.006286621094 314.6953125 325.354614257812 295.969390869141 276.135925292969 243.364929199219 201.288024902344 164.474212646484 133.794372558594 120.537155151367 114.224365234375 113.796943664551 123.252571105957 141.708801269531 161.642211914062 173.726364135742 173.674377441406 176.134735107422 177.982070922852 174.780349731445 171.117950439453 165.902587890625 160.290664672852 155.868881225586 151.147232055664 145.362731933594 137.841873168945 134.719604492188 141.853927612305 152.290481567383 160.867004394531 167.509765625 170.680953979492 169.498764038086 163.156829833984 156.464324951172 153.592300415039 156.628677368164 166.650863647461 179.507888793945 195.001892089844 203.861465454102 207.414291381836 207.844177246094 205.615081787109 199.907150268555 181.848587036133 141.286605834961 134.127792358398 190.802749633789 234.910385131836 258.967193603516 242.812789916992 206.623245239258 191.359909057617 184.3857421875 172.832992553711 158.791198730469 143.804382324219
-9999 -9999 -9999 -9999 276.800994873047 268.372039794922 273.885467529297 278.996795654297 282.298248291016 284.137023925781 282.962371826172 310.515686035156 298.334106445312 271.330139160156 256.739410400391 224.503829956055 182.713333129883 155.696151733398 130.719741821289 109.515724182129 103.625205993652 107.870231628418 116.870819091797 130.641967773438 147.031021118164 159.16096496582 161.172729492188 159.12385559082 163.348083496094 161.960601806641 153.604034423828 149.791000366211 152.073471069336 160.138366699219 165.589111328125 162.465759277344 156.369125366211 150.373443603516 141.174728393555 130.408508300781 126.433441162109 130.671020507812 136.272567749023 136.258178710938 131.634552001953 128.918121337891 129.753326416016 133.753158569336 141.569671630859 151.308929443359 163.338882446289 172.877960205078 180.031021118164 183.540054321289 182.005584716797 175.092010498047 152.5625 97.4542007446289 61.5529747009277 93.8319931030273 192.09455871582 245.328796386719 257.701904296875 246.054016113281 225.571548461914 206.606552124023 170.132278442383 129.902969360352 125.451400756836 121.618659973145
-9999 -9999 -9999 262.468246459961 261.809020996094 259.970977783203 286.163391113281 304.460266113281 302.653625488281 298.297637939453 302.427093505859 279.487609863281 272.064727783203 245.538772583008 212.156875610352 170.256820678711 133.550674438477 113.306495666504 103.195983886719 98.0504302978516 98.0745315551758 103.699066162109 115.986190795898 133.20524597168 149.833343505859 164.334899902344 173.921783447266 179.958602905273 179.28239440918 164.531646728516 140.370178222656 119.289535522461 113.22566986084 124.48770904541 142.176559448242 151.582244873047 151.383743286133 149.122604370117 145.013397216797 132.839614868164 116.667488098145 108.336235046387 106.61124420166 102.361236572266 98.6729278564453 101.501625061035 108.458251953125 115.667366027832 123.404800415039 132.112258911133 140.434417724609 148.71223449707 153.817581176758 153.20832824707 142.534561157227 115.88330078125 70.8808670043945 44.9441375732422 39.655345916748 62.5640144348145 174.824417114258 239.653350830078 243.736236572266 229.53205871582 206.026245117188 158.163772583008 94.7040405273438 82.7911148071289 79.1307220458984 59.4144134521484
-9999 -9999 -9999 262.160766601562 249.102203369141 287.633392333984 333.067352294922 357.246551513672 337.175506591797 304.067016601562 281.813293457031 260.503875732422 237.223388671875 213.026397705078 173.176544189453 133.946914672852 109.632064819336 97.897102355957 98.9016189575195 101.371658325195 100.551773071289 103.072074890137 116.164558410645 137.198822021484 165.462661743164 193.912734985352 210.355438232422 214.53662109375 209.350662231445 189.506805419922 159.774642944336 129.704147338867 110.164596557617 113.857780456543 130.156036376953 140.850891113281 143.76611328125 142.863800048828 139.607299804688 129.344573974609 110.095138549805 91.213996887207 81.1307907104492 77.1493606567383 75.5899047851562 76.1228256225586 76.4420166015625 77.6240081787109 82.9132766723633 90.8221588134766 98.7761993408203 104.275238037109 106.18505859375 103.373931884766 90.2939071655273 68.6755447387695 49.1026077270508 40.3587379455566 37.6432456970215 43.3913955688477 106.407859802246 195.897323608398 216.221160888672 202.580627441406 171.226013183594 99.0854110717773 57.5829200744629 49.4101982116699 37.8802337646484 28.2435722351074
