NCOLS 35 
NROWS 26 
XLLCORNER -80 
YLLCORNER 33 
CELLSIZE 0.5 
NODATA_value -9999 
-9999.000000000000000 -9999 -9999 -9999 -9999 -9999 -9999 -9999 -9999 -9999 -9999 -9999 -9999 -9999 -9999 -9999 -9999 -9999 -9999 -9999 -9999 -9999 -9999 -9999 -9999 -9999 -9999 -9999 -9999 -9999 -9999 -9999 -9999 -9999 -9999
-9999 -9999 -9999 -9999 -9999 -9999 -9999 -9999 -9999 -9999 -9999 -9999 -9999 -9999 -9999 -9999 -9999 -9999 -9999 -9999 -9999 -9999 -9999 -9999 -9999 -9999 -9999 -9999 -9999 267.923549474047 -9999 -9999 -9999 -9999 -9999
-9999 -9999 -9999 -9999 -9999 -9999 -9999 -9999 -9999 -9999 -9999 -9999 -9999 -9999 -9999 -9999 -9999 -9999 -9999 -9999 -9999 -9999 -9999 -9999 -9999 -9999 268.476081646004 277.892993569856 126.901856402077 90.7980749301757 -9999 -9999 -9999 -9999 -9999
-9999 -9999 -9999 -9999 -9999 -9999 -9999 -9999 -9999 -9999 -9999 -9999 -9999 -9999 -9999 -9999 -9999 -9999 -9999 -9999 -9999 -9999 -9999 118.705924249547 132.449341651378 149.656519366341 172.525485596284 59.1017288532619 -9999 -9999 -9999 57.9414154524413 59.2951723204102 54.5971494200193 48.4486003076711
-9999 -9999 -9999 -9999 -9999 -9999 -9999 -9999 -9999 -9999 -9999 -9999 -9999 -9999 -9999 -9999 -9999 -9999 -9999 -9999 154.015350952745 126.617506137658 119.163861807082 77.0353242172777 50.987158117564 54.0739711437932 110.368706269798 131.234724876973 -9999 -9999 56.4306398737034 65.2982940902835 61.0527725934306 44.1434558303294 34.82478831115
-9999 -9999 -9999 -9999 -9999 -9999 -9999 -9999 -9999 -9999 -9999 -9999 -9999 -9999 -9999 -9999 -9999 -9999 -9999 116.748475696121 95.0268861177011 59.2025839183888 43.6732587548373 38.8158948639721 36.6761301888837 36.7195197359419 63.8887346123976 120.008918118735 111.967204336969 100.553684307473 72.5348716200718 52.5905957597949 41.129325275087 42.4527038588236 41.2878597476223
-9999 -9999 -9999 -9999 -9999 -9999 -9999 -9999 -9999 -9999 -9999 -9999 -9999 -9999 -9999 -9999 -9999 -9999 -9999 123.458705893152 54.4143270553701 49.3890454875371 40.6152724504885 40.1411288297413 35.7776289913178 36.0822668676955 43.0190512615281 45.1412197379395 50.0499053742737 51.907005729819 49.2212264351713 51.7025815621035 53.3162905380113 64.3713720254659 98.8958524785633
-9999 -9999 -9999 -9999 -9999 -9999 -9999 -9999 -9999 -9999 -9999 -9999 -9999 -9999 -9999 -9999 -9999 -9999 -9999 107.404584119308 80.7285464066088 60.7724105834205 47.5098831617425 53.736053646592 51.9852567680084 43.7282455754236 41.2158451430878 42.8307370242355 60.1076261871368 64.3251332026336 68.4685620277769 120.960344004993 150.004593620698 170.857640693631 183.721564865916
-9999 -9999 -9999 -9999 -9999 -9999 -9999 -9999 -9999 -9999 -9999 -9999 -9999 -9999 -9999 -9999 -9999 -9999 -9999 20.3844823522885 113.118288394279 84.975325006699 140.295564841694 142.176146932492 58.5757598921371 48.1338152639812 44.636968892993 61.5508007403706 136.549422382423 186.549941937821 173.593278612339 167.047114443172 168.435503905899 186.439685739225 205.050373493535
-9999 -9999 -9999 -9999 -9999 -9999 -9999 -9999 -9999 -9999 -9999 -9999 -9999 -9999 -9999 -9999 -9999 183.216709723842 145.939246213829 116.738079574605 92.726198659231 152.853267419865 257.620528335244 148.856308558487 49.9505563974382 81.6001532398085 133.190765163664 175.837340579472 226.939000517914 280.792567489495 244.776495313948 187.685320439326 129.438641996269 121.173640732211 144.553344267128
-9999 -9999 -9999 -9999 -9999 -9999 -9999 -9999 -9999 -9999 -9999 -9999 -9999 -9999 211.364793479838 288.236990183526 308.790997787295 288.232658834411 282.867312217741 220.922930638344 213.556691372263 290.523958509636 256.804127813041 225.005290413165 180.243606981864 162.66582695886 173.619927468294 197.975242021836 201.22053634856 182.389809407026 154.336177946583 130.839797377264 126.149540932877 120.682178353334 139.7378896014
-9999 -9999 -9999 -9999 -9999 -9999 -9999 -9999 -9999 -9999 -9999 -9999 413.032775396826 310.379340301765 359.42758082086 335.184243587675 317.436566240381 289.308040803442 258.556162484784 261.836803214235 257.388920756126 256.925386593024 230.440846367095 211.819380684719 183.997766809915 167.106361628522 170.12467246754 153.729416333238 117.892507987483 125.412329876305 132.292274187976 135.503816104891 143.696840938686 149.194361347031 159.818192825778
-9999 -9999 -9999 -9999 -9999 -9999 -9999 -9999 -9999 -9999 -9999 -9999 339.880797863007 346.997787720817 302.534629344089 272.455901987417 252.394330248461 232.989652683672 229.798965999098 213.552842790795 200.146480402652 193.125106887246 188.936852007729 193.694023307993 185.146885230618 169.438681870807 143.378774875235 109.094446960732 86.1009291646842 131.645141294091 134.012801936532 140.924322406077 131.454293361606 105.746064361803 109.11306583603
-9999 -9999 -9999 -9999 -9999 -9999 -9999 -9999 -9999 9.21466707921624 7.45947610415204 296.957321034946 320.349229917422 299.65655907779 256.311902123619 242.840622270542 220.419994619925 207.231962032557 210.971322472952 192.976036070393 137.097307404954 99.2321080344345 87.3335902708742 98.4442721895526 126.778532418753 157.39494348835 172.10812569703 155.527311402816 121.770430380322 115.488378680584 122.141640628833 131.425975027152 124.633040649438 84.3404648632362 53.1005485006261
-9999 -9999 -9999 -9999 -9999 -9999 -9999 -9999 -9999 -9999 275.369955297617 314.772747712606 284.217788934053 247.665599479949 241.498988971663 233.534687088537 228.701034765937 219.184224372461 211.170623825295 180.256714671585 108.480727397757 71.5309230583906 62.3009731798302 59.8991979996647 59.7457186778591 58.8652823069457 74.7174480562884 110.274803948015 142.425093531143 152.352141363278 143.338926705004 136.715602851079 125.556930313691 86.6779845184806 54.3313743662773
-9999 -9999 -9999 -9999 -9999 -9999 -9999 459.107888557109 179.890374563034 -9999 272.681727607434 249.99378712197 241.015555576313 239.257335407307 228.717911747732 216.501040173144 203.870282003169 194.816088095331 188.375760654619 164.968722138124 94.2657561333885 73.262010960508 63.3907893197046 56.3128079694979 57.009932449679 53.7983836374487 49.2581242050784 48.3393939302624 55.7266860523368 80.7845177048215 113.605099170581 126.62174037175 112.439369404837 77.4468711746269 49.4183241542507
-9999 -9999 -9999 -9999 -9999 -9999 -9999 38.1108628786504 103.206550176854 174.514567659191 265.060399059149 253.838496189364 246.605872928285 191.882904879983 149.234910189112 127.459026654963 122.882247599943 134.194332494399 159.790044610339 151.336348929396 92.6389695563126 80.6643757336072 69.3016073030786 55.9994087180669 48.2821809249661 42.0869107664557 40.7866128823359 40.7105852406023 42.4544703872534 44.6165172021504 55.6161963876069 76.6952158640209 77.255389531131 58.4146275248095 45.968522930648
-9999 -9999 -9999 -9999 -9999 -9999 -9999 220.640523617089 -9999 240.657842461617 237.882296126537 259.0791570322 174.546642047316 103.380822749858 70.0343580458756 60.8278609677258 62.8476705030705 81.0920548654724 126.354809452705 138.191070318702 108.870204149271 93.6255723033189 71.4263271391057 57.1320366449133 43.1517218416136 40.0821205551219 39.637263092734 39.7564724187246 39.9469043367766 41.4938434593873 43.5489557339215 49.3282007607117 52.1494780192734 48.3621304912581 49.5182290470123
-9999 -9999 -9999 -9999 -9999 -9999 -9999 -9999 208.686085210525 207.012373822076 240.131436123843 205.546602131823 108.369935090231 60.0417316596478 53.5035747960438 52.4533695363272 54.1109739913173 75.1527449367906 125.881046787038 130.163855791056 108.688789302782 88.2431075922141 71.4104302849478 58.1195675149488 42.5054098359865 41.9662311408684 41.2814539135339 41.6150230777121 41.5200286165825 42.6996859941696 45.0748777917794 49.7613495747379 54.1965323759298 49.7200401238134 41.4936906200651
-9999 -9999 -9999 -9999 -9999 -9999 -9999 -9999 -9999 232.030031837736 266.149652086061 166.330727620277 80.9002057440192 60.4258702321773 57.6086327217463 63.0172949476135 81.452386877895 111.479198927775 124.274372692187 96.157083703845 85.8685183441985 76.3888840317867 71.5900254266716 59.2154019605172 45.909446308537 45.942736621742 45.0377661702106 45.2887373862895 46.9298757948643 49.4703144551573 52.2080179809213 52.0982111257211 49.0354951497248 42.5971278230804 41.1921097091182
-9999 -9999 -9999 -9999 -9999 -9999 -9999 -9999 -9999 151.635506545059 251.563981486694 134.246921952371 89.613453183215 78.2163803451463 78.6846650110374 86.9284474223693 96.1062744409793 99.2819983309706 98.6238263459043 97.4431783902265 90.5615901602617 76.9086676176018 65.8441038452609 56.569119179529 47.0910553540893 49.5556660235968 49.3438709833439 46.8810509906607 50.1152264740338 51.7633136055334 50.7747667312043 48.4310608575817 49.2004587068044 45.5490632218956 38.7470649964839
-9999 -9999 -9999 -9999 -9999 -9999 -9999 0 51.0325439012963 219.345218405179 170.056430287311 122.717722807944 110.680168000104 107.023822110723 103.915808044327 100.129972511574 100.251556245063 104.329927949082 102.646690420193 96.7958531958128 100.955596283976 92.2982940478906 72.2531068138788 58.3677734394897 49.0524602690249 52.3952114960705 56.5058327628395 53.7311350632452 47.7994799441043 47.9437251570445 49.3056554999944 48.5027395833113 47.7254947947238 51.6955413301468 39.9034210175853
-9999 -9999 -9999 -9999 -9999 -9999 90.4126086067397 134.53254578402 168.674384977948 121.010619168123 100.015713299457 91.6262463341325 91.7661144764315 96.2744764349032 99.9765228830107 101.416675590616 104.803895597773 107.356419718923 105.86893893008 100.148006876272 101.922492694598 95.3490042844129 84.6121124439771 70.0400291343187 58.7232967358302 56.8424733758406 56.9013020996249 52.8112885057233 45.0307440095477 43.9819083403308 45.4438193406898 46.7694161654382 46.8715932048285 45.0007758462622 44.7445557646009
-9999 -9999 -9999 -9999 255.409737153096 215.161257989589 146.167736201234 147.629424302054 118.871968243143 103.270251453455 93.2544649366257 88.6037614930955 90.0361593516722 93.0635785056132 95.2807320611967 95.9997377699405 95.4712535729954 95.9213559491403 96.0238205599301 98.1604711002798 99.0695105620919 94.9054449658125 86.0440977708446 74.1410224562673 63.1758022347133 58.5583779535304 53.8303829643351 47.5193782800114 39.1801839481995 39.0761275363794 41.5522738636804 42.0372620062698 41.766055781865 40.7154266941257 44.0515477214359
-9999 -9999 -9999 311.725385632882 221.360264684344 141.515394787212 137.921397679059 117.557222469736 114.340348574304 110.395892839829 105.521350153635 100.334042496491 94.7954409524021 87.4381366315732 79.5662251286343 73.9930370752592 70.7832186708252 71.4878045544482 75.2717435761585 80.1331452433662 83.223264531864 82.7274659912184 82.8973376064189 74.6295632489015 64.6491339555653 58.2654059721898 49.6779496987878 44.1056427382985 36.2112851770134 37.585853615946 37.0156743288724 36.2846641575606 36.4191948585634 37.5329212937203 43.4739386681362
-9999 -9999 221.589079862113 151.735539616071 124.159027895647 134.639433005769 119.834210611616 110.433801674495 100.48086660886 88.6191507163648 75.3724486495462 62.9056013951481 52.3473356226347 44.2981437000504 39.3849143134307 37.3959091693292 36.8970169871398 37.4106307579174 39.6741279466975 47.2693767908928 57.6304223151086 66.359303432395 71.3347519299875 68.5851553243611 60.8518688151377 55.0094988049446 45.1791643448338 44.5471837580861 34.7910596048682 34.3622087360194 34.2994649789353 34.5803469109557 34.609432787569 35.7345152770319 39.030572369836
