NCOLS 70 
NROWS 52 
XLLCORNER -80 
YLLCORNER 33 
CELLSIZE 0.25 
NODATA_value -9999 
-9999.000000000000000 -9999 -9999 -9999 -9999 -9999 -9999 -9999 -9999 -9999 -9999 -9999 -9999 -9999 -9999 -9999 -9999 -9999 -9999 -9999 -9999 -9999 -9999 -9999 -9999 -9999 -9999 -9999 -9999 -9999 -9999 -9999 -9999 -9999 -9999 -9999 -9999 -9999 -9999 -9999 -9999 -9999 -9999 -9999 -9999 -9999 -9999 -9999 -9999 -9999 -9999 -9999 -9999 -9999 -9999 -9999 -9999 -9999 -9999 -9999 -9999 -9999 -9999 -9999 -9999 -9999 -9999 -9999 -9999 -9999
-9999 -9999 -9999 -9999 -9999 -9999 -9999 -9999 -9999 -9999 -9999 -9999 -9999 -9999 -9999 -9999 -9999 -9999 -9999 -9999 -9999 -9999 -9999 -9999 -9999 -9999 -9999 -9999 -9999 -9999 -9999 -9999 -9999 -9999 -9999 -9999 -9999 -9999 -9999 -9999 -9999 -9999 -9999 -9999 -9999 -9999 -9999 -9999 -9999 -9999 -9999 -9999 -9999 -9999 -9999 -9999 -9999 -9999 -9999 -9999 -9999 -9999 -9999 -9999 -9999 -9999 -9999 -9999 -9999 -9999
-9999 -9999 -9999 -9999 -9999 -9999 -9999 -9999 -9999 -9999 -9999 -9999 -9999 -9999 -9999 -9999 -9999 -9999 -9999 -9999 -9999 -9999 -9999 -9999 -9999 -9999 -9999 -9999 -9999 -9999 -9999 -9999 -9999 -9999 -9999 -9999 -9999 -9999 -9999 -9999 -9999 -9999 -9999 -9999 -9999 -9999 -9999 -9999 -9999 -9999 -9999 -9999 -9999 -9999 -9999 -9999 -9999 -9999 -9999 278.974548339844 -9999 -9999 -9999 -9999 -9999 -9999 -9999 -9999 -9999 -9999
-9999 -9999 -9999 -9999 -9999 -9999 -9999 -9999 -9999 -9999 -9999 -9999 -9999 -9999 -9999 -9999 -9999 -9999 -9999 -9999 -9999 -9999 -9999 -9999 -9999 -9999 -9999 -9999 -9999 -9999 -9999 -9999 -9999 -9999 -9999 -9999 -9999 -9999 -9999 -9999 -9999 -9999 -9999 -9999 -9999 -9999 -9999 -9999 -9999 -9999 -9999 -9999 -9999 -9999 -9999 226.860717773438 191.305450439453 194.583206176758 244.893493652344 309.596954345703 -9999 -9999 -9999 -9999 -9999 -9999 -9999 -9999 -9999 -9999
-9999 -9999 -9999 -9999 -9999 -9999 -9999 -9999 -9999 -9999 -9999 -9999 -9999 -9999 -9999 -9999 -9999 -9999 -9999 -9999 -9999 -9999 -9999 -9999 -9999 -9999 -9999 -9999 -9999 -9999 -9999 -9999 -9999 -9999 -9999 -9999 -9999 -9999 -9999 -9999 -9999 -9999 -9999 -9999 -9999 -9999 -9999 -9999 -9999 -9999 -9999 -9999 305.035522460938 349.230895996094 338.531982421875 256.939208984375 204.255081176758 218.518447875977 -9999 -9999 -9999 -9999 -9999 -9999 -9999 -9999 -9999 -9999 -9999 -9999
-9999 -9999 -9999 -9999 -9999 -9999 -9999 -9999 -9999 -9999 -9999 -9999 -9999 -9999 -9999 -9999 -9999 -9999 -9999 -9999 -9999 -9999 -9999 -9999 -9999 -9999 -9999 -9999 -9999 -9999 -9999 -9999 -9999 -9999 -9999 -9999 -9999 -9999 -9999 -9999 -9999 -9999 -9999 -9999 -9999 -9999 -9999 -9999 -9999 -9999 140.697856140137 176.878601074219 146.332763671875 175.625457763672 247.620498657227 266.788787841797 -9999 -9999 -9999 -9999 -9999 -9999 -9999 -9999 -9999 -9999 -9999 58.8680063883464 59.0757942199707 72.043830871582
-9999 -9999 -9999 -9999 -9999 -9999 -9999 -9999 -9999 -9999 -9999 -9999 -9999 -9999 -9999 -9999 -9999 -9999 -9999 -9999 -9999 -9999 -9999 -9999 -9999 -9999 -9999 -9999 -9999 -9999 -9999 -9999 -9999 -9999 -9999 -9999 -9999 -9999 -9999 -9999 -9999 -9999 -9999 -9999 248.136708577474 -9999 -9999 145.940605163574 98.8045196533203 110.996437072754 107.789192199707 98.4946975708008 99.8976898193359 188.497344970703 245.382385253906 -9999 -9999 -9999 -9999 -9999 -9999 -9999 -9999 76.4238433837891 65.0863723754883 68.101676940918 62.7982215881348 59.0834426879883 54.722354888916 50.4535484313965
-9999 -9999 -9999 -9999 -9999 -9999 -9999 -9999 -9999 -9999 -9999 -9999 -9999 -9999 -9999 -9999 -9999 -9999 -9999 -9999 -9999 -9999 -9999 -9999 -9999 -9999 -9999 -9999 -9999 -9999 -9999 -9999 -9999 -9999 -9999 -9999 -9999 -9999 -9999 -9999 -9999 -9999 -9999 -9999 251.924285888672 248.77734375 211.227767944336 156.386199951172 117.343933105469 92.5172348022461 77.1825790405273 69.71728515625 92.0016479492188 166.262664794922 188.827449798584 -9999 -9999 -9999 -9999 -9999 -9999 -9999 65.2890243530273 63.684513092041 61.2372932434082 57.3333740234375 53.3583068847656 50.6874961853027 48.6762046813965 46.8842620849609
-9999 -9999 -9999 -9999 -9999 -9999 -9999 -9999 -9999 -9999 -9999 -9999 -9999 -9999 -9999 -9999 -9999 -9999 -9999 -9999 -9999 -9999 -9999 -9999 -9999 -9999 -9999 -9999 -9999 -9999 -9999 -9999 -9999 -9999 -9999 -9999 -9999 -9999 -9999 -9999 228.21327718099 209.163202921549 196.570016479492 200.087524414062 155.896408081055 120.658416748047 102.491081237793 88.0392990112305 77.9702835083008 69.1808471679688 62.0698471069336 59.5691223144531 86.3313369750977 155.167404174805 177.858901977539 -9999 -9999 -9999 -9999 -9999 71.6718571980794 66.1277847290039 62.0635070800781 57.8148155212402 53.6337699890137 51.0750122070312 50.1754455566406 49.1217193603516 46.797477722168 44.5298042297363
-9999 -9999 -9999 -9999 -9999 -9999 -9999 -9999 -9999 -9999 -9999 -9999 -9999 -9999 -9999 -9999 -9999 -9999 -9999 -9999 -9999 -9999 -9999 -9999 -9999 -9999 -9999 -9999 -9999 -9999 -9999 -9999 -9999 -9999 -9999 -9999 -9999 -9999 -9999 238.784942626953 230.225677490234 215.629211425781 181.634719848633 141.790130615234 113.886215209961 93.4457931518555 78.9728164672852 69.9785461425781 63.8594703674316 58.6334953308105 54.7591400146484 54.5518646240234 73.5479202270508 137.691345214844 227.259567260742 202.913528442383 -9999 -9999 -9999 90.6419830322266 80.8131637573242 68.0746231079102 61.7654190063477 57.6135635375977 54.3880310058594 52.4328384399414 51.3730812072754 49.4715919494629 46.2784194946289 43.4090270996094
-9999 -9999 -9999 -9999 -9999 -9999 -9999 -9999 -9999 -9999 -9999 -9999 -9999 -9999 -9999 -9999 -9999 -9999 -9999 -9999 -9999 -9999 -9999 -9999 -9999 -9999 -9999 -9999 -9999 -9999 -9999 -9999 -9999 -9999 -9999 -9999 -9999 -9999 160.626739501953 178.013488769531 148.864562988281 112.177261352539 97.6866989135742 85.2529144287109 73.5110092163086 64.1628952026367 57.6378364562988 54.2838897705078 53.1186599731445 51.915153503418 51.0143890380859 52.4300231933594 62.5966377258301 105.132598876953 177.155487060547 217.541931152344 164.045974731445 138.589285532633 120.825088500977 87.4210205078125 73.508659362793 67.0634536743164 63.6058349609375 61.044807434082 58.4430694580078 55.871883392334 52.6280364990234 48.9588623046875 48.0233726501465 46.4364280700684
-9999 -9999 -9999 -9999 -9999 -9999 -9999 -9999 -9999 -9999 -9999 -9999 -9999 -9999 -9999 -9999 -9999 -9999 -9999 -9999 -9999 -9999 -9999 -9999 -9999 -9999 -9999 -9999 -9999 -9999 -9999 -9999 -9999 -9999 -9999 -9999 -9999 143.134704589844 134.424133300781 108.776428222656 83.4174652099609 71.7147521972656 67.2827072143555 63.0278511047363 58.9295425415039 55.4034233093262 51.4129333496094 49.3170585632324 49.9699287414551 50.5726051330566 50.4742050170898 52.2649688720703 57.5533065795898 77.2641983032227 113.180511474609 136.820053100586 142.124038696289 124.905586242676 103.797592163086 86.766487121582 74.9760513305664 67.2386703491211 63.4898109436035 61.8449363708496 59.7913551330566 56.1603507995605 52.7618255615234 52.2677688598633 54.2806053161621 53.0040664672852
-9999 -9999 -9999 -9999 -9999 -9999 -9999 -9999 -9999 -9999 -9999 -9999 -9999 -9999 -9999 -9999 -9999 -9999 -9999 -9999 -9999 -9999 -9999 -9999 -9999 -9999 -9999 -9999 -9999 -9999 -9999 -9999 -9999 -9999 -9999 -9999 -9999 195.045516967773 150.01708984375 92.1470336914062 71.0786056518555 65.9045257568359 63.1058692932129 60.9969444274902 59.1975059509277 55.3050270080566 50.0947685241699 48.0704383850098 49.8353118896484 50.8122177124023 50.6564979553223 52.1358108520508 55.4442901611328 62.6171417236328 76.2561111450195 91.140007019043 98.4397201538086 101.501327514648 100.983215332031 93.2002563476562 79.5188293457031 66.5191955566406 60.7828178405762 60.6244964599609 59.9031372070312 56.7083206176758 54.1995239257812 54.5510063171387 57.518482208252 59.7348442077637
-9999 -9999 -9999 -9999 -9999 -9999 -9999 -9999 -9999 -9999 -9999 -9999 -9999 -9999 -9999 -9999 -9999 -9999 -9999 -9999 -9999 -9999 -9999 -9999 -9999 -9999 -9999 -9999 -9999 -9999 -9999 -9999 -9999 -9999 -9999 -9999 -9999 200.458587646484 135.588088989258 82.4449005126953 69.1913452148438 65.5031661987305 63.4157180786133 61.8213729858398 59.9166946411133 55.1535301208496 49.4792976379395 48.3857727050781 50.2921562194824 51.0559387207031 50.8856887817383 50.829776763916 52.3791580200195 56.8741111755371 62.7913551330566 67.630989074707 71.6089401245117 77.4714431762695 82.4548416137695 83.3731994628906 75.5688400268555 65.0090637207031 62.2453804016113 65.4753570556641 67.5569534301758 66.9451904296875 64.2043838500977 61.0987586975098 59.0609512329102 60.1325454711914
-9999 -9999 -9999 -9999 -9999 -9999 -9999 -9999 -9999 -9999 -9999 -9999 -9999 -9999 -9999 -9999 -9999 -9999 -9999 -9999 -9999 -9999 -9999 -9999 -9999 -9999 -9999 -9999 -9999 -9999 -9999 -9999 -9999 -9999 -9999 -9999 272.840850830078 193.193939208984 113.627128601074 81.1093826293945 71.6138000488281 66.53759765625 63.0556449890137 60.847038269043 58.8456764221191 54.6129264831543 49.736198425293 48.0119972229004 48.7284088134766 49.322151184082 49.3853759765625 49.2472343444824 50.2211456298828 55.2886123657227 60.1787300109863 62.6029090881348 67.9387741088867 78.10205078125 81.5184020996094 80.5738220214844 78.3429412841797 74.4496917724609 72.8534774780273 73.2085418701172 74.297492980957 74.9374771118164 75.1673889160156 72.8115081787109 66.0136184692383 62.0373001098633
-9999 -9999 -9999 -9999 -9999 -9999 -9999 -9999 -9999 -9999 -9999 -9999 -9999 -9999 -9999 -9999 -9999 -9999 -9999 -9999 -9999 -9999 -9999 -9999 -9999 -9999 -9999 -9999 -9999 -9999 -9999 -9999 -9999 -9999 -9999 -9999 -9999 137.421813964844 110.59708404541 82.0762176513672 75.7601013183594 69.9142379760742 63.9984436035156 61.1615180969238 58.8514251708984 55.9751281738281 52.8563003540039 51.0132865905762 50.1638488769531 51.1899223327637 50.7804183959961 48.7322540283203 48.0048332214355 52.0442314147949 58.4170417785645 62.823184967041 67.562629699707 76.2707290649414 83.0545959472656 85.1014938354492 85.2156600952148 85.131233215332 84.6230773925781 84.5646286010742 84.3182373046875 85.088623046875 84.5064849853516 84.9748153686523 76.6249313354492 67.0601425170898
-9999 -9999 -9999 -9999 -9999 -9999 -9999 -9999 -9999 -9999 -9999 -9999 -9999 -9999 -9999 -9999 -9999 -9999 -9999 -9999 -9999 -9999 -9999 -9999 -9999 -9999 -9999 -9999 -9999 -9999 -9999 -9999 -9999 -9999 -9999 -9999 -9999 -9999 82.2161407470703 -9999 77.6368560791016 73.0233764648438 65.3670043945312 64.1543350219727 62.5666961669922 61.0817985534668 60.9174118041992 59.2768936157227 56.4940376281738 53.0875854492188 50.278636932373 50.0775947570801 45.5934524536133 50.5081901550293 59.0988883972168 62.8048133850098 68.1814804077148 80.5362319946289 90.7470855712891 93.7992553710938 91.95556640625 89.6070938110352 86.3163452148438 83.8353424072266 81.1817474365234 81.884033203125 81.7926483154297 86.6671371459961 83.1192779541016 71.4613189697266
-9999 -9999 -9999 -9999 -9999 -9999 -9999 -9999 -9999 -9999 -9999 -9999 -9999 -9999 -9999 -9999 -9999 -9999 -9999 -9999 -9999 -9999 -9999 -9999 -9999 -9999 -9999 -9999 -9999 -9999 -9999 -9999 -9999 -9999 -9999 -9999 -9999 -9999 -9999 -9999 85.306037902832 72.1012573242188 66.4611740112305 67.1113204956055 68.5923919677734 70.3469009399414 73.9867248535156 66.8949203491211 51.6762428283691 37.9561347961426 37.0767059326172 44.5798225402832 44.0422821044922 53.4448204040527 60.7680015563965 65.3070678710938 77.2300643920898 90.3495788574219 95.6204986572266 93.5978393554688 89.2169418334961 85.6893539428711 82.1318130493164 79.4020080566406 76.1254425048828 76.4154205322266 76.1925888061523 81.8078842163086 85.265380859375 74.3460311889648
-9999 -9999 -9999 -9999 -9999 -9999 -9999 -9999 -9999 -9999 -9999 -9999 -9999 -9999 -9999 -9999 -9999 -9999 -9999 -9999 -9999 -9999 -9999 -9999 -9999 -9999 -9999 -9999 -9999 -9999 -9999 -9999 -9999 -9999 146.965961456299 155.763763427734 149.755844116211 -9999 129.960861206055 113.794540405273 78.0015487670898 63.7673187255859 67.8290710449219 71.0839233398438 77.0912933349609 81.533821105957 85.9472122192383 71.0564346313477 46.5487480163574 46.7287864685059 57.1401672363281 54.535831451416 60.4552345275879 65.3961181640625 67.8127975463867 78.9021682739258 93.138427734375 98.3567428588867 95.6134033203125 89.8796920776367 86.0840606689453 84.0558090209961 81.9584274291992 80.0533676147461 77.2445755004883 75.3606033325195 74.6663589477539 76.8017730712891 82.0164031982422 75.5371627807617
-9999 -9999 -9999 -9999 -9999 -9999 -9999 -9999 -9999 -9999 -9999 -9999 -9999 -9999 -9999 -9999 -9999 -9999 -9999 -9999 -9999 -9999 -9999 -9999 -9999 -9999 -9999 485.319183349609 485.319183349609 402.784454345703 325.737518310547 261.26806640625 196.938934326172 164.609634399414 145.345275878906 122.145172119141 101.065979003906 94.3652648925781 85.9938049316406 70.9175643920898 63.328540802002 57.9633979797363 65.8093490600586 75.7712173461914 87.0684051513672 94.2653656005859 88.1109390258789 75.2911071777344 66.3330535888672 62.6336135864258 67.968391418457 69.7063140869141 71.3534469604492 73.7663650512695 83.9729232788086 94.2641448974609 98.0756454467773 96.3388061523438 90.7141723632812 85.8809204101562 83.9293212890625 82.5850143432617 81.6876602172852 80.7153015136719 79.4100646972656 77.9425506591797 76.5454635620117 74.9174194335938 77.5517272949219 75.1641235351562
-9999 -9999 -9999 -9999 -9999 -9999 -9999 -9999 -9999 -9999 -9999 -9999 -9999 -9999 -9999 -9999 -9999 -9999 -9999 -9999 -9999 -9999 -9999 -9999 -9999 -9999 -9999 -9999 -9999 -9999 227.469085693359 197.442596435547 166.012969970703 145.504486083984 135.226226806641 124.653953552246 120.270614624023 118.384864807129 98.6917953491211 67.827766418457 68.3481521606445 65.0427856445312 68.988395690918 82.0937805175781 94.7992248535156 101.687080383301 86.3217697143555 82.7203140258789 83.3260879516602 85.4180603027344 85.3158416748047 83.0773162841797 79.8282012939453 84.9677047729492 95.9582977294922 98.8290863037109 94.8929824829102 88.9648666381836 83.9593124389648 81.3004150390625 80.685905456543 80.7764205932617 81.0695877075195 80.3737869262695 79.0318374633789 78.6578674316406 78.4362030029297 76.6247634887695 76.4668731689453 75.0361709594727
-9999 -9999 -9999 -9999 -9999 -9999 -9999 -9999 -9999 -9999 -9999 -9999 -9999 -9999 -9999 -9999 -9999 -9999 -9999 -9999 -9999 -9999 -9999 -9999 -9999 316.817693074544 226.52799987793 182.54741414388 169.173992156982 174.170654296875 173.036819458008 166.737945556641 158.05598449707 143.758987426758 130.702606201172 124.602027893066 126.891609191895 126.697441101074 120.274154663086 97.2537460327148 90.4178924560547 88.3817520141602 86.1006393432617 96.9430313110352 107.276992797852 108.168067932129 101.495216369629 94.4882278442383 92.5848083496094 94.9850769042969 95.9993515014648 94.6174011230469 91.0951843261719 94.3055038452148 97.0682983398438 94.2066345214844 88.5324325561523 83.4400863647461 79.8618240356445 78.6603546142578 80.0628509521484 82.4482803344727 83.7997360229492 82.7379837036133 80.1308364868164 78.2064056396484 77.0715713500977 76.4575042724609 75.8414459228516 75.3938369750977
-9999 -9999 -9999 -9999 -9999 -9999 -9999 -9999 -9999 -9999 -9999 -9999 -9999 -9999 -9999 -9999 -9999 -9999 -9999 -9999 -9999 -9999 -9999 -9999 441.148681640625 304.019073486328 205.28532409668 170.279602050781 172.07731628418 160.168395996094 146.490631103516 134.726608276367 127.091537475586 119.253234863281 111.493606567383 108.03736114502 115.367179870605 123.501686096191 122.158660888672 116.114295959473 109.99772644043 103.034934997559 99.6558685302734 107.420753479004 115.012687683105 112.144958496094 106.881782531738 105.234840393066 107.179138183594 104.525939941406 97.2708740234375 94.9127197265625 94.3648452758789 94.6969223022461 92.6024322509766 88.2641525268555 83.9897994995117 80.701904296875 77.9091567993164 78.5116271972656 82.426887512207 86.1521759033203 87.2225189208984 84.0066833496094 80.1220550537109 77.2736282348633 74.9175338745117 73.787956237793 73.2741928100586 72.8446884155273
-9999 -9999 -9999 -9999 -9999 -9999 -9999 -9999 -9999 -9999 -9999 -9999 -9999 -9999 -9999 -9999 -9999 -9999 -9999 -9999 -9999 -9999 -9999 -9999 300.442596435547 181.191970825195 149.476181030273 149.780868530273 150.458129882812 141.468811035156 127.194694519043 117.574142456055 112.085098266602 105.546867370605 98.2116165161133 93.1438903808594 91.1656265258789 94.426628112793 101.988479614258 105.520523071289 107.051406860352 108.097785949707 106.65625 107.686988830566 110.082443237305 107.921257019043 104.209228515625 106.667366027832 113.81468963623 119.87858581543 116.447372436523 101.729194641113 92.7933502197266 90.3828430175781 87.3341293334961 84.1169662475586 82.6146926879883 80.1110382080078 77.6553726196289 80.2725296020508 85.5447006225586 88.9664077758789 86.8260803222656 81.2371368408203 76.8245544433594 73.4911422729492 70.9175720214844 69.112678527832 68.4197769165039 68.3925857543945
-9999 -9999 -9999 -9999 -9999 -9999 -9999 -9999 -9999 -9999 -9999 -9999 -9999 -9999 -9999 -9999 -9999 -9999 -9999 -9999 -9999 -9999 -9999 214.813743591309 227.190689086914 158.366668701172 152.835327148438 143.184951782227 135.385040283203 129.680084228516 123.44002532959 113.929672241211 104.417167663574 96.8999252319336 91.8746719360352 88.8225860595703 87.6250457763672 89.6126861572266 94.3146514892578 99.7899932861328 105.242698669434 109.401504516602 110.908332824707 110.405708312988 108.337997436523 105.314125061035 102.140983581543 100.068550109863 98.7610092163086 108.625099182129 122.411239624023 121.527954101562 104.507904052734 89.7536239624023 83.6258544921875 82.17041015625 81.4963302612305 78.661003112793 78.3841934204102 83.2847671508789 88.3058700561523 88.3513641357422 82.7684783935547 76.8521194458008 72.8121032714844 69.5576782226562 66.8015899658203 65.073112487793 64.0047149658203 63.5438957214355
-9999 -9999 -9999 -9999 -9999 -9999 -9999 -9999 -9999 -9999 -9999 -9999 -9999 -9999 -9999 -9999 -9999 -9999 -9999 -9999 -9999 -9999 -9999 166.259719848633 165.361968994141 131.19921875 125.386360168457 129.854843139648 138.239868164062 135.281326293945 124.095497131348 108.479278564453 98.2500457763672 94.5968551635742 93.4064712524414 93.127571105957 95.2429580688477 100.227638244629 105.622871398926 109.11222076416 110.31729888916 110.724884033203 110.658538818359 109.081695556641 105.246284484863 100.049224853516 95.0692138671875 91.5570831298828 90.2338104248047 90.9686965942383 98.245964050293 116.365135192871 120.280738830566 101.680816650391 84.3532409667969 79.8386001586914 78.2154541015625 76.9866333007812 80.4665145874023 87.2078857421875 89.4767150878906 84.4697723388672 78.0982131958008 73.0211715698242 69.9698333740234 66.7392196655273 63.7410469055176 62.3659782409668 61.4991493225098 60.8525085449219
-9999 -9999 -9999 -9999 -9999 -9999 -9999 -9999 -9999 -9999 -9999 -9999 -9999 -9999 -9999 -9999 -9999 -9999 -9999 -9999 -9999 -9999 153.845413208008 134.381851196289 136.133743286133 137.106292724609 126.652626037598 136.722457885742 147.827362060547 139.24690246582 120.459365844727 104.819274902344 98.5735397338867 96.8484649658203 96.1387786865234 97.2055587768555 100.771766662598 103.572334289551 102.795608520508 100.469429016113 99.5787582397461 100.796783447266 102.913604736328 103.117126464844 99.6761245727539 94.0133056640625 87.5250244140625 81.5064926147461 79.117805480957 80.4483261108398 85.0095520019531 95.2625503540039 119.392303466797 117.877937316895 94.0990447998047 80.4464721679688 76.6466751098633 78.1621475219727 84.7123413085938 90.2180328369141 88.0068283081055 80.5376510620117 74.4540557861328 70.5932159423828 68.2283554077148 64.2579345703125 60.8683929443359 59.6027412414551 59.2887496948242 60.1843299865723
-9999 -9999 -9999 -9999 -9999 -9999 -9999 -9999 -9999 -9999 -9999 -9999 -9999 -9999 666.259285820855 -9999 -9999 -9999 -9999 502.125091552734 -9999 161.245132446289 126.830665588379 121.780654907227 154.298553466797 161.302307128906 158.310852050781 162.087387084961 158.89665222168 140.288665771484 116.406471252441 104.060081481934 100.465835571289 97.7693405151367 96.3314666748047 97.2581787109375 98.4608001708984 96.4479217529297 91.6207046508789 88.6748886108398 89.9069137573242 93.6903686523438 98.0209503173828 99.7553558349609 96.9549560546875 91.2971801757812 83.5641174316406 76.0381317138672 72.5864028930664 72.9655914306641 75.9477920532227 82.3862991333008 100.231300354004 114.967628479004 107.409866333008 90.0941390991211 82.3116760253906 85.2631378173828 90.787109375 89.9154052734375 83.0592269897461 75.8833236694336 71.6882095336914 69.3721160888672 67.2501983642578 62.6161689758301 58.6830902099609 57.617244720459 58.6857604980469 61.6300773620605
-9999 -9999 -9999 -9999 -9999 -9999 -9999 -9999 -9999 -9999 -9999 -9999 -9999 -9999 664.034103393555 -9999 -9999 -9999 -9999 416.279907226562 261.778231811523 161.524185180664 117.002304077148 147.560806274414 168.244049072266 170.635711669922 169.887100219727 171.469543457031 166.848129272461 149.474258422852 126.276329040527 110.912963867188 103.344627380371 97.7279052734375 93.9195022583008 92.5866317749023 91.4387512207031 87.5860595703125 83.1962356567383 82.7066040039062 85.9216384887695 90.626823425293 95.7460021972656 98.2023315429688 95.7049865722656 89.8732147216797 81.5788040161133 74.1965255737305 71.9598846435547 72.0708618164062 71.7420349121094 74.588264465332 81.9256286621094 94.7631454467773 103.909210205078 99.4318695068359 91.7250213623047 91.7887954711914 91.0383529663086 84.7105331420898 76.9936294555664 71.9096221923828 70.2429885864258 69.1969299316406 67.6196136474609 63.8344879150391 59.9727668762207 59.8160858154297 62.4225082397461 65.1737518310547
-9999 -9999 -9999 -9999 -9999 -9999 -9999 -9999 -9999 -9999 -9999 -9999 -9999 -9999 674.047424316406 -9999 -9999 -9999 -9999 -9999 150.645164489746 153.562026977539 145.592391967773 176.929092407227 183.221206665039 184.408157348633 179.651611328125 173.063812255859 165.004150390625 154.596420288086 142.088851928711 131.748931884766 123.403533935547 113.31266784668 101.506225585938 91.9841995239258 86.3666229248047 82.1274490356445 79.766960144043 81.5602798461914 85.8370742797852 90.411262512207 95.1005630493164 97.3998947143555 94.7050094604492 88.6938781738281 80.6517105102539 74.2228622436523 73.8820724487305 74.6259994506836 71.9254760742188 71.1672439575195 76.2212066650391 82.4136505126953 88.4658355712891 90.3219833374023 87.3128967285156 85.7168350219727 82.8515548706055 77.4830551147461 72.2594528198242 69.5989456176758 69.5378112792969 69.2919692993164 69.4706192016602 68.4233856201172 65.4832611083984 65.1914978027344 66.8565216064453 68.080696105957
-9999 -9999 -9999 -9999 -9999 -9999 -9999 -9999 -9999 -9999 -9999 -9999 -9999 -9999 634.110778808594 -9999 633.994140625 -9999 -9999 -9999 124.870346069336 162.624099731445 176.875732421875 192.060455322266 195.205688476562 188.314926147461 173.207702636719 156.204406738281 142.120834350586 132.702102661133 128.539276123047 129.071060180664 130.832778930664 128.595672607422 119.629920959473 106.899002075195 95.187744140625 86.4915008544922 81.4800491333008 81.3569793701172 85.0290145874023 89.8058471679688 95.1481704711914 98.0775604248047 94.8712692260742 88.3486404418945 80.5778961181641 73.8293762207031 72.3176956176758 72.943962097168 71.3575668334961 71.3237915039062 76.2442779541016 81.5583572387695 82.0818023681641 79.5371856689453 77.6750793457031 76.9994430541992 75.5488586425781 72.2264022827148 68.9909973144531 68.4830322265625 69.4626770019531 69.8271942138672 71.89208984375 72.887580871582 70.4523315429688 70.0864715576172 72.2644729614258 74.8008651733398
-9999 -9999 -9999 -9999 -9999 -9999 -9999 -9999 -9999 -9999 -9999 -9999 -9999 -9999 634.110778808594 594.174133300781 509.200805664062 -9999 -9999 146.89928817749 141.852890014648 189.487777709961 196.238143920898 202.389923095703 192.774871826172 168.72282409668 142.151611328125 120.672859191895 105.790496826172 96.6382369995117 93.0186157226562 94.8386077880859 101.432914733887 110.537391662598 117.846755981445 118.306045532227 111.331871032715 101.49454498291 93.1118469238281 88.7570953369141 89.0240097045898 92.1093826293945 97.4130096435547 100.574676513672 96.2626647949219 88.8880615234375 81.7908477783203 75.2038192749023 72.2197952270508 72.9993286132812 74.6755294799805 77.4422454833984 80.7785415649414 81.1268844604492 77.5697784423828 74.0528411865234 73.9172058105469 74.8765335083008 73.4983520507812 69.9258117675781 67.2411346435547 68.3415451049805 70.6035690307617 71.8857650756836 74.760009765625 76.0709609985352 74.3001098632812 77.134880065918 83.2472839355469 87.2022933959961
-9999 -9999 -9999 -9999 -9999 -9999 -9999 -9999 -9999 -9999 -9999 -9999 -9999 -9999 -9999 443.825354003906 426.506011962891 -9999 225.559619903564 143.098831176758 177.775085449219 208.201110839844 207.254547119141 197.642227172852 167.412506103516 131.410827636719 104.494781494141 86.7331466674805 75.6886901855469 69.1848297119141 66.2491455078125 66.0780181884766 69.1454849243164 76.9743728637695 89.7675857543945 102.869903564453 110.106224060059 109.512268066406 104.109886169434 99.3440856933594 98.3449783325195 99.7431411743164 102.825012207031 104.273498535156 98.471061706543 89.3349304199219 82.7673645019531 78.1277389526367 75.9534454345703 77.0710754394531 79.0754241943359 80.2823257446289 79.116081237793 75.2768096923828 72.2903900146484 72.9805221557617 75.4884262084961 76.1472625732422 73.1406402587891 68.4528961181641 66.6019592285156 69.6514587402344 72.9686584472656 75.5236587524414 78.9408798217773 80.5027008056641 79.9038162231445 82.2177124023438 83.6232986450195 80.7307891845703
-9999 -9999 -9999 -9999 -9999 -9999 -9999 -9999 -9999 -9999 -9999 -9999 -9999 -9999 -9999 338.357330322266 350.888488769531 -9999 141.534027099609 162.979034423828 207.300704956055 216.187118530273 209.509460449219 177.061874389648 133.140182495117 101.897071838379 81.3988952636719 68.6570053100586 61.8077125549316 57.9674644470215 56.1852836608887 55.675838470459 56.1840324401855 58.7880363464355 66.1266937255859 78.7457122802734 92.0711288452148 100.462394714355 102.51831817627 102.220336914062 103.509239196777 105.631469726562 107.055534362793 106.767456054688 100.860153198242 89.2789535522461 81.238883972168 77.663459777832 76.020393371582 76.3066329956055 76.0751571655273 74.1150970458984 71.2004623413086 69.914794921875 72.3147583007812 76.2074966430664 78.3690185546875 77.0383453369141 72.3489303588867 67.3894882202148 67.2061920166016 72.0533981323242 75.1331787109375 77.9943771362305 80.944221496582 80.1410827636719 77.1105346679688 72.9285736083984 67.911506652832 63.5789070129395
-9999 -9999 -9999 -9999 -9999 -9999 -9999 -9999 -9999 -9999 -9999 -9999 -9999 -9999 -9999 287.388488769531 -9999 224.264875139509 175.917022705078 195.471267700195 225.99201965332 223.766494750977 196.084991455078 150.084259033203 111.120826721191 86.9449157714844 70.3200378417969 61.8103904724121 57.9492950439453 55.8201942443848 54.899829864502 54.5649604797363 54.4472465515137 54.6749572753906 56.6172523498535 62.5541229248047 72.2140884399414 82.0055236816406 88.5034713745117 92.9089584350586 97.8394470214844 102.593078613281 105.023429870605 104.747375488281 101.002166748047 91.3981628417969 80.861686706543 74.8194351196289 72.3697891235352 71.7902297973633 70.4336776733398 68.2915878295898 67.6526260375977 70.2420425415039 74.8668594360352 78.0785675048828 78.5215148925781 75.8542861938477 70.9342803955078 67.0476913452148 68.1374588012695 73.6048812866211 75.9248428344727 77.9594421386719 79.1939086914062 74.821159362793 68.5771408081055 62.1380882263184 58.5546073913574 57.1814460754395
-9999 -9999 -9999 -9999 -9999 -9999 -9999 -9999 -9999 -9999 -9999 -9999 -9999 -9999 287.388488769531 256.897455851237 208.830062866211 202.935638427734 215.27507019043 231.808837890625 241.445526123047 220.02815246582 172.642211914062 125.823486328125 95.2094573974609 74.4858932495117 64.5834121704102 59.5566864013672 57.3804740905762 56.0296401977539 55.6354026794434 55.4183006286621 55.211067199707 54.8533096313477 54.5527534484863 55.6889114379883 60.1581611633301 67.2161636352539 73.8025283813477 79.3922271728516 85.6237564086914 92.1470718383789 96.5577545166016 97.7876129150391 96.7311935424805 92.6132507324219 85.3899459838867 77.9966506958008 72.1426467895508 70.6213302612305 70.1241912841797 69.9257125854492 71.3470077514648 73.6486434936523 76.0162200927734 76.6963882446289 75.6455764770508 72.8406372070312 69.2011260986328 66.7405242919922 67.927490234375 73.3308944702148 75.5133056640625 76.3360900878906 75.2074279785156 69.0084915161133 62.7241516113281 58.4577331542969 56.9410057067871 56.0715179443359
-9999 -9999 -9999 -9999 -9999 -9999 -9999 -9999 -9999 -9999 -9999 -9999 -9999 -9999 -9999 -9999 223.352512359619 227.79460144043 219.741485595703 245.902450561523 253.235809326172 204.68049621582 147.328414916992 113.702995300293 85.2828979492188 68.9553146362305 63.2453231811523 59.2972183227539 57.6836776733398 56.6168518066406 56.2916984558105 55.9465408325195 55.677864074707 55.3161849975586 54.8417015075684 54.3435554504395 55.5054359436035 59.3360939025879 64.4866027832031 69.5483474731445 74.6707382202148 80.4772491455078 85.4798965454102 88.0279769897461 88.6801910400391 88.3852615356445 87.0798034667969 84.9407196044922 80.8609619140625 79.3503875732422 79.7671279907227 79.111083984375 77.359733581543 75.521858215332 74.2018737792969 72.8581008911133 71.5282135009766 69.8396835327148 67.8402633666992 66.0385360717773 66.7677307128906 72.3962860107422 74.6625595092773 73.9325408935547 71.1651000976562 65.6508636474609 60.8437576293945 58.6443328857422 57.743968963623 57.2440719604492
-9999 -9999 -9999 -9999 -9999 -9999 -9999 -9999 -9999 -9999 -9999 -9999 -9999 -9999 -9999 -9999 240.822174072266 253.849746704102 258.539031982422 265.095855712891 249.371948242188 188.353408813477 127.241577148438 104.292335510254 79.1936264038086 68.6248168945312 63.7257080078125 60.2315826416016 58.5197067260742 57.3092155456543 56.7581825256348 56.4097747802734 56.2756500244141 55.9587936401367 55.4309730529785 54.6113815307617 54.3275413513184 55.6566390991211 58.5534172058105 62.1179695129395 65.8871307373047 70.0637588500977 74.2193069458008 77.4963836669922 79.6571502685547 81.2364501953125 82.6293792724609 84.2885894775391 84.2791290283203 83.5366134643555 83.2681579589844 81.0167694091797 76.7921676635742 73.0195693969727 70.6959533691406 69.5307540893555 69.2620010375977 68.4691925048828 66.7405853271484 65.0731964111328 66.128303527832 71.7944793701172 73.7635650634766 72.5802841186523 69.670539855957 65.3173980712891 61.293140411377 60.0802116394043 60.0990219116211 60.4882926940918
-9999 -9999 -9999 -9999 -9999 -9999 -9999 -9999 -9999 -9999 -9999 -9999 -9999 -9999 -9999 -9999 -9999 267.815082550049 283.942474365234 283.94287109375 242.921493530273 163.791152954102 112.310485839844 94.4951095581055 78.060173034668 71.3518218994141 66.8951721191406 63.5831336975098 61.0263824462891 58.9514694213867 57.3708267211914 56.1314544677734 55.312686920166 54.6876907348633 54.1645698547363 53.6350898742676 53.3729934692383 53.8729209899902 55.3713111877441 57.6357460021973 60.3870315551758 63.5015411376953 66.9683151245117 70.525390625 73.6762237548828 76.0270767211914 77.5689010620117 79.2241439819336 81.0553817749023 81.3369522094727 79.7869186401367 76.2619476318359 72.2496871948242 69.6311950683594 68.4211730957031 68.5538330078125 68.7462158203125 67.3197708129883 64.9889221191406 64.5772552490234 66.5514450073242 71.1227874755859 72.8389739990234 72.6309204101562 70.9651718139648 68.3974456787109 66.4185333251953 66.2900314331055 66.5401840209961 66.9073867797852
-9999 -9999 -9999 -9999 -9999 -9999 -9999 -9999 -9999 -9999 -9999 -9999 -9999 -9999 250.592853546143 253.849746704102 269.007420539856 279.435775756836 274.929077148438 284.407379150391 249.128463745117 145.518569946289 103.486610412598 89.8672103881836 80.2622985839844 75.3951263427734 72.0480270385742 69.2426300048828 66.6096725463867 64.341552734375 62.3273773193359 60.6455383300781 59.5331077575684 58.7495346069336 58.1071548461914 57.564754486084 57.2902030944824 57.3307762145996 57.754451751709 58.5898246765137 59.941162109375 61.9481086730957 64.8108673095703 68.1037139892578 71.1918411254883 73.7033920288086 74.7949295043945 75.2019348144531 76.6104354858398 76.4589538574219 73.5418014526367 70.3665313720703 68.4193420410156 67.4677505493164 67.3120956420898 67.256233215332 65.9632415771484 63.8237342834473 63.5895042419434 64.4697113037109 65.6856307983398 68.2766952514648 70.1373672485352 71.4995651245117 73.1207733154297 75.0653305053711 76.3873062133789 76.6503295898438 75.5482788085938 73.5303573608398
-9999 -9999 -9999 -9999 -9999 -9999 -9999 -9999 -9999 -9999 -9999 -9999 -9999 -9999 -9999 -9999 -9999 -9999 276.077484130859 273.297882080078 252.009628295898 139.521636962891 102.401496887207 88.9490356445312 82.7174911499023 80.1216506958008 78.2504348754883 76.6976089477539 74.9559631347656 73.127555847168 71.1708145141602 69.3459777832031 67.5627593994141 65.8686218261719 64.3215866088867 63.0764694213867 62.1482162475586 61.6055679321289 61.4795570373535 61.7845420837402 62.4794654846191 63.3521842956543 65.0112915039062 67.9241027832031 71.517463684082 74.1842498779297 73.4382781982422 70.6831512451172 68.0152053833008 65.9349212646484 64.5393753051758 63.8140296936035 63.1964874267578 62.6981086730957 61.9144096374512 61.5058555603027 61.4041900634766 61.948070526123 62.6715774536133 62.5563354492188 62.5182876586914 64.8574905395508 67.7849349975586 69.9986038208008 72.6910247802734 76.6057739257812 78.1478652954102 74.8032760620117 67.9778213500977 64.5975341796875
-9999 -9999 -9999 -9999 -9999 -9999 -9999 -9999 -9999 -9999 -9999 -9999 -9999 -9999 -9999 -9999 -9999 248.906280517578 276.244537353516 271.675598144531 246.408996582031 139.411987304688 103.758056640625 89.3916015625 85.8234329223633 84.6349716186523 83.5771942138672 82.8187637329102 81.9772796630859 81.2557907104492 80.4843215942383 79.7278747558594 78.9624786376953 77.8938140869141 75.6382217407227 72.2609176635742 68.4306945800781 65.0627212524414 63.1170196533203 63.0175552368164 65.5555801391602 68.9024047851562 71.2668838500977 73.5642318725586 74.9240112304688 72.1885604858398 67.0838470458984 63.7339630126953 61.6557884216309 60.4619941711426 59.8892211914062 58.3834648132324 56.9946098327637 56.4788513183594 56.8936347961426 58.3182640075684 59.7178268432617 60.354679107666 60.0783996582031 59.4387016296387 60.7001037597656 64.7089080810547 67.883171081543 68.9448623657227 67.628303527832 66.5574188232422 61.0113754272461 54.7444839477539 53.3602066040039 53.1368942260742
-9999 -9999 -9999 -9999 -9999 -9999 -9999 -9999 -9999 -9999 -9999 -9999 -9999 125.33406829834 130.561002943251 -9999 185.141372680664 242.787132263184 248.906280517578 311.098388671875 228.918273925781 139.514068603516 98.9467391967773 88.7850952148438 86.0730743408203 84.9445648193359 83.9323501586914 83.1164245605469 82.3467178344727 81.7417755126953 81.3032760620117 81.0399017333984 81.0315856933594 81.2750701904297 81.4849395751953 80.6526260375977 78.1199722290039 73.7999801635742 68.1387023925781 63.0400581359863 61.1697692871094 63.9739074707031 68.0642700195312 70.2197189331055 69.0813903808594 64.7287368774414 62.3284759521484 61.3975105285645 59.9499244689941 58.8314666748047 57.9473533630371 56.7571678161621 55.6099853515625 54.5827178955078 55.052433013916 56.5096321105957 57.1444549560547 57.0151252746582 56.9729232788086 58.2229843139648 60.9165649414062 64.0671768188477 67.2732467651367 67.1232528686523 61.9795799255371 55.6574363708496 48.8591499328613 48.7997550964355 49.6780128479004 50.2026672363281
-9999 -9999 -9999 -9999 -9999 -9999 -9999 -9999 -9999 -9999 -9999 -9999 -9999 -9999 125.33406829834 136.916445414225 129.432495117188 240.850250244141 351.959503173828 272.407104492188 159.058456420898 104.475433349609 91.6626815795898 84.793815612793 82.1896591186523 80.5550231933594 79.2892913818359 78.4305114746094 77.8618087768555 77.3716430664062 77.065673828125 77.0961303710938 77.5494842529297 78.2109832763672 79.0077514648438 79.5131912231445 79.27197265625 77.7104644775391 74.2512359619141 70.1132125854492 67.1103897094727 64.483268737793 61.928955078125 61.4040489196777 62.5363311767578 62.9321060180664 62.3766937255859 60.6685638427734 59.3707618713379 57.7541847229004 57.0953063964844 56.8716163635254 55.9222297668457 54.5268096923828 53.7950820922852 54.3636169433594 54.9889717102051 56.034252166748 57.7458686828613 59.8061752319336 61.1251525878906 61.5097885131836 63.6653938293457 65.5269088745117 59.727783203125 51.0767364501953 45.8888664245605 47.994270324707 48.1699867248535 47.9243812561035
-9999 -9999 -9999 -9999 -9999 -9999 -9999 -9999 -9999 -9999 -9999 -9999 -9999 -9999 129.96923828125 125.33406829834 155.982772827148 187.952209472656 178.581604003906 137.44743347168 103.16960144043 91.9285583496094 86.7555236816406 81.5454711914062 79.1752090454102 77.4409027099609 76.2957229614258 75.8058776855469 75.2146530151367 74.0990371704102 73.246711730957 73.1392517089844 73.8119049072266 75.038703918457 76.525146484375 77.4618530273438 77.3560638427734 76.0303955078125 73.5722122192383 70.5871276855469 68.9787979125977 70.0496063232422 70.0914764404297 66.3747940063477 64.6737823486328 63.4602890014648 60.8416366577148 58.9564514160156 57.5500640869141 56.1139259338379 56.0642242431641 56.702693939209 56.2083549499512 54.6284790039062 52.9883117675781 52.4793014526367 53.4882621765137 54.7388572692871 55.7381019592285 58.2230796813965 58.3344955444336 56.7421531677246 60.1167373657227 64.3060913085938 58.0376815795898 48.9335327148438 45.714900970459 47.5185432434082 48.6012420654297 46.1403999328613
-9999 -9999 -9999 -9999 -9999 -9999 -9999 -9999 -9999 -9999 -9999 163.495880126953 174.393249511719 153.802642822266 115.314056396484 125.42618560791 161.778579711914 138.620574951172 121.58154296875 108.659423828125 98.9698791503906 93.311882019043 89.0820999145508 85.7279891967773 83.8827285766602 82.7405395507812 81.7391738891602 80.6644058227539 79.255729675293 77.5973281860352 76.2407608032227 75.6607131958008 75.9186935424805 76.6514205932617 77.5679168701172 77.9899368286133 77.3639297485352 75.8659973144531 72.9433975219727 69.2608261108398 66.5338897705078 68.0598068237305 73.7899322509766 71.8340606689453 66.0275421142578 61.0972900390625 59.294319152832 58.8864517211914 57.5601196289062 56.5136795043945 55.9563522338867 55.297061920166 54.9760856628418 55.7011680603027 55.2482109069824 53.471996307373 52.7955093383789 51.6402206420898 52.9328155517578 56.1703186035156 55.1649131774902 52.7010765075684 56.6974143981934 60.7426490783691 54.2896537780762 46.659782409668 46.2680702209473 47.7222442626953 49.527099609375 49.1216087341309
-9999 -9999 -9999 -9999 -9999 -9999 -9999 -9999 -9999 295.173950195312 173.91943359375 122.787422180176 117.445678710938 78.4246597290039 84.4944076538086 125.724899291992 126.900833129883 116.722183227539 107.206657409668 100.820877075195 95.7507171630859 91.8201522827148 88.8114547729492 87.0875625610352 86.5638809204102 86.4993591308594 86.4925384521484 86.1604309082031 85.2990875244141 84.131462097168 82.8032608032227 81.6122894287109 80.9218444824219 80.6123809814453 80.2475967407227 78.9478912353516 76.9261093139648 74.0657424926758 70.4327774047852 67.4573669433594 64.7220230102539 64.9190902709961 72.6986770629883 72.5519027709961 64.6343078613281 59.044116973877 58.9078788757324 59.7689552307129 59.6480102539062 60.0546226501465 60.5856704711914 60.1906127929688 57.8831939697266 55.4147682189941 56.1139755249023 57.4350128173828 56.0921859741211 53.2810516357422 55.1032104492188 59.3231239318848 54.2244567871094 49.5455513000488 52.6264724731445 53.454288482666 49.5169677734375 47.8401222229004 48.6352272033691 49.2153663635254 49.5680351257324 49.9000930786133
-9999 -9999 -9999 -9999 -9999 -9999 -9999 -9999 -9999 296.068603515625 155.27278137207 109.507080078125 100.879257202148 104.748542785645 114.942680358887 106.956665039062 104.676689147949 101.769569396973 97.2865600585938 93.1137161254883 89.2855606079102 86.0660247802734 83.6106491088867 82.0593795776367 81.4409484863281 81.1622085571289 80.7386016845703 80.5266876220703 80.3117294311523 80.0017776489258 79.5633697509766 79.0338821411133 78.3003005981445 77.253288269043 75.4772567749023 72.9168701171875 69.9477920532227 66.923957824707 64.5163879394531 63.0179443359375 61.6627311706543 61.721321105957 69.3573989868164 71.1415939331055 62.6362075805664 57.1277275085449 57.5226783752441 57.8737030029297 57.2083625793457 57.0595436096191 58.1295394897461 60.0659980773926 61.5701065063477 61.0334091186523 58.8781127929688 58.9433250427246 58.2302780151367 58.3916130065918 60.855712890625 61.168327331543 52.0836181640625 48.4962158203125 51.023738861084 49.6506309509277 50.9876441955566 52.7651863098145 53.519702911377 53.2225456237793 52.2892761230469 51.123363494873
-9999 -9999 -9999 -9999 -9999 229.171245574951 311.435272216797 267.530181884766 244.330261230469 176.500350952148 135.187561035156 110.169052124023 98.3025436401367 117.920333862305 102.375 98.5407409667969 96.3279113769531 93.6163024902344 89.6671371459961 84.9299926757812 79.6742782592773 74.8905029296875 70.7058563232422 66.9365386962891 63.6326866149902 60.8293533325195 58.9070777893066 58.0646286010742 58.1816749572754 59.0190124511719 60.0727157592773 60.8936042785645 61.3253974914551 61.2544288635254 60.742618560791 59.9281311035156 59.0187225341797 58.0623664855957 57.5544471740723 58.0156593322754 58.3555679321289 59.1203193664551 65.7840118408203 67.9964828491211 60.841609954834 55.0616264343262 54.0115127563477 54.3104820251465 53.3908615112305 52.0807838439941 52.0386390686035 54.2954635620117 57.9974899291992 61.5127334594727 61.9476203918457 59.5629081726074 58.3115386962891 60.7403564453125 64.0609436035156 60.7593154907227 50.6129302978516 48.4372634887695 49.9920272827148 51.6419372558594 55.4817886352539 56.9743614196777 56.396614074707 54.9423828125 53.9029998779297 52.5226020812988
-9999 -9999 -9999 -9999 230.354782104492 201.594161987305 173.300765991211 117.78874206543 113.363929748535 103.811828613281 87.3419799804688 95.4606857299805 109.366958618164 103.560302734375 99.8361282348633 96.4069442749023 92.872444152832 87.3893585205078 80.6541595458984 73.3673553466797 66.7152557373047 61.2644996643066 56.5097618103027 52.4810752868652 49.4173927307129 47.4433288574219 46.551326751709 46.4558601379395 46.8250122070312 47.5357818603516 48.4606628417969 49.4799003601074 50.446361541748 51.2370796203613 51.6961822509766 51.9446411132812 52.1378479003906 52.4524993896484 53.3519973754883 54.9793815612793 56.1943206787109 57.6965980529785 62.6535186767578 63.4064483642578 59.5769119262695 57.6026382446289 56.8273277282715 55.8946266174316 55.0907440185547 53.9436340332031 52.7021408081055 53.7384490966797 56.6452217102051 60.0633850097656 63.5980033874512 61.8736114501953 57.8244552612305 59.2077713012695 63.4468688964844 60.8227348327637 51.6298637390137 51.4229011535645 50.7680549621582 55.6022682189941 58.6404151916504 57.4622192382812 52.7596817016602 48.4789695739746 48.6484375 50.308536529541
-9999 -9999 -9999 178.151985168457 194.4365234375 126.183090209961 112.874382019043 93.5189666748047 93.7987670898438 69.6108551025391 108.696899414062 103.464027404785 100.657432556152 97.8702850341797 94.4516296386719 90.3685531616211 84.5749588012695 76.5602569580078 67.5772933959961 59.8537635803223 54.3840446472168 50.1710510253906 46.852466583252 44.4519081115723 43.3012351989746 43.0264587402344 43.2640609741211 43.7133979797363 44.3536109924316 44.9800071716309 45.494701385498 45.8845329284668 46.4389877319336 47.5719795227051 48.9028587341309 50.1053504943848 50.9310874938965 51.2871780395508 52.0282287597656 53.4920768737793 54.9849624633789 57.7654037475586 61.9619483947754 60.7192497253418 57.5602645874023 61.0399742126465 63.1845703125 61.3276977539062 59.1539993286133 57.2367401123047 56.1454200744629 56.7815780639648 58.718692779541 61.0090370178223 62.6246070861816 63.219654083252 59.7479858398438 56.868465423584 59.6321449279785 59.9369888305664 53.5607032775879 50.2445220947266 53.2251281738281 59.3294143676758 59.0186958312988 51.7830276489258 43.4561424255371 38.8107872009277 38.9795951843262 43.7177467346191
-9999 -9999 -9999 171.072616577148 116.744018554688 103.08016204834 118.326934814453 129.32698059082 139.776992797852 114.374221801758 105.922660827637 101.734336853027 98.9858245849609 95.0174407958984 90.3736114501953 83.0684509277344 73.9049377441406 64.1898956298828 56.071159362793 50.914192199707 47.3288841247559 44.8163452148438 43.1166229248047 42.3455047607422 42.2987670898438 42.4485511779785 42.5610733032227 42.7270317077637 42.935001373291 43.2732238769531 44.150821685791 45.8315505981445 48.074348449707 50.2350769042969 51.601318359375 51.7445526123047 51.0780220031738 50.6110954284668 51.7879447937012 54.7377853393555 57.8892211914062 61.982982635498 64.7038116455078 61.4478797912598 57.2378578186035 59.3807983398438 61.8441696166992 60.7794799804688 58.1810188293457 56.0663642883301 55.2637672424316 56.1663055419922 58.7803688049316 61.2193450927734 59.2971000671387 61.7565612792969 62.1620216369629 57.9226760864258 56.4945793151855 57.7458267211914 54.6473579406738 52.9105339050293 58.610767364502 61.444393157959 54.5284767150879 43.0887489318848 38.6278305053711 38.0312461853027 38.451602935791 40.5475082397461
