NCOLS 35 
NROWS 26 
XLLCORNER -80 
YLLCORNER 33 
CELLSIZE 0.5 
NODATA_value -9999 
-9999.000000000000000 -9999 -9999 -9999 -9999 -9999 -9999 -9999 -9999 -9999 -9999 -9999 -9999 -9999 -9999 -9999 -9999 -9999 -9999 -9999 -9999 -9999 -9999 -9999 -9999 -9999 -9999 -9999 -9999 -9999 -9999 -9999 -9999 -9999 -9999
-9999 -9999 -9999 -9999 -9999 -9999 -9999 -9999 -9999 -9999 -9999 -9999 -9999 -9999 -9999 -9999 -9999 -9999 -9999 -9999 -9999 -9999 -9999 -9999 -9999 -9999 -9999 -9999 -9999 127.769849065018 -9999 -9999 -9999 -9999 -9999
-9999 -9999 -9999 -9999 -9999 -9999 -9999 -9999 -9999 -9999 -9999 -9999 -9999 -9999 -9999 -9999 -9999 -9999 -9999 -9999 -9999 -9999 -9999 -9999 -9999 -9999 202.256756804054 155.080536801637 64.1823856105448 41.6291728638256 -9999 -9999 -9999 -9999 -9999
-9999 -9999 -9999 -9999 -9999 -9999 -9999 -9999 -9999 -9999 -9999 -9999 -9999 -9999 -9999 -9999 -9999 -9999 -9999 -9999 -9999 -9999 -9999 157.844316451174 210.277788889947 180.088801003866 182.211321316684 36.929163832748 -9999 -9999 -9999 127.278846265519 134.636279727355 135.022530517857 128.178456072606
-9999 -9999 -9999 -9999 -9999 -9999 -9999 -9999 -9999 -9999 -9999 -9999 -9999 -9999 -9999 -9999 -9999 -9999 -9999 -9999 157.040467494168 174.076825372462 250.726897900278 208.876222781427 178.786530816582 152.784360086313 155.803107609736 108.504888884939 -9999 -9999 91.4317773520337 109.683175427226 120.395156042942 116.876436036924 113.80818025914
-9999 -9999 -9999 -9999 -9999 -9999 -9999 -9999 -9999 -9999 -9999 -9999 -9999 -9999 -9999 -9999 -9999 -9999 -9999 155.314432827274 142.427960811022 125.563591250827 135.583641118691 163.283556608743 153.850539613201 134.791905231908 143.238311834884 145.217480770937 134.122826971375 124.457746022431 104.024492685833 105.392532515251 107.310688953978 77.207855341799 73.4928157663285
-9999 -9999 -9999 -9999 -9999 -9999 -9999 -9999 -9999 -9999 -9999 -9999 -9999 -9999 -9999 -9999 -9999 -9999 -9999 135.381287107769 102.819765608356 91.4761595870588 85.4847663397232 87.174009457532 103.186061808381 132.56892065882 134.835699544737 127.715056860919 111.330646559902 95.4309528236411 91.4111103719583 98.5681421917211 100.090396917747 91.1752695047883 90.3705217201903
-9999 -9999 -9999 -9999 -9999 -9999 -9999 -9999 -9999 -9999 -9999 -9999 -9999 -9999 -9999 -9999 -9999 -9999 -9999 138.168857513463 127.30342974751 100.765317748147 91.8685585052238 97.6334602654304 114.080178838386 131.238812842357 136.189429898975 128.566158751891 103.077633239765 132.983676810416 159.415405987324 164.746343136026 162.909572364005 113.619488252795 89.7417530972902
-9999 -9999 -9999 -9999 -9999 -9999 -9999 -9999 -9999 -9999 -9999 -9999 -9999 -9999 -9999 -9999 -9999 -9999 -9999 33.8733632176791 127.137948976689 119.660058191636 103.533840256339 100.705852623033 113.086901775755 111.516302102348 125.080735708292 132.288685887817 151.126173174075 174.413713779958 166.085094134861 157.377821876526 161.680446798751 173.477818789906 146.192921218911
-9999 -9999 -9999 -9999 -9999 -9999 -9999 -9999 -9999 -9999 -9999 -9999 -9999 -9999 -9999 -9999 -9999 188.797305547277 175.899255932819 139.792543788532 120.324891398863 136.615297174059 128.487138793021 110.42256850168 99.678635434004 116.346262732148 122.769885848741 148.755120172102 197.527908275261 164.419742631512 162.622667841836 154.766954549001 146.935006064423 147.184492804239 149.121718608602
-9999 -9999 -9999 -9999 -9999 -9999 -9999 -9999 -9999 -9999 -9999 -9999 -9999 -9999 276.727332666422 242.095728155807 221.42079869155 235.56024644008 226.330344006469 175.419096555028 142.587582149086 149.177328653044 141.017569526866 127.529930482854 154.735020711072 170.291724954787 191.468454144559 218.463402855068 209.754352732085 188.883599515977 188.852294783799 175.015246697661 142.691900442426 133.510386217951 137.633402453004
-9999 -9999 -9999 -9999 -9999 -9999 -9999 -9999 -9999 -9999 -9999 -9999 276.499601178115 242.633508993504 255.726411488815 247.052881441012 227.954961367754 189.90391157109 214.747678497716 214.530924703758 195.979966789853 195.191938410489 169.063275379288 169.744683084369 200.901150100972 221.264694323403 229.411428417236 199.923064756191 185.840496634973 186.218275774088 170.659297649516 118.762223078797 74.1726094121928 88.4588002809818 110.475512812089
-9999 -9999 -9999 -9999 -9999 -9999 -9999 -9999 -9999 -9999 -9999 -9999 189.693841656486 193.335384505136 257.854959094001 309.661527177484 314.303410187518 287.626466137115 250.687271958155 231.324873216557 223.515341723041 194.932384982712 177.386218623653 190.429657379558 191.172937631851 211.939984880097 180.704549054149 177.294182805372 188.930815825244 193.857657745638 199.609856949056 153.989896147963 81.7204817893333 70.0129431606219 87.4022401645019
-9999 -9999 -9999 -9999 -9999 -9999 -9999 -9999 -9999 9.02912831359185 9.54590352865698 389.503900061074 218.628545085152 246.778957489296 331.892280246726 363.168935470918 270.061299624995 221.018982886485 271.868739764368 290.14073615327 266.695459702148 250.544491462836 238.341142207302 227.360076369843 218.737068140987 220.997583829595 182.681611885831 189.422398900288 196.632161303134 201.072205527556 204.120647233332 223.045684315421 239.647396200915 184.302979059172 102.208442829137
-9999 -9999 -9999 -9999 -9999 -9999 -9999 -9999 -9999 -9999 277.773493370644 273.813254044605 318.498902496401 324.736504392342 382.280168168727 380.036651355055 319.786278115803 276.902900244141 268.253865575625 274.635224831901 276.061080374347 271.052310005682 249.500870830966 226.893755774705 194.372067582034 198.254316625588 188.442541731169 196.993864139539 185.255252606412 172.36018664445 179.918420679095 190.087836441332 187.137760148175 180.150531139601 219.540591913363
-9999 -9999 -9999 -9999 -9999 -9999 -9999 613.032774715647 224.313777531641 -9999 283.215791350145 349.324918640315 411.599728246375 452.255911235128 425.065514397805 384.821852179348 359.775586248823 347.458820332873 339.896659330994 295.463390217268 307.299130155948 313.493108707948 293.693622664085 259.442155477615 234.141031353663 233.303575517372 249.81887048107 245.096583320749 226.853042749513 209.004539729961 209.331169452665 224.016945662089 208.787620725889 182.327406578313 169.98871851374
-9999 -9999 -9999 -9999 -9999 -9999 -9999 39.69898847433 111.509826061756 220.588987992886 362.218093769367 421.222123053266 487.446640108809 410.786413295289 356.404963261726 328.651155830661 305.224686411079 301.878337183389 310.003242363995 361.006226662676 306.245970591373 293.444917230022 306.962413624145 261.07752802506 218.138258631381 202.546140054356 203.002388272611 204.380282996377 209.576577990643 211.378471964167 204.203268547742 195.788971130324 186.996021006796 179.862321745303 179.578701448356
-9999 -9999 -9999 -9999 -9999 -9999 -9999 222.534346082713 -9999 301.821646009697 450.365829337765 509.837540274659 429.873955009312 374.255033669494 347.341223034047 322.298835249769 301.93520727509 301.039581895975 305.060522330336 305.667670984683 325.115421150173 292.575433449011 296.050542172004 243.304908015937 204.969483844178 213.158497248396 261.143503656697 246.488457118874 235.160227742287 233.055134331914 221.6613147355 200.79771489733 190.10399538192 186.864402117142 187.211493304005
-9999 -9999 -9999 -9999 -9999 -9999 -9999 -9999 222.262867845805 340.668648236663 518.983442827038 487.136756724854 427.564878252333 391.952087869166 366.939097071761 350.18433113364 320.243153910801 183.1211649803 149.045812163098 270.398806839864 301.541350405988 277.003598462334 283.953954284172 229.509118401357 204.613237026884 246.520333931851 189.812248961734 185.446507173653 180.120083271662 179.944391505183 185.945298501668 192.102370486694 187.229961484402 191.562603824142 188.326369819291
-9999 -9999 -9999 -9999 -9999 -9999 -9999 -9999 -9999 430.327338995253 575.765861313837 511.531469380943 440.601103726944 412.311994550648 391.585882998986 372.675274844261 352.817480393711 232.152778232936 147.363162679052 183.934394775857 271.103130490333 268.206801582926 274.641984045814 213.724299945941 214.538696342906 213.027221421952 192.993417741442 186.73870852697 178.599580223038 175.857279578499 176.528942027491 181.419535646169 189.235648028091 188.805447132053 183.83156311475
-9999 -9999 -9999 -9999 -9999 -9999 -9999 -9999 -9999 328.907448379815 545.568334996909 489.633713325495 436.33865630199 424.080534841006 413.71914041938 390.42644995086 356.36966277201 333.472859151177 221.445427546626 255.211566230712 269.554534476304 288.843845330457 237.062652760513 234.975609378587 247.791975334743 227.194779799549 208.299672138936 203.261730496555 191.86832094337 183.672530670097 190.249432021635 192.790396626853 191.254010214144 195.934789419282 194.482192016963
-9999 -9999 -9999 -9999 -9999 -9999 -9999 0 91.3767551149633 454.728714172564 495.275663973494 469.918484798607 436.874749677827 425.412251426483 409.843325187588 385.042830059881 332.612987503325 371.843157893101 238.407661782163 271.510014730495 262.214998261307 256.346682079946 231.190896953687 281.147392339726 283.591287100342 252.38154655898 219.444161205777 224.830542635216 220.624935691128 207.929804405349 201.319370802461 194.247466374824 187.888853226031 192.806006424582 204.810546666354
-9999 -9999 -9999 -9999 -9999 -9999 102.875643219794 214.574313543659 449.414149614214 453.386846581522 413.677899242228 370.124399595158 342.646155973627 329.042551645225 318.756909205024 307.48560776376 296.720153477312 334.960926135916 291.300133824064 286.42995881752 293.317965628976 313.701089602958 329.96832179015 330.530831610268 318.840057210442 283.733321280876 225.343025931703 226.811496763228 238.730242942924 247.075233497023 240.11429105584 229.633735205839 223.333307392124 220.582109119525 218.232317767036
-9999 -9999 -9999 -9999 232.426964179229 271.184404122698 319.396563819214 381.679786036898 427.106240801354 385.04854933776 315.044262636895 297.092297964693 305.974525336997 306.237021454936 301.032652545438 295.693264088286 304.171247238729 345.543251091131 324.748440803347 340.4256705688 346.238307774555 278.274634604594 259.617220089377 252.19480196786 293.600521125119 310.203448092891 231.567683979108 234.445840711948 243.661259965753 240.268974680094 238.697932588841 239.78970422018 235.495131927529 237.239756795885 237.104234753102
-9999 -9999 -9999 303.664150516804 293.200448535039 357.29283902095 437.948996516171 416.665787295864 382.233072073723 282.541066527778 264.731002459862 304.158092652659 308.651471410334 303.86324514495 305.388809661191 313.646512204709 339.330864520685 378.035584103819 348.10045273659 326.658304673966 247.159900602312 182.380364638891 235.70808162158 244.549659537763 280.109970195742 317.872138064008 260.967959984346 250.636338896288 269.554729223832 257.706563409918 251.120220482282 248.836595634286 169.239222973722 208.787228450133 249.390991844292
-9999 -9999 261.045627452515 402.169724757854 458.643015166162 441.809645183084 403.304510188227 377.883160856479 311.099528388716 221.870621840911 277.95245249736 314.692964232256 317.246118550205 323.211725034977 337.029617262042 355.992531483081 341.475082176148 371.942962419526 336.005536999949 273.851604696301 239.253125049458 200.372544832528 205.73093591628 246.366011092918 285.613879912868 311.790140201026 291.691338380589 287.865710284467 280.616814509273 258.145911897953 261.669532266121 169.433967975363 46.7449038239207 158.35144875836 244.77779486373
