NCOLS 35 
NROWS 26 
XLLCORNER -80 
YLLCORNER 33 
CELLSIZE 0.5 
NODATA_value -9999 
-9999.000000000000000 -9999 -9999 -9999 -9999 -9999 -9999 -9999 -9999 -9999 -9999 -9999 -9999 -9999 -9999 -9999 -9999 -9999 -9999 -9999 -9999 -9999 -9999 -9999 -9999 -9999 -9999 -9999 -9999 -9999 -9999 -9999 -9999 -9999 -9999
-9999 -9999 -9999 -9999 -9999 -9999 -9999 -9999 -9999 -9999 -9999 -9999 -9999 -9999 -9999 -9999 -9999 -9999 -9999 -9999 -9999 -9999 -9999 -9999 -9999 -9999 -9999 -9999 -9999 208.047534933528 -9999 -9999 -9999 -9999 -9999
-9999 -9999 -9999 -9999 -9999 -9999 -9999 -9999 -9999 -9999 -9999 -9999 -9999 -9999 -9999 -9999 -9999 -9999 -9999 -9999 -9999 -9999 -9999 -9999 -9999 -9999 294.718941449985 202.567122839816 76.1335663648744 61.0076797297082 -9999 -9999 -9999 -9999 -9999
-9999 -9999 -9999 -9999 -9999 -9999 -9999 -9999 -9999 -9999 -9999 -9999 -9999 -9999 -9999 -9999 -9999 -9999 -9999 -9999 -9999 -9999 -9999 140.764697479939 200.270275586313 148.069899453783 126.778297902773 29.9913751451654 -9999 -9999 -9999 87.7734805888855 86.0742413864171 69.3599460721359 63.0068337873607
-9999 -9999 -9999 -9999 -9999 -9999 -9999 -9999 -9999 -9999 -9999 -9999 -9999 -9999 -9999 -9999 -9999 -9999 -9999 -9999 156.533900812269 129.739391868808 138.392188567658 117.054408882367 71.6128991197901 60.6075818966849 62.9393160721677 72.1340060004822 -9999 -9999 78.8350793082392 71.2218696608813 61.3076941798607 57.4198022891685 61.4500620317953
-9999 -9999 -9999 -9999 -9999 -9999 -9999 -9999 -9999 -9999 -9999 -9999 -9999 -9999 -9999 -9999 -9999 -9999 -9999 126.96191700159 118.626640260402 68.8757410063512 64.0525490461636 67.6398809637033 63.0599515976442 65.7793057028061 64.7506933086738 73.8956010978628 72.7344144064641 73.0553055269031 61.8971204162713 62.6379675779814 62.5847100115384 62.6393036975291 71.918647650357
-9999 -9999 -9999 -9999 -9999 -9999 -9999 -9999 -9999 -9999 -9999 -9999 -9999 -9999 -9999 -9999 -9999 -9999 -9999 148.668261527795 76.0957561991907 64.2987051225708 62.9761295687037 61.2831007416572 65.5264016376037 67.9371662328618 67.1921628151613 65.7448123563081 65.1517666776532 64.8105643820816 62.4343528083368 64.3983373328183 66.3553602874334 69.1553875106653 75.5600403528755
-9999 -9999 -9999 -9999 -9999 -9999 -9999 -9999 -9999 -9999 -9999 -9999 -9999 -9999 -9999 -9999 -9999 -9999 -9999 146.66551893654 109.704099616445 66.6219196855841 65.9815509308441 68.3797230836054 77.1625152436956 72.7926606890135 68.0356920494837 64.3792808194411 67.4670432615349 66.6443843295658 65.444772391265 72.4834338350116 87.7524895821896 101.705764812106 97.2773227786689
-9999 -9999 -9999 -9999 -9999 -9999 -9999 -9999 -9999 -9999 -9999 -9999 -9999 -9999 -9999 -9999 -9999 -9999 -9999 37.661085058569 115.206456973654 78.6364529038672 75.7300019448406 90.1661900502557 97.6804313126665 82.872781726718 71.7926485553711 66.6446335086558 67.0510084922023 69.4021612446645 80.0533002188172 101.263442942157 144.373873555241 166.764661604371 169.686697449305
-9999 -9999 -9999 -9999 -9999 -9999 -9999 -9999 -9999 -9999 -9999 -9999 -9999 -9999 -9999 -9999 -9999 164.295599368904 95.1716969144208 73.0337735181323 84.5694150042564 86.101106191976 88.2054619043656 106.079574520509 102.623679366479 97.0576539001624 88.148849520906 76.7233051329886 77.045488201939 80.4732478790732 98.5737550520743 128.01287501133 139.212104729667 141.885346879856 143.945310882685
-9999 -9999 -9999 -9999 -9999 -9999 -9999 -9999 -9999 -9999 -9999 -9999 -9999 -9999 153.636458889471 215.098190998245 123.151032213717 85.2927422133776 82.8608820444279 81.4876270834561 95.4284521954402 94.7038146421806 124.802484109506 106.852710443539 104.808183498566 107.98908248827 124.935222304897 147.430412646705 169.194285669154 172.785747321645 124.345336795368 100.732575544221 136.027597681559 150.554927029826 149.978160487773
-9999 -9999 -9999 -9999 -9999 -9999 -9999 -9999 -9999 -9999 -9999 -9999 404.031466036047 124.633954770093 108.556457891503 95.6357980956742 94.6415797231617 96.9295177350824 90.1785226138493 93.0481549392199 111.593011816321 118.528446826404 136.086264486669 157.663158080333 172.017731867332 174.431283661646 160.971080623845 141.045270201926 137.752290710108 169.509825518247 204.870993721834 145.576271679307 130.86128263391 156.0660760131 144.03292504214
-9999 -9999 -9999 -9999 -9999 -9999 -9999 -9999 -9999 -9999 -9999 -9999 228.364810608245 113.633647465444 103.354991455785 152.846366501237 160.963709074898 138.681537543767 127.181950162989 134.037436289368 163.053968059338 167.628303910937 190.252759527445 235.603508126139 272.92329082942 290.293497166047 285.45706688662 266.869730738994 236.384700909099 213.530800543671 217.128056713273 218.401721698305 142.835701186983 149.651315575764 134.80203598426
-9999 -9999 -9999 -9999 -9999 -9999 -9999 -9999 -9999 9.8577067679137 7.07376216008359 146.508833600404 112.30275494417 112.261021035762 137.232956586668 176.505420073252 172.224746499635 151.55361063571 142.580451188812 120.254265624718 141.089242623237 183.650424412055 255.554810449497 284.206848244279 280.975072204561 251.142108405138 246.814704811473 266.439492696688 286.322693852953 293.167217381416 289.519010418218 286.753617532392 258.165565962691 191.066790516857 171.528632716347
-9999 -9999 -9999 -9999 -9999 -9999 -9999 -9999 -9999 -9999 226.361360909389 139.654979203756 193.660242610253 243.74500478069 209.253257983866 214.833343316106 219.058426571958 200.832196996138 154.252960870763 136.563153521381 179.069759038908 270.602239028379 287.278962532591 258.535967143358 219.395622396452 224.363556916427 224.292789648882 188.226846150497 195.184592816102 236.427323076016 271.707637953111 288.413881764159 302.02872680583 299.265431559994 276.763992505165
-9999 -9999 -9999 -9999 -9999 -9999 -9999 579.922087271148 218.302454632986 -9999 173.812333558156 204.111063579773 212.25917332354 252.498240484745 247.190198655468 227.702827627394 216.823429185937 253.337521376487 227.891841507983 186.858502101018 248.886602667673 280.12675329721 270.434256861112 241.46311529911 233.659440987687 249.465330540886 246.670597908455 211.482172206756 197.037122534985 191.43515123845 211.858632094955 204.710331444568 217.333591202789 254.14786895855 300.472630061058
-9999 -9999 -9999 -9999 -9999 -9999 -9999 37.2121480795031 107.004686538993 131.398036912248 211.456361766962 215.786911681867 244.345325427012 225.620600879872 199.970907563998 168.328669873733 159.070896001968 185.020916076124 229.458422042888 230.513274292989 271.713160062955 268.059417976075 278.756692344451 252.343953944346 243.22381364919 235.424188720849 218.069271532043 201.445910709098 176.049648919788 185.780620484365 192.076728512895 200.932820898742 238.43656145464 276.180187301224 244.513565213308
-9999 -9999 -9999 -9999 -9999 -9999 -9999 197.241893639935 -9999 233.427730152109 219.004229830281 240.941817544355 233.209740961524 206.330426142133 172.438140913771 135.190339817291 128.605547674568 141.827994413039 194.978879583412 239.155729497906 265.397407001094 258.109566810509 277.166154273448 257.874875178341 218.471649938408 216.042263439687 195.625128114701 203.079372014427 179.624186351477 195.230783031505 205.250708152081 214.958516467203 214.399448011737 184.175957312172 157.833884316065
-9999 -9999 -9999 -9999 -9999 -9999 -9999 -9999 179.184871421539 211.362289202083 237.231173413235 251.869813462106 223.769369629425 196.062652380079 139.241894114528 118.983178712397 127.676479531734 133.994876080624 197.163697685463 249.11156631839 246.685999360391 260.843728353386 292.138257593941 294.778573534329 263.273213661542 229.318809242829 200.708792898184 196.555060041389 181.512870853366 180.76807166735 177.928433634358 178.20435719949 174.604687038908 156.054244497051 147.991419461718
-9999 -9999 -9999 -9999 -9999 -9999 -9999 -9999 -9999 318.139805698396 290.525228846309 251.80082356493 220.663462080819 153.898214128741 115.809027064241 119.642512518525 125.475919748561 150.039302510287 227.743836238297 224.999327742629 155.783570556493 135.299920835729 176.8436106225 281.718938834797 309.426613245542 271.635011064135 236.218970553246 190.532492360472 177.376779547047 176.425551665854 166.200003515699 158.201831834128 153.756812337258 152.938189175187 150.442739690499
-9999 -9999 -9999 -9999 -9999 -9999 -9999 -9999 -9999 224.366339223991 318.998109501574 255.526099049823 182.984402710815 118.843843405196 114.693151939211 122.324099497486 131.85704359476 176.892676076847 237.967993019688 194.575870669074 142.048932694042 139.137305098445 152.787472160128 180.729116976763 248.633420952211 295.123922977251 258.039496227417 171.793113820158 175.153431375105 155.284706191839 127.406704844963 121.341747085837 122.28681672617 123.149896854486 122.194648484016
-9999 -9999 -9999 -9999 -9999 -9999 -9999 0 85.149526008668 336.968554857517 285.600186099044 188.250131280086 125.262062100217 104.059797565741 122.230225446823 131.101672961667 154.088511968625 212.142513141443 247.375714370272 226.550276133763 207.110811335232 212.491285118244 210.495815076159 212.454701899508 228.671906924359 233.968243361339 269.236769515799 186.054863146039 133.208137681492 90.5156767582607 88.2706101658388 95.492521275556 79.4507524806848 70.2486300222531 71.471394886486
-9999 -9999 -9999 -9999 -9999 -9999 88.9496546692928 181.080823149003 307.498628562207 250.655843680605 172.551724920742 112.123522516827 90.2948982863924 105.546153744158 151.282543781626 173.645196409321 187.786692966971 207.982726950189 204.012786704367 187.852850792535 162.717376642118 118.714576004942 93.9750231205054 89.1890014495665 95.5441436944486 114.724167510644 170.437679527915 200.959832137054 100.689876550851 74.5303361695617 86.0737174873629 104.668451289751 90.1738234878027 73.0511480383082 69.1484309966004
-9999 -9999 -9999 -9999 228.375843509204 246.454205761375 226.515612549834 223.77817118368 219.233107469753 162.287058997418 97.2786823305011 76.7162157724331 87.6399879816466 125.37355017037 174.716377197332 154.65697372347 149.32328109486 135.694778483964 129.516199828181 122.718247281614 95.664721811599 82.5134051521979 77.8065485674061 77.6167928860263 81.4798205154502 92.1721925266951 134.268195955274 197.320941511935 120.847334341535 88.5802538792936 102.315199580666 117.014888769201 103.02531384756 74.6026089137252 69.4041062992813
-9999 -9999 -9999 280.990089724614 267.579706105558 247.636775373627 217.979073150873 189.070422314315 151.611963404785 92.3654348586524 68.5066057013647 72.5404019937842 93.9308666806944 127.480960501029 157.50845968205 147.110333899033 150.298251855627 102.142674711994 106.100951340429 98.3769618901835 93.7399967364268 82.2876830593218 77.809382646248 77.9084316941049 83.5739463401886 103.424544762487 139.390682096919 168.861155522936 160.33503993111 145.157930351969 136.084469915001 128.288749837003 107.796306580117 71.6169832026722 69.6460913344071
-9999 -9999 234.047957014252 240.112197888814 211.125761114931 202.27109650393 182.507082164269 153.979070823848 94.1109356056997 65.7717849241323 60.403813953258 72.5637061575983 96.8115165373883 129.927340804272 157.824714747096 154.628807979405 124.615650911284 89.8949308635948 82.3943643054401 88.3605828127638 98.110297692098 94.3486126701706 94.4655000505944 100.034560641662 112.4610688668 123.517989909452 113.42971112517 105.261956110398 100.513639910429 98.8487137250459 97.0973781611508 103.051018070168 90.4909205306648 63.979647304647 67.1385874029437
