NCOLS 70 
NROWS 52 
XLLCORNER -80 
YLLCORNER 33 
CELLSIZE 0.25 
NODATA_value -9999 
-9999.000000000000000 -9999 -9999 -9999 -9999 -9999 -9999 -9999 -9999 -9999 -9999 -9999 -9999 -9999 -9999 -9999 -9999 -9999 -9999 -9999 -9999 -9999 -9999 -9999 -9999 -9999 -9999 -9999 -9999 -9999 -9999 -9999 -9999 -9999 -9999 -9999 -9999 -9999 -9999 -9999 -9999 -9999 -9999 -9999 -9999 -9999 -9999 -9999 -9999 -9999 -9999 -9999 -9999 -9999 -9999 -9999 -9999 -9999 -9999 -9999 -9999 -9999 -9999 -9999 -9999 -9999 -9999 -9999 -9999 -9999
-9999 -9999 -9999 -9999 -9999 -9999 -9999 -9999 -9999 -9999 -9999 -9999 -9999 -9999 -9999 -9999 -9999 -9999 -9999 -9999 -9999 -9999 -9999 -9999 -9999 -9999 -9999 -9999 -9999 -9999 -9999 -9999 -9999 -9999 -9999 -9999 -9999 -9999 -9999 -9999 -9999 -9999 -9999 -9999 -9999 -9999 -9999 -9999 -9999 -9999 -9999 -9999 -9999 -9999 -9999 -9999 -9999 -9999 -9999 -9999 -9999 -9999 -9999 -9999 -9999 -9999 -9999 -9999 -9999 -9999
-9999 -9999 -9999 -9999 -9999 -9999 -9999 -9999 -9999 -9999 -9999 -9999 -9999 -9999 -9999 -9999 -9999 -9999 -9999 -9999 -9999 -9999 -9999 -9999 -9999 -9999 -9999 -9999 -9999 -9999 -9999 -9999 -9999 -9999 -9999 -9999 -9999 -9999 -9999 -9999 -9999 -9999 -9999 -9999 -9999 -9999 -9999 -9999 -9999 -9999 -9999 -9999 -9999 -9999 -9999 -9999 -9999 -9999 -9999 10.6032705307007 -9999 -9999 -9999 -9999 -9999 -9999 -9999 -9999 -9999 -9999
-9999 -9999 -9999 -9999 -9999 -9999 -9999 -9999 -9999 -9999 -9999 -9999 -9999 -9999 -9999 -9999 -9999 -9999 -9999 -9999 -9999 -9999 -9999 -9999 -9999 -9999 -9999 -9999 -9999 -9999 -9999 -9999 -9999 -9999 -9999 -9999 -9999 -9999 -9999 -9999 -9999 -9999 -9999 -9999 -9999 -9999 -9999 -9999 -9999 -9999 -9999 -9999 -9999 -9999 -9999 9.83950519561768 9.79172134399414 9.95354652404785 10.0238265991211 10.0114507675171 -9999 -9999 -9999 -9999 -9999 -9999 -9999 -9999 -9999 -9999
-9999 -9999 -9999 -9999 -9999 -9999 -9999 -9999 -9999 -9999 -9999 -9999 -9999 -9999 -9999 -9999 -9999 -9999 -9999 -9999 -9999 -9999 -9999 -9999 -9999 -9999 -9999 -9999 -9999 -9999 -9999 -9999 -9999 -9999 -9999 -9999 -9999 -9999 -9999 -9999 -9999 -9999 -9999 -9999 -9999 -9999 -9999 -9999 -9999 -9999 -9999 -9999 9.8298921585083 9.82234001159668 9.6683406829834 9.35899066925049 9.22153091430664 9.54130840301514 -9999 -9999 -9999 -9999 -9999 -9999 -9999 -9999 -9999 -9999 -9999 -9999
-9999 -9999 -9999 -9999 -9999 -9999 -9999 -9999 -9999 -9999 -9999 -9999 -9999 -9999 -9999 -9999 -9999 -9999 -9999 -9999 -9999 -9999 -9999 -9999 -9999 -9999 -9999 -9999 -9999 -9999 -9999 -9999 -9999 -9999 -9999 -9999 -9999 -9999 -9999 -9999 -9999 -9999 -9999 -9999 -9999 -9999 -9999 -9999 -9999 -9999 9.20916614532471 8.79519748687744 8.93006896972656 9.03359889984131 9.21408367156982 9.60155200958252 -9999 -9999 -9999 -9999 -9999 -9999 -9999 -9999 -9999 -9999 -9999 9.5536142985026 9.66412162780762 9.69678592681885
-9999 -9999 -9999 -9999 -9999 -9999 -9999 -9999 -9999 -9999 -9999 -9999 -9999 -9999 -9999 -9999 -9999 -9999 -9999 -9999 -9999 -9999 -9999 -9999 -9999 -9999 -9999 -9999 -9999 -9999 -9999 -9999 -9999 -9999 -9999 -9999 -9999 -9999 -9999 -9999 -9999 -9999 -9999 -9999 13.5311015446981 -9999 -9999 11.1179344654083 9.88586044311523 9.56282329559326 9.18707275390625 8.79944324493408 8.80419254302979 9.07015132904053 9.6991138458252 -9999 -9999 -9999 -9999 -9999 -9999 -9999 -9999 9.91795444488525 9.65529823303223 9.5294132232666 9.48765659332275 9.52009963989258 9.65308666229248 9.78651428222656
-9999 -9999 -9999 -9999 -9999 -9999 -9999 -9999 -9999 -9999 -9999 -9999 -9999 -9999 -9999 -9999 -9999 -9999 -9999 -9999 -9999 -9999 -9999 -9999 -9999 -9999 -9999 -9999 -9999 -9999 -9999 -9999 -9999 -9999 -9999 -9999 -9999 -9999 -9999 -9999 -9999 -9999 -9999 -9999 13.6208066940308 13.2352266311646 12.4616165161133 11.4835939407349 10.6406669616699 10.152024269104 9.94125080108643 9.73866939544678 9.53722190856934 9.46303081512451 9.49051523208618 -9999 -9999 -9999 -9999 -9999 -9999 -9999 10.0063180923462 9.8173942565918 9.64188861846924 9.52058219909668 9.4002103805542 9.4390811920166 9.66856479644775 9.86256790161133
-9999 -9999 -9999 -9999 -9999 -9999 -9999 -9999 -9999 -9999 -9999 -9999 -9999 -9999 -9999 -9999 -9999 -9999 -9999 -9999 -9999 -9999 -9999 -9999 -9999 -9999 -9999 -9999 -9999 -9999 -9999 -9999 -9999 -9999 -9999 -9999 -9999 -9999 -9999 -9999 13.1310173670451 12.7820240656535 12.5133201599121 11.9554243087769 11.8835248947144 11.6870441436768 11.436315536499 11.1305027008057 10.8028259277344 10.5051736831665 10.2652235031128 10.1398277282715 9.98674392700195 9.72976493835449 9.42928676605225 -9999 -9999 -9999 -9999 -9999 8.97812747955322 9.31065464019775 9.76735305786133 10.1070775985718 10.0747537612915 9.76157093048096 9.48853588104248 9.53913497924805 9.88737487792969 10.1434087753296
-9999 -9999 -9999 -9999 -9999 -9999 -9999 -9999 -9999 -9999 -9999 -9999 -9999 -9999 -9999 -9999 -9999 -9999 -9999 -9999 -9999 -9999 -9999 -9999 -9999 -9999 -9999 -9999 -9999 -9999 -9999 -9999 -9999 -9999 -9999 -9999 -9999 -9999 -9999 13.3030090332031 13.2292976379395 12.8607454299927 12.2560291290283 11.7571306228638 11.4328165054321 11.2222671508789 11.1134977340698 11.0177974700928 10.843976020813 10.5892324447632 10.3301725387573 10.1758499145508 10.0167865753174 9.68936729431152 9.20174694061279 9.06252384185791 -9999 -9999 -9999 9.23798799514771 8.71477699279785 8.90895080566406 9.63144683837891 10.2087478637695 10.3085289001465 10.0368509292603 9.75919437408447 9.78697872161865 10.1937952041626 10.5685529708862
-9999 -9999 -9999 -9999 -9999 -9999 -9999 -9999 -9999 -9999 -9999 -9999 -9999 -9999 -9999 -9999 -9999 -9999 -9999 -9999 -9999 -9999 -9999 -9999 -9999 -9999 -9999 -9999 -9999 -9999 -9999 -9999 -9999 -9999 -9999 -9999 -9999 -9999 12.9915225982666 12.9091491699219 12.8082609176636 12.5988111495972 12.2085218429565 11.693305015564 11.2966232299805 11.1295852661133 11.0896530151367 11.0126934051514 10.855188369751 10.625828742981 10.3325500488281 10.0958442687988 9.91394519805908 9.60591125488281 9.19955539703369 9.02814865112305 9.24662590026855 9.40184831619263 9.73613929748535 9.37394714355469 9.12708854675293 9.39985847473145 9.94032764434814 10.3430948257446 10.4461879730225 10.2989301681519 10.121485710144 10.2595806121826 10.7052431106567 10.936897277832
-9999 -9999 -9999 -9999 -9999 -9999 -9999 -9999 -9999 -9999 -9999 -9999 -9999 -9999 -9999 -9999 -9999 -9999 -9999 -9999 -9999 -9999 -9999 -9999 -9999 -9999 -9999 -9999 -9999 -9999 -9999 -9999 -9999 -9999 -9999 -9999 -9999 12.8361024856567 12.9143486022949 12.9950037002563 12.8866662979126 12.5663061141968 12.0695934295654 11.5424833297729 11.2293214797974 11.1724672317505 11.1756172180176 11.0990657806396 10.9955615997314 10.8353996276855 10.5106153488159 10.1477136611938 9.89456844329834 9.59246349334717 9.18151473999023 8.99920654296875 9.17490768432617 9.40539646148682 9.46320629119873 9.49970436096191 9.77850532531738 10.2082004547119 10.5172653198242 10.6630086898804 10.6213617324829 10.4895219802856 10.4440841674805 10.7735319137573 11.1504049301147 11.2352132797241
-9999 -9999 -9999 -9999 -9999 -9999 -9999 -9999 -9999 -9999 -9999 -9999 -9999 -9999 -9999 -9999 -9999 -9999 -9999 -9999 -9999 -9999 -9999 -9999 -9999 -9999 -9999 -9999 -9999 -9999 -9999 -9999 -9999 -9999 -9999 -9999 -9999 12.9059085845947 13.0095291137695 13.0851745605469 12.9745950698853 12.687816619873 12.2401065826416 11.7740564346313 11.5026912689209 11.463189125061 11.4418249130249 11.3297481536865 11.1876525878906 11.012900352478 10.7069501876831 10.3199710845947 10.0106725692749 9.69903945922852 9.40944385528564 9.50287246704102 9.69503211975098 9.79444599151611 9.919264793396 10.0912103652954 10.3703756332397 10.5571146011353 10.5806636810303 10.6055841445923 10.6435518264771 10.7333536148071 10.9450092315674 11.2977905273438 11.4933500289917 11.6377201080322
-9999 -9999 -9999 -9999 -9999 -9999 -9999 -9999 -9999 -9999 -9999 -9999 -9999 -9999 -9999 -9999 -9999 -9999 -9999 -9999 -9999 -9999 -9999 -9999 -9999 -9999 -9999 -9999 -9999 -9999 -9999 -9999 -9999 -9999 -9999 -9999 -9999 13.6861028671265 13.5229635238647 13.4020147323608 13.2579011917114 13.0502195358276 12.6638679504395 12.1911687850952 11.9081211090088 11.8362646102905 11.7218589782715 11.4830417633057 11.2073907852173 10.9268884658813 10.6568307876587 10.3733539581299 10.1104745864868 9.86305809020996 9.84562015533447 10.0774974822998 10.0812673568726 9.88672351837158 10.1663494110107 10.2903566360474 10.5324535369873 10.7854290008545 10.8906011581421 10.8180990219116 10.9000473022461 11.0812835693359 11.3356466293335 11.5721206665039 11.8883237838745 12.0644311904907
-9999 -9999 -9999 -9999 -9999 -9999 -9999 -9999 -9999 -9999 -9999 -9999 -9999 -9999 -9999 -9999 -9999 -9999 -9999 -9999 -9999 -9999 -9999 -9999 -9999 -9999 -9999 -9999 -9999 -9999 -9999 -9999 -9999 -9999 -9999 -9999 14.2135334014893 14.0579347610474 13.8608140945435 13.6797494888306 13.4771680831909 13.2266550064087 12.9315357208252 12.5618839263916 12.2893867492676 12.1667022705078 11.9739198684692 11.6458158493042 11.3334302902222 11.032416343689 10.7624835968018 10.475531578064 10.2443790435791 10.1543521881104 10.3803958892822 10.4954299926758 10.187539100647 9.77148818969727 10.306131362915 10.3907442092896 10.8593635559082 11.4540634155273 11.586630821228 11.3126039505005 11.4028644561768 11.6743383407593 11.7033319473267 11.6234760284424 12.3624830245972 12.8445014953613
-9999 -9999 -9999 -9999 -9999 -9999 -9999 -9999 -9999 -9999 -9999 -9999 -9999 -9999 -9999 -9999 -9999 -9999 -9999 -9999 -9999 -9999 -9999 -9999 -9999 -9999 -9999 -9999 -9999 -9999 -9999 -9999 -9999 -9999 -9999 -9999 -9999 14.3443822860718 14.2068586349487 14.0164060592651 13.7093372344971 13.2889795303345 13.0816116333008 12.8561248779297 12.6190958023071 12.4796772003174 12.281289100647 11.9686031341553 11.698691368103 11.4234352111816 11.1529693603516 10.8502502441406 10.6538677215576 10.5953855514526 10.8800344467163 10.6902532577515 10.6986474990845 10.9336071014404 11.3840789794922 11.653491973877 11.9761724472046 12.4246025085449 12.4725666046143 12.171706199646 12.4598083496094 12.6514806747437 12.5418891906738 12.1048746109009 12.8502187728882 13.4852457046509
-9999 -9999 -9999 -9999 -9999 -9999 -9999 -9999 -9999 -9999 -9999 -9999 -9999 -9999 -9999 -9999 -9999 -9999 -9999 -9999 -9999 -9999 -9999 -9999 -9999 -9999 -9999 -9999 -9999 -9999 -9999 -9999 -9999 -9999 -9999 -9999 -9999 -9999 14.6493644714355 -9999 13.8598222732544 13.3825302124023 13.2691440582275 13.0623235702515 12.7912216186523 12.5836391448975 12.3826217651367 12.120924949646 11.901948928833 11.6459760665894 11.5028953552246 11.3553714752197 11.2202606201172 11.0024948120117 11.2269401550293 10.6529541015625 11.1800765991211 11.8033819198608 12.2651023864746 12.5732793807983 12.8177461624146 13.0260858535767 13.0325002670288 12.8222761154175 13.1184558868408 13.2728805541992 13.6541891098022 13.511643409729 13.5740013122559 13.9483165740967
-9999 -9999 -9999 -9999 -9999 -9999 -9999 -9999 -9999 -9999 -9999 -9999 -9999 -9999 -9999 -9999 -9999 -9999 -9999 -9999 -9999 -9999 -9999 -9999 -9999 -9999 -9999 -9999 -9999 -9999 -9999 -9999 -9999 -9999 -9999 -9999 -9999 -9999 -9999 -9999 13.6972942352295 13.4965829849243 13.3895473480225 13.0946941375732 12.7719078063965 12.5370273590088 12.3892230987549 12.2761650085449 12.2446384429932 12.0214290618896 11.953932762146 11.8315963745117 11.619213104248 11.350193977356 11.1749858856201 11.0278282165527 11.5284128189087 12.0907411575317 12.5649042129517 13.0255422592163 13.281886100769 13.3839635848999 13.3686208724976 13.1661128997803 13.2953319549561 13.678786277771 14.3932037353516 14.7712688446045 14.6079978942871 14.6255521774292
-9999 -9999 -9999 -9999 -9999 -9999 -9999 -9999 -9999 -9999 -9999 -9999 -9999 -9999 -9999 -9999 -9999 -9999 -9999 -9999 -9999 -9999 -9999 -9999 -9999 -9999 -9999 -9999 -9999 -9999 -9999 -9999 -9999 -9999 15.2250180244446 15.0685224533081 14.922532081604 -9999 14.6025581359863 14.4023017883301 13.9264163970947 13.5144233703613 13.26047706604 12.9672813415527 12.6923017501831 12.5702466964722 12.5382223129272 12.5432233810425 12.5385274887085 12.4079256057739 12.2319164276123 11.9513626098633 11.4716930389404 11.1478853225708 11.0988597869873 11.8660984039307 12.4494342803955 12.8388814926147 13.2560205459595 13.8064107894897 14.0665941238403 14.0738906860352 14.0856466293335 14.272985458374 14.5029172897339 15.175181388855 15.8960599899292 16.3284645080566 16.1223335266113 15.9683485031128
-9999 -9999 -9999 -9999 -9999 -9999 -9999 -9999 -9999 -9999 -9999 -9999 -9999 -9999 -9999 -9999 -9999 -9999 -9999 -9999 -9999 -9999 -9999 -9999 -9999 -9999 -9999 17.4267520904541 17.4267520904541 17.2942123413086 17.0663223266602 16.383617401123 15.6208143234253 15.412935256958 15.3590755462646 15.0595388412476 14.6762056350708 14.4220151901245 14.3064222335815 14.2272176742554 13.76695728302 13.0453758239746 12.7433214187622 12.6681604385376 12.5692405700684 12.549674987793 12.5865621566772 12.6543884277344 12.6736764907837 12.5581769943237 12.2663974761963 11.7876691818237 11.3198471069336 11.6977300643921 12.475772857666 13.4288215637207 13.903902053833 14.13720703125 14.5134830474854 15.031626701355 15.1242170333862 15.0089111328125 15.1588449478149 15.8680324554443 16.5700550079346 16.9321594238281 17.4182643890381 17.9849948883057 18.0994491577148 17.9647083282471
-9999 -9999 -9999 -9999 -9999 -9999 -9999 -9999 -9999 -9999 -9999 -9999 -9999 -9999 -9999 -9999 -9999 -9999 -9999 -9999 -9999 -9999 -9999 -9999 -9999 -9999 -9999 -9999 -9999 -9999 16.7844047546387 16.14404296875 15.386570930481 15.1912450790405 15.1772480010986 14.9183740615845 14.5473880767822 14.2562923431396 14.0834970474243 13.9270687103271 13.4536266326904 12.668436050415 12.4163608551025 12.488823890686 12.4628343582153 12.452808380127 12.491997718811 12.5850276947021 12.6102886199951 12.5482835769653 12.3451166152954 12.0200099945068 12.1959772109985 13.182258605957 14.2281579971313 15.0097494125366 15.4384565353394 15.5963716506958 15.950629234314 16.3591251373291 16.3229084014893 16.1345386505127 16.56640625 17.4506969451904 18.2678852081299 18.4510097503662 18.724422454834 19.1099662780762 19.3716678619385 19.3963356018066
-9999 -9999 -9999 -9999 -9999 -9999 -9999 -9999 -9999 -9999 -9999 -9999 -9999 -9999 -9999 -9999 -9999 -9999 -9999 -9999 -9999 -9999 -9999 -9999 -9999 17.4945907592773 17.3645013173421 17.1793193817139 16.8866171836853 16.6004123687744 16.2204627990723 15.9118604660034 15.6706495285034 15.3924617767334 15.1765232086182 14.9141111373901 14.6370849609375 14.3896150588989 14.1383333206177 13.8722400665283 13.4646987915039 12.9802808761597 12.6716575622559 12.4956102371216 12.3794860839844 12.3948316574097 12.4649934768677 12.5776433944702 12.7469053268433 12.8554878234863 13.0983982086182 13.4327583312988 13.9351224899292 14.5211381912231 15.127215385437 15.8514404296875 16.431583404541 16.7761402130127 17.2610378265381 17.6663551330566 17.7245845794678 17.744665145874 18.2737102508545 19.0729198455811 19.8294658660889 20.3597259521484 20.6203422546387 20.6771011352539 20.7646579742432 20.7497806549072
-9999 -9999 -9999 -9999 -9999 -9999 -9999 -9999 -9999 -9999 -9999 -9999 -9999 -9999 -9999 -9999 -9999 -9999 -9999 -9999 -9999 -9999 -9999 -9999 17.5438003540039 17.5420989990234 17.3978729248047 17.1535320281982 16.9865531921387 16.8059711456299 16.4413108825684 16.0791034698486 15.7739486694336 15.4826955795288 15.2756118774414 15.1438646316528 15.0364618301392 14.8619432449341 14.5417776107788 14.1393985748291 13.6596727371216 13.213493347168 12.9587478637695 12.8531351089478 12.9408292770386 13.2474002838135 13.3961315155029 13.39404296875 13.6639528274536 13.8678617477417 14.2745637893677 14.9447059631348 15.5780296325684 15.9542932510376 16.28733253479 16.8414096832275 17.4317893981934 17.8587875366211 18.3948268890381 18.9293518066406 19.2799243927002 19.5494213104248 19.9075412750244 20.3180770874023 20.9048271179199 21.5845909118652 21.9385929107666 21.9119091033936 21.8217926025391 21.7248306274414
-9999 -9999 -9999 -9999 -9999 -9999 -9999 -9999 -9999 -9999 -9999 -9999 -9999 -9999 -9999 -9999 -9999 -9999 -9999 -9999 -9999 -9999 -9999 -9999 17.5871257781982 17.6589546203613 17.5589389801025 17.2924365997314 16.980619430542 16.613676071167 16.2058753967285 15.922290802002 15.7486381530762 15.6579895019531 15.6667833328247 15.7462072372437 15.8129272460938 15.7454347610474 15.4001092910767 14.8340663909912 14.2709465026855 13.8911991119385 13.8290119171143 14.1586198806763 14.76296043396 15.328405380249 15.4848728179932 15.2415132522583 15.145112991333 15.1058235168457 15.2545413970947 15.9431819915771 16.7562065124512 17.2249622344971 17.5519924163818 17.9771995544434 18.4880180358887 18.9014339447021 19.4747314453125 20.1590824127197 20.6723556518555 20.9920406341553 21.2050704956055 21.369607925415 21.727409362793 22.1658840179443 22.4307975769043 22.4964447021484 22.3700847625732 22.2005405426025
-9999 -9999 -9999 -9999 -9999 -9999 -9999 -9999 -9999 -9999 -9999 -9999 -9999 -9999 -9999 -9999 -9999 -9999 -9999 -9999 -9999 -9999 -9999 17.6174221038818 17.5986957550049 17.661304473877 17.5405654907227 17.2583923339844 16.8899116516113 16.4479675292969 16.0887393951416 15.9918766021729 16.1221504211426 16.3762092590332 16.634485244751 16.8233470916748 16.9395275115967 17.0035228729248 16.7958812713623 16.1703853607178 15.515209197998 15.0647459030151 15.04527759552 15.6975650787354 16.5412998199463 16.9871635437012 17.0091400146484 16.62575340271 16.2106895446777 15.9401092529297 16.061466217041 16.6892280578613 17.3613414764404 17.8019943237305 18.112548828125 18.4153614044189 18.7913227081299 19.2002735137939 20.0234832763672 20.919563293457 21.5011215209961 21.8346748352051 22.0332679748535 22.2180061340332 22.4038524627686 22.565601348877 22.6812000274658 22.744722366333 22.6980800628662 22.5492248535156
-9999 -9999 -9999 -9999 -9999 -9999 -9999 -9999 -9999 -9999 -9999 -9999 -9999 -9999 -9999 -9999 -9999 -9999 -9999 -9999 -9999 -9999 -9999 17.6597919464111 17.6240749359131 17.6727466583252 17.5551242828369 17.2659358978271 16.8673095703125 16.4454727172852 16.2250881195068 16.3675880432129 16.8138008117676 17.3492965698242 17.7583503723145 18.035005569458 18.2216644287109 18.3975048065186 18.4032382965088 18.0006313323975 17.3674793243408 16.6971321105957 16.3603210449219 16.7312660217285 17.3906192779541 17.6945285797119 17.5674171447754 17.0537872314453 16.5374240875244 16.3456230163574 16.5546779632568 16.9384860992432 17.3488025665283 17.6927375793457 17.9334392547607 18.1208839416504 18.2453632354736 18.8161087036133 20.1922359466553 21.5095272064209 22.206449508667 22.4711170196533 22.6225986480713 22.8098106384277 23.025426864624 23.1541652679443 23.2050113677979 23.1763401031494 23.1142520904541 23.0011348724365
-9999 -9999 -9999 -9999 -9999 -9999 -9999 -9999 -9999 -9999 -9999 -9999 -9999 -9999 -9999 -9999 -9999 -9999 -9999 -9999 -9999 -9999 18.2716217041016 17.9065628051758 17.7779026031494 17.7089614868164 17.5032062530518 17.2120666503906 16.9748001098633 16.8521270751953 16.9096298217773 17.2088775634766 17.6635074615479 18.1151905059814 18.5236949920654 18.9161376953125 19.1973972320557 19.4341926574707 19.5710849761963 19.4080390930176 18.9268074035645 18.2875823974609 17.7944259643555 17.6201839447021 17.7865962982178 18.0551452636719 17.9487247467041 17.4397068023682 16.9810771942139 16.8812236785889 17.0528736114502 17.2795600891113 17.6470508575439 18.1121063232422 18.470365524292 18.6095848083496 18.6838703155518 19.4616565704346 21.0015354156494 22.3184623718262 22.8928661346436 22.9975299835205 23.1000537872314 23.2977485656738 23.494104385376 23.612642288208 23.6681365966797 23.6616706848145 23.6123561859131 23.5006275177002
-9999 -9999 -9999 -9999 -9999 -9999 -9999 -9999 -9999 -9999 -9999 -9999 -9999 -9999 22.0385767618815 -9999 -9999 -9999 -9999 19.8943500518799 -9999 18.8135395050049 18.4576282501221 18.1388549804688 17.9519119262695 17.7604675292969 17.5207176208496 17.4148368835449 17.5482864379883 17.6853675842285 17.8234386444092 18.1580867767334 18.5782852172852 18.773416519165 18.9682731628418 19.3651809692383 19.6827297210693 19.9115772247314 20.1368255615234 20.0673408508301 19.6174964904785 19.1626567840576 19.007381439209 18.7637825012207 18.5024013519287 18.6445407867432 18.5591201782227 18.1331157684326 17.9296569824219 18.0506916046143 18.2881488800049 18.4701595306396 18.8875637054443 19.4124183654785 19.7731971740723 19.9973011016846 20.1791553497314 20.8559684753418 22.0977878570557 23.0894317626953 23.4141254425049 23.4345474243164 23.5442657470703 23.6750926971436 23.740140914917 23.7932548522949 23.8495635986328 23.8711853027344 23.8684272766113 23.8297290802002
-9999 -9999 -9999 -9999 -9999 -9999 -9999 -9999 -9999 -9999 -9999 -9999 -9999 -9999 22.048583984375 -9999 -9999 -9999 -9999 19.6662015914917 19.0831733703613 18.6458873748779 18.4272613525391 18.2676849365234 18.0888252258301 17.9426689147949 17.9497509002686 18.2173633575439 18.5177974700928 18.5462665557861 18.5201015472412 18.732120513916 19.1233596801758 19.3071193695068 19.3443145751953 19.5855731964111 19.8600807189941 20.0891971588135 20.4315395355225 20.5100708007812 20.1256790161133 19.7365093231201 19.6833534240723 19.5246429443359 19.3014965057373 19.5334625244141 19.6949977874756 19.566743850708 19.6615772247314 19.9572315216064 20.0706596374512 20.0630855560303 20.3755283355713 20.7385730743408 20.8957061767578 21.0981254577637 21.2912864685059 21.7753276824951 22.6887168884277 23.4347801208496 23.6915721893311 23.7414627075195 23.8353900909424 23.892786026001 23.890754699707 23.9045734405518 23.9374179840088 23.9514102935791 23.9551792144775 23.9671173095703
-9999 -9999 -9999 -9999 -9999 -9999 -9999 -9999 -9999 -9999 -9999 -9999 -9999 -9999 22.0035514831543 -9999 -9999 -9999 -9999 -9999 18.9472379684448 18.6240367889404 18.4855003356934 18.3756771087646 18.2341938018799 18.171215057373 18.4046249389648 18.9579334259033 19.3395519256592 19.2934188842773 19.1643772125244 19.1433086395264 19.2587966918945 19.4744186401367 19.6995258331299 20.0095844268799 20.3091335296631 20.5470943450928 20.8438282012939 20.9647884368896 20.7299385070801 20.5103664398193 20.6074542999268 20.5832347869873 20.4475498199463 20.6601009368896 20.9129009246826 20.9556102752686 21.0835132598877 21.2862739562988 21.2862567901611 21.1655883789062 21.2323513031006 21.35768699646 21.3983097076416 21.5029830932617 21.6825466156006 22.1102657318115 22.8642253875732 23.4999485015869 23.8031444549561 23.9366989135742 23.977294921875 23.983528137207 23.9888000488281 24.0076923370361 24.0217609405518 24.0241241455078 24.0175704956055 24.0265960693359
-9999 -9999 -9999 -9999 -9999 -9999 -9999 -9999 -9999 -9999 -9999 -9999 -9999 -9999 22.0019798278809 -9999 22.1836814880371 -9999 -9999 -9999 19.4839305877686 19.0350971221924 18.7312908172607 18.4779148101807 18.323902130127 18.3515949249268 18.6431179046631 19.2231788635254 19.7291717529297 19.9137401580811 20.0396118164062 20.032247543335 19.8518657684326 19.7914371490479 19.9469394683838 20.2323017120361 20.5283050537109 20.7916851043701 21.0281219482422 21.2039966583252 21.1863288879395 21.2730617523193 21.7290134429932 21.9381103515625 21.814058303833 21.9023246765137 22.1068592071533 22.1780776977539 22.2345752716064 22.3267974853516 22.3798694610596 22.356466293335 22.348352432251 22.3356266021729 22.2366409301758 22.1485004425049 22.147216796875 22.3180198669434 22.8768920898438 23.4720516204834 23.8295516967773 24.0549087524414 24.0964908599854 24.0656051635742 24.0885639190674 24.1240558624268 24.1150932312012 24.076753616333 24.0364475250244 24.0055637359619
-9999 -9999 -9999 -9999 -9999 -9999 -9999 -9999 -9999 -9999 -9999 -9999 -9999 -9999 22.0019798278809 22.0004081726074 22.1813278198242 -9999 -9999 19.7878527641296 19.736141204834 19.3658123016357 18.9946517944336 18.7315673828125 18.5737838745117 18.5942363739014 18.8446674346924 19.3932495117188 20.0011425018311 20.4032897949219 20.7901191711426 20.9529285430908 20.8196277618408 20.7155532836914 20.8016510009766 21.0242862701416 21.2173690795898 21.3358898162842 21.5139141082764 21.7493381500244 21.7473621368408 21.8923397064209 22.4780464172363 22.8407821655273 22.8805713653564 23.0255508422852 23.2255363464355 23.3224086761475 23.3538475036621 23.3774433135986 23.4089012145996 23.4281311035156 23.4497528076172 23.4359855651855 23.3302536010742 23.1416664123535 23.0007553100586 22.9336776733398 23.134204864502 23.5451259613037 23.8830623626709 24.1478996276855 24.228214263916 24.2024154663086 24.2385139465332 24.2526912689209 24.2084407806396 24.1214160919189 24.031436920166 23.9634075164795
-9999 -9999 -9999 -9999 -9999 -9999 -9999 -9999 -9999 -9999 -9999 -9999 -9999 -9999 -9999 21.9542568206787 22.1466255187988 -9999 20.6164984703064 20.0597248077393 19.8716144561768 19.5851306915283 19.3670539855957 19.203182220459 18.9377365112305 18.8074035644531 19.0805931091309 19.7188549041748 20.3229103088379 20.7221965789795 21.1596603393555 21.4179840087891 21.4840755462646 21.5736598968506 21.7376556396484 21.9394817352295 22.0789222717285 22.1558704376221 22.2810821533203 22.4402313232422 22.4277515411377 22.4633712768555 22.8385219573975 23.307071685791 23.6346282958984 23.8528213500977 23.9973526000977 24.0572834014893 24.0685214996338 24.0542411804199 24.0268402099609 23.9924335479736 23.9815731048584 23.9896697998047 23.9570465087891 23.8407764434814 23.6850624084473 23.5863094329834 23.6060562133789 23.7965641021729 23.9739894866943 24.1692237854004 24.2681732177734 24.3029594421387 24.3922157287598 24.376916885376 24.2907047271729 24.2090244293213 24.139497756958 24.0916328430176
-9999 -9999 -9999 -9999 -9999 -9999 -9999 -9999 -9999 -9999 -9999 -9999 -9999 -9999 -9999 21.8299465179443 21.6129760742188 -9999 20.0515270233154 20.057933807373 19.9304904937744 19.724515914917 19.616418838501 19.4158000946045 19.068510055542 18.9218807220459 19.329345703125 20.1624431610107 20.822301864624 21.1531162261963 21.477912902832 21.7663288116455 21.9685859680176 22.0783405303955 22.1094512939453 22.113941192627 22.1757335662842 22.3533782958984 22.5342922210693 22.6579055786133 22.7120094299316 22.8180923461914 23.1323757171631 23.613826751709 24.0397434234619 24.3065452575684 24.4895877838135 24.5915985107422 24.626916885376 24.5849151611328 24.4885787963867 24.3964214324951 24.3197002410889 24.283712387085 24.2575454711914 24.2357959747314 24.1624145507812 24.0855102539062 24.0550212860107 24.1138916015625 24.1485557556152 24.2123908996582 24.2623748779297 24.3292236328125 24.4372901916504 24.3728084564209 24.2637825012207 24.2681694030762 24.3081855773926 24.3174171447754
-9999 -9999 -9999 -9999 -9999 -9999 -9999 -9999 -9999 -9999 -9999 -9999 -9999 -9999 -9999 21.8362464904785 -9999 21.0661563873291 20.2159786224365 20.1378593444824 19.8665676116943 19.6514492034912 19.6333827972412 19.6054267883301 19.5953235626221 19.8434085845947 20.4157962799072 21.0435981750488 21.5196762084961 21.8639087677002 22.2403812408447 22.6286945343018 22.9475421905518 23.1162242889404 23.1428527832031 23.0822620391846 22.9489555358887 22.8659286499023 22.8869438171387 23.0000686645508 23.1347980499268 23.3197555541992 23.6743927001953 24.1416492462158 24.5593852996826 24.8813362121582 25.0857887268066 25.1209983825684 25.0029296875 24.8172435760498 24.6772212982178 24.5970649719238 24.515697479248 24.4354095458984 24.3873691558838 24.4466953277588 24.5140857696533 24.4969844818115 24.4389305114746 24.4350070953369 24.4072933197021 24.3596115112305 24.3360729217529 24.373987197876 24.4483337402344 24.3740577697754 24.3015880584717 24.3656024932861 24.4529647827148 24.4767646789551
-9999 -9999 -9999 -9999 -9999 -9999 -9999 -9999 -9999 -9999 -9999 -9999 -9999 -9999 21.8362464904785 21.7487106323242 21.8538265228271 21.3744335174561 20.7982940673828 20.4299697875977 19.9614334106445 19.7082958221436 19.9072437286377 20.2352161407471 20.5910987854004 21.259895324707 22.0320339202881 22.5378379821777 23.012243270874 23.4761295318604 23.9492015838623 24.3830013275146 24.6931915283203 24.888599395752 24.9870948791504 24.9877147674561 24.8664817810059 24.6564598083496 24.4177360534668 24.2497615814209 24.2481174468994 24.4287338256836 24.7627792358398 25.1037178039551 25.3600311279297 25.4814147949219 25.3966503143311 25.1234436035156 24.8152809143066 24.6188411712646 24.5324535369873 24.4851875305176 24.4006481170654 24.289249420166 24.21506690979 24.2785472869873 24.4546489715576 24.5666465759277 24.5644512176514 24.5666122436523 24.5513744354248 24.4689197540283 24.3844928741455 24.3652591705322 24.4127922058105 24.3943672180176 24.3924560546875 24.4769821166992 24.5496711730957 24.5602035522461
-9999 -9999 -9999 -9999 -9999 -9999 -9999 -9999 -9999 -9999 -9999 -9999 -9999 -9999 -9999 -9999 21.7265300750732 21.754077911377 21.2282028198242 20.6933326721191 20.1290416717529 19.7538757324219 19.9310073852539 20.4699649810791 21.1883563995361 22.4313907623291 23.5089073181152 24.2286834716797 24.8240528106689 25.2889614105225 25.6324768066406 25.8524188995361 25.9590263366699 26.0041694641113 26.0167922973633 25.9925727844238 25.9302711486816 25.8128814697266 25.6259250640869 25.416015625 25.2979946136475 25.3336124420166 25.4424362182617 25.5230102539062 25.5097274780273 25.309965133667 24.9592590332031 24.6331748962402 24.4395446777344 24.3613395690918 24.3391780853271 24.3026237487793 24.1745357513428 24.0508575439453 23.9985027313232 24.0357570648193 24.204683303833 24.4314460754395 24.5204086303711 24.5572509765625 24.5906276702881 24.5561180114746 24.4470157623291 24.3560256958008 24.3747215270996 24.4149589538574 24.4491806030273 24.5369510650635 24.6075344085693 24.6287231445312
-9999 -9999 -9999 -9999 -9999 -9999 -9999 -9999 -9999 -9999 -9999 -9999 -9999 -9999 -9999 -9999 21.8389301300049 21.9237823486328 21.436351776123 20.8889846801758 20.3343982696533 19.8772144317627 19.9755916595459 20.8933544158936 22.3233642578125 23.9498825073242 25.0242919921875 25.6851196289062 26.1097316741943 26.3030662536621 26.3311004638672 26.2701263427734 26.1900157928467 26.1268138885498 26.086841583252 26.064001083374 26.0502243041992 26.0268936157227 25.9712524414062 25.8710899353027 25.7526798248291 25.6502227783203 25.5432262420654 25.3532581329346 25.063684463501 24.6926555633545 24.3960704803467 24.2486877441406 24.1667633056641 24.0973644256592 24.0918884277344 24.0778732299805 23.9116477966309 23.7775211334229 23.7336616516113 23.7679748535156 23.9533386230469 24.2473106384277 24.4361133575439 24.5121593475342 24.5743846893311 24.6010704040527 24.5700950622559 24.4853134155273 24.4577598571777 24.4326610565186 24.4484424591064 24.51833152771 24.58571434021 24.6248550415039
-9999 -9999 -9999 -9999 -9999 -9999 -9999 -9999 -9999 -9999 -9999 -9999 -9999 -9999 -9999 -9999 -9999 21.9009966850281 21.8143672943115 21.3855495452881 21.3432998657227 21.5469417572021 22.1300468444824 23.369592666626 24.6541519165039 25.6832332611084 26.2752113342285 26.4895439147949 26.4838466644287 26.3667392730713 26.227014541626 26.1151924133301 26.0493659973145 26.0164260864258 25.9818668365479 25.9422035217285 25.9233989715576 25.9245986938477 25.9193363189697 25.860746383667 25.7280254364014 25.5293827056885 25.2376041412354 24.8445835113525 24.433557510376 24.1528472900391 24.0519237518311 24.0034713745117 23.9123344421387 23.7904415130615 23.7519760131836 23.7755336761475 23.6757278442383 23.5544204711914 23.4695434570312 23.4867477416992 23.7059097290039 24.0399150848389 24.3055553436279 24.445499420166 24.5154037475586 24.5355567932129 24.5231266021729 24.4698390960693 24.397741317749 24.3337459564209 24.357666015625 24.4218006134033 24.4691181182861 24.5058536529541
-9999 -9999 -9999 -9999 -9999 -9999 -9999 -9999 -9999 -9999 -9999 -9999 -9999 -9999 21.9025692939758 21.9237823486328 22.094047665596 22.1219263076782 22.4294853210449 22.0873699188232 22.683744430542 23.8414573669434 24.8186702728271 25.7705383300781 26.4355754852295 26.7634906768799 26.8009433746338 26.5881614685059 26.3169994354248 26.1116847991943 25.9673080444336 25.8407230377197 25.8057823181152 25.8358364105225 25.8064804077148 25.7438659667969 25.7136402130127 25.719446182251 25.7218551635742 25.6478328704834 25.4383983612061 25.1002864837646 24.7093620300293 24.3564987182617 24.0866928100586 23.9855480194092 23.9307651519775 23.848804473877 23.7356052398682 23.6270236968994 23.5467853546143 23.562141418457 23.6200141906738 23.5325527191162 23.3804531097412 23.300048828125 23.4694652557373 23.7886619567871 24.0915489196777 24.33571434021 24.4110164642334 24.3779067993164 24.3039569854736 24.2472610473633 24.2453193664551 24.2934455871582 24.3424587249756 24.3668384552002 24.3736877441406 24.34397315979
-9999 -9999 -9999 -9999 -9999 -9999 -9999 -9999 -9999 -9999 -9999 -9999 -9999 -9999 -9999 -9999 -9999 -9999 22.6501703262329 22.6848621368408 23.5245685577393 24.9576625823975 26.1146087646484 26.7837409973145 27.0329570770264 26.9766235351562 26.6535205841064 26.2787647247314 26.0355815887451 25.8101844787598 25.5807552337646 25.4460258483887 25.4808731079102 25.4753379821777 25.3992919921875 25.3612422943115 25.3420372009277 25.3372764587402 25.3286418914795 25.2234020233154 24.9401226043701 24.5517559051514 24.2682037353516 24.1142978668213 24.0296287536621 23.9605159759521 23.8488445281982 23.7810211181641 23.7462406158447 23.6907424926758 23.5630111694336 23.4753818511963 23.5245418548584 23.5130977630615 23.3553028106689 23.2218933105469 23.3597106933594 23.6753826141357 23.9924774169922 24.2157859802246 24.2546405792236 24.2085781097412 24.1793651580811 24.2354106903076 24.2741928100586 24.3060989379883 24.3239402770996 24.3051662445068 24.2584075927734 24.1506385803223
-9999 -9999 -9999 -9999 -9999 -9999 -9999 -9999 -9999 -9999 -9999 -9999 -9999 -9999 -9999 -9999 -9999 24.8459911346436 23.9362707138062 23.3989639282227 24.5273818969727 26.0905532836914 26.9851989746094 27.2030544281006 27.0645904541016 26.6868629455566 26.2774982452393 26.0444316864014 25.8362808227539 25.5195198059082 25.2264156341553 25.129150390625 25.1662292480469 25.0851650238037 24.9877681732178 24.9833545684814 24.9747791290283 24.9524345397949 24.894380569458 24.6982440948486 24.376636505127 24.1610584259033 24.1300506591797 24.1196956634521 24.0562648773193 23.907772064209 23.7895278930664 23.7674903869629 23.7829341888428 23.74560546875 23.6312789916992 23.521448135376 23.4768238067627 23.4682064056396 23.368293762207 23.2773056030273 23.3647556304932 23.5297756195068 23.768518447876 23.9887733459473 24.0486068725586 24.113826751709 24.139820098877 24.1471767425537 24.1609687805176 24.2024097442627 24.1879768371582 24.1701126098633 24.0897464752197 23.9733371734619
-9999 -9999 -9999 -9999 -9999 -9999 -9999 -9999 -9999 -9999 -9999 -9999 -9999 25.3590145111084 25.5249173906114 -9999 25.6030378341675 25.4127306938171 24.8459911346436 24.8152656555176 26.2079601287842 27.133810043335 27.3420143127441 27.0856113433838 26.61745262146 26.2241439819336 26.0670394897461 25.9223823547363 25.6388607025146 25.2516403198242 24.9795818328857 24.9459953308105 24.932653427124 24.7553997039795 24.6302528381348 24.6132564544678 24.5688076019287 24.4676818847656 24.2975883483887 24.0763778686523 23.936710357666 23.9855194091797 24.1027278900146 24.1123733520508 23.9840793609619 23.7688674926758 23.7192687988281 23.7643089294434 23.7983646392822 23.7881050109863 23.726505279541 23.6408786773682 23.5949440002441 23.5535507202148 23.4646034240723 23.3602066040039 23.3213405609131 23.3296394348145 23.4614410400391 23.7396545410156 23.900936126709 23.9617805480957 23.9709606170654 24.1396751403809 24.2139167785645 24.2421970367432 24.2069435119629 24.1350555419922 24.0362339019775 24.0365524291992
-9999 -9999 -9999 -9999 -9999 -9999 -9999 -9999 -9999 -9999 -9999 -9999 -9999 -9999 25.3590145111084 25.5958760579427 25.6198616027832 25.5862140655518 25.59885597229 26.5944538116455 27.3785076141357 27.5195999145508 27.2218856811523 26.6184329986572 26.2382545471191 26.1358509063721 26.0411930084229 25.7972259521484 25.4570426940918 25.107328414917 24.8977966308594 24.8414134979248 24.6986312866211 24.4310073852539 24.2419452667236 24.0961360931396 23.9410629272461 23.814022064209 23.7215347290039 23.6823654174805 23.7479877471924 23.9036312103271 24.0272903442383 24.0247325897217 23.8777904510498 23.6968536376953 23.6723937988281 23.7112045288086 23.7299251556396 23.7318248748779 23.7017879486084 23.6555576324463 23.6379070281982 23.6280994415283 23.5797386169434 23.4856567382812 23.3731231689453 23.2778644561768 23.3174228668213 23.603084564209 23.8043098449707 23.8215141296387 23.8220233917236 24.0222549438477 24.1252384185791 24.1722545623779 24.1776638031006 24.1409091949463 24.154203414917 24.2310848236084
-9999 -9999 -9999 -9999 -9999 -9999 -9999 -9999 -9999 -9999 -9999 -9999 -9999 -9999 25.5357074737549 25.3590145111084 25.8087520599365 26.115909576416 26.722053527832 27.4121475219727 27.577917098999 27.3639545440674 26.7185840606689 26.1726055145264 26.1126766204834 26.0390186309814 25.8140354156494 25.5572681427002 25.2943820953369 25.0092487335205 24.8124561309814 24.6757316589355 24.4529857635498 24.1774978637695 23.962215423584 23.7769641876221 23.6497554779053 23.5933952331543 23.5932998657227 23.6402244567871 23.7245788574219 23.8302326202393 23.9068298339844 23.8984413146973 23.7861595153809 23.6886177062988 23.658390045166 23.6312026977539 23.6182727813721 23.6328201293945 23.6262493133545 23.6123085021973 23.6134510040283 23.6311702728271 23.6218738555908 23.5688304901123 23.4671211242676 23.3687858581543 23.3893527984619 23.5670070648193 23.6731491088867 23.6118183135986 23.5765609741211 23.7820949554443 23.9371738433838 24.025218963623 24.0760097503662 24.1012401580811 24.1422424316406 24.0628128051758
-9999 -9999 -9999 -9999 -9999 -9999 -9999 -9999 -9999 -9999 -9999 25.7378253936768 25.6713275909424 25.5640068054199 25.4790802001953 25.7407283782959 26.5342617034912 26.9905948638916 27.3654193878174 27.603609085083 27.5452041625977 27.0505523681641 26.2803478240967 25.9551658630371 26.0233783721924 25.9273166656494 25.6818065643311 25.4299221038818 25.2026672363281 24.9619235992432 24.7578964233398 24.593074798584 24.3851051330566 24.1518135070801 23.9869728088379 23.8622550964355 23.8018493652344 23.7782306671143 23.7419204711914 23.7072143554688 23.7012424468994 23.7440013885498 23.784631729126 23.7616062164307 23.6965579986572 23.6759948730469 23.6408100128174 23.5652008056641 23.5232086181641 23.5391025543213 23.5632762908936 23.5787467956543 23.5822238922119 23.5916728973389 23.5847721099854 23.5483646392822 23.4777774810791 23.4200839996338 23.4386577606201 23.5125160217285 23.540433883667 23.4448623657227 23.3874015808105 23.5742702484131 23.7431201934814 23.7983798980713 23.8514804840088 23.8170280456543 23.770637512207 23.6365222930908
-9999 -9999 -9999 -9999 -9999 -9999 -9999 -9999 -9999 26.137659072876 25.9835872650146 25.9396705627441 26.0246391296387 26.0765495300293 25.9571590423584 26.3084983825684 26.8783779144287 27.2194652557373 27.5761260986328 27.7325992584229 27.615650177002 27.0092029571533 26.149341583252 25.8873729705811 25.9627723693848 25.8549900054932 25.6402988433838 25.3670310974121 25.1217021942139 24.8927555084229 24.7222805023193 24.5921039581299 24.4176273345947 24.2091274261475 24.0576591491699 23.9578685760498 23.9024600982666 23.8522491455078 23.7868366241455 23.7076663970947 23.6573295593262 23.6882133483887 23.7738151550293 23.8060607910156 23.7595329284668 23.7116527557373 23.633581161499 23.5144710540771 23.4474754333496 23.4342727661133 23.4668998718262 23.5217742919922 23.5234794616699 23.493444442749 23.4689655303955 23.4445190429688 23.3937702178955 23.3509769439697 23.3586406707764 23.3816318511963 23.395299911499 23.3124542236328 23.239070892334 23.3754940032959 23.5289363861084 23.551908493042 23.5809173583984 23.5272598266602 23.5066375732422 23.4657745361328
-9999 -9999 -9999 -9999 -9999 -9999 -9999 -9999 -9999 26.3280582427979 26.2485084533691 26.3235416412354 26.4877185821533 26.5960121154785 26.7440929412842 27.0398445129395 27.3340110778809 27.5847816467285 27.7444477081299 27.8067855834961 27.6103706359863 26.8951168060303 25.9860725402832 25.7561779022217 25.8253517150879 25.7716293334961 25.6609592437744 25.4758052825928 25.2535724639893 24.9975509643555 24.7982158660889 24.6536769866943 24.4751796722412 24.2765464782715 24.1206245422363 24.010461807251 23.9523754119873 23.9047832489014 23.8444080352783 23.7681427001953 23.6948299407959 23.6668891906738 23.7120265960693 23.7457141876221 23.7109622955322 23.6578598022461 23.5728225708008 23.4604148864746 23.3947620391846 23.3472328186035 23.3379783630371 23.3923091888428 23.4201889038086 23.3860549926758 23.3504161834717 23.3314895629883 23.2863006591797 23.246072769165 23.2421131134033 23.2378158569336 23.222827911377 23.1543216705322 23.1222724914551 23.2636337280273 23.4170322418213 23.4307746887207 23.4665412902832 23.4681720733643 23.4572353363037 23.4443206787109
-9999 -9999 -9999 -9999 -9999 26.4662775993347 26.3782863616943 26.3124580383301 26.341236114502 26.3145065307617 26.3705234527588 26.5125274658203 26.7747116088867 27.0203132629395 27.238151550293 27.4363994598389 27.6100254058838 27.7824020385742 27.9093971252441 27.8981552124023 27.6934795379639 27.0650310516357 26.0971183776855 25.7550926208496 25.7529754638672 25.6845836639404 25.6030559539795 25.5163478851318 25.4258804321289 25.252103805542 25.0157070159912 24.7963447570801 24.5775012969971 24.3708782196045 24.2188415527344 24.1073627471924 24.0407676696777 23.9959697723389 23.9398536682129 23.8874855041504 23.8483238220215 23.803337097168 23.7441482543945 23.7058258056641 23.6675662994385 23.6138782501221 23.5397167205811 23.4611225128174 23.4063148498535 23.3409080505371 23.262077331543 23.2436084747314 23.281551361084 23.2905254364014 23.2723922729492 23.2485466003418 23.2006244659424 23.1562728881836 23.125862121582 23.091495513916 23.0645771026611 23.043966293335 23.0901584625244 23.2510738372803 23.3929710388184 23.408052444458 23.4396133422852 23.4186401367188 23.4056835174561 23.378475189209
-9999 -9999 -9999 -9999 26.6789302825928 26.4246959686279 26.3831977844238 26.4010486602783 26.4100208282471 26.3894119262695 26.4439182281494 26.6553077697754 27.0591640472412 27.4110584259033 27.6899356842041 27.8924541473389 28.0044212341309 28.0712776184082 28.0257720947266 27.8823013305664 27.6639957427979 27.2453174591064 26.377836227417 25.8878612518311 25.8361492156982 25.769437789917 25.6391735076904 25.4616622924805 25.3530101776123 25.3297462463379 25.2291793823242 25.0317535400391 24.7781600952148 24.5242252349854 24.350679397583 24.2341270446777 24.1464195251465 24.0873050689697 24.032054901123 23.9881420135498 23.9692535400391 23.9417095184326 23.86008644104 23.7743530273438 23.7018203735352 23.6425495147705 23.5920543670654 23.5423564910889 23.4835090637207 23.4056968688965 23.3011589050293 23.1981353759766 23.1605777740479 23.1925849914551 23.1946506500244 23.1774215698242 23.1416034698486 23.0896968841553 23.0325775146484 22.990930557251 22.9735736846924 22.9869289398193 23.0797710418701 23.2546977996826 23.3606948852539 23.362813949585 23.3931827545166 23.3986530303955 23.3901443481445 23.3649101257324
-9999 -9999 -9999 26.4320435523987 26.4889011383057 26.2106075286865 26.3291702270508 26.409008026123 26.4701480865479 26.5808258056641 26.6210346221924 27.1630840301514 27.6537532806396 27.9803409576416 28.1374664306641 28.1991271972656 28.1805019378662 28.1209049224854 27.9585742950439 27.7738342285156 27.576301574707 27.374532699585 26.6789798736572 26.0764331817627 25.9602870941162 25.9253406524658 25.8429203033447 25.5950412750244 25.240816116333 25.1237945556641 25.1461620330811 25.1194267272949 24.9754238128662 24.7305488586426 24.498498916626 24.3354244232178 24.2299404144287 24.1718349456787 24.1382331848145 24.1078681945801 24.078441619873 24.0388984680176 23.9487972259521 23.8395538330078 23.754358291626 23.7029781341553 23.6682758331299 23.6182651519775 23.5414276123047 23.4632015228271 23.3970375061035 23.2878398895264 23.1707134246826 23.1342945098877 23.1144695281982 23.0927333831787 23.0894966125488 23.0673561096191 23.0178813934326 23.005651473999 23.0041561126709 23.0216655731201 23.1018466949463 23.2320003509521 23.2871208190918 23.2769832611084 23.3190307617188 23.3601951599121 23.3438854217529 23.3114738464355
-9999 -9999 -9999 26.4325313568115 26.1278114318848 26.1924877166748 26.5433101654053 26.7088241577148 26.9284648895264 27.1761417388916 27.5007038116455 27.951940536499 28.1230125427246 28.2160911560059 28.2542552947998 28.2254219055176 28.1012020111084 27.9303665161133 27.6913166046143 27.5476932525635 27.411169052124 27.4368896484375 27.0302085876465 26.2358703613281 25.8673305511475 25.8279323577881 25.9213027954102 25.870922088623 25.5132083892822 25.0865306854248 24.9309062957764 24.9993896484375 24.9752674102783 24.8132286071777 24.5836086273193 24.3883438110352 24.2855834960938 24.2546005249023 24.240795135498 24.1966247558594 24.1483116149902 24.0969696044922 24.0069465637207 23.9031734466553 23.8186454772949 23.747802734375 23.6835460662842 23.6078872680664 23.5239887237549 23.4761295318604 23.4535160064697 23.3731498718262 23.2365875244141 23.132905960083 23.080135345459 23.0649490356445 23.0973930358887 23.1153907775879 23.110034942627 23.1304244995117 23.1247062683105 23.1010055541992 23.1308689117432 23.2096843719482 23.2428646087646 23.2379570007324 23.2642288208008 23.3033924102783 23.2881011962891 23.2471961975098
