NCOLS 70 
NROWS 52 
XLLCORNER -80 
YLLCORNER 33 
CELLSIZE 0.25 
NODATA_value -9999 
-9999.000000000000000 -9999 -9999 -9999 -9999 -9999 -9999 -9999 -9999 -9999 -9999 -9999 -9999 -9999 -9999 -9999 -9999 -9999 -9999 -9999 -9999 -9999 -9999 -9999 -9999 -9999 -9999 -9999 -9999 -9999 -9999 -9999 -9999 -9999 -9999 -9999 -9999 -9999 -9999 -9999 -9999 -9999 -9999 -9999 -9999 -9999 -9999 -9999 -9999 -9999 -9999 -9999 -9999 -9999 -9999 -9999 -9999 -9999 -9999 -9999 -9999 -9999 -9999 -9999 -9999 -9999 -9999 -9999 -9999 -9999
-9999 -9999 -9999 -9999 -9999 -9999 -9999 -9999 -9999 -9999 -9999 -9999 -9999 -9999 -9999 -9999 -9999 -9999 -9999 -9999 -9999 -9999 -9999 -9999 -9999 -9999 -9999 -9999 -9999 -9999 -9999 -9999 -9999 -9999 -9999 -9999 -9999 -9999 -9999 -9999 -9999 -9999 -9999 -9999 -9999 -9999 -9999 -9999 -9999 -9999 -9999 -9999 -9999 -9999 -9999 -9999 -9999 -9999 -9999 -9999 -9999 -9999 -9999 -9999 -9999 -9999 -9999 -9999 -9999 -9999
-9999 -9999 -9999 -9999 -9999 -9999 -9999 -9999 -9999 -9999 -9999 -9999 -9999 -9999 -9999 -9999 -9999 -9999 -9999 -9999 -9999 -9999 -9999 -9999 -9999 -9999 -9999 -9999 -9999 -9999 -9999 -9999 -9999 -9999 -9999 -9999 -9999 -9999 -9999 -9999 -9999 -9999 -9999 -9999 -9999 -9999 -9999 -9999 -9999 -9999 -9999 -9999 -9999 -9999 -9999 -9999 -9999 -9999 -9999 16.7852039337158 -9999 -9999 -9999 -9999 -9999 -9999 -9999 -9999 -9999 -9999
-9999 -9999 -9999 -9999 -9999 -9999 -9999 -9999 -9999 -9999 -9999 -9999 -9999 -9999 -9999 -9999 -9999 -9999 -9999 -9999 -9999 -9999 -9999 -9999 -9999 -9999 -9999 -9999 -9999 -9999 -9999 -9999 -9999 -9999 -9999 -9999 -9999 -9999 -9999 -9999 -9999 -9999 -9999 -9999 -9999 -9999 -9999 -9999 -9999 -9999 -9999 -9999 -9999 -9999 -9999 14.5664081573486 14.6255598068237 14.7707815170288 15.1244812011719 15.7571706771851 -9999 -9999 -9999 -9999 -9999 -9999 -9999 -9999 -9999 -9999
-9999 -9999 -9999 -9999 -9999 -9999 -9999 -9999 -9999 -9999 -9999 -9999 -9999 -9999 -9999 -9999 -9999 -9999 -9999 -9999 -9999 -9999 -9999 -9999 -9999 -9999 -9999 -9999 -9999 -9999 -9999 -9999 -9999 -9999 -9999 -9999 -9999 -9999 -9999 -9999 -9999 -9999 -9999 -9999 -9999 -9999 -9999 -9999 -9999 -9999 -9999 -9999 14.5112676620483 14.1836624145508 13.9985961914062 14.0500192642212 14.2942810058594 14.5220222473145 -9999 -9999 -9999 -9999 -9999 -9999 -9999 -9999 -9999 -9999 -9999 -9999
-9999 -9999 -9999 -9999 -9999 -9999 -9999 -9999 -9999 -9999 -9999 -9999 -9999 -9999 -9999 -9999 -9999 -9999 -9999 -9999 -9999 -9999 -9999 -9999 -9999 -9999 -9999 -9999 -9999 -9999 -9999 -9999 -9999 -9999 -9999 -9999 -9999 -9999 -9999 -9999 -9999 -9999 -9999 -9999 -9999 -9999 -9999 -9999 -9999 -9999 13.2913042068481 13.0349206924438 13.1864738464355 13.1723508834839 13.3086624145508 13.480073928833 -9999 -9999 -9999 -9999 -9999 -9999 -9999 -9999 -9999 -9999 -9999 17.8542162577311 17.8538069725037 18.0687599182129
-9999 -9999 -9999 -9999 -9999 -9999 -9999 -9999 -9999 -9999 -9999 -9999 -9999 -9999 -9999 -9999 -9999 -9999 -9999 -9999 -9999 -9999 -9999 -9999 -9999 -9999 -9999 -9999 -9999 -9999 -9999 -9999 -9999 -9999 -9999 -9999 -9999 -9999 -9999 -9999 -9999 -9999 -9999 -9999 15.2469514211019 -9999 -9999 13.8342173099518 13.5012884140015 13.267523765564 12.8762664794922 12.5507154464722 12.5132722854614 12.767804145813 13.0585899353027 -9999 -9999 -9999 -9999 -9999 -9999 -9999 -9999 17.9879131317139 18.1519432067871 18.173038482666 18.0097370147705 17.8180999755859 17.7348117828369 17.7935562133789
-9999 -9999 -9999 -9999 -9999 -9999 -9999 -9999 -9999 -9999 -9999 -9999 -9999 -9999 -9999 -9999 -9999 -9999 -9999 -9999 -9999 -9999 -9999 -9999 -9999 -9999 -9999 -9999 -9999 -9999 -9999 -9999 -9999 -9999 -9999 -9999 -9999 -9999 -9999 -9999 -9999 -9999 -9999 -9999 15.3853797912598 14.608099937439 13.9962167739868 13.8875713348389 13.95179271698 13.9404182434082 13.7828559875488 13.4588813781738 13.1009521484375 13.0272159576416 13.0688629150391 -9999 -9999 -9999 -9999 -9999 -9999 -9999 17.6122856140137 17.7870578765869 18.0412921905518 18.1522693634033 18.0763492584229 17.9476261138916 17.834342956543 17.7332191467285
-9999 -9999 -9999 -9999 -9999 -9999 -9999 -9999 -9999 -9999 -9999 -9999 -9999 -9999 -9999 -9999 -9999 -9999 -9999 -9999 -9999 -9999 -9999 -9999 -9999 -9999 -9999 -9999 -9999 -9999 -9999 -9999 -9999 -9999 -9999 -9999 -9999 -9999 -9999 -9999 17.042989730835 16.8090496063232 16.1940591812134 15.8524856567383 15.3267526626587 14.6211166381836 14.2659311294556 14.3992624282837 14.7456550598145 14.975341796875 14.9090480804443 14.5019159317017 13.8555126190186 13.4218416213989 13.6907131195068 -9999 -9999 -9999 -9999 -9999 17.3607451121012 17.5587463378906 17.6122741699219 17.6700267791748 17.7749843597412 17.9197177886963 17.9880332946777 17.975170135498 17.8617744445801 17.6465950012207
-9999 -9999 -9999 -9999 -9999 -9999 -9999 -9999 -9999 -9999 -9999 -9999 -9999 -9999 -9999 -9999 -9999 -9999 -9999 -9999 -9999 -9999 -9999 -9999 -9999 -9999 -9999 -9999 -9999 -9999 -9999 -9999 -9999 -9999 -9999 -9999 -9999 -9999 -9999 17.2098197937012 17.0802211761475 16.8389282226562 16.507999420166 16.0235080718994 15.5357246398926 15.2118644714355 15.1310615539551 15.3261041641235 15.6357164382935 15.7728843688965 15.5731182098389 15.0441703796387 14.2731924057007 13.6594495773315 13.7421388626099 14.6029195785522 -9999 -9999 -9999 16.8332371711731 17.2333297729492 17.2901592254639 17.2305030822754 17.0827331542969 17.0647087097168 17.2661247253418 17.5391540527344 17.7413921356201 17.8010139465332 17.7048187255859
-9999 -9999 -9999 -9999 -9999 -9999 -9999 -9999 -9999 -9999 -9999 -9999 -9999 -9999 -9999 -9999 -9999 -9999 -9999 -9999 -9999 -9999 -9999 -9999 -9999 -9999 -9999 -9999 -9999 -9999 -9999 -9999 -9999 -9999 -9999 -9999 -9999 -9999 17.7166233062744 17.5809478759766 17.4458179473877 17.2340049743652 16.8706874847412 16.4329051971436 16.12331199646 16.0224647521973 16.0301094055176 16.1027221679688 16.1938095092773 16.1481342315674 15.8009185791016 15.151198387146 14.3133125305176 13.5166435241699 13.2806406021118 14.0182075500488 15.1481533050537 15.4589937527974 16.5434150695801 16.7584476470947 16.7977561950684 16.6217231750488 16.497278213501 16.4464912414551 16.5119533538818 16.7933006286621 17.2125396728516 17.5630302429199 17.7620067596436 17.8162384033203
-9999 -9999 -9999 -9999 -9999 -9999 -9999 -9999 -9999 -9999 -9999 -9999 -9999 -9999 -9999 -9999 -9999 -9999 -9999 -9999 -9999 -9999 -9999 -9999 -9999 -9999 -9999 -9999 -9999 -9999 -9999 -9999 -9999 -9999 -9999 -9999 -9999 17.9175491333008 17.9442577362061 17.9305419921875 17.8210411071777 17.5522384643555 17.1360492706299 16.7886905670166 16.6894187927246 16.7575531005859 16.7641487121582 16.6899547576904 16.6061325073242 16.4677028656006 16.1092567443848 15.4336986541748 14.5757055282593 13.7485218048096 13.33056640625 13.6628847122192 14.5164384841919 15.2577514648438 15.8539638519287 16.2299194335938 16.2981376647949 16.2087020874023 16.3393306732178 16.4904518127441 16.6317844390869 16.928840637207 17.3624076843262 17.7189693450928 17.9052085876465 17.9868488311768
-9999 -9999 -9999 -9999 -9999 -9999 -9999 -9999 -9999 -9999 -9999 -9999 -9999 -9999 -9999 -9999 -9999 -9999 -9999 -9999 -9999 -9999 -9999 -9999 -9999 -9999 -9999 -9999 -9999 -9999 -9999 -9999 -9999 -9999 -9999 -9999 -9999 18.0603275299072 18.1312599182129 18.2251319885254 18.1151657104492 17.7749271392822 17.3953819274902 17.193510055542 17.2161102294922 17.2555656433105 17.133716583252 16.9487628936768 16.8013076782227 16.6451091766357 16.364501953125 15.8185558319092 15.0392847061157 14.2351036071777 13.6921339035034 13.6048440933228 13.9352922439575 14.4596290588379 15.112096786499 15.5995483398438 15.9308757781982 16.30322265625 16.7445793151855 16.906307220459 16.962329864502 17.1694278717041 17.5483131408691 17.8531036376953 17.9806327819824 18.080717086792
-9999 -9999 -9999 -9999 -9999 -9999 -9999 -9999 -9999 -9999 -9999 -9999 -9999 -9999 -9999 -9999 -9999 -9999 -9999 -9999 -9999 -9999 -9999 -9999 -9999 -9999 -9999 -9999 -9999 -9999 -9999 -9999 -9999 -9999 -9999 -9999 -9999 18.4085502624512 18.3859195709229 18.4748001098633 18.3826122283936 18.1310043334961 17.8847064971924 17.7394256591797 17.6893939971924 17.5398502349854 17.2253131866455 16.9396152496338 16.7424163818359 16.5169677734375 16.2217330932617 15.8057775497437 15.2526264190674 14.6812238693237 14.2631578445435 13.9864091873169 13.9137992858887 14.0252046585083 14.5391807556152 15.0722818374634 15.7501373291016 16.4525966644287 16.9512596130371 17.0550212860107 17.069019317627 17.2102489471436 17.4973392486572 17.7713756561279 17.932861328125 18.1222400665283
-9999 -9999 -9999 -9999 -9999 -9999 -9999 -9999 -9999 -9999 -9999 -9999 -9999 -9999 -9999 -9999 -9999 -9999 -9999 -9999 -9999 -9999 -9999 -9999 -9999 -9999 -9999 -9999 -9999 -9999 -9999 -9999 -9999 -9999 -9999 -9999 18.729284286499 18.56494140625 18.4455909729004 18.557201385498 18.6520195007324 18.6073799133301 18.4694423675537 18.2864360809326 18.0912628173828 17.7925758361816 17.397066116333 17.0767478942871 16.8329601287842 16.5210952758789 16.1663570404053 15.7935314178467 15.4601488113403 15.1998424530029 14.9768095016479 14.5429725646973 14.1121215820312 14.0072813034058 14.6808433532715 15.2638444900513 16.0917358398438 16.7716236114502 17.039363861084 16.9888324737549 16.9707126617432 17.1534423828125 17.4589424133301 17.8724155426025 18.3241195678711 18.8149490356445
-9999 -9999 -9999 -9999 -9999 -9999 -9999 -9999 -9999 -9999 -9999 -9999 -9999 -9999 -9999 -9999 -9999 -9999 -9999 -9999 -9999 -9999 -9999 -9999 -9999 -9999 -9999 -9999 -9999 -9999 -9999 -9999 -9999 -9999 -9999 -9999 -9999 18.3967056274414 18.3572216033936 18.4918460845947 18.7544727325439 18.87770652771 18.7965278625488 18.6104164123535 18.3983879089355 18.1240482330322 17.8065280914307 17.5377998352051 17.3073959350586 16.9963111877441 16.6631870269775 16.3462657928467 16.1295795440674 15.9731645584106 15.7574968338013 15.0957899093628 14.7090845108032 14.9474105834961 15.8221197128296 16.3782081604004 16.7534942626953 17.0748443603516 17.1338768005371 17.0105972290039 17.0105438232422 17.3711738586426 17.8807029724121 18.3787498474121 19.0878257751465 19.8703365325928
-9999 -9999 -9999 -9999 -9999 -9999 -9999 -9999 -9999 -9999 -9999 -9999 -9999 -9999 -9999 -9999 -9999 -9999 -9999 -9999 -9999 -9999 -9999 -9999 -9999 -9999 -9999 -9999 -9999 -9999 -9999 -9999 -9999 -9999 -9999 -9999 -9999 -9999 18.3415508270264 -9999 18.7552261352539 18.9224987030029 18.8363456726074 18.6397037506104 18.4434146881104 18.2269058227539 18.0686798095703 17.9401721954346 17.8006553649902 17.5492935180664 17.2912921905518 17.0323047637939 16.7694358825684 16.4097633361816 16.0507736206055 15.2641754150391 15.2580585479736 15.8285388946533 16.6464672088623 16.9536991119385 17.1314105987549 17.4527702331543 17.5931663513184 17.6448440551758 17.7613430023193 18.1796417236328 18.863353729248 18.9895763397217 19.3392391204834 19.8473777770996
-9999 -9999 -9999 -9999 -9999 -9999 -9999 -9999 -9999 -9999 -9999 -9999 -9999 -9999 -9999 -9999 -9999 -9999 -9999 -9999 -9999 -9999 -9999 -9999 -9999 -9999 -9999 -9999 -9999 -9999 -9999 -9999 -9999 -9999 -9999 -9999 -9999 -9999 -9999 -9999 18.9170303344727 18.7884960174561 18.6361064910889 18.4176273345947 18.2129421234131 18.0886039733887 18.0955066680908 18.1180725097656 18.1137523651123 17.9215126037598 17.694372177124 17.368673324585 16.9563007354736 16.4236106872559 15.8867588043213 15.5115003585815 15.7786884307861 16.3884944915771 16.9881820678711 17.181339263916 17.5100498199463 17.9540157318115 18.2595996856689 18.5080013275146 18.9135646820068 19.369047164917 20.177604675293 20.2071170806885 20.2957706451416 20.2125663757324
-9999 -9999 -9999 -9999 -9999 -9999 -9999 -9999 -9999 -9999 -9999 -9999 -9999 -9999 -9999 -9999 -9999 -9999 -9999 -9999 -9999 -9999 -9999 -9999 -9999 -9999 -9999 -9999 -9999 -9999 -9999 -9999 -9999 -9999 20.6982197761536 20.6944427490234 20.5012874603271 -9999 19.8465633392334 19.4016075134277 18.7410907745361 18.3271770477295 18.2337036132812 18.1237850189209 17.9996795654297 18.0332832336426 18.1271457672119 18.1550159454346 18.0901336669922 17.8610343933105 17.530891418457 17.1166114807129 16.5939159393311 16.0603733062744 15.7280521392822 16.0501861572266 16.4908390045166 16.9658393859863 17.3763637542725 17.6129131317139 17.9863147735596 18.435754776001 19.0410079956055 19.6566371917725 20.0432682037354 20.4451580047607 21.0729293823242 21.3934688568115 21.8516502380371 22.1175403594971
-9999 -9999 -9999 -9999 -9999 -9999 -9999 -9999 -9999 -9999 -9999 -9999 -9999 -9999 -9999 -9999 -9999 -9999 -9999 -9999 -9999 -9999 -9999 -9999 -9999 -9999 -9999 22.8277931213379 22.8277931213379 22.6737594604492 22.4868354797363 22.0529613494873 21.4978103637695 21.1074523925781 20.7445735931396 20.246410369873 19.7045993804932 19.3255729675293 19.1198596954346 18.8089504241943 18.1442489624023 17.6136322021484 17.6774997711182 17.8383331298828 17.8899078369141 17.9580268859863 17.9912433624268 17.9265251159668 17.7531852722168 17.4625453948975 17.1144428253174 16.727970123291 16.2635231018066 16.0593681335449 16.213249206543 16.7508983612061 17.1789493560791 17.593692779541 18.0111694335938 18.3891468048096 18.7398891448975 19.3893566131592 20.6538352966309 21.7739715576172 21.8712463378906 21.7197742462158 21.9927864074707 22.6226081848145 23.2663497924805 23.885103225708
-9999 -9999 -9999 -9999 -9999 -9999 -9999 -9999 -9999 -9999 -9999 -9999 -9999 -9999 -9999 -9999 -9999 -9999 -9999 -9999 -9999 -9999 -9999 -9999 -9999 -9999 -9999 -9999 -9999 -9999 21.8162879943848 21.5146408081055 21.0066432952881 20.6373157501221 20.2696323394775 19.7096176147461 19.1418342590332 18.738899230957 18.5134181976318 18.2319564819336 17.7120742797852 17.2724151611328 17.4205169677734 17.7285404205322 17.8553676605225 17.8656482696533 17.8302211761475 17.7419013977051 17.576976776123 17.3744029998779 17.1948337554932 16.9578876495361 16.694974899292 16.7194499969482 17.0180892944336 17.4794311523438 17.9922847747803 18.5539035797119 19.0287170410156 19.4516410827637 19.8494281768799 20.7829093933105 22.1448268890381 22.9524517059326 23.1570987701416 23.1593704223633 23.4369869232178 24.0510787963867 24.5181922912598 25.2117786407471
-9999 -9999 -9999 -9999 -9999 -9999 -9999 -9999 -9999 -9999 -9999 -9999 -9999 -9999 -9999 -9999 -9999 -9999 -9999 -9999 -9999 -9999 -9999 -9999 -9999 21.7327009836833 21.3517430623372 21.0718638102214 20.8860554695129 20.7040863037109 20.7391948699951 20.8940601348877 20.9386367797852 20.7593307495117 20.4064769744873 19.8239002227783 19.1961612701416 18.7425327301025 18.460807800293 18.1972827911377 17.889102935791 17.7167110443115 17.8121700286865 18.017858505249 18.1472339630127 18.1928997039795 18.3079109191895 18.5200576782227 18.6857471466064 18.6985168457031 18.6664810180664 18.3993968963623 18.0087356567383 17.891773223877 18.2136554718018 18.8003177642822 19.4346981048584 19.9800853729248 20.2723140716553 20.4793834686279 20.8810005187988 21.7927207946777 22.6343479156494 23.1338958740234 23.5136299133301 23.8989753723145 24.3049602508545 24.7280120849609 25.1092872619629 25.6835193634033
-9999 -9999 -9999 -9999 -9999 -9999 -9999 -9999 -9999 -9999 -9999 -9999 -9999 -9999 -9999 -9999 -9999 -9999 -9999 -9999 -9999 -9999 -9999 -9999 22.162878036499 21.726879119873 21.3083457946777 21.0200042724609 20.8872413635254 20.9328899383545 21.1101093292236 21.2989063262939 21.3574256896973 21.2497444152832 20.9994583129883 20.5601387023926 20.0077705383301 19.5284900665283 19.1573314666748 18.8616104125977 18.661111831665 18.6054248809814 18.740852355957 19.0418930053711 19.3304119110107 19.522123336792 19.8060398101807 20.2942142486572 20.8066558837891 21.0497131347656 20.9714908599854 20.3027439117432 19.557165145874 19.4061546325684 19.815055847168 20.4018497467041 20.8036861419678 21.0175762176514 21.1183929443359 21.2036533355713 21.6040916442871 22.3776588439941 22.9656410217285 23.4149398803711 23.9022388458252 24.4119968414307 24.8316802978516 25.0808506011963 25.304859161377 25.7542095184326
-9999 -9999 -9999 -9999 -9999 -9999 -9999 -9999 -9999 -9999 -9999 -9999 -9999 -9999 -9999 -9999 -9999 -9999 -9999 -9999 -9999 -9999 -9999 -9999 22.0924873352051 21.7481746673584 21.467924118042 21.2832508087158 21.2273216247559 21.3983116149902 21.6928157806396 21.8991985321045 21.9455528259277 21.9123439788818 21.8841762542725 21.7786121368408 21.5683536529541 21.2965393066406 20.9003791809082 20.3431396484375 19.8603572845459 19.7039127349854 19.9119491577148 20.3696727752686 20.8260231018066 21.1120891571045 21.2842216491699 21.5878257751465 22.0612277984619 22.4402465820312 22.381856918335 21.5564670562744 20.6973514556885 20.5311279296875 20.796817779541 21.0263900756836 21.0907344818115 21.1807746887207 21.3535461425781 21.635232925415 22.1879482269287 22.9776554107666 23.636402130127 24.1550884246826 24.6097755432129 25.014274597168 25.2658882141113 25.3475704193115 25.4319381713867 25.814022064209
-9999 -9999 -9999 -9999 -9999 -9999 -9999 -9999 -9999 -9999 -9999 -9999 -9999 -9999 -9999 -9999 -9999 -9999 -9999 -9999 -9999 -9999 -9999 22.2933759689331 22.2470436096191 21.8813285827637 21.638204574585 21.5572643280029 21.6579570770264 21.9822998046875 22.3808288574219 22.642370223999 22.7142162322998 22.6784152984619 22.6794414520264 22.7247447967529 22.7957572937012 22.9096641540527 22.898099899292 22.3388557434082 21.3132266998291 20.5699405670166 20.4851512908936 20.8644428253174 21.4499588012695 21.9167709350586 22.0605926513672 22.1835250854492 22.4574661254883 22.6815967559814 22.5539894104004 21.8307285308838 21.1311206817627 21.0246238708496 21.1966514587402 21.184986114502 21.0530471801758 21.0967960357666 21.3655300140381 21.9102916717529 22.716236114502 23.6485614776611 24.3780536651611 24.8840255737305 25.1820087432861 25.3652057647705 25.4694957733154 25.4825134277344 25.6446170806885 26.206226348877
-9999 -9999 -9999 -9999 -9999 -9999 -9999 -9999 -9999 -9999 -9999 -9999 -9999 -9999 -9999 -9999 -9999 -9999 -9999 -9999 -9999 -9999 -9999 22.6116981506348 22.2222747802734 21.8621559143066 21.7494945526123 21.847936630249 22.1313571929932 22.6397151947021 23.1932487487793 23.5296745300293 23.6532917022705 23.6097660064697 23.4602890014648 23.3218212127686 23.3127269744873 23.5133228302002 23.7900238037109 23.6083297729492 22.5454368591309 21.3396949768066 20.9098739624023 21.1957855224609 21.8199253082275 22.3476123809814 22.4933700561523 22.4670448303223 22.4497127532959 22.3840827941895 22.0903224945068 21.4545249938965 21.021915435791 21.1605701446533 21.4600105285645 21.4823989868164 21.2980327606201 21.2103157043457 21.4501724243164 22.0452194213867 22.915901184082 23.9053211212158 24.6558151245117 25.1189098358154 25.3680763244629 25.510181427002 25.6356887817383 25.7695217132568 26.1894245147705 26.8591041564941
-9999 -9999 -9999 -9999 -9999 -9999 -9999 -9999 -9999 -9999 -9999 -9999 -9999 -9999 -9999 -9999 -9999 -9999 -9999 -9999 -9999 -9999 22.9416790008545 22.5228652954102 22.0918865203857 21.9173336029053 22.0383739471436 22.2985095977783 22.7603244781494 23.4527168273926 24.0352878570557 24.2940826416016 24.3829727172852 24.39377784729 24.2335681915283 23.9309253692627 23.7126502990723 23.703929901123 23.7889823913574 23.7059669494629 23.0438671112061 21.9973888397217 21.4333572387695 21.5989933013916 22.0957508087158 22.5847911834717 22.7636470794678 22.6319351196289 22.410816192627 22.1387805938721 21.7714691162109 21.46457862854 21.483528137207 21.8319511413574 22.1731357574463 22.2768840789795 22.2097015380859 22.0981750488281 22.1188144683838 22.3765983581543 22.9758529663086 23.8686542510986 24.6556816101074 25.1284217834473 25.4024677276611 25.5883293151855 25.7345447540283 26.0369358062744 26.5887680053711 27.1831665039062
-9999 -9999 -9999 -9999 -9999 -9999 -9999 -9999 -9999 -9999 -9999 -9999 -9999 -9999 25.5165078375075 -9999 -9999 -9999 -9999 24.5260162353516 -9999 23.3742828369141 22.9043560028076 22.39817237854 22.092960357666 22.1274585723877 22.4245738983154 22.9576225280762 23.7738590240479 24.5176868438721 24.8665084838867 24.9122428894043 24.8583240509033 24.8579750061035 24.8240222930908 24.5603351593018 24.1747913360596 23.8962879180908 23.7292804718018 23.6756820678711 23.5930633544922 23.1991100311279 22.7495021820068 22.6506099700928 22.8527221679688 23.1419544219971 23.1646842956543 22.8870220184326 22.6551685333252 22.5652179718018 22.5543251037598 22.6614112854004 22.9224548339844 23.2745323181152 23.5602073669434 23.7184638977051 23.7781867980957 23.697904586792 23.5489864349365 23.3970947265625 23.4306488037109 23.9418106079102 24.6717662811279 25.1646938323975 25.4628086090088 25.71311378479 25.9540348052979 26.3217716217041 26.7732791900635 27.2456130981445
-9999 -9999 -9999 -9999 -9999 -9999 -9999 -9999 -9999 -9999 -9999 -9999 -9999 -9999 25.5268559455872 -9999 -9999 -9999 -9999 24.31019115448 23.6380634307861 23.1972923278809 22.6876602172852 22.3453483581543 22.283353805542 22.5716724395752 23.1569442749023 24.0210361480713 24.9220962524414 25.4037475585938 25.5303134918213 25.5405197143555 25.4899101257324 25.4717273712158 25.4709033966064 25.3253593444824 25.0109348297119 24.6252841949463 24.3137645721436 24.3504753112793 24.6845397949219 24.8888130187988 24.8266563415527 24.7224559783936 24.664867401123 24.5643634796143 24.2506942749023 23.6627655029297 23.1917362213135 23.2076053619385 23.5381088256836 23.8699779510498 24.172004699707 24.5137901306152 24.8291053771973 25.0853805541992 25.2447528839111 25.2552471160889 25.1579990386963 24.9501819610596 24.6392040252686 24.4765701293945 24.7328319549561 25.2196102142334 25.6759967803955 26.0695571899414 26.3602485656738 26.5989360809326 26.8561000823975 27.1621723175049
-9999 -9999 -9999 -9999 -9999 -9999 -9999 -9999 -9999 -9999 -9999 -9999 -9999 -9999 25.4802894592285 -9999 -9999 -9999 -9999 -9999 23.1657977104187 22.9983596801758 22.6511898040771 22.5867347717285 22.8669376373291 23.4279022216797 24.1091403961182 24.8421516418457 25.5094356536865 25.914909362793 26.0687255859375 26.1018867492676 26.1404895782471 26.1941547393799 26.2172260284424 26.1884574890137 26.1076526641846 25.82666015625 25.3756465911865 25.2198753356934 25.4376449584961 25.7689723968506 26.0504150390625 26.1756935119629 26.1330966949463 25.9111042022705 25.4928455352783 24.8098926544189 24.0509548187256 23.7636337280273 24.0938510894775 24.6041641235352 24.9894313812256 25.3379154205322 25.6951522827148 26.0131645202637 26.2275390625 26.3205871582031 26.323844909668 26.2422561645508 26.0202045440674 25.6541404724121 25.3948955535889 25.4376811981201 25.7116756439209 26.101167678833 26.434196472168 26.662389755249 26.8747005462646 27.0741539001465
-9999 -9999 -9999 -9999 -9999 -9999 -9999 -9999 -9999 -9999 -9999 -9999 -9999 -9999 25.5171117782593 -9999 25.6665554046631 -9999 -9999 -9999 23.4031524658203 23.0643863677979 22.8368453979492 23.0364723205566 23.780086517334 24.7502002716064 25.5217781066895 26.0470523834229 26.3961048126221 26.6359024047852 26.7491798400879 26.7557582855225 26.7948760986328 26.8970050811768 26.988245010376 27.0237464904785 27.0112648010254 26.8462791442871 26.4256534576416 26.0383052825928 25.9879608154297 26.1978530883789 26.4373321533203 26.576587677002 26.6408004760742 26.5753173828125 26.2891864776611 25.811544418335 25.1903743743896 24.7676982879639 24.9019966125488 25.327449798584 25.7173385620117 26.093822479248 26.5000019073486 26.8415699005127 27.0391216278076 27.1112804412842 27.1195945739746 27.0954704284668 27.0435447692871 26.9236965179443 26.696361541748 26.4578456878662 26.3531875610352 26.4059543609619 26.5365734100342 26.7395114898682 26.9784660339355 27.1324710845947
-9999 -9999 -9999 -9999 -9999 -9999 -9999 -9999 -9999 -9999 -9999 -9999 -9999 -9999 25.5171117782593 25.55393409729 25.7349185943604 -9999 -9999 23.5695939064026 23.4551429748535 23.1160736083984 23.1897315979004 24.0049896240234 25.3454036712646 26.5061798095703 27.2170162200928 27.5847034454346 27.7200717926025 27.7437438964844 27.7253894805908 27.6923351287842 27.6928882598877 27.7572994232178 27.8417587280273 27.8922443389893 27.8739051818848 27.7683200836182 27.5143184661865 27.1204433441162 26.8168621063232 26.7596626281738 26.86794090271 26.9978199005127 27.0702495574951 27.0776672363281 26.9387035369873 26.6636657714844 26.3347759246826 26.0934410095215 26.0627975463867 26.1867141723633 26.4616374969482 26.8279361724854 27.2053413391113 27.4343433380127 27.4803600311279 27.4241504669189 27.3470344543457 27.2934074401855 27.2754173278809 27.2746963500977 27.2606639862061 27.1935119628906 27.0964469909668 27.0183124542236 26.9741916656494 27.0057239532471 27.0700016021729 27.1064491271973
-9999 -9999 -9999 -9999 -9999 -9999 -9999 -9999 -9999 -9999 -9999 -9999 -9999 -9999 -9999 25.6098678588867 25.7142124176025 -9999 24.6565313339233 23.9638767242432 23.4562034606934 23.3532218933105 24.0892753601074 25.5532150268555 26.9103622436523 27.7079772949219 28.1337947845459 28.3187656402588 28.3454723358154 28.2696285247803 28.1433486938477 28.0279159545898 27.9638957977295 27.9647693634033 28.008918762207 28.0758209228516 28.1417560577393 28.1714820861816 28.1371974945068 27.9780368804932 27.689546585083 27.4091415405273 27.3156509399414 27.4012813568115 27.5205078125 27.6028861999512 27.5624923706055 27.3816452026367 27.1715679168701 27.068790435791 27.0340690612793 27.0223121643066 27.1590385437012 27.3630771636963 27.4928817749023 27.4525260925293 27.303747177124 27.1126461029053 26.9473609924316 26.863431930542 26.8468170166016 26.8656139373779 26.9070072174072 26.9512786865234 26.9759292602539 26.9832649230957 26.9773941040039 26.9631519317627 26.9347133636475 26.9040451049805
-9999 -9999 -9999 -9999 -9999 -9999 -9999 -9999 -9999 -9999 -9999 -9999 -9999 -9999 -9999 25.5665435791016 25.4797306060791 -9999 24.668327331543 24.1244850158691 23.6157245635986 23.8497104644775 25.1823635101318 26.8546295166016 27.8286895751953 28.3050670623779 28.4767322540283 28.4605541229248 28.2855587005615 28.0127334594727 27.7575054168701 27.5993766784668 27.5329132080078 27.523509979248 27.5526828765869 27.6183414459229 27.7271823883057 27.8539505004883 27.9707832336426 28.0405540466309 27.9928016662598 27.8269176483154 27.6845626831055 27.6893348693848 27.7981853485107 27.9108657836914 27.9333648681641 27.826940536499 27.6433486938477 27.5354347229004 27.4987010955811 27.4876480102539 27.4950714111328 27.4487781524658 27.2816429138184 27.0297393798828 26.7858467102051 26.5587635040283 26.4058380126953 26.3604850769043 26.3553333282471 26.3572521209717 26.376974105835 26.4111919403076 26.4339542388916 26.4449596405029 26.4506950378418 26.4501895904541 26.4496402740479 26.45263671875
-9999 -9999 -9999 -9999 -9999 -9999 -9999 -9999 -9999 -9999 -9999 -9999 -9999 -9999 -9999 25.5147914886475 -9999 25.0159538814 24.7306518554688 24.1916828155518 23.8548336029053 24.570276260376 26.2237243652344 27.6075534820557 28.2633686065674 28.5389518737793 28.5171375274658 28.2771835327148 27.8805103302002 27.4999580383301 27.2789859771729 27.2002925872803 27.1825790405273 27.1957988739014 27.2300395965576 27.271125793457 27.3236598968506 27.3979225158691 27.4960803985596 27.6033744812012 27.6752872467041 27.6751098632812 27.6402797698975 27.6543292999268 27.7161903381348 27.7836055755615 27.8270130157471 27.8072605133057 27.7052192687988 27.6054439544678 27.5555534362793 27.5007820129395 27.29931640625 26.9907207489014 26.6854496002197 26.4704189300537 26.33078956604 26.2034091949463 26.1145477294922 26.0569171905518 26.0020446777344 25.9767646789551 25.9879970550537 26.0197944641113 26.04541015625 26.0572052001953 26.0862865447998 26.1197242736816 26.1576747894287 26.2029361724854
-9999 -9999 -9999 -9999 -9999 -9999 -9999 -9999 -9999 -9999 -9999 -9999 -9999 -9999 25.5147914886475 25.3421853383382 25.2092437744141 24.9840545654297 24.7371482849121 24.2811222076416 24.1577243804932 25.1848087310791 26.8918857574463 28.0177669525146 28.4747543334961 28.5793418884277 28.3639373779297 27.9126319885254 27.4054298400879 27.0766468048096 26.9696445465088 26.9729690551758 27.0025043487549 27.058687210083 27.1132431030273 27.1410789489746 27.1397800445557 27.0926361083984 27.0210781097412 26.9986038208008 27.0376873016357 27.0944309234619 27.1455135345459 27.2123069763184 27.285587310791 27.3318195343018 27.364278793335 27.4094009399414 27.4289932250977 27.3851490020752 27.2553081512451 27.0085220336914 26.7105884552002 26.4501838684082 26.2693710327148 26.2103290557861 26.1984558105469 26.1785526275635 26.1345996856689 26.0592441558838 25.9883346557617 25.9886837005615 26.0013885498047 26.0098991394043 26.0227146148682 26.0386905670166 26.0914459228516 26.1519317626953 26.1967353820801 26.2233924865723
-9999 -9999 -9999 -9999 -9999 -9999 -9999 -9999 -9999 -9999 -9999 -9999 -9999 -9999 -9999 -9999 25.093334197998 25.0535488128662 24.7866325378418 24.4258766174316 24.4029541015625 25.5052108764648 27.2932949066162 28.3166542053223 28.5941677093506 28.5172863006592 28.1147480010986 27.5379161834717 27.0572261810303 26.8463840484619 26.8317432403564 26.8942012786865 26.9557971954346 27.0220527648926 27.0649833679199 27.0615520477295 26.9761257171631 26.794412612915 26.5975399017334 26.5000343322754 26.505256652832 26.5668239593506 26.6399841308594 26.7066764831543 26.7661914825439 26.8209686279297 26.8835754394531 26.9724140167236 27.0220184326172 26.9587955474854 26.7765731811523 26.545316696167 26.3500518798828 26.2070808410645 26.1696014404297 26.1728839874268 26.2158012390137 26.2536754608154 26.2364711761475 26.1591415405273 26.0977954864502 26.0746955871582 26.0259952545166 25.9699287414551 25.9386978149414 25.9384346008301 25.969970703125 26.0037326812744 26.032262802124 26.057186126709
-9999 -9999 -9999 -9999 -9999 -9999 -9999 -9999 -9999 -9999 -9999 -9999 -9999 -9999 -9999 -9999 25.0900192260742 25.1264896392822 24.7692241668701 24.4333534240723 24.5862770080566 26.0013084411621 27.8530464172363 28.5339298248291 28.6181030273438 28.3343143463135 27.7775478363037 27.2255611419678 26.902322769165 26.8141403198242 26.8494892120361 26.9383773803711 26.9933776855469 27.0210208892822 27.0444011688232 27.0268459320068 26.8801288604736 26.6114349365234 26.3729839324951 26.2721672058105 26.2617893218994 26.2978382110596 26.352144241333 26.3963108062744 26.4341678619385 26.5026397705078 26.5786457061768 26.6382141113281 26.6248474121094 26.5306396484375 26.4096794128418 26.2558765411377 26.1405200958252 26.1012191772461 26.1167259216309 26.1417045593262 26.190486907959 26.2117900848389 26.1836166381836 26.1324291229248 26.0978908538818 26.0559501647949 25.9847183227539 25.9176502227783 25.8617877960205 25.82395362854 25.8101081848145 25.8181972503662 25.8572864532471 25.9296607971191
-9999 -9999 -9999 -9999 -9999 -9999 -9999 -9999 -9999 -9999 -9999 -9999 -9999 -9999 -9999 -9999 -9999 24.8604393005371 24.7958011627197 24.6585788726807 25.3007431030273 26.9874267578125 28.3053073883057 28.6484699249268 28.5441570281982 28.0792980194092 27.4691963195801 27.0466289520264 26.8950748443604 26.8779525756836 26.9181652069092 27.0029373168945 27.0602931976318 27.0783958435059 27.098819732666 27.0832366943359 26.9094066619873 26.5891590118408 26.3329544067383 26.2325191497803 26.1985969543457 26.1874713897705 26.1846294403076 26.1835289001465 26.2144813537598 26.2857265472412 26.3410682678223 26.3396759033203 26.2781562805176 26.2153339385986 26.14182472229 26.0209064483643 25.9804039001465 26.01975440979 26.0681419372559 26.0980396270752 26.1200542449951 26.116153717041 26.1021709442139 26.0982494354248 26.0834789276123 26.0532512664795 26.0101356506348 25.9791507720947 25.9428386688232 25.8999423980713 25.8733062744141 25.8603858947754 25.8846969604492 25.9462909698486
-9999 -9999 -9999 -9999 -9999 -9999 -9999 -9999 -9999 -9999 -9999 -9999 -9999 -9999 25.1173720359802 25.1264896392822 24.8775482177734 24.773021697998 24.7502422332764 24.8312835693359 25.9108734130859 27.9059810638428 28.6426486968994 28.7263832092285 28.4124507904053 27.8068161010742 27.2419853210449 26.9805297851562 26.9358444213867 26.9510116577148 26.9918746948242 27.0398120880127 27.0634746551514 27.0778045654297 27.1006126403809 27.0834083557129 26.8993377685547 26.5875568389893 26.3543262481689 26.23508644104 26.1551036834717 26.0860042572021 26.0330543518066 26.0199890136719 26.040548324585 26.0714092254639 26.0909996032715 26.0729141235352 26.0287380218506 26.0018520355225 25.9603672027588 25.8961925506592 25.9079360961914 25.9960403442383 26.075231552124 26.0987663269043 26.1080684661865 26.1003150939941 26.0834350585938 26.0846347808838 26.071174621582 26.0431365966797 26.01780128479 26.0123634338379 26.002405166626 25.971736907959 25.9808006286621 25.9919834136963 25.9895629882812 25.9666576385498
-9999 -9999 -9999 -9999 -9999 -9999 -9999 -9999 -9999 -9999 -9999 -9999 -9999 -9999 -9999 -9999 -9999 -9999 25.0922431945801 25.1447010040283 26.5607299804688 28.3999500274658 28.7885589599609 28.6840991973877 28.2038059234619 27.5510272979736 27.0881309509277 26.9385852813721 26.9215717315674 26.9339466094971 26.9667644500732 27.0002975463867 27.0212860107422 27.0458126068115 27.0798683166504 27.0572566986084 26.8709850311279 26.5980110168457 26.3905849456787 26.2561511993408 26.1503925323486 26.0650386810303 26.0179290771484 26.0044364929199 25.9986476898193 25.9884548187256 25.9755039215088 25.9495887756348 25.9173183441162 25.886251449585 25.8580017089844 25.8509902954102 25.9300537109375 26.0714702606201 26.1598472595215 26.1704750061035 26.1532154083252 26.1212882995605 26.0718250274658 26.0355587005615 26.0134887695312 25.9898910522461 25.9691276550293 25.9576587677002 25.9523258209229 25.8820819854736 25.8820934295654 25.9360218048096 25.9836502075195 25.9131679534912
-9999 -9999 -9999 -9999 -9999 -9999 -9999 -9999 -9999 -9999 -9999 -9999 -9999 -9999 -9999 -9999 -9999 25.946231842041 25.8669304847717 25.6427459716797 26.9920997619629 28.6173419952393 28.8781967163086 28.5860500335693 27.9646072387695 27.3389377593994 27.0046119689941 26.8992881774902 26.867826461792 26.8563117980957 26.8741283416748 26.9206485748291 26.9757957458496 27.0202159881592 27.0520572662354 27.0111179351807 26.8298530578613 26.6077919006348 26.4375629425049 26.3019924163818 26.1878986358643 26.1187419891357 26.0924682617188 26.0904979705811 26.1007537841797 26.0989093780518 26.0717124938965 26.0205421447754 25.950044631958 25.850269317627 25.7718753814697 25.7745475769043 25.8905277252197 26.0703029632568 26.1861724853516 26.2374000549316 26.2262382507324 26.1665420532227 26.1052360534668 26.069149017334 26.0403861999512 26.0254802703857 26.0090007781982 25.9726448059082 25.9424839019775 25.8381862640381 25.738208770752 25.7679576873779 25.8561916351318 25.8213176727295
-9999 -9999 -9999 -9999 -9999 -9999 -9999 -9999 -9999 -9999 -9999 -9999 -9999 27.2895355224609 27.1652662489149 -9999 26.9077405929565 26.7503414154053 25.946231842041 26.7340431213379 28.2095432281494 28.9837436676025 28.904109954834 28.4369716644287 27.7317600250244 27.1824493408203 26.9774055480957 26.8938179016113 26.8537197113037 26.8129501342773 26.7767906188965 26.8022613525391 26.8890171051025 26.9604206085205 26.9651260375977 26.9103755950928 26.7732105255127 26.59987449646 26.439094543457 26.2856025695801 26.1748332977295 26.1410980224609 26.1822242736816 26.2568664550781 26.3250560760498 26.3674545288086 26.3737354278564 26.3287105560303 26.2313899993896 26.0540752410889 25.805591583252 25.6036262512207 25.5752201080322 25.7081871032715 25.8750782012939 26.004093170166 26.095832824707 26.1110305786133 26.0840854644775 26.057466506958 26.0414047241211 26.0237617492676 26.0123729705811 25.9835376739502 26.0030784606934 25.9168376922607 25.7167739868164 25.6941204071045 25.7998828887939 25.7931632995605
-9999 -9999 -9999 -9999 -9999 -9999 -9999 -9999 -9999 -9999 -9999 -9999 -9999 -9999 27.2895355224609 27.2320162455241 26.9742469787598 26.8412342071533 27.239652633667 28.4530506134033 29.0213947296143 29.0074234008789 28.7131462097168 28.167407989502 27.4630012512207 27.0437965393066 26.9482097625732 26.9204025268555 26.8990230560303 26.8399486541748 26.7410144805908 26.7018852233887 26.7595043182373 26.8409767150879 26.8627262115479 26.824031829834 26.730993270874 26.5775241851807 26.4107151031494 26.2801246643066 26.2438316345215 26.3163375854492 26.4343280792236 26.5335884094238 26.593412399292 26.6132049560547 26.6109504699707 26.5848922729492 26.5375461578369 26.4424152374268 26.2387008666992 25.8260135650635 25.3770122528076 25.2244205474854 25.4052734375 25.6230010986328 25.7544956207275 25.8618831634521 25.9282703399658 25.9475078582764 25.9607639312744 25.9742889404297 25.9809379577637 25.9638290405273 26.0323619842529 25.9847736358643 25.7407722473145 25.7135562896729 25.823221206665 25.8522281646729
-9999 -9999 -9999 -9999 -9999 -9999 -9999 -9999 -9999 -9999 -9999 -9999 -9999 -9999 27.4475116729736 27.2895355224609 27.4322662353516 27.8643989562988 28.6367568969727 29.1118640899658 29.1454734802246 28.9588642120361 28.5524158477783 27.9118843078613 27.1838245391846 26.831169128418 26.8337135314941 26.8966102600098 26.9158267974854 26.8751277923584 26.7585105895996 26.6661815643311 26.678731918335 26.7410850524902 26.769660949707 26.7481002807617 26.672700881958 26.540376663208 26.4139137268066 26.3531627655029 26.3963088989258 26.5141754150391 26.6200580596924 26.6779193878174 26.6844310760498 26.6570911407471 26.6276016235352 26.6021614074707 26.5769500732422 26.5377254486084 26.4495792388916 26.206636428833 25.6524200439453 25.1608753204346 25.1315841674805 25.3218078613281 25.4700565338135 25.5648880004883 25.6682033538818 25.7647705078125 25.8292446136475 25.8681049346924 25.8928737640381 25.9136180877686 26.03662109375 26.0141944885254 25.783052444458 25.7818946838379 25.8831367492676 25.9367656707764
-9999 -9999 -9999 -9999 -9999 -9999 -9999 -9999 -9999 -9999 -9999 27.5331745147705 27.4995250701904 27.4552803039551 27.4516849517822 27.5935459136963 28.2371940612793 28.846399307251 29.1711559295654 29.2205200195312 29.0939750671387 28.8261661529541 28.3026180267334 27.5496196746826 26.8749923706055 26.6390838623047 26.6927700042725 26.8000831604004 26.8737888336182 26.8653411865234 26.7711906433105 26.6936225891113 26.6929626464844 26.7281150817871 26.7405128479004 26.7045879364014 26.6340789794922 26.5385036468506 26.4597301483154 26.4427013397217 26.5101451873779 26.6186466217041 26.6966762542725 26.7139663696289 26.6818695068359 26.6385841369629 26.6123313903809 26.5873985290527 26.5521965026855 26.5044727325439 26.4471378326416 26.3042640686035 25.8726558685303 25.3991851806641 25.1579608917236 25.1744689941406 25.3400001525879 25.4479866027832 25.5168914794922 25.6065940856934 25.668773651123 25.7109546661377 25.7553615570068 25.8472557067871 25.9844093322754 25.9499797821045 25.8523025512695 25.8806228637695 25.9730930328369 26.1183815002441
-9999 -9999 -9999 -9999 -9999 -9999 -9999 -9999 -9999 27.5791492462158 27.4269428253174 27.4523334503174 27.4805107116699 27.5132789611816 27.6355495452881 27.9342594146729 28.7578754425049 29.1040744781494 29.1998958587646 29.1327781677246 28.9795932769775 28.685884475708 28.0770874023438 27.2704544067383 26.7380905151367 26.6278457641602 26.6879940032959 26.7849178314209 26.8381843566895 26.7981433868408 26.7416572570801 26.7388935089111 26.7666454315186 26.7942733764648 26.800350189209 26.7739658355713 26.7022151947021 26.6137714385986 26.5454406738281 26.5268726348877 26.5610771179199 26.6155757904053 26.6478099822998 26.6254596710205 26.5882797241211 26.5885543823242 26.595329284668 26.5567855834961 26.4748630523682 26.3758964538574 26.2850894927979 26.1778945922852 25.8682632446289 25.5252532958984 25.2936687469482 25.268440246582 25.3793163299561 25.4771575927734 25.5277614593506 25.545690536499 25.5510368347168 25.5749855041504 25.6654853820801 25.8066864013672 25.9256572723389 25.9147930145264 25.9247722625732 25.9524574279785 26.0350952148438 26.2594127655029
-9999 -9999 -9999 -9999 -9999 -9999 -9999 -9999 -9999 27.4017238616943 27.3864574432373 27.5309886932373 27.6556491851807 27.793628692627 28.1246147155762 28.7123374938965 29.1725330352783 29.3105869293213 29.2384185791016 29.0659980773926 28.8633403778076 28.5370750427246 27.9090671539307 27.1387672424316 26.8006458282471 26.7256088256836 26.7578926086426 26.8347358703613 26.8955211639404 26.8991527557373 26.884334564209 26.8636226654053 26.840950012207 26.8465614318848 26.8699893951416 26.8804664611816 26.8306427001953 26.7339878082275 26.6428298950195 26.5920543670654 26.588846206665 26.6026763916016 26.6105651855469 26.6019458770752 26.6205577850342 26.6473655700684 26.5988235473633 26.4397144317627 26.2289237976074 26.0601367950439 25.9881553649902 25.9421272277832 25.748104095459 25.5008563995361 25.2986488342285 25.3445701599121 25.470157623291 25.5663719177246 25.6660251617432 25.7083625793457 25.6689014434814 25.6232681274414 25.7035865783691 25.8448314666748 25.9114151000977 25.9046535491943 25.9745655059814 26.0096683502197 26.0508518218994 26.2710189819336
-9999 -9999 -9999 -9999 -9999 27.4366049766541 27.318603515625 27.2619762420654 27.2901630401611 27.3833065032959 27.4631652832031 27.6522922515869 27.8772068023682 28.2487049102783 28.7456035614014 29.1270427703857 29.2751064300537 29.2340450286865 29.0715465545654 28.9018993377686 28.7061386108398 28.3524169921875 27.7431297302246 27.1088256835938 26.923397064209 26.8852481842041 26.8821144104004 26.9493389129639 27.047794342041 27.1018333435059 27.0987682342529 27.0754413604736 27.032506942749 26.9872932434082 26.9745006561279 26.9890403747559 26.990327835083 26.9347858428955 26.8362770080566 26.7475719451904 26.7018165588379 26.6936473846436 26.7001724243164 26.7206592559814 26.7225399017334 26.6099147796631 26.3295879364014 25.9923362731934 25.7404499053955 25.633321762085 25.665828704834 25.729118347168 25.6537055969238 25.4673748016357 25.3040103912354 25.4124717712402 25.5215244293213 25.5929107666016 25.7427024841309 25.8721942901611 25.8789196014404 25.8250141143799 25.8523597717285 25.9304828643799 25.9169788360596 25.8979949951172 26.0167064666748 26.091625213623 26.1183071136475 26.330099105835
-9999 -9999 -9999 -9999 27.717700958252 27.4459476470947 27.2641677856445 27.2335834503174 27.2550487518311 27.3444213867188 27.4564208984375 27.8453273773193 28.3620128631592 28.8831348419189 29.2244186401367 29.340015411377 29.2867794036865 29.1105194091797 28.9205532073975 28.7697010040283 28.5806140899658 28.2258567810059 27.7129878997803 27.2558326721191 27.1451663970947 27.0825042724609 27.0110778808594 27.0425128936768 27.149730682373 27.2035942077637 27.195104598999 27.1714725494385 27.147180557251 27.111328125 27.0733528137207 27.0486507415771 27.0537147521973 27.0573635101318 27.0276489257812 26.9565181732178 26.8837432861328 26.8525562286377 26.8275489807129 26.7373065948486 26.4483051300049 26.0288982391357 25.7099056243896 25.5352210998535 25.4683895111084 25.4748058319092 25.5475311279297 25.6361083984375 25.6076755523682 25.4422359466553 25.4053974151611 25.5494785308838 25.6287994384766 25.6816959381104 25.8211898803711 25.9364128112793 25.9609756469727 25.9415225982666 25.9518203735352 25.9654941558838 25.9046306610107 25.9370193481445 26.0859851837158 26.1717395782471 26.1972103118896 26.3632621765137
-9999 -9999 -9999 27.5007433891296 27.4442138671875 27.224479675293 27.2598285675049 27.3677654266357 27.536470413208 27.8071956634521 28.0686111450195 28.5514240264893 29.0758152008057 29.3604717254639 29.4397296905518 29.3185882568359 29.1079235076904 28.8921852111816 28.7501068115234 28.6512966156006 28.5206260681152 28.1922836303711 27.8062381744385 27.5536251068115 27.4249076843262 27.3004741668701 27.1812286376953 27.1030693054199 27.131555557251 27.1927299499512 27.2026424407959 27.1707954406738 27.1499061584473 27.1369743347168 27.0996475219727 27.0475482940674 27.0482425689697 27.0932006835938 27.109058380127 27.0429515838623 26.9084148406982 26.7421398162842 26.517068862915 26.207555770874 25.8796901702881 25.6429767608643 25.5002517700195 25.4316444396973 25.4114017486572 25.4252853393555 25.4689769744873 25.5335636138916 25.5496597290039 25.5694370269775 25.7155475616455 25.8443832397461 25.8151397705078 25.8097286224365 25.9324684143066 26.011209487915 26.0320739746094 26.0692291259766 26.1025829315186 26.1233558654785 26.1457500457764 26.2444744110107 26.3794822692871 26.4312629699707 26.3896102905273 26.3831977844238
-9999 -9999 -9999 27.5144138336182 27.3266448974609 27.339714050293 27.5696620941162 27.9158573150635 28.3101997375488 28.6440277099609 28.8939876556396 29.1947917938232 29.4109363555908 29.4902858734131 29.363697052002 29.1137619018555 28.8827495574951 28.7027015686035 28.6190280914307 28.5821971893311 28.5134944915771 28.2252635955811 27.8709526062012 27.661792755127 27.5356864929199 27.4185619354248 27.2909698486328 27.154764175415 27.0734462738037 27.1050720214844 27.1566753387451 27.1493835449219 27.119722366333 27.0888843536377 27.0563011169434 27.0444793701172 27.086727142334 27.1094017028809 27.0227947235107 26.8218269348145 26.5641632080078 26.3224678039551 26.1237831115723 25.9476432800293 25.7796993255615 25.6581192016602 25.5772018432617 25.5346565246582 25.5575294494629 25.6321296691895 25.7242736816406 25.8256893157959 25.9366340637207 26.0711688995361 26.190055847168 26.2075176239014 26.0746269226074 25.9999847412109 26.0987491607666 26.1866588592529 26.2515392303467 26.3419342041016 26.4116172790527 26.4865570068359 26.6092071533203 26.73801612854 26.8190822601318 26.836935043335 26.8163356781006 26.7638778686523
