NCOLS 70 
NROWS 52 
XLLCORNER -80 
YLLCORNER 33 
CELLSIZE 0.25 
NODATA_value -9999 
-9999.000000000000000 -9999 -9999 -9999 -9999 -9999 -9999 -9999 -9999 -9999 -9999 -9999 -9999 -9999 -9999 -9999 -9999 -9999 -9999 -9999 -9999 -9999 -9999 -9999 -9999 -9999 -9999 -9999 -9999 -9999 -9999 -9999 -9999 -9999 -9999 -9999 -9999 -9999 -9999 -9999 -9999 -9999 -9999 -9999 -9999 -9999 -9999 -9999 -9999 -9999 -9999 -9999 -9999 -9999 -9999 -9999 -9999 -9999 -9999 -9999 -9999 -9999 -9999 -9999 -9999 -9999 -9999 -9999 -9999 -9999
-9999 -9999 -9999 -9999 -9999 -9999 -9999 -9999 -9999 -9999 -9999 -9999 -9999 -9999 -9999 -9999 -9999 -9999 -9999 -9999 -9999 -9999 -9999 -9999 -9999 -9999 -9999 -9999 -9999 -9999 -9999 -9999 -9999 -9999 -9999 -9999 -9999 -9999 -9999 -9999 -9999 -9999 -9999 -9999 -9999 -9999 -9999 -9999 -9999 -9999 -9999 -9999 -9999 -9999 -9999 -9999 -9999 -9999 -9999 -9999 -9999 -9999 -9999 -9999 -9999 -9999 -9999 -9999 -9999 -9999
-9999 -9999 -9999 -9999 -9999 -9999 -9999 -9999 -9999 -9999 -9999 -9999 -9999 -9999 -9999 -9999 -9999 -9999 -9999 -9999 -9999 -9999 -9999 -9999 -9999 -9999 -9999 -9999 -9999 -9999 -9999 -9999 -9999 -9999 -9999 -9999 -9999 -9999 -9999 -9999 -9999 -9999 -9999 -9999 -9999 -9999 -9999 -9999 -9999 -9999 -9999 -9999 -9999 -9999 -9999 -9999 -9999 -9999 -9999 4.12351608276367 -9999 -9999 -9999 -9999 -9999 -9999 -9999 -9999 -9999 -9999
-9999 -9999 -9999 -9999 -9999 -9999 -9999 -9999 -9999 -9999 -9999 -9999 -9999 -9999 -9999 -9999 -9999 -9999 -9999 -9999 -9999 -9999 -9999 -9999 -9999 -9999 -9999 -9999 -9999 -9999 -9999 -9999 -9999 -9999 -9999 -9999 -9999 -9999 -9999 -9999 -9999 -9999 -9999 -9999 -9999 -9999 -9999 -9999 -9999 -9999 -9999 -9999 -9999 -9999 -9999 5.65069437026978 5.72479057312012 5.77112150192261 5.52394914627075 4.84238338470459 -9999 -9999 -9999 -9999 -9999 -9999 -9999 -9999 -9999 -9999
-9999 -9999 -9999 -9999 -9999 -9999 -9999 -9999 -9999 -9999 -9999 -9999 -9999 -9999 -9999 -9999 -9999 -9999 -9999 -9999 -9999 -9999 -9999 -9999 -9999 -9999 -9999 -9999 -9999 -9999 -9999 -9999 -9999 -9999 -9999 -9999 -9999 -9999 -9999 -9999 -9999 -9999 -9999 -9999 -9999 -9999 -9999 -9999 -9999 -9999 -9999 -9999 5.23925399780273 5.67184734344482 5.85202503204346 5.92910671234131 5.93127346038818 5.84092617034912 -9999 -9999 -9999 -9999 -9999 -9999 -9999 -9999 -9999 -9999 -9999 -9999
-9999 -9999 -9999 -9999 -9999 -9999 -9999 -9999 -9999 -9999 -9999 -9999 -9999 -9999 -9999 -9999 -9999 -9999 -9999 -9999 -9999 -9999 -9999 -9999 -9999 -9999 -9999 -9999 -9999 -9999 -9999 -9999 -9999 -9999 -9999 -9999 -9999 -9999 -9999 -9999 -9999 -9999 -9999 -9999 -9999 -9999 -9999 -9999 -9999 -9999 5.83299312591553 5.79145908355713 5.98687839508057 6.24771976470947 6.22412204742432 5.81440353393555 -9999 -9999 -9999 -9999 -9999 -9999 -9999 -9999 -9999 -9999 -9999 5.31136496861776 5.08337473869324 4.8457293510437
-9999 -9999 -9999 -9999 -9999 -9999 -9999 -9999 -9999 -9999 -9999 -9999 -9999 -9999 -9999 -9999 -9999 -9999 -9999 -9999 -9999 -9999 -9999 -9999 -9999 -9999 -9999 -9999 -9999 -9999 -9999 -9999 -9999 -9999 -9999 -9999 -9999 -9999 -9999 -9999 -9999 -9999 -9999 -9999 4.89111693700155 -9999 -9999 5.99276065826416 6.01091051101685 6.14914655685425 6.23067283630371 6.23456430435181 6.47231245040894 6.71343612670898 6.59669351577759 -9999 -9999 -9999 -9999 -9999 -9999 -9999 -9999 5.65768003463745 5.78300285339355 5.69717359542847 5.49656248092651 5.30376672744751 5.13376569747925 5.05023717880249
-9999 -9999 -9999 -9999 -9999 -9999 -9999 -9999 -9999 -9999 -9999 -9999 -9999 -9999 -9999 -9999 -9999 -9999 -9999 -9999 -9999 -9999 -9999 -9999 -9999 -9999 -9999 -9999 -9999 -9999 -9999 -9999 -9999 -9999 -9999 -9999 -9999 -9999 -9999 -9999 -9999 -9999 -9999 -9999 4.83263635635376 4.95732307434082 5.51332521438599 6.08880805969238 6.35799884796143 6.46763229370117 6.52954387664795 6.59806108474731 6.72303152084351 6.83868026733398 6.75769412517548 -9999 -9999 -9999 -9999 -9999 -9999 -9999 6.15040922164917 6.10185623168945 6.00981903076172 5.8766884803772 5.69950103759766 5.48460626602173 5.31064128875732 5.24547338485718
-9999 -9999 -9999 -9999 -9999 -9999 -9999 -9999 -9999 -9999 -9999 -9999 -9999 -9999 -9999 -9999 -9999 -9999 -9999 -9999 -9999 -9999 -9999 -9999 -9999 -9999 -9999 -9999 -9999 -9999 -9999 -9999 -9999 -9999 -9999 -9999 -9999 -9999 -9999 -9999 6.33945226669312 6.51050392786662 6.26125268936157 6.24819946289062 6.19200134277344 6.29243516921997 6.46004247665405 6.59513902664185 6.70221424102783 6.76491594314575 6.76421070098877 6.75430965423584 6.81376314163208 6.88196659088135 6.67071475982666 -9999 -9999 -9999 -9999 -9999 6.37473249435425 6.28596448898315 6.26725196838379 6.20321941375732 6.06787633895874 5.90597057342529 5.78745365142822 5.70887470245361 5.60826539993286 5.54313659667969
-9999 -9999 -9999 -9999 -9999 -9999 -9999 -9999 -9999 -9999 -9999 -9999 -9999 -9999 -9999 -9999 -9999 -9999 -9999 -9999 -9999 -9999 -9999 -9999 -9999 -9999 -9999 -9999 -9999 -9999 -9999 -9999 -9999 -9999 -9999 -9999 -9999 -9999 -9999 6.2340292930603 6.30756664276123 6.47676086425781 6.74718427658081 6.95072746276855 7.04875087738037 7.02209949493408 6.92039346694946 6.92415761947632 7.02865314483643 7.10160446166992 7.08131837844849 7.0058274269104 6.95535182952881 6.90882253646851 6.63881015777588 6.08529424667358 -9999 -9999 -9999 6.45579898357391 6.43390655517578 6.40432643890381 6.39023113250732 6.30441951751709 6.16438961029053 6.08777761459351 6.19324684143066 6.32413721084595 6.20642280578613 6.01906585693359
-9999 -9999 -9999 -9999 -9999 -9999 -9999 -9999 -9999 -9999 -9999 -9999 -9999 -9999 -9999 -9999 -9999 -9999 -9999 -9999 -9999 -9999 -9999 -9999 -9999 -9999 -9999 -9999 -9999 -9999 -9999 -9999 -9999 -9999 -9999 -9999 -9999 -9999 6.7201361656189 6.66962957382202 6.76851892471313 6.89760684967041 6.98753309249878 7.10784387588501 7.18408489227295 7.17101335525513 7.12763214111328 7.15685987472534 7.23525905609131 7.2854642868042 7.272705078125 7.19076728820801 7.08814334869385 7.00548839569092 6.85458183288574 6.43577098846436 6.10189628601074 6.36814165115356 6.3414249420166 6.50067710876465 6.54718732833862 6.59837770462036 6.62523555755615 6.4918098449707 6.32249593734741 6.32654142379761 6.62255191802979 6.94643306732178 6.85929536819458 6.65397834777832
-9999 -9999 -9999 -9999 -9999 -9999 -9999 -9999 -9999 -9999 -9999 -9999 -9999 -9999 -9999 -9999 -9999 -9999 -9999 -9999 -9999 -9999 -9999 -9999 -9999 -9999 -9999 -9999 -9999 -9999 -9999 -9999 -9999 -9999 -9999 -9999 -9999 6.7937798500061 6.90907955169678 6.99416255950928 7.00442314147949 7.05509424209595 7.15152454376221 7.25639915466309 7.31453514099121 7.31650972366333 7.29987764358521 7.30293750762939 7.30906057357788 7.30103063583374 7.2683801651001 7.17948579788208 7.06374359130859 6.99861192703247 6.96638107299805 6.84811067581177 6.6685619354248 6.67611408233643 6.70985651016235 6.70955610275269 6.76805019378662 6.87333011627197 6.91942644119263 6.71206998825073 6.47565412521362 6.51287651062012 6.87968111038208 7.27644062042236 7.29900360107422 7.290283203125
-9999 -9999 -9999 -9999 -9999 -9999 -9999 -9999 -9999 -9999 -9999 -9999 -9999 -9999 -9999 -9999 -9999 -9999 -9999 -9999 -9999 -9999 -9999 -9999 -9999 -9999 -9999 -9999 -9999 -9999 -9999 -9999 -9999 -9999 -9999 -9999 -9999 7.30113697052002 7.28876829147339 7.2195520401001 7.17761850357056 7.21759986877441 7.29480886459351 7.38591051101685 7.44326782226562 7.44679689407349 7.4238543510437 7.39022874832153 7.33737897872925 7.27480936050415 7.20801973342896 7.11328601837158 7.03643560409546 7.02853012084961 7.03639793395996 7.01126527786255 6.97104930877686 6.93068647384644 6.86735677719116 6.84445142745972 6.89762878417969 7.02042007446289 7.11681604385376 6.98490142822266 6.81672620773315 6.89852142333984 7.34523963928223 7.81045627593994 7.95288228988647 8.05291271209717
-9999 -9999 -9999 -9999 -9999 -9999 -9999 -9999 -9999 -9999 -9999 -9999 -9999 -9999 -9999 -9999 -9999 -9999 -9999 -9999 -9999 -9999 -9999 -9999 -9999 -9999 -9999 -9999 -9999 -9999 -9999 -9999 -9999 -9999 -9999 -9999 -9999 7.21617078781128 7.40283060073853 7.36961364746094 7.35914850234985 7.39668321609497 7.44304466247559 7.50754499435425 7.56364107131958 7.57291698455811 7.54346418380737 7.48956871032715 7.40922260284424 7.31959581375122 7.24224472045898 7.17718315124512 7.15823030471802 7.18016862869263 7.14443016052246 7.04081773757935 6.99611139297485 7.00640106201172 6.98901271820068 6.97622966766357 7.01008558273315 7.1771936416626 7.43929433822632 7.62842988967896 7.75323677062988 8.04922962188721 8.68754863739014 9.12354469299316 9.29295539855957 9.47594833374023
-9999 -9999 -9999 -9999 -9999 -9999 -9999 -9999 -9999 -9999 -9999 -9999 -9999 -9999 -9999 -9999 -9999 -9999 -9999 -9999 -9999 -9999 -9999 -9999 -9999 -9999 -9999 -9999 -9999 -9999 -9999 -9999 -9999 -9999 -9999 -9999 6.37911605834961 7.02376222610474 7.47557783126831 7.51719570159912 7.55634450912476 7.61648893356323 7.63560199737549 7.64290237426758 7.66949510574341 7.69032669067383 7.70200538635254 7.70464181900024 7.66449880599976 7.57109212875366 7.48735761642456 7.44379758834839 7.45821189880371 7.49230289459229 7.38935422897339 7.12101221084595 6.96642589569092 7.03026247024536 7.14118051528931 7.24867248535156 7.3003249168396 7.45188856124878 7.94299030303955 8.65360355377197 9.2761116027832 9.75763034820557 10.0561304092407 9.99301719665527 10.3215761184692 10.7950525283813
-9999 -9999 -9999 -9999 -9999 -9999 -9999 -9999 -9999 -9999 -9999 -9999 -9999 -9999 -9999 -9999 -9999 -9999 -9999 -9999 -9999 -9999 -9999 -9999 -9999 -9999 -9999 -9999 -9999 -9999 -9999 -9999 -9999 -9999 -9999 -9999 -9999 7.33919525146484 7.39968061447144 7.51649904251099 7.6643590927124 7.80259418487549 7.84400033950806 7.81219673156738 7.80093145370483 7.841712474823 7.93770837783813 8.05083751678467 8.10774612426758 8.04173374176025 7.94735527038574 7.88582134246826 7.87580919265747 7.88146305084229 7.74478197097778 7.37992572784424 7.15369749069214 7.33374071121216 7.64505243301392 8.01296234130859 8.08778095245361 8.00033378601074 8.33512878417969 9.07954406738281 9.84056377410889 10.2473001480103 10.205436706543 10.3346681594849 11.2918787002563 12.0051250457764
-9999 -9999 -9999 -9999 -9999 -9999 -9999 -9999 -9999 -9999 -9999 -9999 -9999 -9999 -9999 -9999 -9999 -9999 -9999 -9999 -9999 -9999 -9999 -9999 -9999 -9999 -9999 -9999 -9999 -9999 -9999 -9999 -9999 -9999 -9999 -9999 -9999 -9999 6.97607946395874 -9999 7.65970039367676 7.90541172027588 7.99975538253784 7.95562028884888 7.94754934310913 8.05780220031738 8.24923706054688 8.42191505432129 8.49403762817383 8.42455959320068 8.35571765899658 8.30556297302246 8.26221370697021 8.19671726226807 7.99215650558472 7.58931922912598 7.37512636184692 7.69171524047852 8.2748851776123 8.92667102813721 9.06538677215576 8.8718843460083 9.08080577850342 9.62634086608887 10.1592216491699 10.3381605148315 10.2452735900879 11.0413694381714 12.6834669113159 13.3030672073364
-9999 -9999 -9999 -9999 -9999 -9999 -9999 -9999 -9999 -9999 -9999 -9999 -9999 -9999 -9999 -9999 -9999 -9999 -9999 -9999 -9999 -9999 -9999 -9999 -9999 -9999 -9999 -9999 -9999 -9999 -9999 -9999 -9999 -9999 -9999 -9999 -9999 -9999 -9999 -9999 7.74454021453857 8.09456729888916 8.28845024108887 8.1994686126709 8.16607475280762 8.38097953796387 8.65038681030273 8.80552196502686 8.81087779998779 8.73087596893311 8.66896629333496 8.56141757965088 8.40859031677246 8.25009346008301 8.02540016174316 7.69180583953857 7.62380361557007 8.11493587493896 8.83894538879395 9.46914768218994 9.6278018951416 9.60844993591309 9.93431949615479 10.3495674133301 10.6518115997314 10.6931400299072 10.7653875350952 11.8909826278687 13.543719291687 14.1357669830322
-9999 -9999 -9999 -9999 -9999 -9999 -9999 -9999 -9999 -9999 -9999 -9999 -9999 -9999 -9999 -9999 -9999 -9999 -9999 -9999 -9999 -9999 -9999 -9999 -9999 -9999 -9999 -9999 -9999 -9999 -9999 -9999 -9999 -9999 8.4395524263382 7.65128183364868 7.45845890045166 -9999 7.16440963745117 7.12218523025513 7.52906227111816 8.22359561920166 8.70241069793701 8.66060924530029 8.59853553771973 8.84942245483398 9.11020755767822 9.19914817810059 9.15184020996094 9.04505348205566 8.89084434509277 8.61367893218994 8.3039083480835 8.09687328338623 7.94204902648926 7.800461769104 7.99135780334473 8.65548324584961 9.3560037612915 9.81281757354736 9.95973300933838 10.1296262741089 10.6484384536743 10.947359085083 11.0017032623291 11.0403757095337 11.3117418289185 12.3190212249756 13.9342746734619 14.6496315002441
-9999 -9999 -9999 -9999 -9999 -9999 -9999 -9999 -9999 -9999 -9999 -9999 -9999 -9999 -9999 -9999 -9999 -9999 -9999 -9999 -9999 -9999 -9999 -9999 -9999 -9999 -9999 7.00181198120117 7.00181198120117 6.96892881393433 7.07272672653198 7.81033611297607 8.59424114227295 8.6382417678833 8.68871879577637 8.77996730804443 8.6927604675293 8.45421314239502 8.02272033691406 7.64458608627319 7.80734634399414 8.48469638824463 9.09587383270264 9.18109130859375 9.18258094787598 9.35894775390625 9.50824928283691 9.52734851837158 9.41465377807617 9.22055244445801 8.91490650177002 8.5026273727417 8.14388847351074 7.99329662322998 7.98367595672607 7.98288679122925 8.32456302642822 9.00802135467529 9.58631992340088 10.0300779342651 10.2330560684204 10.7172651290894 11.3825559616089 11.5746641159058 11.3422594070435 11.2409772872925 11.5141611099243 12.4606256484985 14.0450658798218 14.8604326248169
-9999 -9999 -9999 -9999 -9999 -9999 -9999 -9999 -9999 -9999 -9999 -9999 -9999 -9999 -9999 -9999 -9999 -9999 -9999 -9999 -9999 -9999 -9999 -9999 -9999 -9999 -9999 -9999 -9999 -9999 8.19243335723877 8.92545127868652 9.81608486175537 10.1159324645996 10.1640224456787 10.1037921905518 9.912766456604 9.64112567901611 9.16883659362793 8.67643070220947 8.63446140289307 9.02847290039062 9.43620777130127 9.51091194152832 9.56220245361328 9.59760570526123 9.60856056213379 9.56060695648193 9.39469623565674 9.1513843536377 8.82844352722168 8.55642127990723 8.43873691558838 8.50475883483887 8.60518932342529 8.58934116363525 9.02827739715576 9.63987731933594 10.3126544952393 10.9557647705078 11.4457416534424 12.2760972976685 12.9192323684692 13.1321783065796 12.7991466522217 12.4342994689941 12.2158679962158 12.7189254760742 14.0611810684204 14.9348134994507
-9999 -9999 -9999 -9999 -9999 -9999 -9999 -9999 -9999 -9999 -9999 -9999 -9999 -9999 -9999 -9999 -9999 -9999 -9999 -9999 -9999 -9999 -9999 -9999 -9999 9.32452615102132 9.56445789337158 9.78775723775228 9.96379041671753 9.80591011047363 10.0019750595093 10.2355585098267 10.4628715515137 10.5713367462158 10.4576110839844 10.2738761901855 10.1234111785889 9.97782897949219 9.78208351135254 9.55399513244629 9.48738479614258 9.58649063110352 9.68644237518311 9.71639347076416 9.87869358062744 9.74324703216553 9.50807666778564 9.36828994750977 9.32583999633789 9.2490873336792 9.1330623626709 9.22790241241455 9.42142486572266 9.79072570800781 9.95577812194824 9.86622047424316 10.2457685470581 10.9693403244019 11.9687356948853 12.8431882858276 13.5669479370117 14.1669692993164 14.510648727417 14.6460418701172 14.5458841323853 14.3353624343872 13.8137331008911 13.6187467575073 14.2054204940796 14.9484758377075
-9999 -9999 -9999 -9999 -9999 -9999 -9999 -9999 -9999 -9999 -9999 -9999 -9999 -9999 -9999 -9999 -9999 -9999 -9999 -9999 -9999 -9999 -9999 -9999 9.05961608886719 9.35237503051758 9.5615873336792 9.77941131591797 10.0222730636597 10.2475671768188 10.4816083908081 10.6812086105347 10.7072238922119 10.5433139801025 10.3211545944214 10.1889362335205 10.163857460022 10.157265663147 10.1877841949463 10.2192192077637 10.2860593795776 10.418478012085 10.6033477783203 10.853964805603 11.0485496520996 10.4495716094971 9.65720272064209 9.59181213378906 10.4107532501221 11.0904674530029 11.3512506484985 11.6722688674927 11.7507629394531 11.9521808624268 11.8051309585571 11.2524099349976 11.4846935272217 12.5488996505737 13.6147890090942 14.3874769210815 14.8845891952515 15.2389421463013 15.5635261535645 15.825140953064 15.8925495147705 15.7762098312378 15.400426864624 15.0230026245117 14.8542680740356 15.0288181304932
-9999 -9999 -9999 -9999 -9999 -9999 -9999 -9999 -9999 -9999 -9999 -9999 -9999 -9999 -9999 -9999 -9999 -9999 -9999 -9999 -9999 -9999 -9999 -9999 9.51038837432861 9.92721652984619 10.2028207778931 10.357084274292 10.5156593322754 10.6952857971191 10.878978729248 10.9295835494995 10.7330226898193 10.45969581604 10.3339195251465 10.4294729232788 10.6029367446899 10.7527236938477 11.0255737304688 11.3352365493774 11.6506805419922 12.0165481567383 12.4403343200684 12.6805353164673 12.2749185562134 11.143741607666 10.2726354598999 11.2920598983765 13.3108205795288 14.505410194397 14.8862085342407 15.0483646392822 14.9294576644897 14.7372579574585 14.2294673919678 12.9331769943237 12.8655738830566 13.8288927078247 14.6917734146118 15.3797664642334 15.8150272369385 16.2779006958008 16.9308433532715 17.5223503112793 17.8061599731445 17.7273578643799 17.2662487030029 16.7837982177734 16.37060546875 16.0382518768311
-9999 -9999 -9999 -9999 -9999 -9999 -9999 -9999 -9999 -9999 -9999 -9999 -9999 -9999 -9999 -9999 -9999 -9999 -9999 -9999 -9999 -9999 -9999 9.44277119636536 9.55324459075928 10.0756921768188 10.4854927062988 10.731183052063 10.9099750518799 11.0492401123047 11.0951433181763 10.9709644317627 10.7132444381714 10.6254253387451 10.8593301773071 11.2157602310181 11.4985790252686 11.708251953125 12.0987615585327 12.6144237518311 13.0076847076416 13.2990770339966 13.4548969268799 13.2614030838013 12.5377521514893 11.8254051208496 12.1433792114258 14.0599985122681 15.7784700393677 16.4279861450195 16.5542144775391 16.471004486084 16.375883102417 16.1533069610596 15.8165197372437 14.6503324508667 14.3145799636841 14.8772020339966 15.5230016708374 16.178466796875 16.7431659698486 17.5140571594238 18.4426574707031 19.1659450531006 19.5711154937744 19.641716003418 19.3721866607666 18.8372783660889 18.36501121521 18.0468330383301
-9999 -9999 -9999 -9999 -9999 -9999 -9999 -9999 -9999 -9999 -9999 -9999 -9999 -9999 -9999 -9999 -9999 -9999 -9999 -9999 -9999 -9999 -9999 9.13624477386475 9.57120704650879 10.0902891159058 10.5084867477417 10.8639259338379 11.1091270446777 11.16734790802 11.083477973938 11.0328350067139 11.0806865692139 11.3529319763184 11.8563165664673 12.2891855239868 12.5592775344849 12.7331562042236 13.065465927124 13.5371885299683 13.7670421600342 13.8162336349487 13.825984954834 13.8604469299316 13.7534275054932 13.7470397949219 14.5805740356445 15.7170124053955 16.4283027648926 16.768383026123 16.8618621826172 16.7539768218994 16.5971927642822 16.4117240905762 16.1898860931396 15.6665868759155 15.5814657211304 15.8038759231567 16.1591854095459 16.6895160675049 17.5972671508789 18.6858291625977 19.54953956604 20.0934524536133 20.3983764648438 20.5579814910889 20.5683212280273 20.3023986816406 19.9151725769043 19.7092189788818
-9999 -9999 -9999 -9999 -9999 -9999 -9999 -9999 -9999 -9999 -9999 -9999 -9999 -9999 -9999 -9999 -9999 -9999 -9999 -9999 -9999 -9999 9.32456493377686 9.4916524887085 9.95134162902832 10.4386930465698 10.8365516662598 11.1587371826172 11.3053026199341 11.300763130188 11.4804611206055 12.0201511383057 12.5335397720337 12.8272581100464 13.1117486953735 13.4172105789185 13.6589517593384 13.8177738189697 14.0826997756958 14.456090927124 14.5574855804443 14.4605350494385 14.675877571106 15.2602605819702 15.705454826355 15.9388637542725 16.2570934295654 16.5635013580322 16.7921390533447 16.9961776733398 17.1466770172119 17.1109371185303 16.8684005737305 16.6261825561523 16.4623508453369 16.251594543457 16.2266178131104 16.402904510498 16.7252998352051 17.3432788848877 18.4874267578125 19.5116901397705 20.1526889801025 20.5760078430176 20.8067588806152 20.9535903930664 21.0647449493408 20.9965362548828 20.7047386169434 20.5201511383057
-9999 -9999 -9999 -9999 -9999 -9999 -9999 -9999 -9999 -9999 -9999 -9999 -9999 -9999 9.43617926703559 -9999 -9999 -9999 -9999 8.89651870727539 -9999 9.4459285736084 9.69091892242432 10.0953540802002 10.5516939163208 10.9958868026733 11.343581199646 11.5189208984375 11.5444660186768 11.793420791626 12.5444583892822 13.4283905029297 13.9973239898682 14.2328786849976 14.4138450622559 14.6382875442505 14.8094205856323 14.9750738143921 15.1893281936646 15.3541040420532 15.2858247756958 15.1004390716553 15.3471450805664 16.0608978271484 16.6898078918457 17.0839443206787 17.3481140136719 17.480712890625 17.5108757019043 17.5379943847656 17.5843563079834 17.5521202087402 17.3581600189209 17.077205657959 16.9040107727051 16.8900051116943 16.9650421142578 17.0941791534424 17.2484798431396 17.9151096343994 19.0695285797119 19.8987789154053 20.4138202667236 20.7788429260254 20.929292678833 21.0072288513184 21.1202411651611 21.1540126800537 21.0206623077393 20.9899826049805
-9999 -9999 -9999 -9999 -9999 -9999 -9999 -9999 -9999 -9999 -9999 -9999 -9999 -9999 9.43362808227539 -9999 -9999 -9999 -9999 9.00368595123291 9.5918701171875 9.9455623626709 10.4172163009644 10.8258876800537 11.1471967697144 11.4249868392944 11.6596784591675 11.8058795928955 12.0109338760376 12.6067810058594 13.4238367080688 14.0558280944824 14.6281681060791 15.148307800293 15.4817981719971 15.6760654449463 15.7727394104004 15.9207906723022 16.133825302124 16.1500244140625 15.8112297058105 15.4147911071777 15.5844478607178 16.3299236297607 17.0113067626953 17.4274272918701 17.7525062561035 18.0110950469971 18.1707820892334 18.2923583984375 18.3461570739746 18.2810840606689 18.1490497589111 17.9620113372803 17.7518939971924 17.7579689025879 17.9670867919922 18.019718170166 17.847843170166 18.2426090240479 19.274600982666 20.0213146209717 20.450044631958 20.7579784393311 20.8904571533203 20.9654483795166 21.0870018005371 21.1765880584717 21.1819152832031 21.3114147186279
-9999 -9999 -9999 -9999 -9999 -9999 -9999 -9999 -9999 -9999 -9999 -9999 -9999 -9999 9.44510841369629 -9999 -9999 -9999 -9999 -9999 10.410514831543 10.5604877471924 11.0915498733521 11.5005493164062 11.7136907577515 11.8241939544678 12.009973526001 12.2597646713257 12.5722284317017 13.0446710586548 13.6055002212524 14.1272916793823 14.8153657913208 15.612587928772 16.1276206970215 16.3939800262451 16.5912075042725 16.8069915771484 17.0613861083984 17.1367244720459 16.8688049316406 16.3931999206543 16.1472434997559 16.4251518249512 16.8656978607178 17.2080192565918 17.5931243896484 17.994665145874 18.3368549346924 18.6936893463135 19.0061626434326 19.1430606842041 19.1425514221191 19.0811672210693 18.9791717529297 18.9025802612305 18.9406661987305 18.8692016601562 18.5268325805664 18.5423259735107 19.1457576751709 19.7863540649414 20.2331447601318 20.5539665222168 20.7611713409424 20.9102001190186 21.0742092132568 21.2253360748291 21.3390808105469 21.5401668548584
-9999 -9999 -9999 -9999 -9999 -9999 -9999 -9999 -9999 -9999 -9999 -9999 -9999 -9999 9.45195770263672 -9999 9.3991870880127 -9999 -9999 -9999 10.3129091262817 10.8231000900269 11.4884328842163 11.9802856445312 12.1383600234985 12.1335802078247 12.3219041824341 12.5528964996338 12.7318859100342 13.0838689804077 13.6965522766113 14.2714147567749 14.822413444519 15.6205139160156 16.3100051879883 16.7400722503662 17.1873798370361 17.6287040710449 17.9835472106934 18.1974048614502 18.2209300994873 18.0281562805176 17.7060813903809 17.4899883270264 17.3886013031006 17.3651676177979 17.5372486114502 17.8895263671875 18.3456077575684 18.8860950469971 19.3961524963379 19.7641410827637 19.9708728790283 20.020528793335 20.034818649292 20.0283203125 19.9802665710449 19.8360443115234 19.4626216888428 19.10764503479 19.1624755859375 19.5363159179688 19.9501857757568 20.2674160003662 20.5650215148926 20.8812065124512 21.1562538146973 21.3696708679199 21.5424633026123 21.7489471435547
-9999 -9999 -9999 -9999 -9999 -9999 -9999 -9999 -9999 -9999 -9999 -9999 -9999 -9999 9.45195770263672 9.45880699157715 9.39822483062744 -9999 -9999 10.5723340511322 10.4321174621582 11.1614751815796 11.9139242172241 12.3983211517334 12.4533443450928 12.3203077316284 12.4268159866333 12.7140216827393 13.208381652832 13.9236555099487 14.5649843215942 14.8317003250122 14.9982538223267 15.6317958831787 16.4811019897461 17.2337379455566 17.9642105102539 18.5740013122559 19.0312061309814 19.3695068359375 19.5743751525879 19.6260833740234 19.5246486663818 19.3050746917725 19.0269451141357 18.78297996521 18.6751766204834 18.7938842773438 19.1400928497314 19.6303291320801 20.1087551116943 20.4728221893311 20.7064971923828 20.8054695129395 20.8160591125488 20.8091678619385 20.7760181427002 20.6782207489014 20.4457893371582 19.9864616394043 19.5961093902588 19.5445404052734 19.7704410552979 20.0499019622803 20.3093967437744 20.6744728088379 21.0985527038574 21.4238147735596 21.6048069000244 21.7427806854248
-9999 -9999 -9999 -9999 -9999 -9999 -9999 -9999 -9999 -9999 -9999 -9999 -9999 -9999 -9999 9.56757049560547 9.43649482727051 -9999 10.4202451705933 10.5796518325806 10.9646577835083 11.7346086502075 12.3949308395386 12.7912521362305 12.9070529937744 12.8656244277954 13.0100831985474 13.433798789978 14.0722026824951 14.7966222763062 15.336033821106 15.3927059173584 15.3060321807861 15.9115552902222 17.1237602233887 18.1955814361572 18.9751033782959 19.6510677337646 20.2577648162842 20.7344646453857 21.0464935302734 21.1847476959229 21.1778755187988 21.0619220733643 20.8770637512207 20.6765422821045 20.5107307434082 20.4694843292236 20.596866607666 20.8462142944336 21.1077919006348 21.3030261993408 21.4191608428955 21.469762802124 21.4626998901367 21.4231719970703 21.369909286499 21.3069839477539 21.2290954589844 20.9938163757324 20.5844554901123 20.2649307250977 20.1769924163818 20.2730903625488 20.445333480835 20.7434406280518 21.0905857086182 21.3416042327881 21.5037651062012 21.6363124847412
-9999 -9999 -9999 -9999 -9999 -9999 -9999 -9999 -9999 -9999 -9999 -9999 -9999 -9999 -9999 9.76998615264893 9.77433967590332 -9999 10.7462997436523 11.0026416778564 11.5274696350098 12.1669511795044 12.8866386413574 13.6965312957764 14.2896251678467 14.5498628616333 14.7154769897461 14.8721084594727 15.024097442627 15.3750410079956 15.9971866607666 16.4046497344971 16.4677486419678 16.8963794708252 17.9026565551758 18.9592990875244 19.859302520752 20.7148761749268 21.422119140625 21.8891506195068 22.1328182220459 22.2106552124023 22.1926536560059 22.1165618896484 22.0069599151611 21.8857612609863 21.7696399688721 21.6998805999756 21.7067356109619 21.7760791778564 21.8532752990723 21.8965435028076 21.8997039794922 21.8784732818604 21.8543891906738 21.8322734832764 21.8018836975098 21.7694797515869 21.7440929412842 21.6998100280762 21.5419006347656 21.3189926147461 21.1386184692383 21.0794334411621 21.1467685699463 21.294397354126 21.4054126739502 21.4951400756836 21.6191387176514 21.7444553375244
-9999 -9999 -9999 -9999 -9999 -9999 -9999 -9999 -9999 -9999 -9999 -9999 -9999 -9999 -9999 9.94967937469482 -9999 10.5978454862322 11.0459108352661 11.5233154296875 12.0503187179565 12.8503684997559 14.1014060974121 15.2321500778198 15.6752481460571 15.8298940658569 15.7917003631592 15.7817611694336 16.0108070373535 16.339282989502 16.8888721466064 17.5452651977539 17.9049396514893 18.2657260894775 18.9496078491211 19.9420146942139 20.9919605255127 21.8398494720459 22.3185367584229 22.4682598114014 22.4347496032715 22.3443508148193 22.2669658660889 22.205602645874 22.1536464691162 22.1119899749756 22.0781021118164 22.0604724884033 22.0647087097168 22.0834789276123 22.0880851745605 22.0592575073242 22.0115756988525 21.9615325927734 21.919750213623 21.8932075500488 21.8868446350098 21.9047603607178 21.9212398529053 21.9515247344971 21.9523849487305 21.9125671386719 21.8473262786865 21.7951641082764 21.7762451171875 21.7498245239258 21.7269401550293 21.7918434143066 21.884952545166 21.9405040740967
-9999 -9999 -9999 -9999 -9999 -9999 -9999 -9999 -9999 -9999 -9999 -9999 -9999 -9999 9.94967937469482 10.1030082702637 10.2978601455688 10.9019117355347 11.3571109771729 11.8935480117798 12.5080080032349 13.6145648956299 15.200945854187 16.1813564300537 16.3977336883545 16.5401916503906 16.7751846313477 17.1752147674561 17.7650489807129 18.1767520904541 18.4841156005859 18.9055309295654 19.2753524780273 19.7751045227051 20.5202674865723 21.4516792297363 22.2334461212158 22.5748405456543 22.5110454559326 22.3054256439209 22.1479148864746 22.0837249755859 22.0681552886963 22.0552825927734 22.041898727417 22.04123878479 22.0519466400146 22.0712718963623 22.0929279327393 22.1041641235352 22.086145401001 22.036584854126 21.9729061126709 21.9089508056641 21.8526439666748 21.8107929229736 21.7968769073486 21.8245697021484 21.8736305236816 21.9399509429932 21.9985160827637 22.044397354126 22.0615863800049 22.0635738372803 22.0293292999268 21.9697189331055 21.9640827178955 22.0264911651611 22.0733375549316 22.0776958465576
-9999 -9999 -9999 -9999 -9999 -9999 -9999 -9999 -9999 -9999 -9999 -9999 -9999 -9999 -9999 -9999 11.0101165771484 11.1751642227173 11.6853351593018 12.0764856338501 12.6502199172974 13.9890766143799 15.9056282043457 17.0430870056152 17.7371864318848 18.5466442108154 19.3507423400879 20.0035533905029 20.5497989654541 20.9442100524902 21.2107105255127 21.4389915466309 21.6387729644775 21.8905296325684 22.2107105255127 22.5090045928955 22.5512199401855 22.3748531341553 22.1444969177246 22.0378932952881 22.0710124969482 22.1350517272949 22.1606616973877 22.1516189575195 22.1363925933838 22.1262702941895 22.1172561645508 22.1099071502686 22.0957221984863 22.054313659668 21.9920806884766 21.9183158874512 21.8390197753906 21.7771701812744 21.7375354766846 21.7344093322754 21.7630004882812 21.8132724761963 21.8749465942383 21.9499530792236 22.0165042877197 22.08229637146 22.1394004821777 22.1724014282227 22.1491012573242 22.1463012695312 22.1521968841553 22.1824550628662 22.1839275360107 22.150541305542
-9999 -9999 -9999 -9999 -9999 -9999 -9999 -9999 -9999 -9999 -9999 -9999 -9999 -9999 -9999 -9999 11.4203472137451 11.6655302047729 12.0373258590698 12.2712783813477 12.9338073730469 14.6809940338135 16.958948135376 18.370210647583 19.6292629241943 20.7604064941406 21.5487022399902 22.132682800293 22.5325107574463 22.7581348419189 22.8352298736572 22.7883167266846 22.6848106384277 22.5824432373047 22.4792785644531 22.3409652709961 22.1686954498291 22.0265998840332 21.9882373809814 22.075626373291 22.1657028198242 22.1768970489502 22.1492614746094 22.1208419799805 22.0993156433105 22.0900821685791 22.0893478393555 22.0745296478271 22.0127944946289 21.8965263366699 21.7797412872314 21.6813640594482 21.6382102966309 21.6383686065674 21.6570072174072 21.7242012023926 21.8186950683594 21.9052257537842 21.9873371124268 22.0582752227783 22.1054840087891 22.1779117584229 22.2486877441406 22.2891597747803 22.3161926269531 22.2999362945557 22.2197551727295 22.1552505493164 22.1171340942383 22.0909118652344
-9999 -9999 -9999 -9999 -9999 -9999 -9999 -9999 -9999 -9999 -9999 -9999 -9999 -9999 -9999 -9999 -9999 12.1896276473999 12.3120365142822 12.6595163345337 13.7027015686035 15.9713726043701 18.5258922576904 20.3005027770996 21.580717086792 22.3818225860596 22.9289150238037 23.2281627655029 23.2587242126465 23.0981559753418 22.8251857757568 22.5075187683105 22.2357559204102 22.0578956604004 21.9443473815918 21.8853549957275 21.8736362457275 21.9123821258545 22.0094299316406 22.0888843536377 22.082691192627 22.0402584075928 21.9911098480225 21.9387474060059 21.8945770263672 21.8772792816162 21.8608016967773 21.8109893798828 21.7214279174805 21.61572265625 21.5336112976074 21.5223655700684 21.5919532775879 21.6523857116699 21.6987762451172 21.7685070037842 21.8304004669189 21.8823909759521 21.938383102417 21.9823760986328 22.0541248321533 22.1756420135498 22.3109436035156 22.4313945770264 22.4273166656494 22.220458984375 22.0338687896729 21.9575824737549 21.9528999328613 21.937801361084
-9999 -9999 -9999 -9999 -9999 -9999 -9999 -9999 -9999 -9999 -9999 -9999 -9999 -9999 11.604234457016 11.6655302047729 12.2816507816315 12.5278272628784 12.7436180114746 13.2557525634766 14.8904581069946 17.9768676757812 20.5792503356934 21.8627300262451 22.6759300231934 23.236457824707 23.503791809082 23.4475574493408 23.1256065368652 22.6928882598877 22.2683620452881 21.9367027282715 21.7457103729248 21.6705532073975 21.6738986968994 21.7447547912598 21.8438758850098 21.9140033721924 21.9604759216309 21.9668827056885 21.9291572570801 21.8896064758301 21.8385887145996 21.7703075408936 21.7076263427734 21.6627426147461 21.622163772583 21.5772323608398 21.5200233459473 21.4726734161377 21.4795303344727 21.5509872436523 21.6269664764404 21.654504776001 21.6848659515381 21.7239246368408 21.7426605224609 21.7481346130371 21.7630348205566 21.8017559051514 21.8803482055664 21.9964408874512 22.1728706359863 22.3263378143311 22.1947937011719 21.8989849090576 21.8496742248535 21.8372268676758 21.838041305542 21.7480716705322
-9999 -9999 -9999 -9999 -9999 -9999 -9999 -9999 -9999 -9999 -9999 -9999 -9999 -9999 -9999 -9999 -9999 -9999 13.9124927520752 14.1104726791382 16.678768157959 20.1160068511963 21.9414043426514 22.8111019134521 23.3783740997314 23.6637134552002 23.6045570373535 23.2347469329834 22.7004737854004 22.220796585083 21.8772258758545 21.6365394592285 21.5142230987549 21.5062103271484 21.6062412261963 21.7331676483154 21.7851428985596 21.7888507843018 21.7952060699463 21.7839527130127 21.7532768249512 21.7198390960693 21.6803359985352 21.6438217163086 21.6176910400391 21.5932655334473 21.560884475708 21.5083274841309 21.4352359771729 21.3930854797363 21.4285659790039 21.5263118743896 21.6080589294434 21.637035369873 21.6759166717529 21.7076969146729 21.7255325317383 21.7411079406738 21.7471942901611 21.753978729248 21.7807292938232 21.8297367095947 21.8872966766357 21.9003429412842 21.7536277770996 21.6521148681641 21.7150096893311 21.7211513519287 21.6457996368408 21.4943885803223
-9999 -9999 -9999 -9999 -9999 -9999 -9999 -9999 -9999 -9999 -9999 -9999 -9999 -9999 -9999 -9999 -9999 15.4683418273926 15.7679724693298 15.5401277542114 18.6487655639648 21.576488494873 22.7852153778076 23.4561386108398 23.769567489624 23.7273826599121 23.4007320404053 22.8590030670166 22.3205432891846 21.9751834869385 21.7336330413818 21.5431671142578 21.4637222290039 21.5115814208984 21.6284980773926 21.6950130462646 21.673131942749 21.6448631286621 21.6390018463135 21.6271572113037 21.6158638000488 21.6111640930176 21.6076431274414 21.6093292236328 21.6111679077148 21.5994720458984 21.5641422271729 21.4994354248047 21.4182243347168 21.3672790527344 21.3829822540283 21.4769077301025 21.5789604187012 21.6190528869629 21.6448726654053 21.6630954742432 21.6866397857666 21.7010612487793 21.6903667449951 21.6827201843262 21.6877365112305 21.6730728149414 21.6159172058105 21.5379333496094 21.4666290283203 21.484992980957 21.5019721984863 21.4657821655273 21.3835315704346 21.2991981506348
-9999 -9999 -9999 -9999 -9999 -9999 -9999 -9999 -9999 -9999 -9999 -9999 -9999 18.3157405853271 18.3066719902886 -9999 17.9042711257935 17.4769291877747 15.4683418273926 17.9529476165771 21.0826683044434 22.7396354675293 23.5277137756348 23.8935794830322 23.8922901153564 23.6107845306396 23.1525707244873 22.571949005127 22.111608505249 21.8602485656738 21.6724338531494 21.5279998779297 21.4682235717773 21.5078868865967 21.5771713256836 21.5974979400635 21.5672760009766 21.5442352294922 21.5465507507324 21.5522022247314 21.5593872070312 21.5688877105713 21.5772972106934 21.5890712738037 21.6002635955811 21.5929851531982 21.5592994689941 21.4978351593018 21.4236240386963 21.3700942993164 21.3579158782959 21.4084777832031 21.49049949646 21.5385303497314 21.5500030517578 21.5469818115234 21.556037902832 21.5501098632812 21.5455799102783 21.551965713501 21.5428676605225 21.4845104217529 21.394905090332 21.3359985351562 21.3045291900635 21.3230113983154 21.3114929199219 21.2765369415283 21.2499694824219 21.2181205749512
-9999 -9999 -9999 -9999 -9999 -9999 -9999 -9999 -9999 -9999 -9999 -9999 -9999 -9999 18.3157405853271 18.613821665446 17.9904537200928 17.8180885314941 18.6308326721191 21.3581619262695 23.0877056121826 23.770227432251 24.0458164215088 24.0663166046143 23.7805862426758 23.3739833831787 22.9117107391357 22.3796730041504 22.0334968566895 21.8152656555176 21.644660949707 21.5352916717529 21.476921081543 21.4700889587402 21.4979934692383 21.5220146179199 21.5113887786865 21.49436378479 21.492525100708 21.489818572998 21.4874229431152 21.4965209960938 21.5128955841064 21.5387496948242 21.5778675079346 21.5971240997314 21.5763492584229 21.5180320739746 21.44455909729 21.3798847198486 21.3373928070068 21.336856842041 21.3786468505859 21.4313411712646 21.4429111480713 21.4289417266846 21.42236328125 21.4192237854004 21.4248332977295 21.4297561645508 21.3930492401123 21.3199443817139 21.2626476287842 21.2483501434326 21.2404975891113 21.249153137207 21.2410297393799 21.2376480102539 21.2351360321045 21.2144756317139
-9999 -9999 -9999 -9999 -9999 -9999 -9999 -9999 -9999 -9999 -9999 -9999 -9999 -9999 18.9967408180237 18.3157405853271 19.535270690918 20.2651405334473 21.8607158660889 23.355188369751 23.9158916473389 24.1465435028076 24.181173324585 23.9399261474609 23.5476608276367 23.1482887268066 22.7017955780029 22.2513866424561 22.0151481628418 21.8174915313721 21.6552925109863 21.573221206665 21.5194110870361 21.4849605560303 21.4888534545898 21.5128364562988 21.5113849639893 21.4915504455566 21.4714012145996 21.443977355957 21.4232044219971 21.435604095459 21.4719791412354 21.5098419189453 21.5626659393311 21.6036205291748 21.6024284362793 21.5522937774658 21.4760723114014 21.4065551757812 21.3458442687988 21.2929286956787 21.2642402648926 21.2970275878906 21.3277950286865 21.3313140869141 21.3430480957031 21.3643894195557 21.3914680480957 21.3984203338623 21.3518352508545 21.2661209106445 21.2377548217773 21.2533016204834 21.267219543457 21.2812519073486 21.275785446167 21.2715015411377 21.2644596099854 21.2401008605957
-9999 -9999 -9999 -9999 -9999 -9999 -9999 -9999 -9999 -9999 -9999 18.154483795166 18.5301723480225 18.9452953338623 18.8639640808105 19.8619632720947 21.7101058959961 22.7006034851074 23.5191078186035 24.0547962188721 24.2909278869629 24.3301162719727 24.1180038452148 23.7259159088135 23.2910957336426 22.8284702301025 22.4107532501221 22.1361865997314 22.0132026672363 21.8500919342041 21.6869564056396 21.6085186004639 21.5596332550049 21.521240234375 21.5170135498047 21.533971786499 21.5319576263428 21.5133533477783 21.493860244751 21.4646034240723 21.4254875183105 21.4204902648926 21.4840793609619 21.5480728149414 21.577241897583 21.5869293212891 21.5817451477051 21.5519599914551 21.4929161071777 21.4291439056396 21.3564872741699 21.2606773376465 21.1603546142578 21.1349220275879 21.1677513122559 21.1961250305176 21.228551864624 21.2657718658447 21.3044128417969 21.3117504119873 21.2680625915527 21.1949348449707 21.204309463501 21.2470569610596 21.2856674194336 21.3104572296143 21.3054656982422 21.2932720184326 21.2831993103027 21.2643699645996
-9999 -9999 -9999 -9999 -9999 -9999 -9999 -9999 -9999 17.4913291931152 18.1738529205322 18.928840637207 19.5055313110352 20.0615577697754 20.0897846221924 21.1113681793213 22.8890857696533 23.7208843231201 24.1854515075684 24.3882102966309 24.4202175140381 24.2411937713623 23.8701248168945 23.4470672607422 22.9665985107422 22.4782524108887 22.1427268981934 22.0501575469971 21.9948215484619 21.8706665039062 21.7213115692139 21.63942527771 21.5924034118652 21.5537281036377 21.5409336090088 21.5466156005859 21.5446834564209 21.5391941070557 21.5389595031738 21.5281887054443 21.4798641204834 21.4807300567627 21.5754699707031 21.6191177368164 21.6074085235596 21.5822429656982 21.5595855712891 21.5406818389893 21.4997959136963 21.4469966888428 21.3691635131836 21.2429866790771 21.1030559539795 21.0441493988037 21.0645141601562 21.1109085083008 21.1587238311768 21.2160053253174 21.2391319274902 21.200740814209 21.1156101226807 21.0480690002441 21.1058712005615 21.2052726745605 21.2918033599854 21.3307132720947 21.3208332061768 21.292781829834 21.2822532653809 21.2766532897949
-9999 -9999 -9999 -9999 -9999 -9999 -9999 -9999 -9999 18.001220703125 18.9226169586182 19.8651905059814 20.7299747467041 21.3803977966309 21.3620433807373 22.7862644195557 23.9478645324707 24.4273490905762 24.571044921875 24.5709590911865 24.3765087127686 24.0052452087402 23.6040267944336 23.2060489654541 22.7136192321777 22.2508029937744 22.0382022857666 22.01828956604 21.9738292694092 21.8721504211426 21.7472991943359 21.6760768890381 21.6278686523438 21.5817947387695 21.5629634857178 21.5636329650879 21.558744430542 21.561408996582 21.5805015563965 21.5930595397949 21.5670146942139 21.5947875976562 21.6669330596924 21.6779022216797 21.6636524200439 21.6464672088623 21.6208095550537 21.5987701416016 21.5569515228271 21.4988212585449 21.4011936187744 21.2384967803955 21.0771713256836 21.014949798584 21.0316753387451 21.0753479003906 21.1121387481689 21.1746883392334 21.2148990631104 21.1577033996582 21.0295181274414 20.9526290893555 20.9678401947021 21.1167507171631 21.2879581451416 21.3611469268799 21.3479270935059 21.3048839569092 21.2949409484863 21.3112335205078
-9999 -9999 -9999 -9999 -9999 18.3165760040283 18.0779762268066 18.4173316955566 18.253849029541 18.4964981079102 19.444164276123 20.7172832489014 21.9065265655518 22.7014617919922 23.3452892303467 24.216136932373 24.5795040130615 24.6691646575928 24.6366367340088 24.514196395874 24.1710090637207 23.7047119140625 23.3164367675781 22.8814945220947 22.3597393035889 22.0153827667236 21.9858436584473 21.9764862060547 21.9529800415039 21.8794612884521 21.7863826751709 21.727294921875 21.6809768676758 21.6316146850586 21.6070919036865 21.6039962768555 21.5959930419922 21.5980205535889 21.6236991882324 21.6504287719727 21.6501941680908 21.6705875396729 21.7325496673584 21.7727680206299 21.7849674224854 21.7475719451904 21.6874732971191 21.6514091491699 21.6157855987549 21.5575389862061 21.4441871643066 21.2581634521484 21.1065788269043 21.0402526855469 21.0244541168213 21.0518703460693 21.0777435302734 21.1296253204346 21.1644916534424 21.1001319885254 20.9867248535156 20.9554767608643 20.9241371154785 21.0463123321533 21.261058807373 21.3994445800781 21.3959674835205 21.34397315979 21.2858219146729 21.2985973358154
-9999 -9999 -9999 -9999 17.9352226257324 18.1569194793701 19.0961856842041 19.8911247253418 19.6839122772217 19.9274120330811 20.340368270874 21.559778213501 22.6830825805664 23.6134510040283 24.3362846374512 24.6577758789062 24.7761058807373 24.7238216400146 24.6049785614014 24.3822135925293 23.9009284973145 23.3857936859131 23.0752086639404 22.604419708252 22.1197719573975 21.9398097991943 21.946756362915 21.9404411315918 21.9344482421875 21.8927688598633 21.8332653045654 21.7865753173828 21.7469501495361 21.706693649292 21.6838188171387 21.6752777099609 21.6664524078369 21.6643218994141 21.6840229034424 21.7137832641602 21.7219333648682 21.7478771209717 21.8257942199707 21.8916778564453 21.8888111114502 21.7930126190186 21.6915950775146 21.6604671478271 21.6518611907959 21.6111755371094 21.4926090240479 21.3076629638672 21.1978454589844 21.1181411743164 21.0518684387207 21.0422916412354 21.0503158569336 21.086784362793 21.1134777069092 21.0627021789551 21.0175590515137 20.9640254974365 20.9311141967773 21.0522384643555 21.2733192443848 21.4664573669434 21.5124950408936 21.5235271453857 21.4826240539551 21.4779434204102
-9999 -9999 -9999 18.2855134010315 18.2099723815918 19.0041694641113 20.2899036407471 21.1360492706299 21.1527042388916 21.7682476043701 21.8362064361572 22.8778038024902 23.819694519043 24.4712734222412 24.7547760009766 24.8502998352051 24.8138122558594 24.6317710876465 24.4263496398926 24.0369338989258 23.4627456665039 23.0716152191162 22.8386650085449 22.3632202148438 21.9543991088867 21.9075794219971 21.8954677581787 21.8908023834229 21.8953247070312 21.8896942138672 21.8652210235596 21.8412857055664 21.8284168243408 21.8195018768311 21.8197555541992 21.8160057067871 21.8016605377197 21.7885494232178 21.7970085144043 21.8246765136719 21.8337917327881 21.8459644317627 21.9209842681885 21.9915370941162 21.9571113586426 21.8053340911865 21.6757888793945 21.6623020172119 21.6844177246094 21.6509246826172 21.5207901000977 21.3497409820557 21.2502574920654 21.1411304473877 21.0601539611816 21.0254878997803 21.0302505493164 21.0709533691406 21.1013889312744 21.0581321716309 21.0362300872803 20.9884948730469 20.9835472106934 21.1129989624023 21.3208446502686 21.5305709838867 21.5993480682373 21.6522598266602 21.7260799407959 21.7601585388184
-9999 -9999 -9999 18.2218704223633 18.7749881744385 20.1093673706055 21.5484294891357 22.221549987793 22.6908340454102 23.2342548370361 23.5466747283936 24.209056854248 24.6741428375244 24.811429977417 24.8570880889893 24.8448867797852 24.6900539398193 24.430383682251 24.1175670623779 23.5871639251709 23.0739822387695 22.8614616394043 22.6225891113281 22.1973457336426 21.9226894378662 21.9253444671631 21.8838672637939 21.850040435791 21.8344097137451 21.8432559967041 21.8597087860107 21.8619480133057 21.8658218383789 21.8801517486572 21.9102172851562 21.9487419128418 21.9719905853271 21.9885139465332 22.0098247528076 22.0167636871338 21.9754028320312 21.940559387207 22.0028896331787 22.0895805358887 22.0473365783691 21.8570423126221 21.6969604492188 21.681755065918 21.7126426696777 21.6670780181885 21.5292530059814 21.3956298828125 21.2817440032959 21.1644611358643 21.1066951751709 21.0716381072998 21.0551052093506 21.0684413909912 21.0898551940918 21.071159362793 21.0567283630371 21.0435276031494 21.0865955352783 21.2308082580566 21.4004497528076 21.5760860443115 21.6551876068115 21.6769943237305 21.7266521453857 21.7419986724854
