NCOLS 70 
NROWS 52 
XLLCORNER -80 
YLLCORNER 33 
CELLSIZE 0.25 
NODATA_value -9999 
-9999.000000000000000 -9999 -9999 -9999 -9999 -9999 -9999 -9999 -9999 -9999 -9999 -9999 -9999 -9999 -9999 -9999 -9999 -9999 -9999 -9999 -9999 -9999 -9999 -9999 -9999 -9999 -9999 -9999 -9999 -9999 -9999 -9999 -9999 -9999 -9999 -9999 -9999 -9999 -9999 -9999 -9999 -9999 -9999 -9999 -9999 -9999 -9999 -9999 -9999 -9999 -9999 -9999 -9999 -9999 -9999 -9999 -9999 -9999 -9999 -9999 -9999 -9999 -9999 -9999 -9999 -9999 -9999 -9999 -9999 -9999
-9999 -9999 -9999 -9999 -9999 -9999 -9999 -9999 -9999 -9999 -9999 -9999 -9999 -9999 -9999 -9999 -9999 -9999 -9999 -9999 -9999 -9999 -9999 -9999 -9999 -9999 -9999 -9999 -9999 -9999 -9999 -9999 -9999 -9999 -9999 -9999 -9999 -9999 -9999 -9999 -9999 -9999 -9999 -9999 -9999 -9999 -9999 -9999 -9999 -9999 -9999 -9999 -9999 -9999 -9999 -9999 -9999 -9999 -9999 -9999 -9999 -9999 -9999 -9999 -9999 -9999 -9999 -9999 -9999 -9999
-9999 -9999 -9999 -9999 -9999 -9999 -9999 -9999 -9999 -9999 -9999 -9999 -9999 -9999 -9999 -9999 -9999 -9999 -9999 -9999 -9999 -9999 -9999 -9999 -9999 -9999 -9999 -9999 -9999 -9999 -9999 -9999 -9999 -9999 -9999 -9999 -9999 -9999 -9999 -9999 -9999 -9999 -9999 -9999 -9999 -9999 -9999 -9999 -9999 -9999 -9999 -9999 -9999 -9999 -9999 -9999 -9999 -9999 -9999 0.690305292606354 -9999 -9999 -9999 -9999 -9999 -9999 -9999 -9999 -9999 -9999
-9999 -9999 -9999 -9999 -9999 -9999 -9999 -9999 -9999 -9999 -9999 -9999 -9999 -9999 -9999 -9999 -9999 -9999 -9999 -9999 -9999 -9999 -9999 -9999 -9999 -9999 -9999 -9999 -9999 -9999 -9999 -9999 -9999 -9999 -9999 -9999 -9999 -9999 -9999 -9999 -9999 -9999 -9999 -9999 -9999 -9999 -9999 -9999 -9999 -9999 -9999 -9999 -9999 -9999 -9999 2.13369131088257 1.99251198768616 1.74692904949188 1.53290867805481 0.974777638912201 -9999 -9999 -9999 -9999 -9999 -9999 -9999 -9999 -9999 -9999
-9999 -9999 -9999 -9999 -9999 -9999 -9999 -9999 -9999 -9999 -9999 -9999 -9999 -9999 -9999 -9999 -9999 -9999 -9999 -9999 -9999 -9999 -9999 -9999 -9999 -9999 -9999 -9999 -9999 -9999 -9999 -9999 -9999 -9999 -9999 -9999 -9999 -9999 -9999 -9999 -9999 -9999 -9999 -9999 -9999 -9999 -9999 -9999 -9999 -9999 -9999 -9999 1.5811972618103 1.65515530109406 1.59466981887817 1.56810772418976 1.47300469875336 1.34479284286499 -9999 -9999 -9999 -9999 -9999 -9999 -9999 -9999 -9999 -9999 -9999 -9999
-9999 -9999 -9999 -9999 -9999 -9999 -9999 -9999 -9999 -9999 -9999 -9999 -9999 -9999 -9999 -9999 -9999 -9999 -9999 -9999 -9999 -9999 -9999 -9999 -9999 -9999 -9999 -9999 -9999 -9999 -9999 -9999 -9999 -9999 -9999 -9999 -9999 -9999 -9999 -9999 -9999 -9999 -9999 -9999 -9999 -9999 -9999 -9999 -9999 -9999 1.81159102916718 1.69800591468811 1.67678785324097 1.59190857410431 1.41469740867615 1.24313795566559 -9999 -9999 -9999 -9999 -9999 -9999 -9999 -9999 -9999 -9999 -9999 0.449596842130025 0.425398573279381 0.31453138589859
-9999 -9999 -9999 -9999 -9999 -9999 -9999 -9999 -9999 -9999 -9999 -9999 -9999 -9999 -9999 -9999 -9999 -9999 -9999 -9999 -9999 -9999 -9999 -9999 -9999 -9999 -9999 -9999 -9999 -9999 -9999 -9999 -9999 -9999 -9999 -9999 -9999 -9999 -9999 -9999 -9999 -9999 -9999 -9999 1.36411313215892 -9999 -9999 1.98332917690277 1.9164525270462 1.93465268611908 1.97563815116882 1.90396070480347 1.86770451068878 1.83439195156097 1.5772590637207 -9999 -9999 -9999 -9999 -9999 -9999 -9999 -9999 0.802112638950348 0.698202788829803 0.559140622615814 0.452811241149902 0.441376954317093 0.45460233092308 0.49108362197876
-9999 -9999 -9999 -9999 -9999 -9999 -9999 -9999 -9999 -9999 -9999 -9999 -9999 -9999 -9999 -9999 -9999 -9999 -9999 -9999 -9999 -9999 -9999 -9999 -9999 -9999 -9999 -9999 -9999 -9999 -9999 -9999 -9999 -9999 -9999 -9999 -9999 -9999 -9999 -9999 -9999 -9999 -9999 -9999 1.31061291694641 1.54595494270325 1.85622203350067 2.05196642875671 2.1086757183075 2.14937877655029 2.23006296157837 2.32202887535095 2.3650963306427 2.32364439964294 2.07172444462776 -9999 -9999 -9999 -9999 -9999 -9999 -9999 0.995108366012573 0.959200859069824 0.880429625511169 0.762970447540283 0.695394814014435 0.702186763286591 0.705008387565613 0.742254376411438
-9999 -9999 -9999 -9999 -9999 -9999 -9999 -9999 -9999 -9999 -9999 -9999 -9999 -9999 -9999 -9999 -9999 -9999 -9999 -9999 -9999 -9999 -9999 -9999 -9999 -9999 -9999 -9999 -9999 -9999 -9999 -9999 -9999 -9999 -9999 -9999 -9999 -9999 -9999 -9999 2.14386606216431 2.18143288294474 1.9915381193161 1.9675498008728 1.97204315662384 2.10118269920349 2.23903107643127 2.32388734817505 2.35245895385742 2.35422229766846 2.38693690299988 2.49426531791687 2.58219838142395 2.55160236358643 2.57904677391052 -9999 -9999 -9999 -9999 -9999 1.04759160677592 1.05730307102203 1.06402719020844 1.06770348548889 1.0345299243927 0.983582079410553 1.01202154159546 1.0663446187973 1.00326681137085 0.953130662441254
-9999 -9999 -9999 -9999 -9999 -9999 -9999 -9999 -9999 -9999 -9999 -9999 -9999 -9999 -9999 -9999 -9999 -9999 -9999 -9999 -9999 -9999 -9999 -9999 -9999 -9999 -9999 -9999 -9999 -9999 -9999 -9999 -9999 -9999 -9999 -9999 -9999 -9999 -9999 2.15784955024719 2.12109041213989 2.15265822410583 2.2705500125885 2.33116102218628 2.39126205444336 2.51689696311951 2.60128855705261 2.61859917640686 2.6202175617218 2.6207549571991 2.62939167022705 2.69462418556213 2.72370624542236 2.65638637542725 2.67092752456665 2.69267320632935 -9999 -9999 -9999 1.26347443461418 1.05987644195557 1.02559530735016 1.02489459514618 1.05695676803589 1.08059859275818 1.1560959815979 1.44300389289856 1.73214673995972 1.63076531887054 1.42254948616028
-9999 -9999 -9999 -9999 -9999 -9999 -9999 -9999 -9999 -9999 -9999 -9999 -9999 -9999 -9999 -9999 -9999 -9999 -9999 -9999 -9999 -9999 -9999 -9999 -9999 -9999 -9999 -9999 -9999 -9999 -9999 -9999 -9999 -9999 -9999 -9999 -9999 -9999 2.34124202728272 2.29350852966309 2.3009147644043 2.39623403549194 2.57917499542236 2.69863796234131 2.79526948928833 2.92776942253113 2.97527813911438 2.9518358707428 2.94776582717896 2.94922065734863 2.93778920173645 2.93396210670471 2.8458206653595 2.68198776245117 2.61753678321838 2.57543015480042 2.45509958267212 1.98124100764592 1.66428196430206 1.31617152690887 1.01356780529022 0.845244407653809 0.834695875644684 0.961278200149536 1.1416529417038 1.40009272098541 1.91186881065369 2.47309899330139 2.59974837303162 2.33654379844666
-9999 -9999 -9999 -9999 -9999 -9999 -9999 -9999 -9999 -9999 -9999 -9999 -9999 -9999 -9999 -9999 -9999 -9999 -9999 -9999 -9999 -9999 -9999 -9999 -9999 -9999 -9999 -9999 -9999 -9999 -9999 -9999 -9999 -9999 -9999 -9999 -9999 2.47218894958496 2.39945912361145 2.38320398330688 2.53035974502563 2.79520535469055 3.07014489173889 3.19619607925415 3.23034405708313 3.26466059684753 3.2671492099762 3.25922393798828 3.26613020896912 3.25408911705017 3.20353174209595 3.09322643280029 2.85141706466675 2.54515194892883 2.34566736221313 2.18490505218506 2.01966953277588 1.74260306358337 1.38057899475098 1.15553343296051 1.01515018939972 0.923289358615875 0.952237188816071 1.13479387760162 1.36964213848114 1.6111536026001 1.98222613334656 2.54081416130066 3.16848540306091 3.46096253395081
-9999 -9999 -9999 -9999 -9999 -9999 -9999 -9999 -9999 -9999 -9999 -9999 -9999 -9999 -9999 -9999 -9999 -9999 -9999 -9999 -9999 -9999 -9999 -9999 -9999 -9999 -9999 -9999 -9999 -9999 -9999 -9999 -9999 -9999 -9999 -9999 -9999 2.76296472549438 2.74424290657043 2.82317733764648 3.06690287590027 3.31664800643921 3.45252895355225 3.47951364517212 3.48343348503113 3.51245379447937 3.5265166759491 3.49337553977966 3.43236351013184 3.39046263694763 3.36085295677185 3.20803618431091 2.85229778289795 2.42442226409912 2.14658665657043 1.93579363822937 1.71444511413574 1.53624653816223 1.37602758407593 1.31802868843079 1.26378560066223 1.2606794834137 1.38458001613617 1.61257767677307 1.90909850597382 2.20766973495483 2.50424838066101 2.97354769706726 3.55674815177917 4.14373445510864
-9999 -9999 -9999 -9999 -9999 -9999 -9999 -9999 -9999 -9999 -9999 -9999 -9999 -9999 -9999 -9999 -9999 -9999 -9999 -9999 -9999 -9999 -9999 -9999 -9999 -9999 -9999 -9999 -9999 -9999 -9999 -9999 -9999 -9999 -9999 -9999 -9999 2.96156406402588 3.09350943565369 3.33588099479675 3.5588002204895 3.66569304466248 3.6773579120636 3.67022800445557 3.69823932647705 3.74941992759705 3.72783088684082 3.56026816368103 3.34295606613159 3.23167276382446 3.22190403938293 3.09933376312256 2.72847604751587 2.3436906337738 2.18100547790527 2.05333590507507 1.7990642786026 1.66433656215668 1.55021739006042 1.54278421401978 1.62546813488007 1.77120852470398 1.94536828994751 2.23423337936401 2.74810218811035 3.34068441390991 3.95124626159668 4.60093402862549 5.09424448013306 5.41122055053711
-9999 -9999 -9999 -9999 -9999 -9999 -9999 -9999 -9999 -9999 -9999 -9999 -9999 -9999 -9999 -9999 -9999 -9999 -9999 -9999 -9999 -9999 -9999 -9999 -9999 -9999 -9999 -9999 -9999 -9999 -9999 -9999 -9999 -9999 -9999 -9999 2.8917407989502 3.03935813903809 3.27751851081848 3.52670454978943 3.67999053001404 3.75698041915894 3.79584574699402 3.82232785224915 3.87698554992676 3.93609380722046 3.85153651237488 3.53459930419922 3.20635533332825 3.05045557022095 3.01435279846191 2.93195796012878 2.67843174934387 2.43078374862671 2.38442969322205 2.30612993240356 2.05698323249817 2.01074361801147 1.95432770252228 2.0491054058075 2.39132380485535 2.77957987785339 3.10279393196106 3.74638915061951 4.52506923675537 5.09475231170654 6.20636415481567 7.48263359069824 8.43646621704102 8.68155479431152
-9999 -9999 -9999 -9999 -9999 -9999 -9999 -9999 -9999 -9999 -9999 -9999 -9999 -9999 -9999 -9999 -9999 -9999 -9999 -9999 -9999 -9999 -9999 -9999 -9999 -9999 -9999 -9999 -9999 -9999 -9999 -9999 -9999 -9999 -9999 -9999 -9999 3.08234357833862 3.14821004867554 3.28023219108582 3.41542363166809 3.63883113861084 3.84195852279663 3.93328547477722 3.99456644058228 4.04313611984253 3.92894792556763 3.59638071060181 3.28561496734619 3.15563797950745 3.11077356338501 3.08686017990112 3.0083601474762 2.86742544174194 2.75075149536133 2.56398224830627 2.45697951316833 2.71783232688904 3.05527901649475 3.31877398490906 3.81549596786499 4.14405155181885 4.40920066833496 5.14484024047852 5.81359338760376 6.66148900985718 8.32276821136475 10.1534824371338 11.3628196716309 11.7816400527954
-9999 -9999 -9999 -9999 -9999 -9999 -9999 -9999 -9999 -9999 -9999 -9999 -9999 -9999 -9999 -9999 -9999 -9999 -9999 -9999 -9999 -9999 -9999 -9999 -9999 -9999 -9999 -9999 -9999 -9999 -9999 -9999 -9999 -9999 -9999 -9999 -9999 -9999 2.97464346885681 -9999 3.16860127449036 3.57867074012756 3.92179679870605 4.04560470581055 4.07601976394653 4.06291103363037 3.93048238754272 3.70631718635559 3.53085160255432 3.46857404708862 3.45274114608765 3.45676898956299 3.46699237823486 3.40731692314148 3.12748003005981 2.82517075538635 2.90462279319763 3.63126921653748 4.77131843566895 5.20690488815308 5.57674264907837 5.68163824081421 5.74587297439575 6.24626445770264 6.51343536376953 7.51643848419189 9.27106285095215 10.7274141311646 11.635796546936 12.3561582565308
-9999 -9999 -9999 -9999 -9999 -9999 -9999 -9999 -9999 -9999 -9999 -9999 -9999 -9999 -9999 -9999 -9999 -9999 -9999 -9999 -9999 -9999 -9999 -9999 -9999 -9999 -9999 -9999 -9999 -9999 -9999 -9999 -9999 -9999 -9999 -9999 -9999 -9999 -9999 -9999 3.45493650436401 3.74391889572144 4.02947092056274 4.13614082336426 4.12153816223145 4.04282712936401 3.9035484790802 3.75173735618591 3.64773154258728 3.61174511909485 3.64231586456299 3.70851445198059 3.7757031917572 3.72363424301147 3.3889274597168 3.13399505615234 3.31924057006836 4.32505416870117 6.16573810577393 7.18843078613281 7.63187980651855 7.59159851074219 7.53790283203125 7.92075252532959 7.75591135025024 8.37805271148682 9.81190299987793 10.9763298034668 11.8055305480957 12.7212905883789
-9999 -9999 -9999 -9999 -9999 -9999 -9999 -9999 -9999 -9999 -9999 -9999 -9999 -9999 -9999 -9999 -9999 -9999 -9999 -9999 -9999 -9999 -9999 -9999 -9999 -9999 -9999 -9999 -9999 -9999 -9999 -9999 -9999 -9999 2.97510731220245 2.60294485092163 2.39901995658875 -9999 2.34337663650513 2.8115770816803 3.39643621444702 3.80915856361389 4.07310676574707 4.18382263183594 4.16007423400879 4.04890775680542 3.88043975830078 3.73043084144592 3.61367917060852 3.55293226242065 3.6121084690094 3.76900863647461 3.87542867660522 3.91180205345154 3.74488687515259 3.65650367736816 4.14164543151855 5.90169525146484 8.00511932373047 9.13672351837158 9.51440811157227 9.52052783966064 9.47087001800537 9.6068115234375 9.52108764648438 9.99453639984131 11.0169715881348 11.950138092041 12.7358684539795 13.5978775024414
-9999 -9999 -9999 -9999 -9999 -9999 -9999 -9999 -9999 -9999 -9999 -9999 -9999 -9999 -9999 -9999 -9999 -9999 -9999 -9999 -9999 -9999 -9999 -9999 -9999 -9999 -9999 2.3050856590271 2.3050856590271 2.39194178581238 2.62904095649719 3.14689111709595 3.45960593223572 3.26676058769226 3.08294463157654 2.94777917861938 2.77348470687866 2.61328554153442 2.56167650222778 2.84763836860657 3.38928723335266 3.82926249504089 4.09923839569092 4.2134222984314 4.18175458908081 4.04795122146606 3.89530825614929 3.77350068092346 3.67999863624573 3.65945315361023 3.80925273895264 4.06713771820068 4.22003650665283 4.36860418319702 4.38255453109741 4.59846544265747 5.65279340744019 7.79843664169312 9.50872707366943 10.1479415893555 10.462628364563 10.7528772354126 10.9802980422974 11.0864353179932 11.2598514556885 11.8395166397095 12.6074686050415 13.3616485595703 14.1189575195312 14.7045640945435
-9999 -9999 -9999 -9999 -9999 -9999 -9999 -9999 -9999 -9999 -9999 -9999 -9999 -9999 -9999 -9999 -9999 -9999 -9999 -9999 -9999 -9999 -9999 -9999 -9999 -9999 -9999 -9999 -9999 -9999 3.06882548332214 3.4503161907196 3.66061663627625 3.50075936317444 3.41316604614258 3.31976246833801 3.18458151817322 3.1122670173645 3.06440305709839 3.2097601890564 3.59046077728271 3.94371128082275 4.16730546951294 4.22924470901489 4.15478420257568 4.05489635467529 4.00864315032959 4.01651287078857 4.08272981643677 4.21422576904297 4.52494335174561 4.9430685043335 5.26518487930298 5.52985525131226 5.621985912323 5.88928365707397 6.98048496246338 8.80857086181641 10.0530796051025 10.5851583480835 11.0899620056152 11.6070041656494 12.0116395950317 12.3152503967285 12.593373298645 13.0738306045532 13.6296434402466 14.2540988922119 14.7626352310181 14.9958019256592
-9999 -9999 -9999 -9999 -9999 -9999 -9999 -9999 -9999 -9999 -9999 -9999 -9999 -9999 -9999 -9999 -9999 -9999 -9999 -9999 -9999 -9999 -9999 -9999 -9999 4.10266224543254 4.06475480397542 4.06389411290487 4.02288299798965 3.8659188747406 3.78679966926575 3.75915813446045 3.7478723526001 3.79743838310242 3.9062659740448 3.91584157943726 3.87910413742065 3.83978176116943 3.75864577293396 3.77071595191956 3.9295654296875 4.1111478805542 4.22874355316162 4.20891237258911 4.13228130340576 4.16015005111694 4.29942321777344 4.51585578918457 4.77234935760498 5.04060173034668 5.47081851959229 6.14254570007324 6.83915662765503 7.27158117294312 7.1988787651062 7.2269811630249 8.09531879425049 9.57665729522705 10.3742275238037 10.8407793045044 11.5265235900879 12.2108240127563 12.7276649475098 13.1211681365967 13.3837966918945 13.6404876708984 13.9791612625122 14.425386428833 14.6595878601074 14.6918201446533
-9999 -9999 -9999 -9999 -9999 -9999 -9999 -9999 -9999 -9999 -9999 -9999 -9999 -9999 -9999 -9999 -9999 -9999 -9999 -9999 -9999 -9999 -9999 -9999 4.17270660400391 4.09880399703979 4.03647613525391 4.05898427963257 4.09622192382812 4.07040691375732 4.00572156906128 3.98537802696228 4.07086563110352 4.27648067474365 4.42881488800049 4.42509984970093 4.39150476455688 4.33455181121826 4.23971891403198 4.20218896865845 4.2378888130188 4.29313325881958 4.32258462905884 4.31781768798828 4.37367343902588 4.54470205307007 4.81213760375977 5.05916500091553 5.27681636810303 5.56933736801147 6.11987972259521 7.11948728561401 8.24960613250732 8.92275333404541 8.76830673217773 8.70017242431641 9.76882457733154 11.0505170822144 11.3135375976562 11.4271106719971 12.0590562820435 12.7589931488037 13.1938877105713 13.5472393035889 13.8041715621948 13.995457649231 14.1627044677734 14.3356714248657 14.3440399169922 14.3214626312256
-9999 -9999 -9999 -9999 -9999 -9999 -9999 -9999 -9999 -9999 -9999 -9999 -9999 -9999 -9999 -9999 -9999 -9999 -9999 -9999 -9999 -9999 -9999 -9999 4.36396312713623 4.39574909210205 4.42086505889893 4.46228218078613 4.4812445640564 4.41815900802612 4.37311983108521 4.45944881439209 4.67594766616821 4.96175861358643 5.1268424987793 5.07062292098999 5.05749797821045 5.07111597061157 4.88051843643188 4.66187334060669 4.62554407119751 4.6991138458252 4.76267433166504 4.84859418869019 5.05400848388672 5.34038162231445 5.61125326156616 5.74830484390259 5.94856929779053 6.50785446166992 7.49226999282837 8.80641555786133 9.94195747375488 10.6142778396606 10.4693269729614 10.3364524841309 11.2868309020996 12.3740882873535 12.5416603088379 12.5081443786621 12.9816160202026 13.4795770645142 13.7256879806519 13.9363746643066 14.1138744354248 14.3290481567383 14.5109796524048 14.5613975524902 14.4587736129761 14.3869924545288
-9999 -9999 -9999 -9999 -9999 -9999 -9999 -9999 -9999 -9999 -9999 -9999 -9999 -9999 -9999 -9999 -9999 -9999 -9999 -9999 -9999 -9999 -9999 4.47392916679382 4.50372886657715 4.64006519317627 4.75730991363525 4.82956075668335 4.84993171691895 4.82266426086426 4.91994142532349 5.30296230316162 5.82639122009277 6.23097944259644 6.47449541091919 6.52785682678223 6.47871780395508 6.34292507171631 5.95348739624023 5.48529624938965 5.37715911865234 5.75272417068481 6.04018020629883 6.04936456680298 6.22553253173828 6.60574197769165 6.98213338851929 7.32547664642334 8.00275993347168 9.04037094116211 10.0698213577271 11.0040588378906 11.6135034561157 11.99817943573 11.970685005188 11.8657836914062 12.3125114440918 13.0681991577148 13.4827175140381 13.7643575668335 14.1998128890991 14.494026184082 14.6081504821777 14.6555414199829 14.7117681503296 14.9031047821045 15.1740398406982 15.3291530609131 15.3054113388062 15.2659568786621
-9999 -9999 -9999 -9999 -9999 -9999 -9999 -9999 -9999 -9999 -9999 -9999 -9999 -9999 -9999 -9999 -9999 -9999 -9999 -9999 -9999 -9999 -9999 4.46551036834717 4.56251430511475 4.80229091644287 5.00448131561279 5.13407754898071 5.24195337295532 5.41781663894653 5.87404680252075 6.66057586669922 7.31138515472412 7.53252840042114 7.67165994644165 7.92441034317017 8.04855632781982 7.95667457580566 7.58346033096313 7.01850414276123 6.96773290634155 7.7276930809021 8.066725730896 7.66814279556274 7.61744356155396 8.06210231781006 8.63103485107422 9.26792240142822 10.1780490875244 11.0581798553467 11.508563041687 11.7356300354004 11.969428062439 12.2795448303223 12.6764488220215 12.9091567993164 12.9382467269897 13.5622081756592 14.3716278076172 14.9277544021606 15.3585968017578 15.5977602005005 15.687894821167 15.7625541687012 15.9172496795654 16.1309413909912 16.3054656982422 16.4346027374268 16.488561630249 16.5735912322998
-9999 -9999 -9999 -9999 -9999 -9999 -9999 -9999 -9999 -9999 -9999 -9999 -9999 -9999 -9999 -9999 -9999 -9999 -9999 -9999 -9999 -9999 4.58037757873535 4.56951856613159 4.75131368637085 5.08333110809326 5.35574913024902 5.50603103637695 5.62435960769653 6.03476715087891 7.00867938995361 8.06601333618164 8.44710063934326 8.37274074554443 8.51815605163574 8.94528293609619 9.24750232696533 9.24302101135254 8.85423851013184 8.38113975524902 8.60849761962891 9.40091705322266 9.51247119903564 8.97335147857666 8.82322216033936 9.11249160766602 9.56271266937256 10.073052406311 10.5606670379639 11.0306835174561 11.461859703064 11.7634754180908 12.0112867355347 12.3176689147949 12.7833261489868 13.1875944137573 13.4090461730957 14.2610969543457 15.2634267807007 15.8113613128662 16.161563873291 16.3529529571533 16.4397220611572 16.5645790100098 16.8479499816895 17.1671695709229 17.3707866668701 17.503604888916 17.6017837524414 17.730167388916
-9999 -9999 -9999 -9999 -9999 -9999 -9999 -9999 -9999 -9999 -9999 -9999 -9999 -9999 6.02390854888492 -9999 -9999 -9999 -9999 4.96443367004395 -9999 4.74091911315918 4.71844959259033 4.85643291473389 5.13245964050293 5.43533754348755 5.66386699676514 5.81341648101807 6.18579483032227 7.18986225128174 8.43315887451172 9.02034854888916 8.89911079406738 8.82141494750977 9.18958187103271 9.62500190734863 9.76341247558594 9.64294242858887 9.37515544891357 9.3433723449707 9.83598709106445 10.3414192199707 10.339280128479 10.081862449646 9.95784854888916 9.97130870819092 10.1198759078979 10.3518390655518 10.6020650863647 11.0456047058105 11.7977437973022 12.4505567550659 12.7964496612549 13.0519237518311 13.374979019165 13.7194690704346 14.0956201553345 14.9416942596436 15.828028678894 16.2996616363525 16.5842037200928 16.757251739502 16.8148937225342 16.8809547424316 17.2169036865234 17.6839427947998 18.0338726043701 18.2708911895752 18.4240589141846 18.550365447998
-9999 -9999 -9999 -9999 -9999 -9999 -9999 -9999 -9999 -9999 -9999 -9999 -9999 -9999 6.02817690372467 -9999 -9999 -9999 -9999 4.92463397979736 4.95739717483521 4.9521369934082 5.07180738449097 5.3085789680481 5.51738309860229 5.70196437835693 6.0099663734436 6.75893783569336 8.10268020629883 9.26637649536133 9.56906890869141 9.3748664855957 9.24953460693359 9.55152893066406 10.1346397399902 10.513500213623 10.6648454666138 10.7089672088623 10.7566967010498 10.9753217697144 11.2321910858154 11.2920293807983 11.1898412704468 10.9755668640137 10.8311967849731 10.9461669921875 11.2062034606934 11.5379228591919 11.9340953826904 12.439022064209 13.1275434494019 13.6533842086792 13.8068675994873 13.9208345413208 14.1687698364258 14.4114398956299 14.7665529251099 15.4951076507568 16.2722225189209 16.7093086242676 16.9551563262939 17.1813659667969 17.265308380127 17.2957057952881 17.5670585632324 17.9665679931641 18.2719898223877 18.508337020874 18.6943206787109 18.8335876464844
-9999 -9999 -9999 -9999 -9999 -9999 -9999 -9999 -9999 -9999 -9999 -9999 -9999 -9999 6.0089693069458 -9999 -9999 -9999 -9999 -9999 5.20103621482849 5.24466180801392 5.46818780899048 5.75612449645996 6.03514862060547 6.45030879974365 7.2154107093811 8.49962425231934 9.94492149353027 10.4973850250244 10.0726442337036 9.62875938415527 9.63632488250732 10.0976800918579 10.763747215271 11.3536987304688 11.8290414810181 12.0663232803345 12.1991062164307 12.518102645874 12.7567834854126 12.6641340255737 12.366307258606 12.0827226638794 12.1314582824707 12.4917316436768 12.9183216094971 13.4033288955688 13.8841524124146 14.3074932098389 14.6523313522339 14.7779674530029 14.6947717666626 14.669545173645 14.7842617034912 14.9172687530518 15.3089237213135 16.0123653411865 16.6220855712891 16.9077415466309 17.0326042175293 17.2513599395752 17.4138717651367 17.4739303588867 17.6386661529541 17.8931484222412 18.1357917785645 18.3667373657227 18.5759925842285 18.7343559265137
-9999 -9999 -9999 -9999 -9999 -9999 -9999 -9999 -9999 -9999 -9999 -9999 -9999 -9999 6.01011848449707 -9999 6.08579969406128 -9999 -9999 -9999 5.19526338577271 5.41208267211914 5.70504903793335 6.08084440231323 6.72414207458496 7.93969964981079 9.47769451141357 10.5384016036987 10.9931583404541 11.1161098480225 11.0303430557251 11.0201606750488 11.2501449584961 11.6833629608154 12.1231698989868 12.5358390808105 12.9616985321045 13.1800756454468 13.3645095825195 13.8083581924438 14.1671009063721 14.1212205886841 13.8683347702026 13.7611608505249 13.9888134002686 14.377555847168 14.7838897705078 15.1779947280884 15.441234588623 15.6714267730713 15.8437299728394 15.8476505279541 15.7277917861938 15.5896511077881 15.5665283203125 15.5818681716919 15.7707147598267 16.2685604095459 16.6943702697754 16.8404006958008 16.8524303436279 17.0091857910156 17.2005882263184 17.2949924468994 17.4534225463867 17.7299327850342 18.0173110961914 18.2603626251221 18.4540977478027 18.6160564422607
-9999 -9999 -9999 -9999 -9999 -9999 -9999 -9999 -9999 -9999 -9999 -9999 -9999 -9999 6.01011848449707 6.01126766204834 6.09299087524414 -9999 -9999 5.32553768157959 5.24177360534668 5.56138181686401 5.94077062606812 6.60144233703613 8.13096714019775 10.1685705184937 11.4316272735596 11.7596025466919 11.83385181427 12.0661926269531 12.6285076141357 13.2980890274048 13.7408103942871 14.0981035232544 14.4544734954834 14.7013273239136 14.8953924179077 15.0029058456421 15.123836517334 15.3381729125977 15.471941947937 15.4127731323242 15.2787837982178 15.286808013916 15.6056203842163 15.9950361251831 16.2889881134033 16.5051937103271 16.5885238647461 16.7100143432617 16.8837108612061 16.9843616485596 16.9575672149658 16.7703304290771 16.6060028076172 16.4609146118164 16.2891731262207 16.3703899383545 16.6144104003906 16.7621078491211 16.8383750915527 16.9974250793457 17.1407566070557 17.2488422393799 17.4914035797119 17.8651847839355 18.193920135498 18.4068222045898 18.5359363555908 18.6768360137939
-9999 -9999 -9999 -9999 -9999 -9999 -9999 -9999 -9999 -9999 -9999 -9999 -9999 -9999 -9999 6.13393802642822 6.1467080116272 -9999 5.68833577632904 5.38004398345947 5.4850697517395 5.8617639541626 6.38693523406982 7.69016647338867 9.98852062225342 11.8857717514038 12.6061525344849 12.9221677780151 13.3643064498901 14.0442800521851 14.9347066879272 15.6765203475952 16.04709815979 16.2436618804932 16.446720123291 16.6046924591064 16.7015380859375 16.7175159454346 16.6629161834717 16.5790748596191 16.4540023803711 16.2370376586914 16.1590976715088 16.4018611907959 16.7823314666748 17.0732955932617 17.2194938659668 17.3496265411377 17.4385929107666 17.5630130767822 17.7455081939697 17.8896732330322 17.9541473388672 17.8696117401123 17.6981372833252 17.5169715881348 17.2813720703125 17.0819244384766 17.0223636627197 17.0551929473877 17.1271800994873 17.2599811553955 17.396333694458 17.602502822876 17.9726409912109 18.3944911956787 18.6776733398438 18.7924900054932 18.8246726989746 18.9027462005615
-9999 -9999 -9999 -9999 -9999 -9999 -9999 -9999 -9999 -9999 -9999 -9999 -9999 -9999 -9999 6.26508378982544 6.153639793396 -9999 5.62389421463013 5.54974174499512 5.80823278427124 6.32862424850464 7.42464447021484 9.5863618850708 11.8808908462524 13.0302734375 13.5488348007202 13.9436597824097 14.5413513183594 15.5577259063721 16.6887168884277 17.4752998352051 17.8960742950439 18.0996990203857 18.160945892334 18.1487617492676 18.082914352417 17.9343299865723 17.691837310791 17.387882232666 17.0435924530029 16.6868572235107 16.6794052124023 17.0834579467773 17.4693794250488 17.7515087127686 17.8702201843262 17.9624519348145 18.0850353240967 18.246072769165 18.3806209564209 18.4733982086182 18.5581378936768 18.5681419372559 18.4920883178711 18.3597812652588 18.1947650909424 18.0081977844238 17.8496723175049 17.7586116790771 17.7389183044434 17.7963886260986 17.9332542419434 18.1834449768066 18.5260314941406 18.8332576751709 19.0070972442627 19.0669784545898 19.0452537536621 19.0448417663574
-9999 -9999 -9999 -9999 -9999 -9999 -9999 -9999 -9999 -9999 -9999 -9999 -9999 -9999 -9999 6.370041847229 -9999 6.05710349764143 5.79980945587158 5.94932222366333 6.6028299331665 7.82982015609741 9.84409999847412 12.2054815292358 13.6386413574219 14.0422735214233 14.2324838638306 14.6165809631348 15.6703243255615 17.0935306549072 18.2690715789795 18.9809055328369 19.3384227752686 19.477466583252 19.4754257202148 19.3915691375732 19.261360168457 19.0686206817627 18.7483863830566 18.2814826965332 17.6979999542236 17.1899814605713 17.2079410552979 17.6044902801514 17.9967308044434 18.3058433532715 18.450590133667 18.5419139862061 18.6515445709229 18.7514057159424 18.7964401245117 18.8215827941895 18.8684558868408 18.8957653045654 18.8843002319336 18.8171119689941 18.7148723602295 18.5928344726562 18.4862880706787 18.4098243713379 18.3596038818359 18.3660354614258 18.4603595733643 18.6339092254639 18.8398532867432 19.0176868438721 19.143726348877 19.150764465332 19.0748481750488 19.0155391693115
-9999 -9999 -9999 -9999 -9999 -9999 -9999 -9999 -9999 -9999 -9999 -9999 -9999 -9999 6.370041847229 6.33257436752319 6.35514879226685 6.14631223678589 6.04838752746582 6.37585783004761 7.45250415802002 9.39561367034912 11.7275371551514 13.4950122833252 14.301643371582 14.7425565719604 15.5456314086914 16.7490463256836 18.1763477325439 19.2086696624756 19.7490272521973 19.9483032226562 19.9771499633789 19.9572296142578 19.9375629425049 19.9170417785645 19.8885192871094 19.8162212371826 19.6290016174316 19.2630233764648 18.5916690826416 17.8636722564697 17.7638702392578 18.1274013519287 18.4832820892334 18.722541809082 18.8318042755127 18.8939628601074 18.9440097808838 18.9475002288818 18.9334678649902 18.9637489318848 19.0388431549072 19.0969104766846 19.1265277862549 19.1158580780029 19.0623893737793 18.9729194641113 18.8901920318604 18.8460388183594 18.811056137085 18.8014888763428 18.8482570648193 18.9392261505127 19.0363349914551 19.154224395752 19.21657371521 19.1303863525391 19.0114440917969 18.9529094696045
-9999 -9999 -9999 -9999 -9999 -9999 -9999 -9999 -9999 -9999 -9999 -9999 -9999 -9999 -9999 -9999 6.20589172840118 6.17102479934692 6.0374584197998 6.43916702270508 7.84946203231812 10.3442611694336 12.6766166687012 14.2335224151611 15.7174654006958 17.0928287506104 18.4653244018555 19.3878211975098 19.9197597503662 20.1307144165039 20.0931053161621 19.9706134796143 19.8911151885986 19.8978309631348 19.9737358093262 20.0534381866455 20.11256980896 20.1106224060059 20.0159587860107 19.8438854217529 19.3792285919189 18.6018371582031 18.2700996398926 18.5290393829346 18.798282623291 18.9198360443115 18.9721088409424 19.00807762146 19.0257625579834 19.0061283111572 19.0163803100586 19.0922966003418 19.190242767334 19.2621631622314 19.3222923278809 19.3304767608643 19.2879467010498 19.2178325653076 19.156852722168 19.1193027496338 19.0991191864014 19.0959529876709 19.1239719390869 19.169828414917 19.2281761169434 19.3124103546143 19.2932720184326 19.1200313568115 18.9428997039795 18.8687000274658
-9999 -9999 -9999 -9999 -9999 -9999 -9999 -9999 -9999 -9999 -9999 -9999 -9999 -9999 -9999 -9999 6.161052942276 6.15108108520508 6.08647394180298 6.65860462188721 8.37119770050049 11.3004627227783 14.2174062728882 16.3561573028564 18.1100788116455 19.2558917999268 19.9559745788574 20.2574119567871 20.3016624450684 20.1654090881348 19.9464454650879 19.7894248962402 19.7216854095459 19.7449932098389 19.8348026275635 19.9466323852539 20.0596866607666 20.1230220794678 20.0920181274414 20.0080585479736 19.7451114654541 19.1528778076172 18.7620944976807 18.8208236694336 18.961877822876 19.0395965576172 19.0678997039795 19.0771160125732 19.0668239593506 19.0376148223877 19.0613040924072 19.1424217224121 19.2406539916992 19.3217830657959 19.4091892242432 19.4344329833984 19.3902530670166 19.3213729858398 19.2891273498535 19.2884063720703 19.3007793426514 19.3230781555176 19.3514747619629 19.384937286377 19.4489288330078 19.4640617370605 19.3339042663574 19.0747680664062 18.8477725982666 18.7646884918213
-9999 -9999 -9999 -9999 -9999 -9999 -9999 -9999 -9999 -9999 -9999 -9999 -9999 -9999 -9999 -9999 -9999 6.39130067825317 6.53837490081787 7.74650526046753 10.1423254013062 13.4854211807251 16.6335544586182 18.3524532318115 19.476749420166 20.1033382415771 20.4138889312744 20.4686069488525 20.303768157959 20.016622543335 19.7894458770752 19.6366195678711 19.5648918151855 19.5995216369629 19.6789035797119 19.7929210662842 19.9534568786621 20.0934219360352 20.1022701263428 20.0129928588867 19.8201179504395 19.4191017150879 19.1155452728271 19.0525703430176 19.1046562194824 19.1781921386719 19.186408996582 19.1370906829834 19.0554676055908 18.9866352081299 19.0322914123535 19.1556529998779 19.2909736633301 19.4148769378662 19.5328502655029 19.5521202087402 19.4448928833008 19.356143951416 19.3636169433594 19.3979244232178 19.4227828979492 19.453088760376 19.4803485870361 19.5192203521729 19.5699596405029 19.4831314086914 19.2364559173584 18.9378528594971 18.7645416259766 18.6997585296631
-9999 -9999 -9999 -9999 -9999 -9999 -9999 -9999 -9999 -9999 -9999 -9999 -9999 -9999 6.15357404947281 6.15108108520508 6.49886959791183 6.66382384300232 6.78927278518677 8.44302082061768 11.6244449615479 15.5688962936401 18.4535617828369 19.6050300598145 20.3321208953857 20.6416721343994 20.6724681854248 20.4654369354248 20.1040859222412 19.794469833374 19.5686740875244 19.4392509460449 19.4335155487061 19.5148296356201 19.6092567443848 19.7289123535156 19.8939456939697 20.0249328613281 20.0310592651367 19.9456882476807 19.7939739227295 19.5195827484131 19.2762260437012 19.1655616760254 19.1959705352783 19.240104675293 19.2052936553955 19.0916213989258 18.9414405822754 18.8889827728271 19.0086727142334 19.1984691619873 19.3637275695801 19.4997997283936 19.5923709869385 19.5625553131104 19.4318580627441 19.3711948394775 19.3791522979736 19.396936416626 19.3968086242676 19.4059810638428 19.4460258483887 19.5189476013184 19.5404968261719 19.3722972869873 19.0816383361816 18.8266181945801 18.7030906677246 18.610466003418
-9999 -9999 -9999 -9999 -9999 -9999 -9999 -9999 -9999 -9999 -9999 -9999 -9999 -9999 -9999 -9999 -9999 -9999 8.60021388530731 9.1325216293335 13.271785736084 17.7001171112061 19.421911239624 20.2947826385498 20.807653427124 20.9304943084717 20.7041072845459 20.2707271575928 19.875467300415 19.5708694458008 19.3466529846191 19.2809600830078 19.327657699585 19.4353828430176 19.5649032592773 19.6765003204346 19.7783794403076 19.8605556488037 19.8571014404297 19.776725769043 19.663480758667 19.4923248291016 19.3331813812256 19.2476253509521 19.2355194091797 19.205265045166 19.0973892211914 18.9321918487549 18.7990417480469 18.8149433135986 19.0102653503418 19.2270793914795 19.3656387329102 19.4510917663574 19.4799365997314 19.4047565460205 19.3026676177979 19.2774353027344 19.2670364379883 19.2603130340576 19.2409362792969 19.2475185394287 19.3361625671387 19.4573936462402 19.4767074584961 19.2831840515137 18.993953704834 18.8148612976074 18.7063274383545 18.5693187713623
-9999 -9999 -9999 -9999 -9999 -9999 -9999 -9999 -9999 -9999 -9999 -9999 -9999 -9999 -9999 -9999 -9999 9.43529510498047 10.3687696456909 10.0360403060913 14.344744682312 18.6702251434326 20.2280902862549 21.0179710388184 21.239086151123 20.9827117919922 20.4616394042969 19.9872646331787 19.6322555541992 19.3284072875977 19.1767673492432 19.1540508270264 19.1799545288086 19.2549781799316 19.3456001281738 19.4190673828125 19.4809455871582 19.5305671691895 19.5218601226807 19.4721755981445 19.4172954559326 19.3241844177246 19.2261123657227 19.1589851379395 19.1058006286621 19.0256843566895 18.8974094390869 18.7768268585205 18.7137508392334 18.7783641815186 19.0028018951416 19.2341594696045 19.340747833252 19.3717575073242 19.3459606170654 19.254150390625 19.1869792938232 19.1656970977783 19.1403541564941 19.1253433227539 19.1179847717285 19.1363945007324 19.236177444458 19.3752098083496 19.4000015258789 19.1969337463379 18.9131336212158 18.7752227783203 18.6888942718506 18.5641670227051
-9999 -9999 -9999 -9999 -9999 -9999 -9999 -9999 -9999 -9999 -9999 -9999 -9999 15.8602476119995 15.0649937523736 -9999 13.5243515968323 12.7790553569794 9.43529510498047 12.8712215423584 18.4035816192627 20.7411766052246 21.4486312866211 21.5490379333496 21.2134895324707 20.6635131835938 20.1325187683105 19.734489440918 19.3881988525391 19.1432189941406 19.039176940918 18.9791049957275 18.9388427734375 18.9316291809082 18.9362907409668 18.9586791992188 18.9918594360352 19.0310249328613 19.0522575378418 19.0505752563477 19.0486850738525 19.0156307220459 18.9580898284912 18.9038372039795 18.8566379547119 18.7971286773682 18.7345199584961 18.7090015411377 18.6881065368652 18.7475433349609 18.9552440643311 19.1983699798584 19.3053855895996 19.3196048736572 19.2852077484131 19.2233715057373 19.1825885772705 19.1380252838135 19.0822353363037 19.0559597015381 19.047815322876 19.0769195556641 19.1763687133789 19.3013877868652 19.3165302276611 19.1089477539062 18.8286380767822 18.7121067047119 18.648551940918 18.5631103515625
-9999 -9999 -9999 -9999 -9999 -9999 -9999 -9999 -9999 -9999 -9999 -9999 -9999 -9999 15.8602476119995 15.5276610056559 13.8070726394653 13.2416305541992 14.6322231292725 19.3045387268066 21.3036079406738 21.715991973877 21.6198863983154 21.2882499694824 20.8959846496582 20.3577079772949 19.7860641479492 19.4475135803223 19.2045192718506 19.0590858459473 18.9919281005859 18.9012584686279 18.8189506530762 18.7445678710938 18.6890048980713 18.6661777496338 18.6719570159912 18.7061576843262 18.7556915283203 18.794677734375 18.8185729980469 18.8094863891602 18.7933044433594 18.7812309265137 18.7509346008301 18.7192859649658 18.7118225097656 18.7108268737793 18.6806468963623 18.7134532928467 18.8870582580566 19.1211261749268 19.2406444549561 19.258092880249 19.2316646575928 19.2040214538574 19.1842975616455 19.1345405578613 19.0620193481445 19.0263786315918 19.00537109375 19.0324783325195 19.1271495819092 19.2383441925049 19.2382888793945 19.0296630859375 18.7626323699951 18.6674499511719 18.6167049407959 18.5492630004883
-9999 -9999 -9999 -9999 -9999 -9999 -9999 -9999 -9999 -9999 -9999 -9999 -9999 -9999 16.7041394710541 15.8602476119995 16.9156627655029 17.6860485076904 19.8934783935547 21.5564994812012 21.8088264465332 21.6510391235352 21.3621940612793 21.0718250274658 20.7281360626221 20.0464916229248 19.4487228393555 19.2080707550049 19.0832805633545 19.013729095459 18.9545936584473 18.870044708252 18.7843799591064 18.6970615386963 18.6243000030518 18.5744705200195 18.553201675415 18.5712642669678 18.6262855529785 18.6934833526611 18.7428779602051 18.7399158477783 18.7335834503174 18.751443862915 18.761079788208 18.7636985778809 18.7589225769043 18.7346935272217 18.6886463165283 18.7076988220215 18.8488159179688 19.0531463623047 19.1795120239258 19.2057037353516 19.1745834350586 19.1449413299561 19.1360511779785 19.1111106872559 19.0539951324463 19.0128860473633 18.9797534942627 18.9898986816406 19.0723514556885 19.1788368225098 19.1644477844238 18.9590435028076 18.7119216918945 18.6324996948242 18.5922412872314 18.5402507781982
-9999 -9999 -9999 -9999 -9999 -9999 -9999 -9999 -9999 -9999 -9999 15.5401811599731 15.9629440307617 16.5380172729492 16.5384178161621 17.8798751831055 19.9275150299072 20.9642562866211 21.712947845459 21.8829593658447 21.7297096252441 21.4778690338135 21.1546592712402 20.8850917816162 20.5044288635254 19.7600040435791 19.2386951446533 19.0573062896729 18.9789714813232 18.955623626709 18.9267730712891 18.8822822570801 18.813102722168 18.7365016937256 18.6648578643799 18.6029319763184 18.5645160675049 18.5683517456055 18.6182842254639 18.6961441040039 18.7787666320801 18.778787612915 18.7313003540039 18.7181415557861 18.7346210479736 18.7571620941162 18.7638206481934 18.7457294464111 18.7131729125977 18.7392101287842 18.860237121582 19.0188732147217 19.1151027679443 19.1377944946289 19.1278457641602 19.1220550537109 19.129056930542 19.1273460388184 19.0793762207031 19.0281810760498 18.9752655029297 18.956413269043 19.0155735015869 19.1115684509277 19.0942459106445 18.899320602417 18.672399520874 18.605016708374 18.5804576873779 18.5536022186279
-9999 -9999 -9999 -9999 -9999 -9999 -9999 -9999 -9999 15.3751773834229 15.7861709594727 16.2150344848633 17.1981315612793 17.7270660400391 17.9087924957275 19.5007591247559 21.003604888916 21.6738262176514 21.9628982543945 21.8899803161621 21.6501865386963 21.2802906036377 20.9207344055176 20.7110710144043 20.351001739502 19.6232814788818 19.2261924743652 19.1819038391113 19.1527137756348 19.1161422729492 19.0672950744629 19.027717590332 18.981861114502 18.9274997711182 18.8639602661133 18.8063182830811 18.7655334472656 18.7599811553955 18.795431137085 18.8550930023193 18.9170703887939 18.8875389099121 18.7717208862305 18.6873607635498 18.6679553985596 18.6956386566162 18.7363319396973 18.7538452148438 18.7559146881104 18.7886066436768 18.8873462677002 19.0093173980713 19.0853080749512 19.125036239624 19.1515464782715 19.1795883178711 19.2431354522705 19.2702808380127 19.2119445800781 19.132833480835 19.0444679260254 18.9960823059082 19.0130233764648 19.065544128418 19.0308933258057 18.8378505706787 18.6246032714844 18.5715236663818 18.57248878479 18.565601348877
-9999 -9999 -9999 -9999 -9999 -9999 -9999 -9999 -9999 16.087890625 16.5517234802246 17.3915309906006 18.3537864685059 18.7203998565674 19.1962795257568 20.7242641448975 21.6808681488037 22.0608959197998 22.0752277374268 21.8519058227539 21.4942741394043 21.0484676361084 20.6061344146729 20.3726978302002 20.1747817993164 19.6198062896729 19.3597145080566 19.3858661651611 19.4147510528564 19.446216583252 19.4344005584717 19.3668880462646 19.2942314147949 19.2187156677246 19.141284942627 19.0704879760742 19.0166416168213 18.9901561737061 18.9943027496338 19.028247833252 19.0610427856445 18.9907035827637 18.8015422821045 18.6448936462402 18.5935192108154 18.6374168395996 18.7089710235596 18.757848739624 18.7954330444336 18.8560085296631 18.9650287628174 19.0762119293213 19.1293392181396 19.136531829834 19.1242008209229 19.1258029937744 19.2020149230957 19.2807521820068 19.2423839569092 19.1725368499756 19.0858173370361 19.0442371368408 19.0496501922607 19.0552978515625 18.9811763763428 18.7834644317627 18.5768966674805 18.5102043151855 18.5181312561035 18.5131397247314
-9999 -9999 -9999 -9999 -9999 16.9313802719116 16.7262516021729 16.9886074066162 16.8281650543213 16.7508335113525 17.2083129882812 18.2956638336182 19.477367401123 20.1799621582031 20.9504489898682 21.7667179107666 22.1180267333984 22.208179473877 22.1079788208008 21.841007232666 21.3756809234619 20.8376445770264 20.3893718719482 20.1724166870117 20.0377597808838 19.6702365875244 19.4152393341064 19.3309097290039 19.3022499084473 19.378604888916 19.4906444549561 19.5470943450928 19.5299835205078 19.4788665771484 19.4124507904053 19.3387775421143 19.2756748199463 19.2359714508057 19.2169151306152 19.2113590240479 19.1793365478516 19.017894744873 18.7400131225586 18.5648918151855 18.5358657836914 18.6109466552734 18.6984214782715 18.770845413208 18.8451404571533 18.9421291351318 19.0638256072998 19.1732616424561 19.2079334259033 19.1819972991943 19.1317520141602 19.101131439209 19.1006755828857 19.1826457977295 19.2003631591797 19.1381607055664 19.0722827911377 19.0545215606689 19.0828399658203 19.063497543335 18.9477252960205 18.7481575012207 18.564920425415 18.470251083374 18.4501705169678 18.4405250549316
-9999 -9999 -9999 -9999 16.7880935668945 16.9105987548828 17.3005771636963 18.0002899169922 17.8641719818115 17.956901550293 18.0523300170898 19.0416774749756 20.296480178833 21.2477951049805 21.822286605835 22.1502895355225 22.3583183288574 22.3308258056641 22.1369647979736 21.7475147247314 21.16162109375 20.600284576416 20.2556533813477 20.0967483520508 19.9650363922119 19.7278175354004 19.5362682342529 19.4365539550781 19.395227432251 19.4598598480225 19.5739440917969 19.6341705322266 19.6216716766357 19.5734825134277 19.5224380493164 19.4818229675293 19.4543704986572 19.4286727905273 19.3914890289307 19.3355274200439 19.205415725708 18.9370346069336 18.6795597076416 18.5565013885498 18.5397777557373 18.6248817443848 18.7319583892822 18.83083152771 18.9381065368652 19.0531558990479 19.1697216033936 19.2617301940918 19.2855930328369 19.2424926757812 19.1845741271973 19.1363773345947 19.0798168182373 19.1068363189697 19.1702709197998 19.1495590209961 19.0814800262451 19.0479316711426 19.0767498016357 19.0586681365967 18.924711227417 18.7093048095703 18.5636596679688 18.4856910705566 18.3684940338135 18.3463249206543
-9999 -9999 -9999 16.9937481880188 16.9402694702148 17.375207901001 18.0725135803223 18.9004001617432 19.0192070007324 19.6312637329102 19.3576774597168 20.3381805419922 21.4131660461426 21.9772186279297 22.2844409942627 22.5655250549316 22.5254421234131 22.2657871246338 21.8894233703613 21.387170791626 20.8013229370117 20.2578887939453 20.068208694458 20.0390510559082 19.9499206542969 19.820764541626 19.6821136474609 19.5802154541016 19.5354290008545 19.5858726501465 19.6267356872559 19.5611381530762 19.472749710083 19.4118957519531 19.3970584869385 19.4233837127686 19.4645328521729 19.4751949310303 19.4198665618896 19.3083343505859 19.1308422088623 18.8910293579102 18.7263164520264 18.631721496582 18.5983867645264 18.670747756958 18.7750720977783 18.8906173706055 19.0095825195312 19.1111602783203 19.2078113555908 19.2796440124512 19.2852115631104 19.2409057617188 19.2113819122314 19.1614971160889 19.0898590087891 19.0702075958252 19.1213665008545 19.1328773498535 19.0926971435547 19.0480308532715 19.0417079925537 19.0185699462891 18.9105987548828 18.7217140197754 18.5953140258789 18.5804996490479 18.4787120819092 18.3845863342285
-9999 -9999 -9999 16.9677047729492 17.2789249420166 18.1253662109375 19.141580581665 19.8971347808838 20.5132617950439 20.9732151031494 21.1196117401123 21.8739547729492 22.2213077545166 22.428243637085 22.6407508850098 22.6150074005127 22.3540573120117 21.9001522064209 21.401481628418 21.0806102752686 20.5887889862061 20.0753746032715 19.985143661499 19.8914680480957 19.8583335876465 19.8201770782471 19.7039127349854 19.6177711486816 19.6223754882812 19.6743221282959 19.606273651123 19.4020023345947 19.260669708252 19.2237396240234 19.2610301971436 19.3284931182861 19.3873996734619 19.3967456817627 19.3330402374268 19.2334976196289 19.0975208282471 18.9225463867188 18.7853717803955 18.6894779205322 18.678373336792 18.7492065429688 18.8260536193848 18.9136772155762 19.0044269561768 19.0851783752441 19.167013168335 19.2236671447754 19.2300662994385 19.2198581695557 19.2096328735352 19.1621704101562 19.1066780090332 19.0886573791504 19.1145210266113 19.1212043762207 19.1023941040039 19.0590744018555 19.0194110870361 18.9827442169189 18.9230175018311 18.8291149139404 18.7523307800293 18.7503204345703 18.724479675293 18.652286529541
