NCOLS 70 
NROWS 52 
XLLCORNER -80 
YLLCORNER 33 
CELLSIZE 0.25 
NODATA_value -9999 
-9999.000000000000000 -9999 -9999 -9999 -9999 -9999 -9999 -9999 -9999 -9999 -9999 -9999 -9999 -9999 -9999 -9999 -9999 -9999 -9999 -9999 -9999 -9999 -9999 -9999 -9999 -9999 -9999 -9999 -9999 -9999 -9999 -9999 -9999 -9999 -9999 -9999 -9999 -9999 -9999 -9999 -9999 -9999 -9999 -9999 -9999 -9999 -9999 -9999 -9999 -9999 -9999 -9999 -9999 -9999 -9999 -9999 -9999 -9999 -9999 -9999 -9999 -9999 -9999 -9999 -9999 -9999 -9999 -9999 -9999 -9999
-9999 -9999 -9999 -9999 -9999 -9999 -9999 -9999 -9999 -9999 -9999 -9999 -9999 -9999 -9999 -9999 -9999 -9999 -9999 -9999 -9999 -9999 -9999 -9999 -9999 -9999 -9999 -9999 -9999 -9999 -9999 -9999 -9999 -9999 -9999 -9999 -9999 -9999 -9999 -9999 -9999 -9999 -9999 -9999 -9999 -9999 -9999 -9999 -9999 -9999 -9999 -9999 -9999 -9999 -9999 -9999 -9999 -9999 -9999 -9999 -9999 -9999 -9999 -9999 -9999 -9999 -9999 -9999 -9999 -9999
-9999 -9999 -9999 -9999 -9999 -9999 -9999 -9999 -9999 -9999 -9999 -9999 -9999 -9999 -9999 -9999 -9999 -9999 -9999 -9999 -9999 -9999 -9999 -9999 -9999 -9999 -9999 -9999 -9999 -9999 -9999 -9999 -9999 -9999 -9999 -9999 -9999 -9999 -9999 -9999 -9999 -9999 -9999 -9999 -9999 -9999 -9999 -9999 -9999 -9999 -9999 -9999 -9999 -9999 -9999 -9999 -9999 -9999 -9999 0.555648922920227 -9999 -9999 -9999 -9999 -9999 -9999 -9999 -9999 -9999 -9999
-9999 -9999 -9999 -9999 -9999 -9999 -9999 -9999 -9999 -9999 -9999 -9999 -9999 -9999 -9999 -9999 -9999 -9999 -9999 -9999 -9999 -9999 -9999 -9999 -9999 -9999 -9999 -9999 -9999 -9999 -9999 -9999 -9999 -9999 -9999 -9999 -9999 -9999 -9999 -9999 -9999 -9999 -9999 -9999 -9999 -9999 -9999 -9999 -9999 -9999 -9999 -9999 -9999 -9999 -9999 0.833978652954102 0.777147352695465 0.508941471576691 0.521181702613831 0.167789235711098 -9999 -9999 -9999 -9999 -9999 -9999 -9999 -9999 -9999 -9999
-9999 -9999 -9999 -9999 -9999 -9999 -9999 -9999 -9999 -9999 -9999 -9999 -9999 -9999 -9999 -9999 -9999 -9999 -9999 -9999 -9999 -9999 -9999 -9999 -9999 -9999 -9999 -9999 -9999 -9999 -9999 -9999 -9999 -9999 -9999 -9999 -9999 -9999 -9999 -9999 -9999 -9999 -9999 -9999 -9999 -9999 -9999 -9999 -9999 -9999 -9999 -9999 1.77813243865967 1.87604606151581 1.73310232162476 1.52566349506378 1.28456389904022 1.02103865146637 -9999 -9999 -9999 -9999 -9999 -9999 -9999 -9999 -9999 -9999 -9999 -9999
-9999 -9999 -9999 -9999 -9999 -9999 -9999 -9999 -9999 -9999 -9999 -9999 -9999 -9999 -9999 -9999 -9999 -9999 -9999 -9999 -9999 -9999 -9999 -9999 -9999 -9999 -9999 -9999 -9999 -9999 -9999 -9999 -9999 -9999 -9999 -9999 -9999 -9999 -9999 -9999 -9999 -9999 -9999 -9999 -9999 -9999 -9999 -9999 -9999 -9999 2.95523266792297 2.66248416900635 3.07968759536743 3.4469895362854 3.35800552368164 2.75340032577515 -9999 -9999 -9999 -9999 -9999 -9999 -9999 -9999 -9999 -9999 -9999 1.25342444578807 1.03022186458111 0.656165421009064
-9999 -9999 -9999 -9999 -9999 -9999 -9999 -9999 -9999 -9999 -9999 -9999 -9999 -9999 -9999 -9999 -9999 -9999 -9999 -9999 -9999 -9999 -9999 -9999 -9999 -9999 -9999 -9999 -9999 -9999 -9999 -9999 -9999 -9999 -9999 -9999 -9999 -9999 -9999 -9999 -9999 -9999 -9999 -9999 1.62258406480153 -9999 -9999 3.33459347486496 3.23848438262939 3.32731628417969 3.42304515838623 3.79402422904968 4.14065837860107 4.1408896446228 4.12811756134033 -9999 -9999 -9999 -9999 -9999 -9999 -9999 -9999 1.63806402683258 1.88296854496002 1.77917301654816 1.41327691078186 1.23515021800995 1.11184620857239 1.11772561073303
-9999 -9999 -9999 -9999 -9999 -9999 -9999 -9999 -9999 -9999 -9999 -9999 -9999 -9999 -9999 -9999 -9999 -9999 -9999 -9999 -9999 -9999 -9999 -9999 -9999 -9999 -9999 -9999 -9999 -9999 -9999 -9999 -9999 -9999 -9999 -9999 -9999 -9999 -9999 -9999 -9999 -9999 -9999 -9999 1.50178217887878 1.95278811454773 2.80693912506104 3.52480983734131 3.7681405544281 3.89665818214417 4.07873106002808 4.2642707824707 4.26971626281738 3.8825798034668 3.92883920669556 -9999 -9999 -9999 -9999 -9999 -9999 -9999 1.76496005058289 1.93407416343689 2.03651332855225 1.94987797737122 1.90138673782349 1.93131852149963 1.88408672809601 1.8077517747879
-9999 -9999 -9999 -9999 -9999 -9999 -9999 -9999 -9999 -9999 -9999 -9999 -9999 -9999 -9999 -9999 -9999 -9999 -9999 -9999 -9999 -9999 -9999 -9999 -9999 -9999 -9999 -9999 -9999 -9999 -9999 -9999 -9999 -9999 -9999 -9999 -9999 -9999 -9999 -9999 3.49989295005798 3.64383379618327 3.1455423116684 2.86222195625305 2.87142395973206 3.33315944671631 3.8282425403595 4.13992929458618 4.26114320755005 4.28486633300781 4.32373762130737 4.33040285110474 4.10725879669189 3.56376981735229 2.99974446296692 -9999 -9999 -9999 -9999 -9999 1.78738089402517 1.79813408851624 1.91573059558868 2.04261088371277 2.11037635803223 2.18016886711121 2.32533431053162 2.47911953926086 2.49704003334045 2.36619782447815
-9999 -9999 -9999 -9999 -9999 -9999 -9999 -9999 -9999 -9999 -9999 -9999 -9999 -9999 -9999 -9999 -9999 -9999 -9999 -9999 -9999 -9999 -9999 -9999 -9999 -9999 -9999 -9999 -9999 -9999 -9999 -9999 -9999 -9999 -9999 -9999 -9999 -9999 -9999 3.38934683799744 3.49882364273071 3.6115083694458 3.82116937637329 4.01962995529175 4.08014392852783 4.19878387451172 4.31864595413208 4.39418935775757 4.41699457168579 4.39964914321899 4.38665676116943 4.31051397323608 3.98353242874146 3.34887981414795 2.48106527328491 1.72242760658264 -9999 -9999 -9999 1.68267560005188 1.72365522384644 1.84035336971283 1.93875753879547 1.99435615539551 2.04415941238403 2.14333009719849 2.39633464813232 2.72491073608398 2.84974098205566 2.78278350830078
-9999 -9999 -9999 -9999 -9999 -9999 -9999 -9999 -9999 -9999 -9999 -9999 -9999 -9999 -9999 -9999 -9999 -9999 -9999 -9999 -9999 -9999 -9999 -9999 -9999 -9999 -9999 -9999 -9999 -9999 -9999 -9999 -9999 -9999 -9999 -9999 -9999 -9999 3.75454816818237 3.85428667068481 4.13406085968018 4.38424062728882 4.44008302688599 4.44838190078735 4.42690372467041 4.46245193481445 4.5106258392334 4.50704336166382 4.45347738265991 4.38774633407593 4.34830617904663 4.23388528823853 3.85363674163818 3.22468256950378 2.4934823513031 1.84241545200348 1.57420349121094 1.76423352956772 1.58027482032776 1.69640624523163 1.7303661108017 1.79384446144104 1.84194004535675 1.90926861763 2.0146222114563 2.24583554267883 2.70059490203857 3.06625819206238 3.09192800521851 3.03412485122681
-9999 -9999 -9999 -9999 -9999 -9999 -9999 -9999 -9999 -9999 -9999 -9999 -9999 -9999 -9999 -9999 -9999 -9999 -9999 -9999 -9999 -9999 -9999 -9999 -9999 -9999 -9999 -9999 -9999 -9999 -9999 -9999 -9999 -9999 -9999 -9999 -9999 3.51659560203552 3.7963342666626 4.21617746353149 4.54265737533569 4.7053394317627 4.70601654052734 4.65066385269165 4.62096214294434 4.65032148361206 4.67706727981567 4.64842176437378 4.55253124237061 4.41306972503662 4.29652690887451 4.14292764663696 3.83548212051392 3.40745258331299 2.91741442680359 2.41520047187805 2.07999348640442 1.9905618429184 1.91965210437775 1.92655622959137 1.95621144771576 2.04243350028992 2.06636261940002 2.08511567115784 2.33551239967346 2.86570835113525 3.43146300315857 3.50505352020264 3.33309149742126 3.26926207542419
-9999 -9999 -9999 -9999 -9999 -9999 -9999 -9999 -9999 -9999 -9999 -9999 -9999 -9999 -9999 -9999 -9999 -9999 -9999 -9999 -9999 -9999 -9999 -9999 -9999 -9999 -9999 -9999 -9999 -9999 -9999 -9999 -9999 -9999 -9999 -9999 -9999 3.90052080154419 4.17593860626221 4.55517053604126 4.77571964263916 4.87086200714111 4.84919691085815 4.7681450843811 4.73766613006592 4.78319263458252 4.82718753814697 4.80971717834473 4.70012235641479 4.48686838150024 4.29610252380371 4.17957067489624 4.04534816741943 3.86241412162781 3.60934233665466 3.24795341491699 2.89157104492188 2.66543078422546 2.49779009819031 2.44401597976685 2.50595498085022 2.69558262825012 2.80235958099365 2.68931818008423 2.99648642539978 3.75073909759521 4.22446060180664 4.04837703704834 3.84171366691589 3.86178636550903
-9999 -9999 -9999 -9999 -9999 -9999 -9999 -9999 -9999 -9999 -9999 -9999 -9999 -9999 -9999 -9999 -9999 -9999 -9999 -9999 -9999 -9999 -9999 -9999 -9999 -9999 -9999 -9999 -9999 -9999 -9999 -9999 -9999 -9999 -9999 -9999 -9999 3.97929668426514 4.31047487258911 4.63343906402588 4.85226440429688 4.97346019744873 4.96992111206055 4.88279342651367 4.83642578125 4.88105583190918 4.93967151641846 4.93052911758423 4.81654500961304 4.58731508255005 4.37850332260132 4.30706930160522 4.26483058929443 4.14900779724121 3.96678900718689 3.70998930931091 3.46970868110657 3.38326501846313 3.29820919036865 3.2147912979126 3.27488374710083 3.65288424491882 3.9005274772644 3.67772889137268 3.77414727210999 4.52592706680298 5.09017610549927 5.16649866104126 5.21742677688599 5.55183219909668
-9999 -9999 -9999 -9999 -9999 -9999 -9999 -9999 -9999 -9999 -9999 -9999 -9999 -9999 -9999 -9999 -9999 -9999 -9999 -9999 -9999 -9999 -9999 -9999 -9999 -9999 -9999 -9999 -9999 -9999 -9999 -9999 -9999 -9999 -9999 -9999 3.48419189453125 3.90354609489441 4.34098625183105 4.60641670227051 4.81273651123047 4.98242616653442 5.04854536056519 4.99279689788818 4.93878173828125 4.97432565689087 5.04346179962158 5.04354429244995 4.91904544830322 4.71779918670654 4.5551872253418 4.52015352249146 4.49278116226196 4.35726499557495 4.2099027633667 4.07208347320557 3.96809363365173 4.11475372314453 4.21908140182495 4.30607175827026 4.54916715621948 5.17272853851318 5.36493301391602 5.07815408706665 4.85897779464722 5.32349872589111 5.92975950241089 6.34354877471924 6.66090297698975 7.11788177490234
-9999 -9999 -9999 -9999 -9999 -9999 -9999 -9999 -9999 -9999 -9999 -9999 -9999 -9999 -9999 -9999 -9999 -9999 -9999 -9999 -9999 -9999 -9999 -9999 -9999 -9999 -9999 -9999 -9999 -9999 -9999 -9999 -9999 -9999 -9999 -9999 -9999 4.00354099273682 4.11502981185913 4.32409620285034 4.59345102310181 4.8986611366272 5.09339714050293 5.09752416610718 5.05841970443726 5.10535621643066 5.19892120361328 5.23572492599487 5.14462184906006 4.99137163162231 4.88210725784302 4.86216592788696 4.80375909805298 4.6282639503479 4.479332447052 4.57437133789062 4.78237104415894 5.12988471984863 5.46792507171631 5.7073278427124 6.21803092956543 7.14062690734863 7.42490482330322 7.16142606735229 6.62042665481567 6.59195041656494 6.78138542175293 6.78859329223633 6.92834711074829 7.38397455215454
-9999 -9999 -9999 -9999 -9999 -9999 -9999 -9999 -9999 -9999 -9999 -9999 -9999 -9999 -9999 -9999 -9999 -9999 -9999 -9999 -9999 -9999 -9999 -9999 -9999 -9999 -9999 -9999 -9999 -9999 -9999 -9999 -9999 -9999 -9999 -9999 -9999 -9999 3.69149684906006 -9999 4.37574768066406 4.83707904815674 5.14297151565552 5.21984672546387 5.24059057235718 5.33249378204346 5.43776559829712 5.45779800415039 5.34016609191895 5.16976261138916 5.07217168807983 5.03696727752686 4.99354267120361 4.91775608062744 4.63423681259155 4.78598165512085 5.25362682342529 5.83590745925903 6.36790323257446 6.71099424362183 7.60086584091187 8.91808891296387 9.3963623046875 9.52769374847412 9.10993957519531 8.35341358184814 8.12606430053711 7.37060356140137 7.15160846710205 7.4128303527832
-9999 -9999 -9999 -9999 -9999 -9999 -9999 -9999 -9999 -9999 -9999 -9999 -9999 -9999 -9999 -9999 -9999 -9999 -9999 -9999 -9999 -9999 -9999 -9999 -9999 -9999 -9999 -9999 -9999 -9999 -9999 -9999 -9999 -9999 -9999 -9999 -9999 -9999 -9999 -9999 4.57611989974976 4.94351530075073 5.23401737213135 5.36840915679932 5.46064424514771 5.58161354064941 5.64516067504883 5.57694578170776 5.40041971206665 5.23886108398438 5.15725564956665 5.10576438903809 5.13988733291626 5.28489542007446 5.10552072525024 5.21935939788818 5.8661413192749 6.75208187103271 7.465660572052 7.87631368637085 9.1239070892334 10.5633687973022 10.9638833999634 11.1976852416992 11.0864887237549 10.1132364273071 9.73733615875244 8.62949752807617 7.88819360733032 7.7582573890686
-9999 -9999 -9999 -9999 -9999 -9999 -9999 -9999 -9999 -9999 -9999 -9999 -9999 -9999 -9999 -9999 -9999 -9999 -9999 -9999 -9999 -9999 -9999 -9999 -9999 -9999 -9999 -9999 -9999 -9999 -9999 -9999 -9999 -9999 4.6151340007782 4.03229427337646 3.8650119304657 -9999 3.56698274612427 3.79139232635498 4.37834024429321 4.94921064376831 5.33725214004517 5.54768133163452 5.70129013061523 5.82831287384033 5.82402563095093 5.6804313659668 5.49101400375366 5.35347509384155 5.29039478302002 5.29680681228638 5.51532697677612 5.91626024246216 6.04051828384399 6.3631854057312 7.43578481674194 8.40312576293945 9.36189651489258 9.83150291442871 10.4593715667725 11.3940782546997 11.7625617980957 12.1342363357544 12.2188549041748 11.6301727294922 11.3428535461426 10.5404767990112 9.48900699615479 8.88400077819824
-9999 -9999 -9999 -9999 -9999 -9999 -9999 -9999 -9999 -9999 -9999 -9999 -9999 -9999 -9999 -9999 -9999 -9999 -9999 -9999 -9999 -9999 -9999 -9999 -9999 -9999 -9999 2.34473633766174 2.34473633766174 2.56815958023071 2.88450765609741 3.6093955039978 4.4658260345459 4.83327770233154 4.8382773399353 4.75668668746948 4.57887744903564 4.32012033462524 4.04450607299805 4.08986949920654 4.54241466522217 5.05057239532471 5.49433517456055 5.78306579589844 5.9859561920166 6.08541965484619 6.01120233535767 5.82735347747803 5.63980436325073 5.52619886398315 5.51305770874023 5.66860580444336 6.07849073410034 6.62997770309448 7.13749599456787 7.98363971710205 9.42237377166748 10.3752670288086 11.5096473693848 11.9701099395752 11.9339933395386 12.4416694641113 12.9091234207153 13.5227432250977 13.8826494216919 13.5550346374512 13.157509803772 12.3516530990601 11.6431131362915 10.8208742141724
-9999 -9999 -9999 -9999 -9999 -9999 -9999 -9999 -9999 -9999 -9999 -9999 -9999 -9999 -9999 -9999 -9999 -9999 -9999 -9999 -9999 -9999 -9999 -9999 -9999 -9999 -9999 -9999 -9999 -9999 3.77026796340942 4.47972202301025 5.52541017532349 6.08825969696045 6.12515354156494 5.97704458236694 5.69935131072998 5.39272356033325 5.02066850662231 4.85720443725586 5.07383680343628 5.38484811782837 5.71946907043457 5.99998998641968 6.16447257995605 6.1413745880127 6.00642728805542 5.8600869178772 5.79987764358521 5.87663602828979 6.14565181732178 6.6024284362793 7.2242317199707 8.37027263641357 9.73838901519775 10.8430395126343 11.8508529663086 12.2944889068604 12.878942489624 12.9980802536011 13.4178438186646 14.2891893386841 14.6959915161133 14.7973651885986 14.9438076019287 14.9049243927002 14.5172605514526 13.8711280822754 13.4777755737305 13.0649251937866
-9999 -9999 -9999 -9999 -9999 -9999 -9999 -9999 -9999 -9999 -9999 -9999 -9999 -9999 -9999 -9999 -9999 -9999 -9999 -9999 -9999 -9999 -9999 -9999 -9999 5.18629995981852 5.40063540140788 5.63420979181925 5.76008152961731 5.39048337936401 5.59878253936768 5.82253456115723 6.28902912139893 6.73689031600952 6.81174993515015 6.74254894256592 6.59761762619019 6.3683500289917 6.04439449310303 5.80328750610352 5.76509857177734 5.81732273101807 5.95791625976562 6.11057567596436 6.14925384521484 6.11890935897827 6.15489912033081 6.39114618301392 6.78521680831909 7.36498117446899 7.95715570449829 8.49549388885498 9.37479114532471 11.0345697402954 12.4871864318848 13.173436164856 13.3739767074585 13.4801340103149 14.0168561935425 14.5229501724243 15.4138336181641 16.3890914916992 16.6807346343994 16.3132839202881 15.9433631896973 15.7327613830566 15.5831508636475 15.4067935943604 14.8686857223511 14.4431667327881
-9999 -9999 -9999 -9999 -9999 -9999 -9999 -9999 -9999 -9999 -9999 -9999 -9999 -9999 -9999 -9999 -9999 -9999 -9999 -9999 -9999 -9999 -9999 -9999 4.98634433746338 5.18234729766846 5.39020824432373 5.62935066223145 5.88307046890259 6.13742160797119 6.37893056869507 6.57087230682373 6.82476663589478 7.04965925216675 7.12768888473511 7.11631298065186 7.01661205291748 6.77841186523438 6.54508352279663 6.47400760650635 6.40646362304688 6.33034515380859 6.38924407958984 6.50349092483521 6.60501098632812 6.90695428848267 7.49885940551758 8.22749614715576 9.03373241424561 10.0390872955322 10.6692590713501 10.9302396774292 11.617748260498 12.4460754394531 13.337251663208 14.2580852508545 14.571665763855 14.7672033309937 15.6278314590454 16.6025638580322 17.403564453125 17.9978103637695 18.1707515716553 17.7464065551758 17.3200817108154 17.066276550293 16.88205909729 16.8816184997559 16.4323749542236 15.9044332504272
-9999 -9999 -9999 -9999 -9999 -9999 -9999 -9999 -9999 -9999 -9999 -9999 -9999 -9999 -9999 -9999 -9999 -9999 -9999 -9999 -9999 -9999 -9999 -9999 5.28922462463379 5.64760732650757 6.02141284942627 6.35644912719727 6.59446477890015 6.7323431968689 6.87562704086304 7.08033895492554 7.34829473495483 7.55601787567139 7.62070989608765 7.63980913162231 7.59258413314819 7.40761375427246 7.42388725280762 7.7224268913269 7.83357763290405 7.740882396698 7.67301654815674 7.73404979705811 7.96160984039307 8.51367378234863 9.44485092163086 10.194676399231 10.8752861022949 11.7684354782104 12.3873271942139 12.6172618865967 12.797779083252 12.8207969665527 13.8470106124878 15.2885494232178 15.804877281189 16.2728824615479 17.1199798583984 17.8045921325684 18.2219047546387 18.529483795166 18.6466941833496 18.4476528167725 18.4150905609131 18.4765338897705 18.4354610443115 18.3256397247314 17.914924621582 17.6011123657227
-9999 -9999 -9999 -9999 -9999 -9999 -9999 -9999 -9999 -9999 -9999 -9999 -9999 -9999 -9999 -9999 -9999 -9999 -9999 -9999 -9999 -9999 -9999 5.40267419815063 5.48910713195801 5.95940589904785 6.4550666809082 6.86388206481934 7.0957293510437 7.18584156036377 7.37727689743042 8.017333984375 8.75107383728027 8.86884307861328 8.69383239746094 8.68177127838135 8.81343841552734 8.96871852874756 9.32794284820557 9.80422973632812 10.0312814712524 9.96466445922852 9.7333927154541 9.70548057556152 9.94756603240967 10.3614130020142 11.0779361724854 11.7765064239502 12.2737722396851 12.7301216125488 13.0841360092163 13.2728672027588 13.4278841018677 13.4478149414062 14.6833801269531 16.1319217681885 16.8026428222656 17.440824508667 17.9771633148193 18.332181930542 18.5584201812744 18.749979019165 18.8695621490479 18.9596271514893 19.128604888916 19.2714595794678 19.2656078338623 19.1433982849121 18.8682250976562 18.8374061584473
-9999 -9999 -9999 -9999 -9999 -9999 -9999 -9999 -9999 -9999 -9999 -9999 -9999 -9999 -9999 -9999 -9999 -9999 -9999 -9999 -9999 -9999 -9999 5.23512077331543 5.59724426269531 6.1177282333374 6.66572093963623 7.15329742431641 7.47776746749878 7.73491525650024 8.35133647918701 9.52212047576904 10.2397136688232 9.86812305450439 9.46310424804688 9.57487487792969 9.97348690032959 10.486834526062 10.9453067779541 11.2273387908936 11.4590473175049 11.6175842285156 11.5984382629395 11.7953004837036 12.1860074996948 12.4699554443359 12.9048719406128 13.4484643936157 13.7717895507812 13.8331499099731 13.7895221710205 13.8741750717163 14.0093717575073 14.2901544570923 15.5257778167725 16.8063125610352 17.5794944763184 18.0956897735596 18.4334659576416 18.6910247802734 18.8660945892334 19.0198307037354 19.1498908996582 19.2921466827393 19.4610252380371 19.613842010498 19.6783237457275 19.6672763824463 19.6509838104248 19.7260437011719
-9999 -9999 -9999 -9999 -9999 -9999 -9999 -9999 -9999 -9999 -9999 -9999 -9999 -9999 -9999 -9999 -9999 -9999 -9999 -9999 -9999 -9999 5.04971313476562 5.29092741012573 5.80904579162598 6.44246339797974 7.06311321258545 7.61640501022339 8.09826850891113 8.68641090393066 9.65346908569336 10.6346673965454 10.8511533737183 10.5388164520264 10.6329355239868 11.2427425384521 11.8521327972412 12.2741012573242 12.4469909667969 12.3761043548584 12.4125165939331 12.6041135787964 12.7874269485474 13.1750783920288 13.6267862319946 13.9332542419434 14.3078079223633 14.6669654846191 14.836986541748 14.7401685714722 14.4546422958374 14.3364562988281 14.385458946228 14.9042539596558 16.1040706634521 17.1692008972168 17.7921943664551 18.1934566497803 18.4746780395508 18.6658840179443 18.7879104614258 18.8752593994141 18.9574279785156 19.1109600067139 19.3196220397949 19.5231628417969 19.6819038391113 19.7930679321289 19.8735122680664 19.9543399810791
-9999 -9999 -9999 -9999 -9999 -9999 -9999 -9999 -9999 -9999 -9999 -9999 -9999 -9999 6.21242413255904 -9999 -9999 -9999 -9999 5.35229587554932 -9999 5.06661605834961 5.15460872650146 5.60175180435181 6.38726568222046 7.21844100952148 7.93733835220337 8.63974189758301 9.41640567779541 10.3223466873169 11.0956220626831 11.4708080291748 11.620379447937 11.9098358154297 12.4860668182373 13.1381816864014 13.5579252243042 13.6811141967773 13.5845823287964 13.368257522583 13.2410221099854 13.2813587188721 13.5931148529053 14.1469507217407 14.6238069534302 14.9979705810547 15.4041175842285 15.738263130188 15.9243650436401 15.8431692123413 15.3363008499146 14.7697172164917 14.6439018249512 15.3265142440796 16.420581817627 17.1956787109375 17.6376914978027 17.9370231628418 18.1216144561768 18.2100620269775 18.3101596832275 18.4596138000488 18.6544380187988 18.933931350708 19.2248268127441 19.4772510528564 19.6981506347656 19.874174118042 19.9939212799072 20.0980014801025
-9999 -9999 -9999 -9999 -9999 -9999 -9999 -9999 -9999 -9999 -9999 -9999 -9999 -9999 6.21209752559662 -9999 -9999 -9999 -9999 5.27782273292542 5.33887519836426 5.26755142211914 5.65262413024902 6.48119831085205 7.51697158813477 8.31585884094238 8.94839477539062 9.8004732131958 10.9216995239258 11.8979845046997 12.2700443267822 12.2949657440186 12.5321531295776 12.973578453064 13.3665466308594 13.6783514022827 13.9168729782104 13.9844369888306 13.8007326126099 13.5753564834595 13.5787563323975 13.8297786712646 14.3934078216553 15.0775871276855 15.5924015045166 16.0322036743164 16.4920558929443 16.8673286437988 17.098482131958 17.1151809692383 16.567777633667 15.5797262191772 15.0896129608154 15.6107358932495 16.4545249938965 17.05397605896 17.4525127410889 17.6841621398926 17.7934951782227 17.8625392913818 18.040506362915 18.3326358795166 18.6593837738037 19.0201511383057 19.3581256866455 19.661506652832 19.9462718963623 20.1726379394531 20.3154792785645 20.4271945953369
-9999 -9999 -9999 -9999 -9999 -9999 -9999 -9999 -9999 -9999 -9999 -9999 -9999 -9999 6.21356725692749 -9999 -9999 -9999 -9999 -9999 5.85062849521637 5.80456304550171 6.53065586090088 7.65115833282471 8.69733715057373 9.38061809539795 10.095139503479 11.208909034729 12.3428115844727 12.9417896270752 12.9667892456055 12.8092231750488 12.9586820602417 13.3335762023926 13.6902351379395 13.954273223877 14.1074485778809 14.1811742782593 14.0739049911499 13.8641147613525 13.9727430343628 14.4472274780273 15.1458301544189 15.9271230697632 16.5261154174805 17.0103130340576 17.4738063812256 17.8599510192871 18.1045799255371 18.1957988739014 17.9526557922363 17.1316528320312 16.1565399169922 15.9137420654297 16.3458881378174 16.8259124755859 17.1899719238281 17.4493789672852 17.6115398406982 17.759635925293 18.0225830078125 18.3582820892334 18.7175102233887 19.1209850311279 19.5329208374023 19.9187850952148 20.2594470977783 20.4981784820557 20.6157093048096 20.6852760314941
-9999 -9999 -9999 -9999 -9999 -9999 -9999 -9999 -9999 -9999 -9999 -9999 -9999 -9999 6.18484973907471 -9999 6.207688331604 -9999 -9999 -9999 6.03498029708862 6.29541921615601 7.20661926269531 8.55023670196533 9.96014308929443 11.021390914917 11.8522939682007 12.6881809234619 13.2701797485352 13.4398698806763 13.2898406982422 13.0731229782104 13.3065223693848 14.0281496047974 14.6769208908081 14.9909572601318 15.1139001846313 15.1267356872559 14.9785089492798 14.6576433181763 14.648323059082 15.2556638717651 16.1434116363525 16.8984031677246 17.401891708374 17.8027477264404 18.1925678253174 18.5469493865967 18.8003387451172 18.9236469268799 18.9184112548828 18.6149978637695 17.8640918731689 17.0363311767578 16.6401958465576 16.7065010070801 16.9909362792969 17.305980682373 17.5882396697998 17.8672752380371 18.1223201751709 18.3687191009521 18.7433700561523 19.2435340881348 19.7733058929443 20.2284202575684 20.5533962249756 20.7154941558838 20.7375087738037 20.7230548858643
-9999 -9999 -9999 -9999 -9999 -9999 -9999 -9999 -9999 -9999 -9999 -9999 -9999 -9999 6.18484973907471 6.15613222122192 6.12691497802734 -9999 -9999 6.39681386947632 6.29546022415161 6.89165592193604 8.09757614135742 9.79111289978027 11.5239934921265 12.5895948410034 13.1063795089722 13.4360618591309 13.5968055725098 13.7151718139648 13.8665008544922 14.1993160247803 14.9570417404175 15.8920726776123 16.4752292633057 16.724630355835 16.8788051605225 16.8921813964844 16.6241683959961 15.9693193435669 15.5481042861938 16.061824798584 17.0116901397705 17.6500854492188 18.0509910583496 18.4399375915527 18.8272953033447 19.1752395629883 19.4144458770752 19.506404876709 19.5041446685791 19.4219036102295 19.1731948852539 18.6471385955811 17.9366931915283 17.412504196167 17.2875690460205 17.3905639648438 17.6251239776611 17.9348258972168 18.189395904541 18.4490795135498 18.9035301208496 19.5090427398682 20.0796298980713 20.4674968719482 20.6877708435059 20.7518882751465 20.7048053741455 20.6545467376709
-9999 -9999 -9999 -9999 -9999 -9999 -9999 -9999 -9999 -9999 -9999 -9999 -9999 -9999 -9999 6.24555892944336 6.08733510971069 -9999 6.56097483634949 6.50359296798706 6.75322198867798 7.71265411376953 9.34973812103271 11.3278789520264 12.842188835144 13.4310932159424 13.7300071716309 14.0477695465088 14.2896995544434 14.7124309539795 15.4196329116821 16.249584197998 17.1025218963623 17.7634830474854 18.1010971069336 18.2654705047607 18.4105567932129 18.468090057373 18.3025131225586 17.639440536499 16.8164367675781 16.9569644927979 17.7758102416992 18.3018264770508 18.6867904663086 19.0993022918701 19.4424705505371 19.7036304473877 19.8459987640381 19.8746738433838 19.8491325378418 19.7989177703857 19.7319183349609 19.6033878326416 19.2585430145264 18.7354354858398 18.327579498291 18.1339302062988 18.1440620422363 18.3037796020508 18.5155868530273 18.8328685760498 19.3091506958008 19.8623123168945 20.3173599243164 20.5753612518311 20.6909332275391 20.6748180389404 20.6095771789551 20.6105422973633
-9999 -9999 -9999 -9999 -9999 -9999 -9999 -9999 -9999 -9999 -9999 -9999 -9999 -9999 -9999 6.41013145446777 6.44728088378906 -9999 6.89275360107422 6.79919862747192 7.36412048339844 8.700608253479 10.6266899108887 12.5177068710327 13.7103986740112 14.2356157302856 14.6641340255737 15.1097803115845 15.6305170059204 16.4024486541748 17.3390293121338 18.1858367919922 18.8377494812012 19.1977195739746 19.3113250732422 19.3015689849854 19.2953796386719 19.2912750244141 19.2629528045654 18.9575138092041 18.1348094940186 17.9081897735596 18.4465293884277 18.8533706665039 19.1698112487793 19.4998741149902 19.7583465576172 19.9248142242432 19.9878692626953 19.9811115264893 19.9540061950684 19.9390811920166 19.9328308105469 19.9149990081787 19.84423828125 19.6524600982666 19.3927593231201 19.161003112793 19.0350532531738 19.0476264953613 19.1732273101807 19.4316482543945 19.7704200744629 20.154842376709 20.4654407501221 20.60719871521 20.6309642791748 20.5665187835693 20.5343589782715 20.5811042785645
-9999 -9999 -9999 -9999 -9999 -9999 -9999 -9999 -9999 -9999 -9999 -9999 -9999 -9999 -9999 6.75189113616943 -9999 7.07033538818359 7.11091709136963 7.19209575653076 8.0355749130249 9.71341514587402 11.7667779922485 13.3696746826172 14.3863458633423 15.1563415527344 15.7732915878296 16.4545936584473 17.2210655212402 18.0897617340088 18.8650150299072 19.4158668518066 19.775951385498 19.9286708831787 19.9539852142334 19.9126758575439 19.8510131835938 19.7679386138916 19.7173900604248 19.6751861572266 19.1715869903564 18.7969036102295 18.9724826812744 19.2239780426025 19.4622421264648 19.7037487030029 19.8853702545166 19.9918270111084 20.0234680175781 20.0100288391113 19.9882354736328 19.9946193695068 20.0233039855957 20.0377006530762 20.0383243560791 20.004114151001 19.9382076263428 19.8383007049561 19.7493553161621 19.7254447937012 19.7714614868164 19.8948631286621 20.0629100799561 20.3048057556152 20.5101566314697 20.5812911987305 20.5558834075928 20.4726810455322 20.4611930847168 20.4791603088379
-9999 -9999 -9999 -9999 -9999 -9999 -9999 -9999 -9999 -9999 -9999 -9999 -9999 -9999 6.75189113616943 6.98484230041504 7.2892107963562 7.46196746826172 7.37679290771484 7.57918167114258 8.59897994995117 10.5016536712646 12.5533761978149 13.9060573577881 14.9255924224854 15.8651123046875 16.8495426177979 17.8965377807617 18.7728233337402 19.3959827423096 19.7922859191895 20.0512924194336 20.235200881958 20.3353652954102 20.3729248046875 20.3578948974609 20.3065528869629 20.211296081543 20.0970821380615 20.071605682373 19.8218536376953 19.4991035461426 19.427698135376 19.4941711425781 19.6565685272217 19.844762802124 19.9717960357666 20.038911819458 20.0395584106445 20.013765335083 20.0045299530029 20.0434799194336 20.0892009735107 20.096830368042 20.0882186889648 20.0860481262207 20.0992679595947 20.0950984954834 20.0732479095459 20.071605682373 20.0777721405029 20.1148586273193 20.2002773284912 20.3790264129639 20.5245037078857 20.5465888977051 20.46364402771 20.3624210357666 20.3509788513184 20.3328151702881
-9999 -9999 -9999 -9999 -9999 -9999 -9999 -9999 -9999 -9999 -9999 -9999 -9999 -9999 -9999 -9999 7.62828934192657 7.70650005340576 7.65160989761353 7.88207101821899 8.92394542694092 10.9182147979736 13.0174140930176 14.3960475921631 15.6503257751465 16.9330863952637 18.3279285430908 19.3951835632324 19.9940071105957 20.2786197662354 20.4285736083984 20.5448455810547 20.6065406799316 20.6101150512695 20.59299659729 20.5578346252441 20.5345268249512 20.5063381195068 20.4167537689209 20.3621978759766 20.1898345947266 19.9103660583496 19.7348365783691 19.7020492553711 19.7837944030762 19.912540435791 20.0258235931396 20.0851573944092 20.0689849853516 20.0218124389648 20.0056076049805 20.045524597168 20.0883331298828 20.0849571228027 20.0672225952148 20.0696601867676 20.1121501922607 20.168493270874 20.2015743255615 20.2232093811035 20.2208061218262 20.2429218292236 20.3106384277344 20.4417839050293 20.4875659942627 20.3943996429443 20.2587299346924 20.1729850769043 20.1501350402832 20.1574611663818
-9999 -9999 -9999 -9999 -9999 -9999 -9999 -9999 -9999 -9999 -9999 -9999 -9999 -9999 -9999 -9999 7.88098955154419 8.05547904968262 8.04954433441162 8.35791683197021 9.35199165344238 11.2886524200439 13.779242515564 15.6827049255371 17.0333614349365 18.4170188903809 19.7516021728516 20.5086555480957 20.7720260620117 20.7809371948242 20.7153453826904 20.6749324798584 20.6599044799805 20.6434516906738 20.6388721466064 20.6414489746094 20.6341552734375 20.6098766326904 20.5493202209473 20.5080184936523 20.3779144287109 20.127046585083 19.9056034088135 19.7851467132568 19.772481918335 19.8687076568604 20.0037498474121 20.088041305542 20.0964107513428 20.050407409668 20.0147571563721 20.0367240905762 20.0725955963135 20.0757217407227 20.0630702972412 20.0737457275391 20.1396503448486 20.2508220672607 20.3248558044434 20.3401908874512 20.3267288208008 20.3472576141357 20.3745288848877 20.381986618042 20.2547607421875 20.0844268798828 19.9441928863525 19.8737144470215 19.8477745056152 19.8745784759521
-9999 -9999 -9999 -9999 -9999 -9999 -9999 -9999 -9999 -9999 -9999 -9999 -9999 -9999 -9999 -9999 -9999 8.33715510368347 8.41965484619141 8.82711887359619 9.91739559173584 12.0457973480225 14.8908424377441 16.8852291107178 18.4521102905273 19.9388313293457 20.9181804656982 21.2661743164062 21.1776580810547 20.9251098632812 20.7438106536865 20.6752853393555 20.6648616790771 20.6512584686279 20.6090431213379 20.5516052246094 20.4738502502441 20.4020214080811 20.3650283813477 20.3998260498047 20.3658924102783 20.1794471740723 19.9854831695557 19.8290672302246 19.7392082214355 19.8139705657959 19.9659519195557 20.0815601348877 20.1330432891846 20.0941886901855 20.0333232879639 20.0407905578613 20.074821472168 20.083984375 20.0977649688721 20.1527938842773 20.2531795501709 20.365701675415 20.4159622192383 20.4062843322754 20.3809680938721 20.3680362701416 20.3122673034668 20.1922378540039 20.000919342041 19.834493637085 19.7183799743652 19.6919937133789 19.6976852416992 19.7033042907715
-9999 -9999 -9999 -9999 -9999 -9999 -9999 -9999 -9999 -9999 -9999 -9999 -9999 -9999 8.01185667514801 8.05547904968262 8.45959371328354 8.62179851531982 8.82394218444824 9.06120872497559 10.1545820236206 12.9925937652588 16.4811172485352 18.3986682891846 20.1898059844971 21.2499313354492 21.629243850708 21.493824005127 21.0801372528076 20.7515125274658 20.6052875518799 20.5370826721191 20.5201854705811 20.4586620330811 20.3618831634521 20.2764320373535 20.2324485778809 20.2276916503906 20.2244853973389 20.2716274261475 20.323673248291 20.2368698120117 20.0856094360352 19.9388236999512 19.8126945495605 19.8496608734131 19.9962215423584 20.1167850494385 20.1758880615234 20.1296997070312 20.0519390106201 20.0563087463379 20.095645904541 20.0994663238525 20.1246299743652 20.211109161377 20.3177623748779 20.3934555053711 20.4116954803467 20.3914890289307 20.3545722961426 20.293025970459 20.1620235443115 19.9841022491455 19.8074569702148 19.6548671722412 19.5710678100586 19.6019649505615 19.6420059204102 19.6816291809082
-9999 -9999 -9999 -9999 -9999 -9999 -9999 -9999 -9999 -9999 -9999 -9999 -9999 -9999 -9999 -9999 -9999 -9999 9.5174674987793 9.81628799438477 11.617600440979 14.8786563873291 18.1911678314209 20.3781814575195 21.6204528808594 21.9672203063965 21.7988014221191 21.3534278869629 20.8697624206543 20.5589199066162 20.3999462127686 20.3367137908936 20.3346633911133 20.2833404541016 20.1887283325195 20.089822769165 20.0330448150635 20.0583686828613 20.1112976074219 20.1852989196777 20.2686538696289 20.2687091827393 20.1963367462158 20.0925350189209 19.9604549407959 19.9412364959717 20.0372047424316 20.1261653900146 20.1551761627197 20.0908756256104 20.0409622192383 20.0830554962158 20.1340560913086 20.1252040863037 20.1393508911133 20.2147636413574 20.286470413208 20.3256320953369 20.3310546875 20.3104114532471 20.2591381072998 20.1571102142334 19.9883995056152 19.8068523406982 19.6635437011719 19.5373611450195 19.4722957611084 19.53782081604 19.6178379058838 19.7182083129883
-9999 -9999 -9999 -9999 -9999 -9999 -9999 -9999 -9999 -9999 -9999 -9999 -9999 -9999 -9999 -9999 -9999 10.7652349472046 11.0563149452209 10.3684310913086 12.8289937973022 17.6285362243652 20.855167388916 22.0946712493896 22.3608741760254 22.0666408538818 21.623743057251 21.1154117584229 20.6125354766846 20.3245105743408 20.2255191802979 20.211446762085 20.236909866333 20.2196960449219 20.1639175415039 20.06618309021 19.95387840271 19.9515743255615 20.0320796966553 20.1124172210693 20.1884803771973 20.2361965179443 20.238374710083 20.1858711242676 20.0523910522461 19.954532623291 19.9526100158691 19.9911136627197 20.0068416595459 20.0055561065674 20.0595149993896 20.158655166626 20.199857711792 20.1603851318359 20.1512775421143 20.203067779541 20.23610496521 20.2390213012695 20.2311592102051 20.2076072692871 20.1400508880615 20.0189476013184 19.8467826843262 19.6974449157715 19.6184177398682 19.5344982147217 19.5039215087891 19.5916843414307 19.7056198120117 19.8439559936523
-9999 -9999 -9999 -9999 -9999 -9999 -9999 -9999 -9999 -9999 -9999 -9999 -9999 16.4506225585938 15.8999381595188 -9999 14.5579438209534 13.7687289714813 10.7652349472046 13.2753057479858 18.4166069030762 21.7059459686279 22.6420936584473 22.6332359313965 22.2175769805908 21.776969909668 21.313985824585 20.7297477722168 20.2838306427002 20.1629257202148 20.1681251525879 20.1656799316406 20.1873836517334 20.1981563568115 20.1713924407959 20.0715484619141 19.9448528289795 19.9445667266846 20.0240001678467 20.0821475982666 20.132303237915 20.169807434082 20.1856536865234 20.1826858520508 20.1068725585938 20.0185508728027 19.9998149871826 20.0292224884033 20.0865821838379 20.1469841003418 20.2278499603271 20.286283493042 20.2803802490234 20.2077312469482 20.1615467071533 20.1853332519531 20.1926670074463 20.1826725006104 20.1629810333252 20.1290988922119 20.0593070983887 19.9484939575195 19.8084545135498 19.7074127197266 19.6762237548828 19.6546173095703 19.6827182769775 19.7763156890869 19.8791275024414 19.9973106384277
-9999 -9999 -9999 -9999 -9999 -9999 -9999 -9999 -9999 -9999 -9999 -9999 -9999 -9999 16.4506225585938 16.4836680094401 14.7655239105225 14.3503637313843 15.193793296814 20.2021656036377 22.6757183074951 23.1006622314453 22.843620300293 22.3540325164795 22.0060939788818 21.5736312866211 20.9545841217041 20.374174118042 20.1416778564453 20.186071395874 20.2087993621826 20.1681652069092 20.1609725952148 20.197681427002 20.1928195953369 20.0958995819092 19.9707489013672 19.9503841400146 19.9966564178467 20.0546627044678 20.1202068328857 20.1608448028564 20.1781272888184 20.201473236084 20.1932048797607 20.1732521057129 20.1889896392822 20.2266750335693 20.2399921417236 20.2302227020264 20.2701759338379 20.3136882781982 20.2975196838379 20.2135696411133 20.1529483795166 20.167329788208 20.169864654541 20.1543025970459 20.1379356384277 20.1088218688965 20.0478687286377 19.9630832672119 19.8646278381348 19.8022308349609 19.7931423187256 19.8187522888184 19.8715057373047 19.934700012207 20.0133819580078 20.1115074157715
-9999 -9999 -9999 -9999 -9999 -9999 -9999 -9999 -9999 -9999 -9999 -9999 -9999 -9999 17.1059350967407 16.4506225585938 18.2348575592041 19.1654262542725 20.9733371734619 22.9819469451904 23.1614818572998 22.8418769836426 22.374927520752 22.0675468444824 21.7610511779785 21.2048797607422 20.5672836303711 20.2044525146484 20.148775100708 20.1894016265869 20.199089050293 20.1617336273193 20.1585445404053 20.2084445953369 20.2084064483643 20.1032619476318 19.9927654266357 19.962574005127 19.9786052703857 20.0339660644531 20.1163101196289 20.1737766265869 20.196720123291 20.2225666046143 20.2545185089111 20.2791786193848 20.279764175415 20.2260875701904 20.1510925292969 20.1725597381592 20.24827003479 20.2904090881348 20.2723865509033 20.1979751586914 20.1487483978271 20.1586112976074 20.1527156829834 20.1144695281982 20.0945892333984 20.0997371673584 20.082389831543 20.0425243377686 20.0015087127686 19.9666061401367 19.963794708252 19.9789752960205 20.0014724731445 20.0457954406738 20.1251335144043 20.1899814605713
-9999 -9999 -9999 -9999 -9999 -9999 -9999 -9999 -9999 -9999 -9999 15.4314403533936 15.935209274292 16.6576271057129 16.5821552276611 18.7333354949951 21.5361557006836 22.4861717224121 23.047004699707 23.2225666046143 22.9995937347412 22.5556926727295 22.1196060180664 21.8622417449951 21.4672966003418 20.8928031921387 20.3883113861084 20.1972160339355 20.1678047180176 20.1851043701172 20.195499420166 20.1859531402588 20.203218460083 20.2426204681396 20.2245903015137 20.1260643005371 20.0450077056885 20.0304794311523 20.0415649414062 20.0815773010254 20.1453132629395 20.2039394378662 20.2420349121094 20.2668170928955 20.2678470611572 20.2300338745117 20.1607513427734 20.1010475158691 20.1059894561768 20.1660633087158 20.2261924743652 20.2525100708008 20.2441596984863 20.1854419708252 20.1382141113281 20.1247158050537 20.0988502502441 20.0710678100586 20.03830909729 20.0422420501709 20.0610942840576 20.0612525939941 20.0564880371094 20.0455265045166 20.0395526885986 20.0433540344238 20.0694713592529 20.1296901702881 20.1723747253418 20.1355152130127
-9999 -9999 -9999 -9999 -9999 -9999 -9999 -9999 -9999 15.1150636672974 15.887939453125 16.9546318054199 17.8968257904053 18.6734390258789 18.610954284668 20.5175800323486 22.5821647644043 23.1457576751709 23.282247543335 23.195182800293 22.8539123535156 22.3520374298096 21.9484901428223 21.6925868988037 21.2054042816162 20.6139945983887 20.2819595336914 20.2215042114258 20.1987285614014 20.2132663726807 20.2488288879395 20.2812194824219 20.2941379547119 20.2857704162598 20.2597904205322 20.1884593963623 20.1115245819092 20.0901412963867 20.1102676391602 20.1413021087646 20.1687469482422 20.1936130523682 20.2089519500732 20.2083263397217 20.1979427337646 20.1757659912109 20.1440734863281 20.1253604888916 20.1370601654053 20.1594581604004 20.1779327392578 20.1995372772217 20.1825370788574 20.1228046417236 20.0751876831055 20.0561237335205 20.0472049713135 20.0283470153809 19.9683456420898 19.9272994995117 19.9406490325928 19.9609527587891 19.9851512908936 20.0116271972656 20.0302028656006 20.0541667938232 20.1026782989502 20.1557960510254 20.1400203704834 20.1895351409912
-9999 -9999 -9999 -9999 -9999 -9999 -9999 -9999 -9999 16.1958637237549 17.4040088653564 18.8742523193359 19.8997097015381 20.5365581512451 20.8007831573486 22.4325771331787 23.1700000762939 23.3589916229248 23.3158988952637 23.1304702758789 22.6638450622559 22.062915802002 21.6614513397217 21.3453216552734 20.9330520629883 20.4786643981934 20.3056583404541 20.2717247009277 20.2613735198975 20.2789783477783 20.3421096801758 20.4043598175049 20.3975811004639 20.349515914917 20.3113746643066 20.2630290985107 20.2026958465576 20.1582565307617 20.1286888122559 20.1165218353271 20.1256885528564 20.1510105133057 20.176097869873 20.1850204467773 20.1883106231689 20.1862258911133 20.1750221252441 20.1570739746094 20.1301498413086 20.0920658111572 20.0641899108887 20.0690631866455 20.0712718963623 20.0578861236572 20.0567283630371 20.0644130706787 20.0613040924072 20.0219650268555 19.9516162872314 19.9430980682373 19.9900932312012 20.0236721038818 20.0493583679199 20.0614891052246 20.0533199310303 20.0745220184326 20.1623497009277 20.2139549255371 20.2427406311035 20.3581314086914
-9999 -9999 -9999 -9999 -9999 16.3531308174133 16.1808376312256 16.486608505249 16.4397983551025 16.863899230957 18.2760066986084 20.1390037536621 21.3343448638916 22.0618476867676 22.7121200561523 23.2488269805908 23.4379577636719 23.4549293518066 23.3389263153076 23.0754299163818 22.5293407440186 21.9062213897705 21.376953125 21.0080394744873 20.8598709106445 20.6117782592773 20.4922466278076 20.4090938568115 20.3543395996094 20.356782913208 20.421314239502 20.4780826568604 20.4446773529053 20.3798637390137 20.3608074188232 20.3570098876953 20.331974029541 20.2822284698486 20.209098815918 20.1509971618652 20.1367950439453 20.159065246582 20.1919326782227 20.2041110992432 20.2061996459961 20.2036552429199 20.2024669647217 20.1945953369141 20.17160987854 20.1354427337646 20.1028289794922 20.0812454223633 20.068811416626 20.0835227966309 20.1088447570801 20.1231575012207 20.1225414276123 20.1192150115967 20.1336879730225 20.1901741027832 20.2255706787109 20.262580871582 20.3108825683594 20.3211364746094 20.2878551483154 20.2674121856689 20.3421421051025 20.3862895965576 20.4374961853027 20.4729175567627
-9999 -9999 -9999 -9999 15.6515846252441 16.1577224731445 17.4223785400391 18.1671390533447 18.320613861084 18.448070526123 19.4337577819824 21.2632312774658 22.3404674530029 23.0697002410889 23.3775672912598 23.499210357666 23.6128425598145 23.5109729766846 23.2946510314941 22.91823387146 22.3156776428223 21.7297229766846 21.2491931915283 20.9829082489014 20.9380226135254 20.8596267700195 20.8050765991211 20.6935787200928 20.5596218109131 20.4755210876465 20.4792537689209 20.5144233703613 20.4775447845459 20.4120903015137 20.4225845336914 20.4577522277832 20.4415416717529 20.3783988952637 20.2868633270264 20.2035427093506 20.1660346984863 20.1872043609619 20.2251110076904 20.2386589050293 20.2402210235596 20.2395801544189 20.2398986816406 20.2297267913818 20.2026805877686 20.1701545715332 20.1495590209961 20.1329765319824 20.1263675689697 20.1384162902832 20.1507511138916 20.1623973846436 20.1906204223633 20.2296295166016 20.2657871246338 20.3103294372559 20.3608474731445 20.4577560424805 20.5746402740479 20.6140003204346 20.5815143585205 20.4973316192627 20.4794158935547 20.5356788635254 20.5915184020996 20.5243587493896
-9999 -9999 -9999 16.1418809890747 16.0330066680908 17.3328895568848 18.8729515075684 19.7890853881836 20.2008686065674 20.4834880828857 21.4430389404297 22.5281524658203 23.1571712493896 23.494815826416 23.5998497009277 23.6965866088867 23.6820068359375 23.4085330963135 23.1531925201416 22.7084541320801 22.0570621490479 21.5684604644775 21.3038234710693 21.2170486450195 21.1173648834229 21.0815181732178 21.0405559539795 20.9369525909424 20.8044357299805 20.6727752685547 20.5742111206055 20.5692081451416 20.5508632659912 20.486400604248 20.4709987640381 20.4616680145264 20.3803062438965 20.283821105957 20.20361328125 20.1639232635498 20.1865634918213 20.2313194274902 20.2530479431152 20.258337020874 20.2632827758789 20.2571830749512 20.2421321868896 20.2276020050049 20.2117519378662 20.2150840759277 20.2321338653564 20.240270614624 20.2472171783447 20.2620658874512 20.2669429779053 20.2501182556152 20.2323131561279 20.2223815917969 20.2167091369629 20.2182846069336 20.2612762451172 20.3898086547852 20.5762557983398 20.6664028167725 20.6302585601807 20.5883369445801 20.5984115600586 20.6711750030518 20.6748676300049 20.5438842773438
-9999 -9999 -9999 15.8982925415039 16.98464012146 18.9148902893066 20.3941688537598 21.2277545928955 21.8682479858398 22.4426136016846 22.8619499206543 23.2510433197021 23.5756454467773 23.7223262786865 23.720983505249 23.7211303710938 23.5080337524414 23.1051902770996 22.9163856506348 22.4443759918213 21.8126373291016 21.5109786987305 21.4219589233398 21.3707332611084 21.2858543395996 21.2266426086426 21.1439418792725 21.0054397583008 20.8782024383545 20.780876159668 20.6811275482178 20.6377372741699 20.6073131561279 20.5276222229004 20.480052947998 20.4392890930176 20.3572578430176 20.2920475006104 20.2644214630127 20.2735710144043 20.2983779907227 20.3029975891113 20.288402557373 20.2788352966309 20.2720642089844 20.254695892334 20.2378616333008 20.2325344085693 20.2397060394287 20.2604084014893 20.2800045013428 20.2948532104492 20.324426651001 20.3582000732422 20.360279083252 20.3164196014404 20.2355728149414 20.1632537841797 20.1107864379883 20.07666015625 20.1010284423828 20.2720012664795 20.5643939971924 20.7317066192627 20.7068977355957 20.6728115081787 20.7019786834717 20.7306861877441 20.6716804504395 20.5157299041748
