NCOLS 70 
NROWS 52 
XLLCORNER -80 
YLLCORNER 33 
CELLSIZE 0.25 
NODATA_value -9999 
-9999.000000000000000 -9999 -9999 -9999 -9999 -9999 -9999 -9999 -9999 -9999 -9999 -9999 -9999 -9999 -9999 -9999 -9999 -9999 -9999 -9999 -9999 -9999 -9999 -9999 -9999 -9999 -9999 -9999 -9999 -9999 -9999 -9999 -9999 -9999 -9999 -9999 -9999 -9999 -9999 -9999 -9999 -9999 -9999 -9999 -9999 -9999 -9999 -9999 -9999 -9999 -9999 -9999 -9999 -9999 -9999 -9999 -9999 -9999 -9999 -9999 -9999 -9999 -9999 -9999 -9999 -9999 -9999 -9999 -9999 -9999
-9999 -9999 -9999 -9999 -9999 -9999 -9999 -9999 -9999 -9999 -9999 -9999 -9999 -9999 -9999 -9999 -9999 -9999 -9999 -9999 -9999 -9999 -9999 -9999 -9999 -9999 -9999 -9999 -9999 -9999 -9999 -9999 -9999 -9999 -9999 -9999 -9999 -9999 -9999 -9999 -9999 -9999 -9999 -9999 -9999 -9999 -9999 -9999 -9999 -9999 -9999 -9999 -9999 -9999 -9999 -9999 -9999 -9999 -9999 -9999 -9999 -9999 -9999 -9999 -9999 -9999 -9999 -9999 -9999 -9999
-9999 -9999 -9999 -9999 -9999 -9999 -9999 -9999 -9999 -9999 -9999 -9999 -9999 -9999 -9999 -9999 -9999 -9999 -9999 -9999 -9999 -9999 -9999 -9999 -9999 -9999 -9999 -9999 -9999 -9999 -9999 -9999 -9999 -9999 -9999 -9999 -9999 -9999 -9999 -9999 -9999 -9999 -9999 -9999 -9999 -9999 -9999 -9999 -9999 -9999 -9999 -9999 -9999 -9999 -9999 -9999 -9999 -9999 -9999 0.919357657432556 -9999 -9999 -9999 -9999 -9999 -9999 -9999 -9999 -9999 -9999
-9999 -9999 -9999 -9999 -9999 -9999 -9999 -9999 -9999 -9999 -9999 -9999 -9999 -9999 -9999 -9999 -9999 -9999 -9999 -9999 -9999 -9999 -9999 -9999 -9999 -9999 -9999 -9999 -9999 -9999 -9999 -9999 -9999 -9999 -9999 -9999 -9999 -9999 -9999 -9999 -9999 -9999 -9999 -9999 -9999 -9999 -9999 -9999 -9999 -9999 -9999 -9999 -9999 -9999 -9999 2.09293484687805 2.07848572731018 1.97487235069275 1.61590707302094 1.14699399471283 -9999 -9999 -9999 -9999 -9999 -9999 -9999 -9999 -9999 -9999
-9999 -9999 -9999 -9999 -9999 -9999 -9999 -9999 -9999 -9999 -9999 -9999 -9999 -9999 -9999 -9999 -9999 -9999 -9999 -9999 -9999 -9999 -9999 -9999 -9999 -9999 -9999 -9999 -9999 -9999 -9999 -9999 -9999 -9999 -9999 -9999 -9999 -9999 -9999 -9999 -9999 -9999 -9999 -9999 -9999 -9999 -9999 -9999 -9999 -9999 -9999 -9999 2.254549741745 2.21738481521606 2.19868564605713 2.21248364448547 2.1239652633667 1.92924404144287 -9999 -9999 -9999 -9999 -9999 -9999 -9999 -9999 -9999 -9999 -9999 -9999
-9999 -9999 -9999 -9999 -9999 -9999 -9999 -9999 -9999 -9999 -9999 -9999 -9999 -9999 -9999 -9999 -9999 -9999 -9999 -9999 -9999 -9999 -9999 -9999 -9999 -9999 -9999 -9999 -9999 -9999 -9999 -9999 -9999 -9999 -9999 -9999 -9999 -9999 -9999 -9999 -9999 -9999 -9999 -9999 -9999 -9999 -9999 -9999 -9999 -9999 2.51806893348694 2.40211343765259 2.49145007133484 2.51357650756836 2.46577763557434 2.27427935600281 -9999 -9999 -9999 -9999 -9999 -9999 -9999 -9999 -9999 -9999 -9999 0.645788411299388 0.582457721233368 0.471500337123871
-9999 -9999 -9999 -9999 -9999 -9999 -9999 -9999 -9999 -9999 -9999 -9999 -9999 -9999 -9999 -9999 -9999 -9999 -9999 -9999 -9999 -9999 -9999 -9999 -9999 -9999 -9999 -9999 -9999 -9999 -9999 -9999 -9999 -9999 -9999 -9999 -9999 -9999 -9999 -9999 -9999 -9999 -9999 -9999 2.78550283114115 -9999 -9999 2.57147490978241 2.48685812950134 2.55047631263733 2.63454127311707 2.72666311264038 2.81157684326172 2.81719088554382 2.61397886276245 -9999 -9999 -9999 -9999 -9999 -9999 -9999 -9999 1.22082233428955 0.951610445976257 0.747529923915863 0.666684865951538 0.637248039245605 0.633432328701019 0.587650179862976
-9999 -9999 -9999 -9999 -9999 -9999 -9999 -9999 -9999 -9999 -9999 -9999 -9999 -9999 -9999 -9999 -9999 -9999 -9999 -9999 -9999 -9999 -9999 -9999 -9999 -9999 -9999 -9999 -9999 -9999 -9999 -9999 -9999 -9999 -9999 -9999 -9999 -9999 -9999 -9999 -9999 -9999 -9999 -9999 2.80774712562561 2.72427582740784 2.56860637664795 2.54417204856873 2.68626308441162 2.84082722663879 2.99244070053101 3.15709376335144 3.26158213615417 3.27908301353455 3.03246605396271 -9999 -9999 -9999 -9999 -9999 -9999 -9999 1.38361096382141 1.2513142824173 1.11166226863861 1.00888705253601 0.993965029716492 1.04618632793427 1.06634223461151 1.07054507732391
-9999 -9999 -9999 -9999 -9999 -9999 -9999 -9999 -9999 -9999 -9999 -9999 -9999 -9999 -9999 -9999 -9999 -9999 -9999 -9999 -9999 -9999 -9999 -9999 -9999 -9999 -9999 -9999 -9999 -9999 -9999 -9999 -9999 -9999 -9999 -9999 -9999 -9999 -9999 -9999 3.07367952664693 3.03772083918254 2.97119045257568 2.92251992225647 2.86720705032349 2.82144641876221 2.83591437339783 2.98668551445007 3.15095710754395 3.19534587860107 3.22570753097534 3.31534266471863 3.39832806587219 3.41961145401001 3.2889865398407 -9999 -9999 -9999 -9999 -9999 1.56032351652781 1.47620689868927 1.44702839851379 1.44169783592224 1.45303392410278 1.46968913078308 1.52964317798615 1.62286829948425 1.68624949455261 1.72116422653198
-9999 -9999 -9999 -9999 -9999 -9999 -9999 -9999 -9999 -9999 -9999 -9999 -9999 -9999 -9999 -9999 -9999 -9999 -9999 -9999 -9999 -9999 -9999 -9999 -9999 -9999 -9999 -9999 -9999 -9999 -9999 -9999 -9999 -9999 -9999 -9999 -9999 -9999 -9999 3.15034437179565 3.06514453887939 3.00554966926575 3.04246830940247 3.06092882156372 3.08973407745361 3.17987489700317 3.32990694046021 3.51310586929321 3.59236907958984 3.52790880203247 3.46708464622498 3.4502227306366 3.40280556678772 3.32420063018799 3.26008772850037 3.16194987297058 -9999 -9999 -9999 1.89123740792274 1.64434158802032 1.56042206287384 1.56002759933472 1.62909483909607 1.68944907188416 1.75408172607422 1.90893948078156 2.09086132049561 2.21323466300964 2.2871150970459
-9999 -9999 -9999 -9999 -9999 -9999 -9999 -9999 -9999 -9999 -9999 -9999 -9999 -9999 -9999 -9999 -9999 -9999 -9999 -9999 -9999 -9999 -9999 -9999 -9999 -9999 -9999 -9999 -9999 -9999 -9999 -9999 -9999 -9999 -9999 -9999 -9999 -9999 3.68544068336487 3.50204825401306 3.34632897377014 3.18249678611755 3.09721946716309 3.11715316772461 3.24577784538269 3.46415138244629 3.68319177627563 3.80263304710388 3.75505971908569 3.59354138374329 3.45791816711426 3.36952900886536 3.2758936882019 3.20057582855225 3.10777187347412 2.93844318389893 2.7467565536499 2.54095474878947 2.16031765937805 1.9805428981781 1.7797474861145 1.64515924453735 1.61029934883118 1.68926477432251 1.82154226303101 2.00749444961548 2.29934978485107 2.56787705421448 2.74116349220276 2.84465599060059
-9999 -9999 -9999 -9999 -9999 -9999 -9999 -9999 -9999 -9999 -9999 -9999 -9999 -9999 -9999 -9999 -9999 -9999 -9999 -9999 -9999 -9999 -9999 -9999 -9999 -9999 -9999 -9999 -9999 -9999 -9999 -9999 -9999 -9999 -9999 -9999 -9999 4.02573156356812 3.95558643341064 3.79349279403687 3.58619165420532 3.38893938064575 3.28190994262695 3.30363941192627 3.45941376686096 3.6926589012146 3.86195111274719 3.87228178977966 3.74631953239441 3.57381987571716 3.43204164505005 3.30151534080505 3.16404104232788 3.05605578422546 2.9412248134613 2.77177834510803 2.61983394622803 2.4432168006897 2.23123502731323 2.03255796432495 1.84275877475739 1.71407473087311 1.66711246967316 1.749556183815 1.96098697185516 2.314701795578 2.76545381546021 3.12751889228821 3.36806797981262 3.48016095161438
-9999 -9999 -9999 -9999 -9999 -9999 -9999 -9999 -9999 -9999 -9999 -9999 -9999 -9999 -9999 -9999 -9999 -9999 -9999 -9999 -9999 -9999 -9999 -9999 -9999 -9999 -9999 -9999 -9999 -9999 -9999 -9999 -9999 -9999 -9999 -9999 -9999 4.07473039627075 4.07976770401001 4.05914545059204 3.97599291801453 3.84438061714172 3.69620490074158 3.60358285903931 3.65140986442566 3.8139123916626 3.94630432128906 3.96330499649048 3.89080381393433 3.76855444908142 3.60281419754028 3.36809396743774 3.13454151153564 2.98722052574158 2.87474036216736 2.71257376670837 2.54923343658447 2.3779661655426 2.17804765701294 1.99995088577271 1.90820395946503 1.94578039646149 2.0340678691864 2.14276814460754 2.27623414993286 2.6260244846344 3.21501660346985 3.67812967300415 3.95607757568359 4.07867574691772
-9999 -9999 -9999 -9999 -9999 -9999 -9999 -9999 -9999 -9999 -9999 -9999 -9999 -9999 -9999 -9999 -9999 -9999 -9999 -9999 -9999 -9999 -9999 -9999 -9999 -9999 -9999 -9999 -9999 -9999 -9999 -9999 -9999 -9999 -9999 -9999 -9999 3.9734365940094 4.14819860458374 4.29131031036377 4.32848787307739 4.26059103012085 4.08912324905396 3.90150165557861 3.84890198707581 3.95750784873962 4.10878372192383 4.20968675613403 4.21330118179321 4.09615135192871 3.85237526893616 3.51134419441223 3.21901106834412 3.09303402900696 3.02870678901672 2.89420533180237 2.69557094573975 2.50330805778503 2.29586338996887 2.1523699760437 2.17412233352661 2.3774847984314 2.66483473777771 2.90966939926147 2.94209289550781 3.12470579147339 3.69035911560059 4.16370153427124 4.52528429031372 4.89411544799805
-9999 -9999 -9999 -9999 -9999 -9999 -9999 -9999 -9999 -9999 -9999 -9999 -9999 -9999 -9999 -9999 -9999 -9999 -9999 -9999 -9999 -9999 -9999 -9999 -9999 -9999 -9999 -9999 -9999 -9999 -9999 -9999 -9999 -9999 -9999 -9999 3.65884137153625 3.87475728988647 4.14524364471436 4.32556962966919 4.41871166229248 4.42494773864746 4.3057713508606 4.13323545455933 4.05933904647827 4.14577722549438 4.31200790405273 4.45155477523804 4.45498847961426 4.29626226425171 4.02699613571167 3.71046042442322 3.46531844139099 3.41584062576294 3.45792627334595 3.31455826759338 2.97131061553955 2.73627829551697 2.55160117149353 2.5396990776062 2.69293689727783 3.01503157615662 3.47281551361084 3.86403226852417 3.9320170879364 4.00843143463135 4.45147180557251 4.83466625213623 5.36807298660278 6.00534009933472
-9999 -9999 -9999 -9999 -9999 -9999 -9999 -9999 -9999 -9999 -9999 -9999 -9999 -9999 -9999 -9999 -9999 -9999 -9999 -9999 -9999 -9999 -9999 -9999 -9999 -9999 -9999 -9999 -9999 -9999 -9999 -9999 -9999 -9999 -9999 -9999 -9999 4.02135753631592 4.06929206848145 4.14826345443726 4.30389785766602 4.46245336532593 4.46073818206787 4.33734846115112 4.24200963973999 4.29228591918945 4.4683985710144 4.64864683151245 4.68558931350708 4.5525016784668 4.34416007995605 4.12191867828369 3.93758773803711 3.93602466583252 3.98168587684631 3.65798473358154 3.05654406547546 2.74781489372253 2.72170901298523 2.94623136520386 3.25568675994873 3.59447240829468 4.04967498779297 4.61377668380737 4.82690095901489 4.9281792640686 5.31184005737305 5.62136363983154 6.19058036804199 6.82193231582642
-9999 -9999 -9999 -9999 -9999 -9999 -9999 -9999 -9999 -9999 -9999 -9999 -9999 -9999 -9999 -9999 -9999 -9999 -9999 -9999 -9999 -9999 -9999 -9999 -9999 -9999 -9999 -9999 -9999 -9999 -9999 -9999 -9999 -9999 -9999 -9999 -9999 -9999 3.94782423973083 -9999 4.18079853057861 4.4531717300415 4.55956411361694 4.49853277206421 4.42640972137451 4.49982786178589 4.69611740112305 4.85902738571167 4.88984823226929 4.79094791412354 4.68479156494141 4.58693504333496 4.49154663085938 4.48783397674561 4.38683557510376 3.93841242790222 3.25859403610229 2.96618580818176 3.05826139450073 3.39308524131775 3.72519779205322 3.95822215080261 4.26377630233765 4.85699844360352 5.21455001831055 5.37265110015869 5.84118032455444 6.31147956848145 6.90960741043091 7.6154146194458
-9999 -9999 -9999 -9999 -9999 -9999 -9999 -9999 -9999 -9999 -9999 -9999 -9999 -9999 -9999 -9999 -9999 -9999 -9999 -9999 -9999 -9999 -9999 -9999 -9999 -9999 -9999 -9999 -9999 -9999 -9999 -9999 -9999 -9999 -9999 -9999 -9999 -9999 -9999 -9999 4.21942090988159 4.43192720413208 4.587073802948 4.61324787139893 4.623863697052 4.74955224990845 4.89405107498169 4.93273687362671 4.88169574737549 4.78156709671021 4.72605323791504 4.71235418319702 4.69249725341797 4.67902565002441 4.58804988861084 4.18964195251465 3.72782301902771 3.58868622779846 3.69861721992493 3.93567180633545 4.21215963363647 4.5708794593811 5.1065559387207 5.51934623718262 5.39256238937378 5.38855934143066 6.19107532501221 7.12210845947266 7.87092542648315 8.36382961273193
-9999 -9999 -9999 -9999 -9999 -9999 -9999 -9999 -9999 -9999 -9999 -9999 -9999 -9999 -9999 -9999 -9999 -9999 -9999 -9999 -9999 -9999 -9999 -9999 -9999 -9999 -9999 -9999 -9999 -9999 -9999 -9999 -9999 -9999 5.43513894081116 5.27033185958862 5.12031888961792 -9999 4.52186298370361 4.12306690216064 4.04129076004028 4.25504064559937 4.51608037948608 4.67157936096191 4.7735767364502 4.87922525405884 4.91458368301392 4.87381553649902 4.79097557067871 4.71673631668091 4.72259283065796 4.77222728729248 4.7358078956604 4.64347219467163 4.56155252456665 4.2841534614563 4.2023286819458 4.39280223846436 4.58851003646851 4.62945222854614 4.99664735794067 6.18151330947876 7.37700366973877 7.50419139862061 6.57993221282959 5.67043733596802 6.49554634094238 7.82133293151855 8.82561588287354 9.4269380569458
-9999 -9999 -9999 -9999 -9999 -9999 -9999 -9999 -9999 -9999 -9999 -9999 -9999 -9999 -9999 -9999 -9999 -9999 -9999 -9999 -9999 -9999 -9999 -9999 -9999 -9999 -9999 4.47235536575317 4.47235536575317 4.56110382080078 4.75574445724487 5.2062520980835 5.58709669113159 5.60852575302124 5.49454593658447 5.36715221405029 5.21215915679932 4.98487186431885 4.68196105957031 4.31985569000244 4.1043496131897 4.18253993988037 4.45680236816406 4.69542217254639 4.86038398742676 4.94539880752563 4.91734266281128 4.83488273620605 4.76610231399536 4.78783893585205 4.95226621627808 5.14385461807251 5.17337036132812 5.11272525787354 5.09586811065674 4.96425867080688 5.21264743804932 5.57437419891357 5.77410221099854 5.87771368026733 6.98086214065552 9.10573863983154 10.1077060699463 9.47984313964844 8.55006885528564 6.97422790527344 7.41378116607666 8.78915882110596 9.85379219055176 10.5609941482544
-9999 -9999 -9999 -9999 -9999 -9999 -9999 -9999 -9999 -9999 -9999 -9999 -9999 -9999 -9999 -9999 -9999 -9999 -9999 -9999 -9999 -9999 -9999 -9999 -9999 -9999 -9999 -9999 -9999 -9999 5.03110265731812 5.44870471954346 5.76874828338623 5.72531080245972 5.55960941314697 5.37851572036743 5.17848634719849 4.95769357681274 4.7045111656189 4.43087387084961 4.24538516998291 4.28784084320068 4.52602529525757 4.75625371932983 4.94282150268555 5.04038858413696 4.99989175796509 4.92908668518066 4.95264959335327 5.13953351974487 5.56602191925049 6.13071870803833 6.74182605743408 7.36628150939941 7.9720573425293 7.87955474853516 7.72592926025391 7.61267280578613 7.36291551589966 7.60665130615234 9.57923221588135 11.3468246459961 11.6210279464722 10.4940156936646 9.99817943572998 8.87383079528809 8.54298686981201 9.32651710510254 9.91310119628906 10.5002403259277
-9999 -9999 -9999 -9999 -9999 -9999 -9999 -9999 -9999 -9999 -9999 -9999 -9999 -9999 -9999 -9999 -9999 -9999 -9999 -9999 -9999 -9999 -9999 -9999 -9999 5.7621472676595 5.67061233520508 5.62919187545776 5.64783012866974 5.53820753097534 5.6728401184082 5.84129095077515 5.89653396606445 5.8040828704834 5.65480041503906 5.49218845367432 5.30758714675903 5.12399530410767 4.91317129135132 4.68610239028931 4.55193281173706 4.57890653610229 4.72985601425171 4.9296407699585 5.15929841995239 5.3110876083374 5.36303472518921 5.45552015304565 5.70451068878174 6.21570920944214 7.01651668548584 8.35765933990479 10.2467393875122 11.9526538848877 13.0360841751099 12.8223133087158 11.6220741271973 10.3183326721191 9.42997074127197 9.60797119140625 11.4952592849731 12.8654518127441 12.7370223999023 11.3952779769897 10.7787017822266 10.0390663146973 9.27763271331787 9.37037754058838 9.59278202056885 9.86889171600342
-9999 -9999 -9999 -9999 -9999 -9999 -9999 -9999 -9999 -9999 -9999 -9999 -9999 -9999 -9999 -9999 -9999 -9999 -9999 -9999 -9999 -9999 -9999 -9999 5.852783203125 5.77700662612915 5.65665197372437 5.57817840576172 5.65274524688721 5.82218933105469 5.99947452545166 6.13076972961426 6.09847116470337 5.96661806106567 5.8464732170105 5.73598194122314 5.66742944717407 5.66552591323853 5.51850652694702 5.25896263122559 5.13104009628296 5.12234401702881 5.19637823104858 5.37746000289917 5.60699796676636 5.83584308624268 6.14379024505615 6.53026151657104 7.09622812271118 8.09585285186768 9.41367530822754 11.474100112915 13.9044351577759 15.5868520736694 16.294958114624 16.2287273406982 15.1468772888184 13.2351016998291 11.7414693832397 11.6213579177856 12.8498296737671 13.911096572876 13.8491067886353 12.8087434768677 12.1995468139648 11.6903047561646 11.0198431015015 10.8018703460693 11.1277294158936 11.7557344436646
-9999 -9999 -9999 -9999 -9999 -9999 -9999 -9999 -9999 -9999 -9999 -9999 -9999 -9999 -9999 -9999 -9999 -9999 -9999 -9999 -9999 -9999 -9999 -9999 5.88833808898926 5.8947057723999 5.90180397033691 5.97268342971802 6.13873529434204 6.28979921340942 6.38200521469116 6.44740295410156 6.40305185317993 6.31245136260986 6.29863834381104 6.33815479278564 6.5499267578125 6.89155864715576 6.83298587799072 6.48226976394653 6.38451719284058 6.47472906112671 6.49104642868042 6.51247119903564 6.73063993453979 7.30321788787842 8.08777046203613 8.53414535522461 8.91660499572754 9.92927646636963 11.4841175079346 13.7123003005981 15.5938949584961 16.4796772003174 16.7557792663574 16.9044933319092 16.6030178070068 15.4170808792114 14.1751089096069 13.8495435714722 14.3470182418823 15.0448551177979 15.1923303604126 14.5443239212036 14.1441011428833 13.7266006469727 13.348461151123 13.2651071548462 14.4194326400757 15.6443586349487
-9999 -9999 -9999 -9999 -9999 -9999 -9999 -9999 -9999 -9999 -9999 -9999 -9999 -9999 -9999 -9999 -9999 -9999 -9999 -9999 -9999 -9999 -9999 5.98899519443512 5.92150592803955 5.99089193344116 6.15222930908203 6.36526823043823 6.56252384185791 6.63999271392822 6.69734048843384 6.88057279586792 7.13022804260254 7.51914691925049 8.09423065185547 8.49396705627441 8.62495994567871 8.67569065093994 8.46063995361328 8.19387722015381 8.42842197418213 8.88140964508057 8.87185859680176 8.58139610290527 8.9005708694458 10.0790643692017 11.3365783691406 11.6645736694336 11.4582033157349 11.8826122283936 13.1373624801636 14.9645433425903 16.1861820220947 16.5510902404785 16.6014041900635 16.6482257843018 16.5282211303711 16.1504154205322 15.8392181396484 15.8784770965576 16.173791885376 16.4547901153564 16.2465877532959 15.5064373016357 15.002649307251 14.6576852798462 14.7101163864136 15.3524971008301 16.6857204437256 17.3666095733643
-9999 -9999 -9999 -9999 -9999 -9999 -9999 -9999 -9999 -9999 -9999 -9999 -9999 -9999 -9999 -9999 -9999 -9999 -9999 -9999 -9999 -9999 -9999 6.13224124908447 6.0138955116272 6.07674312591553 6.29877519607544 6.59580135345459 6.82492828369141 6.87665367126465 6.95182704925537 7.42886590957642 8.3891134262085 9.7955150604248 11.3286046981812 12.1698770523071 12.1853857040405 11.7964496612549 11.1105842590332 10.5392808914185 10.6195411682129 10.980076789856 10.9691009521484 10.6930599212646 11.1668825149536 12.5314588546753 13.6542797088623 13.8396053314209 13.4668111801147 13.5407457351685 14.5745153427124 15.7430953979492 16.255126953125 16.346960067749 16.3332614898682 16.3269329071045 16.2122497558594 16.0105094909668 16.0837059020996 16.4101257324219 16.7377681732178 16.8094482421875 16.2943382263184 15.5199241638184 15.1744422912598 15.1304035186768 15.4517335891724 16.3976497650146 17.0149440765381 17.2030563354492
-9999 -9999 -9999 -9999 -9999 -9999 -9999 -9999 -9999 -9999 -9999 -9999 -9999 -9999 -9999 -9999 -9999 -9999 -9999 -9999 -9999 -9999 6.68826246261597 6.38220453262329 6.25345849990845 6.34884309768677 6.61150693893433 6.93129014968872 7.17097806930542 7.39167022705078 7.93884372711182 9.05316352844238 10.613673210144 12.427435874939 13.9800186157227 14.7611656188965 14.9874582290649 14.8331079483032 14.1885147094727 13.4409523010254 13.002589225769 12.6503982543945 12.3291606903076 12.3006772994995 12.9427995681763 13.9739217758179 14.4922046661377 14.4058609008789 14.1787452697754 14.3216705322266 15.1274862289429 15.934139251709 16.322229385376 16.4900245666504 16.5605487823486 16.6129817962646 16.5954399108887 16.469934463501 16.4804840087891 16.6098442077637 16.7367630004883 16.6513957977295 16.1097812652588 15.4454345703125 15.2001333236694 15.2438125610352 15.705810546875 16.4963207244873 16.9261627197266 17.0736827850342
-9999 -9999 -9999 -9999 -9999 -9999 -9999 -9999 -9999 -9999 -9999 -9999 -9999 -9999 8.02638912200928 -9999 -9999 -9999 -9999 7.56040859222412 -9999 7.19099617004395 6.86524343490601 6.62359714508057 6.61740875244141 6.80974817276001 7.11181020736694 7.45872592926025 7.98486661911011 8.84452629089355 9.90367031097412 11.0950975418091 12.5739488601685 14.1491556167603 15.27952003479 15.9598302841187 16.400182723999 16.563793182373 16.4196720123291 16.1037445068359 15.7498683929443 15.2297086715698 14.4739761352539 13.9794588088989 14.154821395874 14.5826215744019 14.6736278533936 14.5121278762817 14.5080976486206 14.8390092849731 15.4820985794067 16.1280193328857 16.589168548584 16.9464569091797 17.2327632904053 17.4703502655029 17.586030960083 17.532413482666 17.4536647796631 17.3611335754395 17.2719802856445 17.1297035217285 16.8034477233887 16.3825187683105 16.145263671875 15.9993886947632 16.0320167541504 16.3352088928223 16.6682567596436 16.8362560272217
-9999 -9999 -9999 -9999 -9999 -9999 -9999 -9999 -9999 -9999 -9999 -9999 -9999 -9999 8.03120517730713 -9999 -9999 -9999 -9999 7.53274321556091 7.39572715759277 7.29171562194824 7.0256175994873 6.94656848907471 7.09349727630615 7.37489414215088 7.73615884780884 8.31633853912354 9.27012062072754 10.2741594314575 10.9785499572754 11.6450662612915 12.7367115020752 14.2035989761353 15.6049728393555 16.6985092163086 17.4441738128662 17.8828563690186 18.0533390045166 17.992826461792 17.7909889221191 17.4532814025879 16.7884216308594 15.8611268997192 15.0730686187744 14.7199096679688 14.6296987533569 14.5798149108887 14.7928133010864 15.3336954116821 16.0038757324219 16.6297092437744 17.1518440246582 17.6503639221191 18.131031036377 18.5326614379883 18.7353363037109 18.730094909668 18.6637115478516 18.5884952545166 18.5155410766602 18.4282722473145 18.2603149414062 17.9820442199707 17.7318248748779 17.4286975860596 17.0194625854492 16.7682590484619 16.7495937347412 16.8698444366455
-9999 -9999 -9999 -9999 -9999 -9999 -9999 -9999 -9999 -9999 -9999 -9999 -9999 -9999 8.0095329284668 -9999 -9999 -9999 -9999 -9999 7.5495400428772 7.43043756484985 7.28334808349609 7.39043045043945 7.70179510116577 8.10337448120117 8.71209335327148 9.58022308349609 10.4388189315796 10.931453704834 11.2083311080933 11.7506589889526 12.8358793258667 14.3767910003662 16.037504196167 17.4465942382812 18.386604309082 18.9472770690918 19.2263164520264 19.2937183380127 19.2271614074707 19.0162239074707 18.6184253692627 17.8679084777832 16.7053184509277 15.6999244689941 15.3103866577148 15.4208469390869 15.8184671401978 16.3390197753906 16.9305572509766 17.5413303375244 18.0917053222656 18.6154308319092 19.1228771209717 19.5252857208252 19.7074680328369 19.6874332427979 19.611385345459 19.5766220092773 19.5901222229004 19.5918369293213 19.5306987762451 19.3667430877686 19.1126976013184 18.8091278076172 18.4147872924805 18.0414962768555 17.8465576171875 17.8412914276123
-9999 -9999 -9999 -9999 -9999 -9999 -9999 -9999 -9999 -9999 -9999 -9999 -9999 -9999 8.03918409347534 -9999 8.09622192382812 -9999 -9999 -9999 7.83674383163452 7.63926315307617 7.58194637298584 7.85719108581543 8.39146423339844 9.01290130615234 9.88758087158203 10.7670946121216 11.2937908172607 11.8283128738403 12.6678171157837 13.7783622741699 14.9841022491455 16.084587097168 17.2115745544434 18.3489379882812 19.1799030303955 19.6889667510986 19.9839382171631 20.1301040649414 20.1952304840088 20.1788272857666 20.0381774902344 19.6981143951416 18.9162101745605 17.7908611297607 16.907320022583 16.6980381011963 17.0004787445068 17.4116306304932 17.8922901153564 18.4297313690186 18.975549697876 19.507682800293 19.9705066680908 20.2705020904541 20.3312435150146 20.2287178039551 20.1535243988037 20.141918182373 20.173734664917 20.2028141021729 20.1893310546875 20.1263179779053 19.990442276001 19.7921981811523 19.5268898010254 19.2300643920898 19.0400352478027 18.9974060058594
-9999 -9999 -9999 -9999 -9999 -9999 -9999 -9999 -9999 -9999 -9999 -9999 -9999 -9999 8.03918409347534 8.06883525848389 8.15013599395752 -9999 -9999 7.99059665203094 7.94543075561523 7.76779747009277 7.82570600509644 8.40359783172607 9.2765474319458 10.0356769561768 10.8139524459839 11.4420003890991 11.8935289382935 12.7769680023193 14.2561950683594 15.8444404602051 17.0372047424316 17.9140758514404 18.7998123168945 19.5457000732422 19.9749698638916 20.1910266876221 20.3093318939209 20.3680629730225 20.3938980102539 20.4433689117432 20.5244331359863 20.5632934570312 20.337589263916 19.6235675811768 18.5293121337891 17.6584091186523 17.5251407623291 17.9190082550049 18.4823837280273 19.0641574859619 19.62135887146 20.1304607391357 20.5266799926758 20.7059497833252 20.622200012207 20.4284954071045 20.3194713592529 20.2763900756836 20.2912311553955 20.3048324584961 20.2713298797607 20.2161884307861 20.1305866241455 20.0273990631104 19.9225311279297 19.7726039886475 19.6439800262451 19.6106185913086
-9999 -9999 -9999 -9999 -9999 -9999 -9999 -9999 -9999 -9999 -9999 -9999 -9999 -9999 -9999 8.33225402832031 8.28036308288574 -9999 8.32440495491028 8.20662784576416 7.97358417510986 7.83732080459595 8.25828742980957 9.40189170837402 10.5326538085938 11.1538600921631 11.5817213058472 11.9004983901978 12.3206996917725 13.491792678833 15.4695062637329 17.1432266235352 18.1651592254639 19.0762748718262 19.9053993225098 20.3821334838867 20.4907112121582 20.5051422119141 20.5358142852783 20.53981590271 20.4930877685547 20.4462795257568 20.5245151519775 20.7364368438721 20.8476696014404 20.5836601257324 19.7966709136963 18.8417415618896 18.4661884307861 18.7695922851562 19.3104305267334 19.8801136016846 20.3517951965332 20.7021923065186 20.9142627716064 20.8971824645996 20.6621780395508 20.3599376678467 20.1524810791016 20.0908336639404 20.1150856018066 20.1166324615479 20.0869121551514 20.0541305541992 19.9930305480957 19.9099998474121 19.860954284668 19.8286018371582 19.8008708953857 19.7969093322754
-9999 -9999 -9999 -9999 -9999 -9999 -9999 -9999 -9999 -9999 -9999 -9999 -9999 -9999 -9999 8.58710384368896 8.57483196258545 -9999 8.5836820602417 8.29126739501953 8.07872295379639 8.23800277709961 9.42053413391113 11.0703926086426 11.8603897094727 11.9628467559814 11.9540376663208 12.1039733886719 12.6834888458252 14.3123273849487 16.5513687133789 17.9831809997559 18.839448928833 19.730712890625 20.4263954162598 20.7056503295898 20.6922206878662 20.7170219421387 20.7775402069092 20.7506122589111 20.6112365722656 20.4094924926758 20.3419189453125 20.5226173400879 20.7994270324707 20.8392848968506 20.4071636199951 19.7317485809326 19.4659767150879 19.7442951202393 20.1790428161621 20.5686645507812 20.8151473999023 20.9655590057373 21.0120868682861 20.8459453582764 20.4613723754883 20.0152282714844 19.8330135345459 19.9201812744141 20.0137577056885 20.0302333831787 20.0214290618896 20.016565322876 19.9896049499512 19.8938102722168 19.811637878418 19.7914962768555 19.792064666748 19.7782287597656
-9999 -9999 -9999 -9999 -9999 -9999 -9999 -9999 -9999 -9999 -9999 -9999 -9999 -9999 -9999 8.74045658111572 -9999 8.75043501172747 8.62444686889648 8.39919090270996 8.44665622711182 9.28770160675049 11.0786838531494 12.4845600128174 12.7122945785522 12.4407844543457 12.3403196334839 12.7439479827881 13.6938610076904 15.5114440917969 17.406120300293 18.3798179626465 19.1360301971436 19.9734382629395 20.6660785675049 20.969762802124 20.9453372955322 20.9347114562988 20.9350719451904 20.8453388214111 20.6622695922852 20.3599510192871 20.1449127197266 20.2067108154297 20.4772624969482 20.6873359680176 20.4812507629395 19.9827136993408 19.8311080932617 20.1420078277588 20.4838466644287 20.7173805236816 20.8479537963867 20.9444103240967 20.9369125366211 20.6405925750732 20.0494346618652 19.5621566772461 19.590539932251 19.8037433624268 19.9891948699951 20.0351142883301 20.0461769104004 20.0578727722168 20.0400123596191 19.9420890808105 19.8190689086914 19.7376022338867 19.6588401794434 19.5552177429199
-9999 -9999 -9999 -9999 -9999 -9999 -9999 -9999 -9999 -9999 -9999 -9999 -9999 -9999 8.74045658111572 8.84185441335042 8.97237491607666 8.92429637908936 8.76068115234375 8.69560146331787 9.05404090881348 10.3428688049316 12.3008604049683 13.4488859176636 13.5989675521851 13.4935569763184 13.632396697998 14.1291007995605 14.9937400817871 16.5708312988281 17.996509552002 18.6779975891113 19.3695869445801 20.1395721435547 20.8784503936768 21.310510635376 21.2628326416016 21.0505809783936 20.9410591125488 20.9089317321777 20.7953472137451 20.4556503295898 20.1248416900635 20.088285446167 20.2728805541992 20.5571517944336 20.5332889556885 20.1360702514648 19.970832824707 20.2017707824707 20.4562511444092 20.6509609222412 20.7788887023926 20.8563842773438 20.7653331756592 20.2903938293457 19.54416847229 19.0864105224609 19.231897354126 19.6103687286377 19.9279308319092 20.0399227142334 20.0612735748291 20.0812206268311 20.065788269043 19.9480419158936 19.7854709625244 19.6103324890137 19.4280605316162 19.2251758575439
-9999 -9999 -9999 -9999 -9999 -9999 -9999 -9999 -9999 -9999 -9999 -9999 -9999 -9999 -9999 -9999 9.02803158760071 9.04677677154541 8.93692779541016 9.03804779052734 9.55778121948242 10.857271194458 12.7297430038452 14.0675115585327 14.4255619049072 14.5431575775146 14.8251266479492 15.1298742294312 15.9063520431519 17.3028678894043 18.3910121917725 19.0179328918457 19.7567462921143 20.4997520446777 21.2014961242676 21.6942939758301 21.7082958221436 21.2841529846191 20.9614276885986 20.9366722106934 20.8845138549805 20.5667304992676 20.1357650756836 20.0391426086426 20.2065849304199 20.5141372680664 20.6326808929443 20.3458995819092 20.1260261535645 20.2166709899902 20.3933200836182 20.5720367431641 20.7087554931641 20.7364864349365 20.5175762176514 19.9159564971924 19.1173934936523 18.6762733459473 18.8040828704834 19.3455600738525 19.8292865753174 20.0409030914307 20.0713768005371 20.0780849456787 20.0642395019531 19.9209041595459 19.7106094360352 19.4688339233398 19.199426651001 18.909782409668
-9999 -9999 -9999 -9999 -9999 -9999 -9999 -9999 -9999 -9999 -9999 -9999 -9999 -9999 -9999 -9999 9.10772752761841 9.16867828369141 9.21026706695557 9.49987697601318 10.1782026290894 11.8052062988281 13.8059701919556 15.0033540725708 15.4447441101074 15.9290561676025 16.5571479797363 16.951696395874 17.4276237487793 18.1728057861328 18.9546527862549 19.6783981323242 20.4541721343994 21.1708698272705 21.7567501068115 22.1053695678711 22.0732975006104 21.5949821472168 21.116268157959 20.9623069763184 20.8692874908447 20.5643177032471 20.0950508117676 19.9486885070801 20.1500759124756 20.5242309570312 20.72092628479 20.5464954376221 20.3436431884766 20.352367401123 20.4467735290527 20.5687026977539 20.6695251464844 20.6274719238281 20.3149833679199 19.6894454956055 18.9036712646484 18.4203395843506 18.5093307495117 19.1420974731445 19.7362613677979 20.0222434997559 20.0821266174316 20.079216003418 20.0298843383789 19.8782329559326 19.6535739898682 19.3846168518066 19.0407066345215 18.702766418457
-9999 -9999 -9999 -9999 -9999 -9999 -9999 -9999 -9999 -9999 -9999 -9999 -9999 -9999 -9999 -9999 -9999 9.41182351112366 9.53542232513428 10.1638736724854 11.0590686798096 12.8829183578491 14.8689565658569 15.8654737472534 16.4711208343506 17.4364204406738 18.3796272277832 18.8324146270752 19.2053833007812 19.6369552612305 20.2510871887207 20.9785995483398 21.6890258789062 22.2067832946777 22.4420013427734 22.4766273498535 22.2679119110107 21.7388801574707 21.2032699584961 20.9686546325684 20.8095817565918 20.4576778411865 19.9956912994385 19.7669563293457 19.881275177002 20.2972106933594 20.592586517334 20.5545387268066 20.4337978363037 20.4345741271973 20.4768352508545 20.5381736755371 20.601541519165 20.5728435516357 20.2863330841064 19.7350082397461 19.0667304992676 18.603422164917 18.7040538787842 19.2867965698242 19.7822093963623 20.002950668335 20.0525150299072 20.0919342041016 20.0363845825195 19.8616714477539 19.6489582061768 19.3919887542725 19.0156574249268 18.691556930542
-9999 -9999 -9999 -9999 -9999 -9999 -9999 -9999 -9999 -9999 -9999 -9999 -9999 -9999 9.15344059467316 9.16867828369141 9.48690062761307 9.63417434692383 9.73292636871338 10.5410652160645 11.8129863739014 14.387565612793 16.9376907348633 18.0112724304199 18.6573047637939 19.3866863250732 20.0143451690674 20.4235668182373 20.9064712524414 21.3750762939453 21.8739700317383 22.3379039764404 22.571647644043 22.5778675079346 22.440034866333 22.2874984741211 21.9889659881592 21.417781829834 20.9790267944336 20.8156204223633 20.6854629516602 20.3603076934814 19.9924144744873 19.7754192352295 19.7504787445068 20.028018951416 20.3594951629639 20.5021076202393 20.4712886810303 20.4755706787109 20.5007514953613 20.5300064086914 20.5654773712158 20.5651054382324 20.4359931945801 20.0899906158447 19.6551342010498 19.3045997619629 19.3763065338135 19.7313041687012 19.9664878845215 20.0192623138428 20.0023250579834 20.0707035064697 20.0439453125 19.865255355835 19.6824798583984 19.466251373291 19.1222877502441 18.8278560638428
-9999 -9999 -9999 -9999 -9999 -9999 -9999 -9999 -9999 -9999 -9999 -9999 -9999 -9999 -9999 -9999 -9999 -9999 11.4098742008209 12.0792951583862 14.4991369247437 17.4540233612061 19.4425601959229 20.4015865325928 20.9238758087158 21.3656749725342 21.7146244049072 21.9444808959961 22.1555423736572 22.3118782043457 22.4162101745605 22.3695392608643 22.1864471435547 21.9835166931152 21.817569732666 21.6666851043701 21.3997192382812 20.9802227020264 20.7370338439941 20.6671276092529 20.6312999725342 20.4239940643311 20.1361484527588 19.9292411804199 19.8492679595947 20.0417785644531 20.3369979858398 20.5237674713135 20.5528774261475 20.5504341125488 20.5246429443359 20.4852123260498 20.4563827514648 20.4472618103027 20.4792575836182 20.3736400604248 20.182861328125 19.9766006469727 19.9753227233887 20.0730209350586 20.0783309936523 20.0007629394531 19.9479713439941 20.0202865600586 20.0105285644531 19.8471813201904 19.7045879364014 19.5490608215332 19.2857246398926 19.0301570892334
-9999 -9999 -9999 -9999 -9999 -9999 -9999 -9999 -9999 -9999 -9999 -9999 -9999 -9999 -9999 -9999 -9999 13.831880569458 13.8793892860413 13.2862100601196 16.1862449645996 19.4820213317871 21.2318458557129 22.0425930023193 22.3653011322021 22.4479961395264 22.3942680358887 22.2382392883301 22.0636329650879 21.8976612091064 21.7129993438721 21.5262088775635 21.3805732727051 21.2687244415283 21.1400985717773 20.9587497711182 20.7162265777588 20.5013427734375 20.4824028015137 20.5941791534424 20.7454948425293 20.6708164215088 20.3617305755615 20.053861618042 19.9240818023682 20.0918712615967 20.3499202728271 20.5181484222412 20.5418815612793 20.5182666778564 20.472297668457 20.4261665344238 20.3820362091064 20.3982276916504 20.486177444458 20.4781684875488 20.4106578826904 20.2890644073486 20.2268543243408 20.1680145263672 20.0503635406494 19.9230518341064 19.8792877197266 19.9023933410645 19.8951416015625 19.794132232666 19.6964511871338 19.5843124389648 19.4204082489014 19.2325992584229
-9999 -9999 -9999 -9999 -9999 -9999 -9999 -9999 -9999 -9999 -9999 -9999 -9999 16.3605918884277 16.8208688100179 -9999 16.9526948928833 16.2642908096313 13.831880569458 16.3201713562012 20.1689147949219 22.1371059417725 22.7987327575684 22.8675193786621 22.5709686279297 22.1578102111816 21.7780704498291 21.432861328125 21.1446781158447 20.947452545166 20.8197650909424 20.7849311828613 20.8276271820068 20.8563823699951 20.7957973480225 20.6082935333252 20.3452129364014 20.1497783660889 20.1645393371582 20.4825630187988 20.8531723022461 20.9062805175781 20.6518898010254 20.3157901763916 20.1598739624023 20.3147735595703 20.5276432037354 20.5798931121826 20.4737529754639 20.3412208557129 20.2359619140625 20.2011909484863 20.2699203491211 20.3768196105957 20.4543781280518 20.4446296691895 20.408784866333 20.316385269165 20.1907348632812 20.0521183013916 19.87672996521 19.8125076293945 19.8272018432617 19.8399486541748 19.8078765869141 19.7180576324463 19.6312313079834 19.5797519683838 19.4864654541016 19.3460159301758
-9999 -9999 -9999 -9999 -9999 -9999 -9999 -9999 -9999 -9999 -9999 -9999 -9999 -9999 16.3605918884277 17.147590637207 16.9544239044189 16.9509658813477 17.3198928833008 20.6536827087402 22.7422218322754 23.1920490264893 23.0415058135986 22.5009937286377 21.88134765625 21.3675422668457 20.9544219970703 20.61745262146 20.4346885681152 20.3659687042236 20.3583679199219 20.3705825805664 20.4077739715576 20.5114288330078 20.5512828826904 20.4244575500488 20.2573337554932 20.2023906707764 20.2877979278564 20.4559440612793 20.6661777496338 20.8409328460693 20.7675170898438 20.5273170471191 20.3949031829834 20.4903507232666 20.533130645752 20.4446544647217 20.286642074585 20.0951156616211 19.9205703735352 19.87961769104 20.0337944030762 20.2035007476807 20.2718276977539 20.2516098022461 20.1999206542969 20.1007118225098 19.9547538757324 19.8120555877686 19.7089328765869 19.7114505767822 19.7213668823242 19.7087554931641 19.6734085083008 19.6156425476074 19.5812454223633 19.5741310119629 19.4945106506348 19.3613014221191
-9999 -9999 -9999 -9999 -9999 -9999 -9999 -9999 -9999 -9999 -9999 -9999 -9999 -9999 16.900839805603 16.3605918884277 18.1277561187744 19.219066619873 21.0814685821533 22.9187774658203 23.3152732849121 23.1044883728027 22.4888572692871 21.7208995819092 21.0825481414795 20.6061496734619 20.2927589416504 20.200138092041 20.2333889007568 20.2782039642334 20.2966709136963 20.2708587646484 20.241849899292 20.3215713500977 20.3945331573486 20.4150791168213 20.4663047790527 20.5513191223145 20.6843357086182 20.6828346252441 20.6005611419678 20.6791954040527 20.6930694580078 20.5444965362549 20.4432849884033 20.4316101074219 20.3248500823975 20.1816864013672 19.9928817749023 19.8040237426758 19.6752395629883 19.6840572357178 19.7936897277832 19.9006748199463 19.9414520263672 19.9288234710693 19.8873558044434 19.809907913208 19.7175045013428 19.6271877288818 19.584831237793 19.5838279724121 19.5793418884277 19.5814628601074 19.5860042572021 19.5867156982422 19.5851917266846 19.5335121154785 19.3835201263428 19.2407474517822
-9999 -9999 -9999 -9999 -9999 -9999 -9999 -9999 -9999 -9999 -9999 15.9140748977661 16.0559711456299 16.7500476837158 16.660888671875 17.8318309783936 20.4991397857666 21.9764766693115 22.9565353393555 23.3490009307861 23.2131767272949 22.6548919677734 21.8604755401611 21.0537757873535 20.5202178955078 20.1997337341309 20.0747241973877 20.122278213501 20.2195568084717 20.2710151672363 20.2549781799316 20.2090969085693 20.2095947265625 20.3565635681152 20.6041526794434 20.7544422149658 20.710807800293 20.7101078033447 20.7707538604736 20.6442222595215 20.5211734771729 20.5932083129883 20.5932350158691 20.473331451416 20.4048709869385 20.3040027618408 20.1011142730713 19.9212551116943 19.7265453338623 19.583948135376 19.5327987670898 19.5505886077881 19.6095638275146 19.6775646209717 19.7226619720459 19.7359142303467 19.7098484039307 19.647331237793 19.5654487609863 19.5167064666748 19.5152072906494 19.5330867767334 19.5383071899414 19.5397357940674 19.5201282501221 19.4786243438721 19.4046306610107 19.2821311950684 19.1403999328613 19.0741081237793
-9999 -9999 -9999 -9999 -9999 -9999 -9999 -9999 -9999 15.7229595184326 15.9877071380615 16.659688949585 17.3116302490234 18.226110458374 18.2360324859619 19.5742511749268 21.8872871398926 22.9245300292969 23.4265747070312 23.4454154968262 22.9890193939209 22.1439304351807 21.2410850524902 20.6166172027588 20.2496356964111 20.0354022979736 20.012544631958 20.0979804992676 20.2126007080078 20.2730617523193 20.2732925415039 20.2867832183838 20.4120769500732 20.6497631072998 20.8043975830078 20.7483329772949 20.6021480560303 20.5856037139893 20.5852890014648 20.5005550384521 20.4676704406738 20.4806156158447 20.4347019195557 20.3497581481934 20.273416519165 20.1299247741699 19.9482021331787 19.818380355835 19.6651191711426 19.536527633667 19.4851322174072 19.4755268096924 19.4991550445557 19.545431137085 19.5811901092529 19.5812358856201 19.5373287200928 19.4554233551025 19.3768692016602 19.3592338562012 19.3846321105957 19.4072647094727 19.4178829193115 19.4323348999023 19.4305877685547 19.3810329437256 19.2795639038086 19.1559524536133 19.0756778717041 19.0352020263672
-9999 -9999 -9999 -9999 -9999 -9999 -9999 -9999 -9999 16.0991306304932 16.7038898468018 17.8702182769775 18.9477939605713 19.8058948516846 19.8723239898682 21.6023960113525 22.8938064575195 23.414722442627 23.5649318695068 23.2592735290527 22.5022926330566 21.6115169525146 20.8098068237305 20.3917579650879 20.1313209533691 20.0081253051758 20.0206756591797 20.1000003814697 20.2118110656738 20.3062133789062 20.3568477630615 20.4202270507812 20.5284767150879 20.6290988922119 20.617618560791 20.49267578125 20.4364986419678 20.457311630249 20.4094142913818 20.3668537139893 20.3641700744629 20.3381843566895 20.2918720245361 20.2520160675049 20.2010898590088 20.112491607666 20.0011539459229 19.8627853393555 19.6627616882324 19.5093631744385 19.4637851715088 19.4417552947998 19.4369773864746 19.4613037109375 19.4844779968262 19.4759273529053 19.4264507293701 19.3461933135986 19.2727127075195 19.2564144134521 19.2712841033936 19.2852115631104 19.296724319458 19.3212051391602 19.3535251617432 19.3575706481934 19.3275470733643 19.2729740142822 19.2049789428711 19.142032623291
-9999 -9999 -9999 -9999 -9999 15.7967209815979 15.7207059860229 16.0865688323975 16.1787395477295 16.4496765136719 17.2490234375 18.8267555236816 20.1187419891357 21.0315265655518 21.9686946868896 22.960973739624 23.4161052703857 23.6153964996338 23.5252094268799 22.9606304168701 22.0135631561279 21.1670665740967 20.6898612976074 20.3205013275146 20.1096057891846 20.0170669555664 20.0287609100342 20.0920696258545 20.17702293396 20.2659530639648 20.3384876251221 20.4029235839844 20.4557132720947 20.477029800415 20.4321403503418 20.3504753112793 20.3234825134277 20.3029708862305 20.265811920166 20.2895946502686 20.3101024627686 20.3046092987061 20.2955341339111 20.2831516265869 20.2606639862061 20.2331676483154 20.1742706298828 19.9752445220947 19.6922721862793 19.5220031738281 19.4934997558594 19.4753150939941 19.4622688293457 19.4677238464355 19.4803428649902 19.4802265167236 19.4529991149902 19.4049625396729 19.3556213378906 19.3336277008057 19.3262119293213 19.3244323730469 19.3142833709717 19.3226165771484 19.354190826416 19.3809719085693 19.3667259216309 19.3498706817627 19.3295040130615 19.2856273651123
-9999 -9999 -9999 -9999 15.4237623214722 15.5269584655762 16.5154571533203 17.1492710113525 17.3734664916992 17.6419239044189 18.2184505462646 19.8443088531494 21.159574508667 22.2814483642578 22.955286026001 23.3585033416748 23.6969184875488 23.7597923278809 23.496862411499 22.7126274108887 21.6863613128662 20.9240951538086 20.7403659820557 20.4704704284668 20.2298622131348 20.0681438446045 20.0326194763184 20.0712184906006 20.1455097198486 20.2317085266113 20.2911071777344 20.3459930419922 20.3797092437744 20.3766345977783 20.335786819458 20.2919979095459 20.2671432495117 20.2346839904785 20.2400150299072 20.2873439788818 20.3042430877686 20.3106174468994 20.3184089660645 20.299976348877 20.2645797729492 20.2345294952393 20.2157497406006 20.1064319610596 19.8342876434326 19.6197414398193 19.5798206329346 19.5859680175781 19.5836486816406 19.564582824707 19.5494403839111 19.5459766387939 19.5356197357178 19.5164051055908 19.4949283599854 19.482608795166 19.4726963043213 19.4529972076416 19.4210147857666 19.3991622924805 19.4248466491699 19.4400539398193 19.4012565612793 19.3567714691162 19.358907699585 19.3636894226074
-9999 -9999 -9999 15.7547731399536 15.6937370300293 16.3226337432861 17.5836906433105 18.1480808258057 18.5428333282471 18.9337539672852 19.56494140625 21.1862201690674 22.3828010559082 23.0705070495605 23.4860706329346 23.7859573364258 23.8843059539795 23.7608261108398 23.3484554290771 22.4667587280273 21.4580631256104 20.845043182373 20.7990989685059 20.6636581420898 20.446475982666 20.2726726531982 20.1384239196777 20.0867233276367 20.1226406097412 20.200023651123 20.2559471130371 20.2835445404053 20.2971076965332 20.2898120880127 20.265510559082 20.252799987793 20.2399101257324 20.2392997741699 20.2729206085205 20.3145217895508 20.3258113861084 20.3237724304199 20.3132266998291 20.2811489105225 20.2276744842529 20.1830615997314 20.1821842193604 20.1608505249023 19.9706172943115 19.7640495300293 19.7138710021973 19.7566318511963 19.794506072998 19.7797832489014 19.740514755249 19.7021923065186 19.6698303222656 19.6460361480713 19.6279850006104 19.6122779846191 19.5953044891357 19.566291809082 19.5209770202637 19.5197639465332 19.5753879547119 19.5918941497803 19.5398578643799 19.4875640869141 19.491247177124 19.5096378326416
-9999 -9999 -9999 15.7543573379517 16.1472358703613 17.398286819458 18.8006286621094 19.2504482269287 19.9655170440674 20.8086452484131 21.9541873931885 22.9157619476318 23.4177742004395 23.7304821014404 23.9300861358643 24.011043548584 23.9682388305664 23.7157649993896 23.2407474517822 22.2626171112061 21.1784820556641 20.8245182037354 20.8537616729736 20.8468284606934 20.5888957977295 20.4098720550537 20.2642345428467 20.1597633361816 20.1517124176025 20.1663055419922 20.1667022705078 20.1644229888916 20.1676959991455 20.2020950317383 20.233715057373 20.2492389678955 20.2664623260498 20.2976188659668 20.3340225219727 20.377908706665 20.4234218597412 20.4416446685791 20.4082698822021 20.3433609008789 20.2765483856201 20.2207927703857 20.1944599151611 20.1875476837158 20.0513896942139 19.8688774108887 19.8241653442383 19.8860530853271 19.9333972930908 19.9355545043945 19.902027130127 19.8552875518799 19.8118572235107 19.7791976928711 19.7478866577148 19.7150058746338 19.6798915863037 19.6257553100586 19.590950012207 19.68190574646 19.7950859069824 19.8159580230713 19.7908401489258 19.7654075622559 19.7679386138916 19.7790431976318
