NCOLS 70 
NROWS 52 
XLLCORNER -80 
YLLCORNER 33 
CELLSIZE 0.25 
NODATA_value -9999 
-9999.000000000000000 -9999 -9999 -9999 -9999 -9999 -9999 -9999 -9999 -9999 -9999 -9999 -9999 -9999 -9999 -9999 -9999 -9999 -9999 -9999 -9999 -9999 -9999 -9999 -9999 -9999 -9999 -9999 -9999 -9999 -9999 -9999 -9999 -9999 -9999 -9999 -9999 -9999 -9999 -9999 -9999 -9999 -9999 -9999 -9999 -9999 -9999 -9999 -9999 -9999 -9999 -9999 -9999 -9999 -9999 -9999 -9999 -9999 -9999 -9999 -9999 -9999 -9999 -9999 -9999 -9999 -9999 -9999 -9999 -9999
-9999 -9999 -9999 -9999 -9999 -9999 -9999 -9999 -9999 -9999 -9999 -9999 -9999 -9999 -9999 -9999 -9999 -9999 -9999 -9999 -9999 -9999 -9999 -9999 -9999 -9999 -9999 -9999 -9999 -9999 -9999 -9999 -9999 -9999 -9999 -9999 -9999 -9999 -9999 -9999 -9999 -9999 -9999 -9999 -9999 -9999 -9999 -9999 -9999 -9999 -9999 -9999 -9999 -9999 -9999 -9999 -9999 -9999 -9999 -9999 -9999 -9999 -9999 -9999 -9999 -9999 -9999 -9999 -9999 -9999
-9999 -9999 -9999 -9999 -9999 -9999 -9999 -9999 -9999 -9999 -9999 -9999 -9999 -9999 -9999 -9999 -9999 -9999 -9999 -9999 -9999 -9999 -9999 -9999 -9999 -9999 -9999 -9999 -9999 -9999 -9999 -9999 -9999 -9999 -9999 -9999 -9999 -9999 -9999 -9999 -9999 -9999 -9999 -9999 -9999 -9999 -9999 -9999 -9999 -9999 -9999 -9999 -9999 -9999 -9999 -9999 -9999 -9999 -9999 15.6466856002808 -9999 -9999 -9999 -9999 -9999 -9999 -9999 -9999 -9999 -9999
-9999 -9999 -9999 -9999 -9999 -9999 -9999 -9999 -9999 -9999 -9999 -9999 -9999 -9999 -9999 -9999 -9999 -9999 -9999 -9999 -9999 -9999 -9999 -9999 -9999 -9999 -9999 -9999 -9999 -9999 -9999 -9999 -9999 -9999 -9999 -9999 -9999 -9999 -9999 -9999 -9999 -9999 -9999 -9999 -9999 -9999 -9999 -9999 -9999 -9999 -9999 -9999 -9999 -9999 -9999 13.8933753967285 14.0339803695679 14.4274206161499 14.8433218002319 15.3787965774536 -9999 -9999 -9999 -9999 -9999 -9999 -9999 -9999 -9999 -9999
-9999 -9999 -9999 -9999 -9999 -9999 -9999 -9999 -9999 -9999 -9999 -9999 -9999 -9999 -9999 -9999 -9999 -9999 -9999 -9999 -9999 -9999 -9999 -9999 -9999 -9999 -9999 -9999 -9999 -9999 -9999 -9999 -9999 -9999 -9999 -9999 -9999 -9999 -9999 -9999 -9999 -9999 -9999 -9999 -9999 -9999 -9999 -9999 -9999 -9999 -9999 -9999 13.6077842712402 13.770975112915 13.8740568161011 13.8931751251221 14.046685218811 14.3618774414062 -9999 -9999 -9999 -9999 -9999 -9999 -9999 -9999 -9999 -9999 -9999 -9999
-9999 -9999 -9999 -9999 -9999 -9999 -9999 -9999 -9999 -9999 -9999 -9999 -9999 -9999 -9999 -9999 -9999 -9999 -9999 -9999 -9999 -9999 -9999 -9999 -9999 -9999 -9999 -9999 -9999 -9999 -9999 -9999 -9999 -9999 -9999 -9999 -9999 -9999 -9999 -9999 -9999 -9999 -9999 -9999 -9999 -9999 -9999 -9999 -9999 -9999 12.8871158599854 12.9124097824097 13.2840576171875 13.5615062713623 13.6991949081421 13.8901071548462 -9999 -9999 -9999 -9999 -9999 -9999 -9999 -9999 -9999 -9999 -9999 17.5482158660889 17.6347780227661 17.5666885375977
-9999 -9999 -9999 -9999 -9999 -9999 -9999 -9999 -9999 -9999 -9999 -9999 -9999 -9999 -9999 -9999 -9999 -9999 -9999 -9999 -9999 -9999 -9999 -9999 -9999 -9999 -9999 -9999 -9999 -9999 -9999 -9999 -9999 -9999 -9999 -9999 -9999 -9999 -9999 -9999 -9999 -9999 -9999 -9999 13.5895843505859 -9999 -9999 13.2866938114166 12.7920360565186 12.6601295471191 12.6010932922363 12.737154006958 13.1420402526855 13.3270320892334 13.5031862258911 -9999 -9999 -9999 -9999 -9999 -9999 -9999 -9999 16.8852348327637 17.0826663970947 17.3021602630615 17.4485301971436 17.5382061004639 17.6579113006592 17.7763061523438
-9999 -9999 -9999 -9999 -9999 -9999 -9999 -9999 -9999 -9999 -9999 -9999 -9999 -9999 -9999 -9999 -9999 -9999 -9999 -9999 -9999 -9999 -9999 -9999 -9999 -9999 -9999 -9999 -9999 -9999 -9999 -9999 -9999 -9999 -9999 -9999 -9999 -9999 -9999 -9999 -9999 -9999 -9999 -9999 13.5697784423828 13.7907848358154 13.7185411453247 13.4362564086914 13.1999416351318 13.0614032745361 12.9658155441284 12.9719505310059 13.0799837112427 13.092059135437 13.2399027347565 -9999 -9999 -9999 -9999 -9999 -9999 -9999 16.6981372833252 17.0817222595215 17.400390625 17.586446762085 17.6925144195557 17.7172298431396 17.7566204071045 17.7986030578613
-9999 -9999 -9999 -9999 -9999 -9999 -9999 -9999 -9999 -9999 -9999 -9999 -9999 -9999 -9999 -9999 -9999 -9999 -9999 -9999 -9999 -9999 -9999 -9999 -9999 -9999 -9999 -9999 -9999 -9999 -9999 -9999 -9999 -9999 -9999 -9999 -9999 -9999 -9999 -9999 16.3692169189453 15.9728733698527 14.569927406311 13.2820692062378 13.112922668457 13.3575525283813 13.6681280136108 13.7538509368896 13.6530199050903 13.5106964111328 13.4214334487915 13.4154739379883 13.3009252548218 13.0373334884644 12.9563014984131 -9999 -9999 -9999 -9999 -9999 16.4842433929443 16.5083255767822 16.8779716491699 17.2775611877441 17.4844284057617 17.5724563598633 17.6303291320801 17.6487197875977 17.6704139709473 17.6926708221436
-9999 -9999 -9999 -9999 -9999 -9999 -9999 -9999 -9999 -9999 -9999 -9999 -9999 -9999 -9999 -9999 -9999 -9999 -9999 -9999 -9999 -9999 -9999 -9999 -9999 -9999 -9999 -9999 -9999 -9999 -9999 -9999 -9999 -9999 -9999 -9999 -9999 -9999 -9999 16.559398651123 16.4909362792969 16.057315826416 15.3703680038452 14.7316942214966 14.2682409286499 14.1144847869873 14.1497488021851 14.1598033905029 14.0658626556396 13.9087572097778 13.7991600036621 13.7650728225708 13.5756521224976 13.1352157592773 12.7299966812134 12.7869024276733 -9999 -9999 -9999 15.8762283325195 16.3406734466553 16.6037311553955 16.9144821166992 17.1460285186768 17.2700595855713 17.3352241516113 17.3849868774414 17.4467067718506 17.5320644378662 17.6087474822998
-9999 -9999 -9999 -9999 -9999 -9999 -9999 -9999 -9999 -9999 -9999 -9999 -9999 -9999 -9999 -9999 -9999 -9999 -9999 -9999 -9999 -9999 -9999 -9999 -9999 -9999 -9999 -9999 -9999 -9999 -9999 -9999 -9999 -9999 -9999 -9999 -9999 -9999 16.850846862793 16.9557151794434 16.9747352600098 16.795072555542 16.3055057525635 15.696436882019 15.1365842819214 14.7512550354004 14.5576725006104 14.4807901382446 14.3865327835083 14.2194805145264 14.0619554519653 13.9259624481201 13.6429491043091 13.1710615158081 12.8720407485962 13.0603523254395 13.7379779815674 14.2166412671407 15.2890720367432 15.7356986999512 16.1394691467285 16.3764762878418 16.5698108673096 16.7458648681641 16.9081535339355 17.0408172607422 17.1619529724121 17.2968711853027 17.4397468566895 17.5603408813477
-9999 -9999 -9999 -9999 -9999 -9999 -9999 -9999 -9999 -9999 -9999 -9999 -9999 -9999 -9999 -9999 -9999 -9999 -9999 -9999 -9999 -9999 -9999 -9999 -9999 -9999 -9999 -9999 -9999 -9999 -9999 -9999 -9999 -9999 -9999 -9999 -9999 16.538631439209 16.8529510498047 17.3475379943848 17.4541854858398 17.0370216369629 16.337158203125 15.6316823959351 15.0900287628174 14.8105392456055 14.7787599563599 14.8158550262451 14.727650642395 14.4956569671631 14.2433013916016 13.9771690368652 13.60373878479 13.1869440078735 13.0185718536377 13.2389736175537 13.7578363418579 14.3786592483521 14.9547157287598 15.4095106124878 15.7570714950562 16.066385269165 16.3372116088867 16.5532093048096 16.7756195068359 17.0051383972168 17.2275009155273 17.3820781707764 17.4682846069336 17.560619354248
-9999 -9999 -9999 -9999 -9999 -9999 -9999 -9999 -9999 -9999 -9999 -9999 -9999 -9999 -9999 -9999 -9999 -9999 -9999 -9999 -9999 -9999 -9999 -9999 -9999 -9999 -9999 -9999 -9999 -9999 -9999 -9999 -9999 -9999 -9999 -9999 -9999 16.6110019683838 17.019775390625 17.6399421691895 17.7845363616943 17.3692436218262 16.6538257598877 15.9033536911011 15.3921966552734 15.309139251709 15.4617376327515 15.5012292861938 15.2385778427124 14.7790775299072 14.3588218688965 14.0335235595703 13.7566394805908 13.6415481567383 13.6868686676025 13.7275705337524 13.8524227142334 14.1965093612671 14.7256336212158 15.1583299636841 15.5091514587402 15.9805784225464 16.4564323425293 16.7987728118896 17.1230964660645 17.4134483337402 17.6530208587646 17.7219619750977 17.6724414825439 17.6827526092529
-9999 -9999 -9999 -9999 -9999 -9999 -9999 -9999 -9999 -9999 -9999 -9999 -9999 -9999 -9999 -9999 -9999 -9999 -9999 -9999 -9999 -9999 -9999 -9999 -9999 -9999 -9999 -9999 -9999 -9999 -9999 -9999 -9999 -9999 -9999 -9999 -9999 17.0516242980957 17.5088310241699 18.0769157409668 18.2255058288574 17.9303684234619 17.3702487945557 16.6822166442871 16.1806812286377 16.1353740692139 16.3060512542725 16.3289947509766 16.0004425048828 15.3539390563965 14.7471418380737 14.3839015960693 14.2998609542847 14.5478258132935 14.8843793869019 14.9099035263062 14.6756525039673 14.6197900772095 15.1738338470459 15.5571346282959 15.7864484786987 16.201135635376 16.7346534729004 17.1891975402832 17.6191711425781 17.9368267059326 18.166410446167 18.2321586608887 18.2237510681152 18.283576965332
-9999 -9999 -9999 -9999 -9999 -9999 -9999 -9999 -9999 -9999 -9999 -9999 -9999 -9999 -9999 -9999 -9999 -9999 -9999 -9999 -9999 -9999 -9999 -9999 -9999 -9999 -9999 -9999 -9999 -9999 -9999 -9999 -9999 -9999 -9999 -9999 16.7577075958252 17.2069530487061 17.8106594085693 18.2814884185791 18.4172859191895 18.2809143066406 18.0118446350098 17.4905471801758 16.942590713501 16.7828464508057 16.8572750091553 16.9007358551025 16.7885322570801 16.3645687103271 15.757137298584 15.224720954895 14.986777305603 15.1979093551636 15.6651487350464 15.8410520553589 15.512186050415 15.2481069564819 16.045316696167 16.5433712005615 16.8008098602295 17.1160488128662 17.4461116790771 17.7475967407227 18.0543842315674 18.2695045471191 18.5509567260742 18.8328666687012 19.1483364105225 19.563756942749
-9999 -9999 -9999 -9999 -9999 -9999 -9999 -9999 -9999 -9999 -9999 -9999 -9999 -9999 -9999 -9999 -9999 -9999 -9999 -9999 -9999 -9999 -9999 -9999 -9999 -9999 -9999 -9999 -9999 -9999 -9999 -9999 -9999 -9999 -9999 -9999 -9999 17.6634502410889 17.8680591583252 18.1298160552979 18.0963153839111 18.0702953338623 18.1836109161377 17.9636554718018 17.4782657623291 17.2300758361816 17.1919460296631 17.1653785705566 17.098596572876 16.9478225708008 16.6774406433105 16.3251457214355 16.0056781768799 15.8542385101318 16.041540145874 16.1207065582275 15.9940891265869 16.3289070129395 17.3640880584717 18.0749397277832 18.2945804595947 18.4376049041748 18.5341129302979 18.5648231506348 18.6555614471436 18.6838760375977 18.8869037628174 19.3007144927979 19.7752361297607 20.4054679870605
-9999 -9999 -9999 -9999 -9999 -9999 -9999 -9999 -9999 -9999 -9999 -9999 -9999 -9999 -9999 -9999 -9999 -9999 -9999 -9999 -9999 -9999 -9999 -9999 -9999 -9999 -9999 -9999 -9999 -9999 -9999 -9999 -9999 -9999 -9999 -9999 -9999 -9999 17.7947063446045 -9999 17.4910049438477 17.448486328125 17.7563724517822 17.8016223907471 17.5784435272217 17.4003753662109 17.3541507720947 17.2901744842529 17.1572456359863 16.9637107849121 16.7933654785156 16.6889934539795 16.6209125518799 16.4272861480713 16.4917163848877 16.2992687225342 16.564769744873 17.6228084564209 18.5690307617188 19.008996963501 19.1778793334961 19.3318195343018 19.2901782989502 19.1777725219727 19.2077331542969 19.2443218231201 19.3859233856201 19.8723373413086 20.3884716033936 21.03564453125
-9999 -9999 -9999 -9999 -9999 -9999 -9999 -9999 -9999 -9999 -9999 -9999 -9999 -9999 -9999 -9999 -9999 -9999 -9999 -9999 -9999 -9999 -9999 -9999 -9999 -9999 -9999 -9999 -9999 -9999 -9999 -9999 -9999 -9999 -9999 -9999 -9999 -9999 -9999 -9999 17.1554107666016 17.1386280059814 17.3378162384033 17.4369697570801 17.4452838897705 17.4530811309814 17.481315612793 17.4310321807861 17.3210163116455 17.1044216156006 16.9352512359619 16.8873558044434 16.876522064209 16.7382259368896 16.6999073028564 16.8265724182129 17.6864032745361 18.6567211151123 19.093412399292 19.2893733978271 19.400857925415 19.477388381958 19.4379272460938 19.5096187591553 19.7020149230957 19.9545669555664 20.3171443939209 20.8826522827148 21.4383659362793 22.1651821136475
-9999 -9999 -9999 -9999 -9999 -9999 -9999 -9999 -9999 -9999 -9999 -9999 -9999 -9999 -9999 -9999 -9999 -9999 -9999 -9999 -9999 -9999 -9999 -9999 -9999 -9999 -9999 -9999 -9999 -9999 -9999 -9999 -9999 -9999 20.1537618637085 19.7392597198486 19.4777011871338 -9999 18.3786602020264 17.9343681335449 17.4729900360107 17.2950019836426 17.447660446167 17.5371589660645 17.5712642669678 17.6374816894531 17.6481132507324 17.5606746673584 17.4239463806152 17.2375545501709 17.0983238220215 17.0464725494385 16.9446773529053 16.8305282592773 17.0147838592529 17.8228816986084 18.6000118255615 18.9593448638916 19.0905933380127 19.2193202972412 19.3373908996582 19.4309902191162 19.5663166046143 20.043924331665 20.5961227416992 21.1726951599121 21.7201862335205 22.2908802032471 22.8099250793457 23.3088569641113
-9999 -9999 -9999 -9999 -9999 -9999 -9999 -9999 -9999 -9999 -9999 -9999 -9999 -9999 -9999 -9999 -9999 -9999 -9999 -9999 -9999 -9999 -9999 -9999 -9999 -9999 -9999 22.3460483551025 22.3460483551025 21.9041900634766 21.4147319793701 20.7802181243896 20.3941135406494 20.3528919219971 20.3163623809814 20.2065334320068 19.9903984069824 19.5123291015625 18.9131202697754 18.4306488037109 17.9599666595459 17.7119064331055 17.8286056518555 17.9120464324951 17.8951206207275 17.8412227630615 17.738302230835 17.5847244262695 17.4215545654297 17.2851428985596 17.2092208862305 17.1979904174805 17.1404495239258 17.2942581176758 17.8599262237549 18.6124114990234 18.9360275268555 19.0730895996094 19.1722927093506 19.307825088501 19.6171894073486 20.0431251525879 20.5079879760742 21.0928764343262 21.7638263702393 22.4197406768799 23.0146141052246 23.5124835968018 23.7694644927979 23.8766136169434
-9999 -9999 -9999 -9999 -9999 -9999 -9999 -9999 -9999 -9999 -9999 -9999 -9999 -9999 -9999 -9999 -9999 -9999 -9999 -9999 -9999 -9999 -9999 -9999 -9999 -9999 -9999 -9999 -9999 -9999 21.290699005127 20.9249782562256 20.7393550872803 20.8505916595459 20.9295711517334 20.856517791748 20.6260147094727 20.1747303009033 19.6125221252441 19.1213397979736 18.7561950683594 18.5477237701416 18.4849624633789 18.3848972320557 18.2501258850098 18.0771389007568 17.8955936431885 17.7478466033936 17.6322956085205 17.5737838745117 17.6297607421875 17.7745018005371 17.9583282470703 18.2890300750732 18.7389850616455 19.2210235595703 19.4976558685303 19.5201721191406 19.4526195526123 19.5976467132568 20.0844879150391 20.7017860412598 21.1774311065674 21.749382019043 22.5159931182861 23.2694129943848 23.8318481445312 24.1569786071777 24.3405857086182 24.4987335205078
-9999 -9999 -9999 -9999 -9999 -9999 -9999 -9999 -9999 -9999 -9999 -9999 -9999 -9999 -9999 -9999 -9999 -9999 -9999 -9999 -9999 -9999 -9999 -9999 -9999 21.9809315999349 21.7364851633708 21.5384318033854 21.3845415115356 21.0363464355469 21.1312675476074 21.249439239502 21.3892478942871 21.4761371612549 21.4480686187744 21.292932510376 21.0521945953369 20.7301368713379 20.3776187896729 20.0807342529297 19.8600482940674 19.6612358093262 19.3548412322998 19.0819873809814 18.9273586273193 18.7949657440186 18.7482414245605 18.8212051391602 18.8436107635498 18.6731395721436 18.7090377807617 19.0117092132568 19.4351119995117 19.9218826293945 20.3138809204102 20.7027988433838 20.9657421112061 20.6324901580811 20.1698665618896 20.1574993133545 20.6094646453857 21.3169078826904 21.8056163787842 22.3270149230957 23.0074424743652 23.726749420166 24.2063064575195 24.4892158508301 24.6749153137207 24.9755592346191
-9999 -9999 -9999 -9999 -9999 -9999 -9999 -9999 -9999 -9999 -9999 -9999 -9999 -9999 -9999 -9999 -9999 -9999 -9999 -9999 -9999 -9999 -9999 -9999 22.1846675872803 22.0377979278564 21.720329284668 21.4513282775879 21.4436378479004 21.6068534851074 21.7367210388184 21.7875690460205 21.830509185791 21.8686103820801 21.8637294769287 21.8281021118164 21.8028011322021 21.7218341827393 21.5738258361816 21.4078140258789 21.1649360656738 20.8016910552979 20.4795780181885 20.4127769470215 20.4955615997314 20.6383953094482 20.9099807739258 21.262866973877 21.4295673370361 21.0811176300049 20.7456359863281 20.7988662719727 21.2667331695557 22.0214252471924 22.5074806213379 22.6838684082031 22.7087650299072 22.2005233764648 21.6699695587158 21.6414699554443 21.9741840362549 22.5070152282715 22.8382053375244 23.056713104248 23.5687999725342 24.1952362060547 24.6039257049561 24.8442001342773 24.9560489654541 25.1948490142822
-9999 -9999 -9999 -9999 -9999 -9999 -9999 -9999 -9999 -9999 -9999 -9999 -9999 -9999 -9999 -9999 -9999 -9999 -9999 -9999 -9999 -9999 -9999 -9999 22.1509895324707 22.1905727386475 22.0481605529785 21.8563232421875 21.8875217437744 22.0553302764893 22.1341018676758 22.1696529388428 22.249340057373 22.3373508453369 22.4307136535645 22.5771903991699 22.7781562805176 22.8898868560791 22.8844470977783 22.839656829834 22.6647968292236 22.2800617218018 21.8972415924072 21.8377990722656 22.0647773742676 22.3971977233887 22.7871932983398 23.162914276123 23.3873252868652 23.3025283813477 22.8905544281006 22.5455932617188 22.6879940032959 23.2966461181641 23.7138805389404 23.7398948669434 23.6062068939209 23.3020858764648 22.9649639129639 22.9889030456543 23.2263584136963 23.4916877746582 23.6464710235596 23.8105010986328 24.2919578552246 24.7703094482422 25.0726432800293 25.2495880126953 25.2772693634033 25.3848152160645
-9999 -9999 -9999 -9999 -9999 -9999 -9999 -9999 -9999 -9999 -9999 -9999 -9999 -9999 -9999 -9999 -9999 -9999 -9999 -9999 -9999 -9999 -9999 22.0825443267822 22.1063365936279 22.2237911224365 22.2016105651855 22.1558246612549 22.2477130889893 22.3681678771973 22.3949279785156 22.4960823059082 22.698902130127 22.8651580810547 22.9791412353516 23.077220916748 23.2029132843018 23.3465690612793 23.4882125854492 23.6787967681885 23.7934513092041 23.6759490966797 23.3212718963623 22.9979095458984 22.8988094329834 22.9780616760254 23.2058372497559 23.5334854125977 23.8406162261963 24.1008205413818 24.1226825714111 23.9490585327148 23.9318447113037 24.1998748779297 24.2224750518799 23.982328414917 23.7801837921143 23.7043380737305 23.5375194549561 23.5209884643555 23.6815357208252 23.9376926422119 24.2561378479004 24.6003913879395 24.9446239471436 25.1881656646729 25.3847103118896 25.5404605865479 25.5861740112305 25.6283531188965
-9999 -9999 -9999 -9999 -9999 -9999 -9999 -9999 -9999 -9999 -9999 -9999 -9999 -9999 -9999 -9999 -9999 -9999 -9999 -9999 -9999 -9999 -9999 21.9480781555176 22.1247730255127 22.2513637542725 22.3124446868896 22.4171543121338 22.5608654022217 22.6413803100586 22.7011814117432 22.964319229126 23.3432083129883 23.5874176025391 23.6769771575928 23.6652202606201 23.6160526275635 23.6012477874756 23.7363014221191 24.0559501647949 24.3323516845703 24.4566345214844 24.4001274108887 24.1612339019775 23.8756580352783 23.6651554107666 23.5983791351318 23.7439460754395 24.0211372375488 24.3255729675293 24.5618057250977 24.6855201721191 24.7201271057129 24.718189239502 24.4434604644775 24.0602779388428 23.8662967681885 23.8572216033936 23.7965621948242 23.7999324798584 23.9468517303467 24.2368183135986 24.5725898742676 24.8636207580566 25.0779724121094 25.2557010650635 25.4679145812988 25.6903839111328 25.8207588195801 25.8733463287354
-9999 -9999 -9999 -9999 -9999 -9999 -9999 -9999 -9999 -9999 -9999 -9999 -9999 -9999 -9999 -9999 -9999 -9999 -9999 -9999 -9999 -9999 22.1858558654785 22.1282558441162 22.2794666290283 22.4209842681885 22.5740032196045 22.7735710144043 22.9454898834229 23.08127784729 23.2971134185791 23.668098449707 24.0099105834961 24.1554756164551 24.156909942627 24.1050758361816 24.036262512207 23.9262275695801 24.0203533172607 24.3542976379395 24.5891342163086 24.6711578369141 24.6862983703613 24.653865814209 24.5838489532471 24.4676055908203 24.3354740142822 24.3301410675049 24.4603672027588 24.646764755249 24.8324184417725 24.9820823669434 25.0379981994629 24.9396953582764 24.6295928955078 24.2949085235596 24.1218433380127 24.1345882415771 24.1508712768555 24.1399459838867 24.2144508361816 24.4017124176025 24.6033821105957 24.8030662536621 25.0536499023438 25.3427448272705 25.6321334838867 25.8694591522217 26.0230922698975 26.1353015899658
-9999 -9999 -9999 -9999 -9999 -9999 -9999 -9999 -9999 -9999 -9999 -9999 -9999 -9999 24.7267746395535 -9999 -9999 -9999 -9999 23.4287719726562 -9999 22.5911750793457 22.3746395111084 22.415641784668 22.6096076965332 22.7988166809082 22.9836273193359 23.2013740539551 23.4482326507568 23.6932315826416 23.9562225341797 24.2202091217041 24.3660259246826 24.364725112915 24.2710247039795 24.1831169128418 24.136022567749 24.0870819091797 24.2246704101562 24.5229568481445 24.7293376922607 24.8445434570312 24.88791847229 24.8905334472656 24.9015884399414 24.8997974395752 24.8960571289062 24.9334526062012 24.9995765686035 25.0522861480713 25.0638618469238 25.1036071777344 25.1646995544434 25.0812683105469 24.8080539703369 24.5422840118408 24.4305534362793 24.4846591949463 24.5255088806152 24.4710483551025 24.489673614502 24.6971988677979 24.9805068969727 25.2252197265625 25.4892978668213 25.7366046905518 25.9158058166504 26.0582809448242 26.1847972869873 26.3132457733154
-9999 -9999 -9999 -9999 -9999 -9999 -9999 -9999 -9999 -9999 -9999 -9999 -9999 -9999 24.7297077178955 -9999 -9999 -9999 -9999 23.2684736251831 22.8798824310303 22.6160621643066 22.5688552856445 22.7392387390137 22.9487915039062 23.1244316101074 23.2850303649902 23.555154800415 23.8891162872314 24.117317199707 24.2714004516602 24.4178009033203 24.5307102203369 24.54833984375 24.4144611358643 24.251256942749 24.1983280181885 24.2546787261963 24.4695529937744 24.7436809539795 24.9498882293701 25.1187973022461 25.1726684570312 25.1364212036133 25.1682682037354 25.2341995239258 25.2768383026123 25.3177318572998 25.3570461273193 25.35719871521 25.2670574188232 25.1486873626709 25.1069145202637 25.0607318878174 24.8697414398193 24.6432723999023 24.5842838287354 24.710033416748 24.8170986175537 24.8457412719727 25.0063457489014 25.3204860687256 25.602855682373 25.7852478027344 25.9051666259766 25.9727077484131 26.0122585296631 26.0757961273193 26.1524696350098 26.2361164093018
-9999 -9999 -9999 -9999 -9999 -9999 -9999 -9999 -9999 -9999 -9999 -9999 -9999 -9999 24.7165088653564 -9999 -9999 -9999 -9999 -9999 22.7357039451599 22.6552276611328 22.7848663330078 23.0470008850098 23.3085327148438 23.5225448608398 23.7103061676025 23.9709243774414 24.2088356018066 24.3302154541016 24.4164638519287 24.5512466430664 24.7530174255371 24.9076232910156 24.849796295166 24.5743865966797 24.3674640655518 24.4722290039062 24.7438640594482 24.9491214752197 25.1148891448975 25.3128929138184 25.3861980438232 25.3193244934082 25.3667545318604 25.4837703704834 25.531307220459 25.5595645904541 25.5767478942871 25.5766620635986 25.5247783660889 25.3956546783447 25.2527103424072 25.1092796325684 24.8984889984131 24.7268600463867 24.7386474609375 24.8901786804199 25.0455837249756 25.1476860046387 25.344425201416 25.6029014587402 25.7526187896729 25.8194313049316 25.8531436920166 25.8937473297119 25.9577693939209 26.0267543792725 26.0752983093262 26.1165313720703
-9999 -9999 -9999 -9999 -9999 -9999 -9999 -9999 -9999 -9999 -9999 -9999 -9999 -9999 24.6854085922241 -9999 24.7693042755127 -9999 -9999 -9999 22.8016815185547 22.8698444366455 23.1310844421387 23.4721069335938 23.7842483520508 23.9892024993896 24.0908374786377 24.1916885375977 24.2887706756592 24.3851089477539 24.5131072998047 24.7136459350586 25.0158309936523 25.3043823242188 25.4262084960938 25.306266784668 25.042911529541 24.910213470459 24.9669761657715 25.068531036377 25.2002754211426 25.4124736785889 25.5610790252686 25.5437049865723 25.5941276550293 25.7267761230469 25.7846336364746 25.7973003387451 25.7713508605957 25.7341823577881 25.7086620330811 25.6682510375977 25.5849456787109 25.4562149047852 25.2685871124268 25.0756206512451 24.9865188598633 25.0091991424561 25.1092472076416 25.212100982666 25.3243160247803 25.4640827178955 25.5680122375488 25.6501312255859 25.7329063415527 25.8254680633545 25.933666229248 26.0435371398926 26.1353645324707 26.2059459686279
-9999 -9999 -9999 -9999 -9999 -9999 -9999 -9999 -9999 -9999 -9999 -9999 -9999 -9999 24.6854085922241 24.6543083190918 24.7191257476807 -9999 -9999 22.9106974601746 22.905330657959 23.1264553070068 23.4816398620605 23.8547286987305 24.1285343170166 24.2356014251709 24.2224903106689 24.2130355834961 24.2611694335938 24.3848114013672 24.6060352325439 24.9305076599121 25.3099956512451 25.6387405395508 25.8587875366211 25.9519329071045 25.8799533843994 25.6779937744141 25.473237991333 25.3699150085449 25.3842239379883 25.5485401153564 25.7752799987793 25.891752243042 25.9492034912109 25.9917049407959 26.0013694763184 26.018928527832 26.0221691131592 26.0055446624756 25.984281539917 25.9523830413818 25.9040184020996 25.8306083679199 25.70361328125 25.5330410003662 25.3862915039062 25.3066692352295 25.3105945587158 25.3723526000977 25.4435939788818 25.5321979522705 25.6315841674805 25.7402248382568 25.8556690216064 25.9788398742676 26.1141490936279 26.2492713928223 26.3596649169922 26.4269027709961
-9999 -9999 -9999 -9999 -9999 -9999 -9999 -9999 -9999 -9999 -9999 -9999 -9999 -9999 -9999 24.3923091888428 24.5626163482666 -9999 23.4251751899719 22.9037418365479 23.0320358276367 23.3559684753418 23.7846279144287 24.1640071868896 24.3839893341064 24.4190464019775 24.3565406799316 24.3057041168213 24.3285522460938 24.5030651092529 24.8426170349121 25.2350215911865 25.5899639129639 25.9128017425537 26.1870059967041 26.3533020019531 26.4080600738525 26.3470096588135 26.1590633392334 25.9201812744141 25.7523021697998 25.7564105987549 25.9267234802246 26.1155052185059 26.1975326538086 26.1569862365723 26.1160221099854 26.1520481109619 26.197193145752 26.2214775085449 26.2424659729004 26.2528400421143 26.2436275482178 26.2092838287354 26.1431007385254 26.0516166687012 25.9446144104004 25.8485374450684 25.7934608459473 25.7941741943359 25.8268356323242 25.8883991241455 25.9775142669678 26.0900745391846 26.2198734283447 26.3583316802979 26.4735679626465 26.5492134094238 26.5734710693359 26.5505409240723
-9999 -9999 -9999 -9999 -9999 -9999 -9999 -9999 -9999 -9999 -9999 -9999 -9999 -9999 -9999 24.0115489959717 24.0139465332031 -9999 22.9874515533447 22.9909362792969 23.2082595825195 23.6320533752441 24.0878410339355 24.4226570129395 24.5990657806396 24.6017780303955 24.5238590240479 24.4697761535645 24.4936275482178 24.7075042724609 25.0937671661377 25.4438419342041 25.7617740631104 26.1412830352783 26.4493598937988 26.5949020385742 26.6210842132568 26.5884742736816 26.5064373016357 26.3395347595215 26.1325225830078 25.9985504150391 26.0068607330322 26.1140117645264 26.2006664276123 26.2203502655029 26.2313442230225 26.264181137085 26.297004699707 26.3508758544922 26.4489994049072 26.5435276031494 26.5881195068359 26.5869197845459 26.5566558837891 26.4997844696045 26.4204177856445 26.3415813446045 26.2810459136963 26.2577304840088 26.2702808380127 26.3155422210693 26.3933296203613 26.4919242858887 26.5994148254395 26.650110244751 26.6425628662109 26.5810050964355 26.4889545440674 26.3809604644775
-9999 -9999 -9999 -9999 -9999 -9999 -9999 -9999 -9999 -9999 -9999 -9999 -9999 -9999 -9999 23.860652923584 -9999 23.4294711521694 23.1161117553711 23.1609535217285 23.464038848877 23.9412517547607 24.2688407897949 24.4663639068604 24.6640796661377 24.7692928314209 24.7400131225586 24.6846466064453 24.7004108428955 24.8896865844727 25.2254676818848 25.5674571990967 25.9590129852295 26.3711204528809 26.6083068847656 26.6515350341797 26.5987682342529 26.5309200286865 26.4915599822998 26.4589080810547 26.3658142089844 26.2320976257324 26.1342926025391 26.1171970367432 26.1543350219727 26.2230796813965 26.2942562103271 26.3437232971191 26.389009475708 26.4851093292236 26.642448425293 26.7706489562988 26.8018760681152 26.7733783721924 26.7352447509766 26.6992740631104 26.6738967895508 26.6587352752686 26.6473827362061 26.6417465209961 26.6533756256104 26.6754493713379 26.7003993988037 26.7104415893555 26.6772537231445 26.5804004669189 26.4596481323242 26.3566551208496 26.2515640258789 26.1290397644043
-9999 -9999 -9999 -9999 -9999 -9999 -9999 -9999 -9999 -9999 -9999 -9999 -9999 -9999 23.860652923584 23.7114213307699 23.5525989532471 23.3681468963623 23.2470302581787 23.2901706695557 23.6409301757812 24.081169128418 24.2490558624268 24.4581451416016 24.900951385498 25.2564430236816 25.389705657959 25.3989868164062 25.3959007263184 25.4810981750488 25.6924533843994 25.9946327209473 26.3324661254883 26.5672302246094 26.6224117279053 26.5535869598389 26.4601459503174 26.3785839080811 26.3414497375488 26.3767147064209 26.4218330383301 26.4009532928467 26.3070812225342 26.2193183898926 26.1975326538086 26.2486209869385 26.3088359832764 26.3649616241455 26.4209690093994 26.5182323455811 26.6649475097656 26.7848873138428 26.8120708465576 26.8018550872803 26.8003616333008 26.8197174072266 26.8433876037598 26.850866317749 26.8475570678711 26.828332901001 26.8000221252441 26.7595252990723 26.6926422119141 26.5837249755859 26.4592132568359 26.3487396240234 26.2912464141846 26.2466678619385 26.1519966125488 26.0834083557129
-9999 -9999 -9999 -9999 -9999 -9999 -9999 -9999 -9999 -9999 -9999 -9999 -9999 -9999 -9999 -9999 23.4428906440735 23.4155921936035 23.3428268432617 23.3808345794678 23.6834812164307 24.0426120758057 24.3998374938965 25.0529613494873 25.7196483612061 26.1498260498047 26.3326816558838 26.4122753143311 26.4749946594238 26.5308437347412 26.5871295928955 26.6324195861816 26.6505126953125 26.6161136627197 26.5489120483398 26.4644069671631 26.3748111724854 26.2921714782715 26.2372055053711 26.2514247894287 26.3303775787354 26.4214477539062 26.4207305908203 26.3447208404541 26.2921714782715 26.3046550750732 26.3300094604492 26.358268737793 26.3860530853271 26.4441165924072 26.5419979095459 26.6653652191162 26.7295818328857 26.7350540161133 26.7178421020508 26.7218761444092 26.7411308288574 26.7546520233154 26.7424240112305 26.7020378112793 26.6575717926025 26.5937061309814 26.4940986633301 26.3684768676758 26.2831115722656 26.2780876159668 26.3180351257324 26.3025588989258 26.2285537719727 26.2374382019043
-9999 -9999 -9999 -9999 -9999 -9999 -9999 -9999 -9999 -9999 -9999 -9999 -9999 -9999 -9999 -9999 23.4254083633423 23.4352245330811 23.4474563598633 23.4961318969727 23.761058807373 24.2600860595703 25.1053695678711 26.0259113311768 26.5862998962402 26.8499927520752 26.9201431274414 26.9155902862549 26.8949184417725 26.8593196868896 26.7964668273926 26.7073383331299 26.6222114562988 26.5541496276855 26.4729423522949 26.3724822998047 26.2802314758301 26.1946849822998 26.1248073577881 26.1118354797363 26.1753444671631 26.308650970459 26.4032325744629 26.3881855010986 26.3386535644531 26.3283824920654 26.3170146942139 26.2985248565674 26.3046340942383 26.3600749969482 26.4318866729736 26.5378456115723 26.5867557525635 26.5848979949951 26.5590381622314 26.5502643585205 26.5577907562256 26.5484657287598 26.5205249786377 26.4820919036865 26.4231262207031 26.3515319824219 26.2771587371826 26.2155456542969 26.2547397613525 26.3812141418457 26.4683780670166 26.4765300750732 26.4346313476562 26.458911895752
-9999 -9999 -9999 -9999 -9999 -9999 -9999 -9999 -9999 -9999 -9999 -9999 -9999 -9999 -9999 -9999 -9999 23.4689979553223 23.4809417724609 23.5188255310059 23.8598766326904 24.7467041015625 26.0345153808594 26.8278217315674 27.1108016967773 27.1105651855469 26.9790306091309 26.8211059570312 26.7035179138184 26.6393604278564 26.5934619903564 26.5361595153809 26.4854202270508 26.4370384216309 26.3584079742432 26.2633228302002 26.1755084991455 26.0836811065674 25.9806709289551 25.9082641601562 25.9137954711914 26.0248241424561 26.1914577484131 26.2543888092041 26.2293739318848 26.2203006744385 26.2063064575195 26.2113265991211 26.2887916564941 26.3717060089111 26.3851108551025 26.4160175323486 26.4257221221924 26.4276828765869 26.4270935058594 26.449987411499 26.4928359985352 26.503547668457 26.4774188995361 26.4218788146973 26.3564472198486 26.3111591339111 26.269947052002 26.2673664093018 26.3803043365479 26.5212631225586 26.5997333526611 26.6233177185059 26.6096668243408 26.622631072998
-9999 -9999 -9999 -9999 -9999 -9999 -9999 -9999 -9999 -9999 -9999 -9999 -9999 -9999 23.4327704906464 23.4352245330811 23.4783117771149 23.4966554641724 23.5123691558838 23.4596138000488 24.0469818115234 25.5350151062012 26.7949924468994 27.2620182037354 27.2531242370605 27.0242118835449 26.7325019836426 26.5234088897705 26.445858001709 26.4209880828857 26.4020652770996 26.3907089233398 26.3922576904297 26.3601627349854 26.2670650482178 26.1648426055908 26.090482711792 26.0284595489502 25.9492111206055 25.8723964691162 25.824987411499 25.845006942749 25.946403503418 26.0390129089355 26.0733375549316 26.1182403564453 26.1771373748779 26.26637840271 26.3715515136719 26.3714046478271 26.3254146575928 26.3152503967285 26.3109111785889 26.3196315765381 26.3521575927734 26.4185256958008 26.4868240356445 26.4966678619385 26.4632759094238 26.4085903167725 26.3565082550049 26.3112602233887 26.2668724060059 26.2743644714355 26.3847007751465 26.4705867767334 26.5238285064697 26.581298828125 26.6152477264404 26.6362628936768
-9999 -9999 -9999 -9999 -9999 -9999 -9999 -9999 -9999 -9999 -9999 -9999 -9999 -9999 -9999 -9999 -9999 -9999 23.8505420684814 23.6908168792725 24.6727275848389 26.6388416290283 27.350227355957 27.4164009094238 27.1251239776611 26.7232761383057 26.4392395019531 26.3640747070312 26.3931770324707 26.4009380340576 26.3854942321777 26.3708820343018 26.3481712341309 26.2728996276855 26.1555767059326 26.0774345397949 26.0519752502441 26.0292224884033 25.9865264892578 25.9456405639648 25.9177055358887 25.918628692627 25.9578037261963 26.0265865325928 26.0882263183594 26.1582126617432 26.2367210388184 26.3229084014893 26.3618297576904 26.2977142333984 26.2631988525391 26.2639999389648 26.2534656524658 26.2488422393799 26.2699184417725 26.3462619781494 26.4131317138672 26.4260959625244 26.4015216827393 26.3813705444336 26.3527450561523 26.3101444244385 26.2584114074707 26.2687473297119 26.349739074707 26.4048118591309 26.4634399414062 26.5422191619873 26.5894966125488 26.6104068756104
-9999 -9999 -9999 -9999 -9999 -9999 -9999 -9999 -9999 -9999 -9999 -9999 -9999 -9999 -9999 -9999 -9999 25.6075668334961 25.0346074104309 24.7393684387207 25.7446022033691 27.2976245880127 27.5650062561035 27.3038215637207 26.8169250488281 26.441915512085 26.3282928466797 26.3799705505371 26.4183387756348 26.3910713195801 26.3545837402344 26.3253326416016 26.2706089019775 26.1735858917236 26.0772361755371 26.0279693603516 26.0142650604248 26.0116271972656 26.0055885314941 25.9948463439941 25.980749130249 25.9731121063232 25.9857635498047 26.0289554595947 26.0998783111572 26.1856021881104 26.2623596191406 26.3029441833496 26.2836761474609 26.2314071655273 26.228006362915 26.249927520752 26.2395915985107 26.2126941680908 26.1782264709473 26.19655418396 26.2751274108887 26.3343887329102 26.3561820983887 26.3672199249268 26.3572196960449 26.3153686523438 26.2670040130615 26.2749519348145 26.3296604156494 26.3856582641602 26.4547367095947 26.5121250152588 26.5264148712158 26.5331058502197
-9999 -9999 -9999 -9999 -9999 -9999 -9999 -9999 -9999 -9999 -9999 -9999 -9999 26.1706123352051 26.1718597412109 -9999 26.1149263381958 26.0659279823303 25.6075668334961 26.1006774902344 27.1453266143799 27.7180862426758 27.5574340820312 27.01686668396 26.5130844116211 26.3013172149658 26.321475982666 26.4132652282715 26.4388828277588 26.4159564971924 26.3877773284912 26.3349456787109 26.2513046264648 26.1525764465332 26.0508823394775 25.9813709259033 25.981143951416 26.0137119293213 26.0261669158936 26.0254802703857 26.0215549468994 26.0157833099365 26.0165176391602 26.0392417907715 26.0975074768066 26.1686744689941 26.2390193939209 26.2596416473389 26.2205219268799 26.1896800994873 26.2075614929199 26.2323246002197 26.2191066741943 26.1982917785645 26.1541442871094 26.1196613311768 26.144229888916 26.1787395477295 26.212854385376 26.2432098388672 26.2357997894287 26.2095737457275 26.1922054290771 26.2101345062256 26.2313213348389 26.2665710449219 26.3411865234375 26.3905258178711 26.4247665405273 26.4812049865723
-9999 -9999 -9999 -9999 -9999 -9999 -9999 -9999 -9999 -9999 -9999 -9999 -9999 -9999 26.1706123352051 26.2487678527832 26.0961990356445 26.1336536407471 26.4262924194336 27.3259620666504 27.8389797210693 27.7508945465088 27.2074680328369 26.6140956878662 26.3567428588867 26.2906837463379 26.3657302856445 26.4550151824951 26.4819564819336 26.4781379699707 26.4353179931641 26.3436107635498 26.2187404632568 26.1049041748047 26.0440616607666 26.0597877502441 26.1167755126953 26.1526508331299 26.1593933105469 26.1566581726074 26.148717880249 26.1393089294434 26.1331977844238 26.1423416137695 26.1759796142578 26.2075290679932 26.2320251464844 26.2330112457275 26.197883605957 26.1657581329346 26.1828746795654 26.1837902069092 26.1532764434814 26.1433887481689 26.103816986084 26.0624866485596 26.0698356628418 26.1025466918945 26.1243953704834 26.1233768463135 26.0869541168213 26.0640296936035 26.0710372924805 26.0901107788086 26.093391418457 26.1475524902344 26.2720851898193 26.3678951263428 26.4400424957275 26.539831161499
-9999 -9999 -9999 -9999 -9999 -9999 -9999 -9999 -9999 -9999 -9999 -9999 -9999 -9999 26.368616104126 26.1706123352051 26.4794921875 26.8368473052979 27.4896812438965 27.9491596221924 27.9446468353271 27.5262298583984 26.8522205352783 26.4645080566406 26.3306751251221 26.307746887207 26.3719749450684 26.4329605102539 26.44997215271 26.4444103240967 26.3970108032227 26.3018951416016 26.1950759887695 26.1479549407959 26.1826019287109 26.2342624664307 26.2614307403564 26.2672691345215 26.262580871582 26.2541599273682 26.24294090271 26.231481552124 26.2193222045898 26.2248153686523 26.2523403167725 26.2643718719482 26.2529926300049 26.2311096191406 26.2206115722656 26.2184104919434 26.2467346191406 26.2200794219971 26.1538925170898 26.132625579834 26.10276222229 26.0654144287109 26.0471611022949 26.0627899169922 26.095344543457 26.0943584442139 26.0534725189209 26.0446090698242 26.0886764526367 26.1147060394287 26.1346797943115 26.2095394134521 26.3405494689941 26.4356021881104 26.512752532959 26.5941982269287
-9999 -9999 -9999 -9999 -9999 -9999 -9999 -9999 -9999 -9999 -9999 26.4256858825684 26.4103221893311 26.3816223144531 26.3799858093262 26.5422439575195 27.2986297607422 27.7398891448975 27.9916324615479 28.0436763763428 27.8105812072754 27.1937732696533 26.6064910888672 26.3988704681396 26.3420314788818 26.336088180542 26.3633651733398 26.3875770568848 26.3862056732178 26.3789329528809 26.3431873321533 26.284273147583 26.2445888519287 26.2592029571533 26.2934627532959 26.2986907958984 26.2960987091064 26.2929000854492 26.2890663146973 26.2841949462891 26.2755088806152 26.2729167938232 26.256893157959 26.2324180603027 26.2670497894287 26.2867088317871 26.2731609344482 26.2510681152344 26.25612449646 26.2864017486572 26.3400230407715 26.307918548584 26.2241878509521 26.2043151855469 26.1806526184082 26.1374053955078 26.0864944458008 26.0626373291016 26.0795650482178 26.0711917877197 26.0419044494629 26.0574836730957 26.1263618469238 26.1683959960938 26.1924571990967 26.2583045959473 26.3814659118652 26.4862117767334 26.5825023651123 26.7093505859375
-9999 -9999 -9999 -9999 -9999 -9999 -9999 -9999 -9999 26.5718822479248 26.5733070373535 26.6081981658936 26.6088981628418 26.6528244018555 26.6921405792236 26.9799518585205 27.6338005065918 27.9199161529541 28.0705108642578 28.0424289703369 27.7014617919922 27.0065803527832 26.4892044067383 26.3660659790039 26.3500823974609 26.3597011566162 26.3581371307373 26.3647785186768 26.3477573394775 26.3261833190918 26.3016624450684 26.2853870391846 26.2892608642578 26.3080673217773 26.3069190979004 26.2941131591797 26.2961692810059 26.2958698272705 26.30149269104 26.3123817443848 26.2921085357666 26.2920055389404 26.3195381164551 26.277364730835 26.2392082214355 26.2913341522217 26.3064651489258 26.2810497283936 26.2880325317383 26.3394432067871 26.3970260620117 26.3628349304199 26.3032646179199 26.358455657959 26.4036312103271 26.3809280395508 26.2817001342773 26.1729583740234 26.106689453125 26.0438537597656 25.993803024292 26.0077171325684 26.0713176727295 26.1488800048828 26.2093944549561 26.2933559417725 26.4019298553467 26.4867305755615 26.6462879180908 26.858039855957
-9999 -9999 -9999 -9999 -9999 -9999 -9999 -9999 -9999 26.6380386352539 26.6677913665771 26.7532997131348 26.884916305542 27.0354080200195 27.2533626556396 27.6799354553223 28.0056324005127 28.1273708343506 28.1272201538086 27.9888668060303 27.5420875549316 26.8161869049072 26.4674835205078 26.4235553741455 26.4000301361084 26.4046077728271 26.3926105499268 26.3818683624268 26.3534126281738 26.324291229248 26.295825958252 26.2880935668945 26.2982139587402 26.3087596893311 26.3022556304932 26.3012256622314 26.314546585083 26.3188152313232 26.3287963867188 26.3574199676514 26.3323078155518 26.2827014923096 26.3437595367432 26.3964614868164 26.3302211761475 26.298168182373 26.2962226867676 26.2746982574463 26.3032474517822 26.378116607666 26.4124412536621 26.3731288909912 26.3646678924561 26.5170269012451 26.6799182891846 26.7557430267334 26.7159042358398 26.5688304901123 26.3731670379639 26.1789226531982 26.0294399261475 25.9754257202148 26.0038471221924 26.1045684814453 26.2075214385986 26.2983894348145 26.3827705383301 26.478120803833 26.7096462249756 26.9018154144287
-9999 -9999 -9999 -9999 -9999 26.7597861289978 26.6595840454102 26.6613101959229 26.6701717376709 26.6989860534668 26.7511768341064 26.9258518218994 27.1745491027832 27.4487285614014 27.7575626373291 28.0104999542236 28.1336364746094 28.1604499816895 28.1304168701172 27.9621868133545 27.5185871124268 26.8396644592285 26.5285491943359 26.5020427703857 26.494592666626 26.5041580200195 26.4873523712158 26.4637489318848 26.4174766540527 26.3731117248535 26.3337268829346 26.3154582977295 26.3110866546631 26.3062038421631 26.2934741973877 26.2946720123291 26.3121719360352 26.3303298950195 26.3616962432861 26.4054088592529 26.3844699859619 26.3259296417236 26.3593444824219 26.4390468597412 26.4477005004883 26.4278717041016 26.3816375732422 26.3167171478271 26.3384876251221 26.4216957092285 26.4193077087402 26.3603820800781 26.3806648254395 26.5874252319336 26.7906169891357 26.9072399139404 26.9779891967773 26.9706897735596 26.8367118835449 26.6136302947998 26.3283977508545 26.104434967041 26.0171813964844 26.0693130493164 26.2038249969482 26.2872676849365 26.374683380127 26.5207233428955 26.761754989624 26.8998908996582
-9999 -9999 -9999 -9999 26.8205394744873 26.7598724365234 26.7991485595703 26.8281898498535 26.8240203857422 26.8156814575195 26.8685760498047 27.1613273620605 27.5428295135498 27.8690624237061 28.0946388244629 28.2132205963135 28.2386322021484 28.1932926177979 28.0771198272705 27.8583221435547 27.411792755127 26.820520401001 26.6285057067871 26.6230354309082 26.6380481719971 26.6529293060303 26.661205291748 26.6521472930908 26.5958671569824 26.511646270752 26.4332809448242 26.3983917236328 26.3875179290771 26.3836116790771 26.3688220977783 26.3631000518799 26.3766250610352 26.4088077545166 26.4680995941162 26.5191535949707 26.4965267181396 26.4382762908936 26.4631958007812 26.5463562011719 26.5402317047119 26.5255718231201 26.5246105194092 26.4611549377441 26.4376182556152 26.4785976409912 26.4269351959229 26.3333358764648 26.3832054138184 26.6244564056396 26.8371448516846 26.9673633575439 27.0545711517334 27.0788955688477 27.0511627197266 26.9688777923584 26.743968963623 26.4823780059814 26.2774105072021 26.1805362701416 26.2047481536865 26.264181137085 26.3099822998047 26.442533493042 26.6357841491699 26.7223320007324
-9999 -9999 -9999 26.8352980613708 26.8159103393555 26.8566799163818 26.974702835083 27.0726680755615 27.1540985107422 27.2072067260742 27.3133163452148 27.6794872283936 27.984489440918 28.1599464416504 28.2573719024658 28.2994022369385 28.2582397460938 28.1317768096924 27.9805450439453 27.773458480835 27.3621444702148 26.8707618713379 26.7221508026123 26.6987743377686 26.693302154541 26.6988945007324 26.735860824585 26.7871685028076 26.8023872375488 26.7720966339111 26.6928176879883 26.5948104858398 26.5543804168701 26.5734195709229 26.5851535797119 26.5917129516602 26.623987197876 26.6766300201416 26.7275390625 26.7519340515137 26.7026329040527 26.6180534362793 26.68918800354 26.7443714141846 26.6464138031006 26.5907669067383 26.59596824646 26.5434970855713 26.4887256622314 26.4750633239746 26.3983039855957 26.3166046142578 26.3976078033447 26.6314373016357 26.848482131958 27.0130767822266 27.1391277313232 27.2049160003662 27.2335472106934 27.2096538543701 27.0773448944092 26.8492259979248 26.6627407073975 26.4937877655029 26.352222442627 26.2546157836914 26.2225437164307 26.2775917053223 26.4079418182373 26.4562034606934
-9999 -9999 -9999 26.8356399536133 26.8691024780273 27.0588092803955 27.2447414398193 27.4143524169922 27.5882606506348 27.733570098877 27.8979053497314 28.0706214904785 28.1889247894287 28.2975921630859 28.3618679046631 28.3245143890381 28.1709995269775 27.9546699523926 27.7637138366699 27.5856075286865 27.2948951721191 26.8843593597412 26.7029819488525 26.6074848175049 26.5420303344727 26.5285186767578 26.5858211517334 26.7035789489746 26.8034400939941 26.8640384674072 26.8992900848389 26.88649559021 26.857931137085 26.8908634185791 26.945915222168 26.9804363250732 26.9953212738037 26.9881000518799 26.9657115936279 26.9179782867432 26.8298778533936 26.7642917633057 26.8442974090576 26.8241748809814 26.6487827301025 26.5524959564209 26.5417156219482 26.5186138153076 26.4780769348145 26.4290161132812 26.3526401519775 26.3106479644775 26.4120807647705 26.6074314117432 26.8385734558105 26.989049911499 27.0923976898193 27.2074165344238 27.3700122833252 27.4496154785156 27.4211921691895 27.2514953613281 27.0387687683105 26.8788280487061 26.7056465148926 26.4966354370117 26.3177394866943 26.2571659088135 26.3109169006348 26.365571975708
