NCOLS 70 
NROWS 52 
XLLCORNER -80 
YLLCORNER 33 
CELLSIZE 0.25 
NODATA_value -9999 
-9999.000000000000000 -9999 -9999 -9999 -9999 -9999 -9999 -9999 -9999 -9999 -9999 -9999 -9999 -9999 -9999 -9999 -9999 -9999 -9999 -9999 -9999 -9999 -9999 -9999 -9999 -9999 -9999 -9999 -9999 -9999 -9999 -9999 -9999 -9999 -9999 -9999 -9999 -9999 -9999 -9999 -9999 -9999 -9999 -9999 -9999 -9999 -9999 -9999 -9999 -9999 -9999 -9999 -9999 -9999 -9999 -9999 -9999 -9999 -9999 -9999 -9999 -9999 -9999 -9999 -9999 -9999 -9999 -9999 -9999 -9999
-9999 -9999 -9999 -9999 -9999 -9999 -9999 -9999 -9999 -9999 -9999 -9999 -9999 -9999 -9999 -9999 -9999 -9999 -9999 -9999 -9999 -9999 -9999 -9999 -9999 -9999 -9999 -9999 -9999 -9999 -9999 -9999 -9999 -9999 -9999 -9999 -9999 -9999 -9999 -9999 -9999 -9999 -9999 -9999 -9999 -9999 -9999 -9999 -9999 -9999 -9999 -9999 -9999 -9999 -9999 -9999 -9999 -9999 -9999 -9999 -9999 -9999 -9999 -9999 -9999 -9999 -9999 -9999 -9999 -9999
-9999 -9999 -9999 -9999 -9999 -9999 -9999 -9999 -9999 -9999 -9999 -9999 -9999 -9999 -9999 -9999 -9999 -9999 -9999 -9999 -9999 -9999 -9999 -9999 -9999 -9999 -9999 -9999 -9999 -9999 -9999 -9999 -9999 -9999 -9999 -9999 -9999 -9999 -9999 -9999 -9999 -9999 -9999 -9999 -9999 -9999 -9999 -9999 -9999 -9999 -9999 -9999 -9999 -9999 -9999 -9999 -9999 -9999 -9999 13.1002635955811 -9999 -9999 -9999 -9999 -9999 -9999 -9999 -9999 -9999 -9999
-9999 -9999 -9999 -9999 -9999 -9999 -9999 -9999 -9999 -9999 -9999 -9999 -9999 -9999 -9999 -9999 -9999 -9999 -9999 -9999 -9999 -9999 -9999 -9999 -9999 -9999 -9999 -9999 -9999 -9999 -9999 -9999 -9999 -9999 -9999 -9999 -9999 -9999 -9999 -9999 -9999 -9999 -9999 -9999 -9999 -9999 -9999 -9999 -9999 -9999 -9999 -9999 -9999 -9999 -9999 11.3714351654053 11.6178140640259 12.118971824646 12.6924314498901 13.0933856964111 -9999 -9999 -9999 -9999 -9999 -9999 -9999 -9999 -9999 -9999
-9999 -9999 -9999 -9999 -9999 -9999 -9999 -9999 -9999 -9999 -9999 -9999 -9999 -9999 -9999 -9999 -9999 -9999 -9999 -9999 -9999 -9999 -9999 -9999 -9999 -9999 -9999 -9999 -9999 -9999 -9999 -9999 -9999 -9999 -9999 -9999 -9999 -9999 -9999 -9999 -9999 -9999 -9999 -9999 -9999 -9999 -9999 -9999 -9999 -9999 -9999 -9999 11.6219673156738 11.6605205535889 11.4895734786987 11.3855810165405 11.5369186401367 11.9622144699097 -9999 -9999 -9999 -9999 -9999 -9999 -9999 -9999 -9999 -9999 -9999 -9999
-9999 -9999 -9999 -9999 -9999 -9999 -9999 -9999 -9999 -9999 -9999 -9999 -9999 -9999 -9999 -9999 -9999 -9999 -9999 -9999 -9999 -9999 -9999 -9999 -9999 -9999 -9999 -9999 -9999 -9999 -9999 -9999 -9999 -9999 -9999 -9999 -9999 -9999 -9999 -9999 -9999 -9999 -9999 -9999 -9999 -9999 -9999 -9999 -9999 -9999 11.3890119552612 11.4901056289673 11.5398187637329 11.5250768661499 11.3402156829834 11.0953798294067 -9999 -9999 -9999 -9999 -9999 -9999 -9999 -9999 -9999 -9999 -9999 14.0447397232056 14.3880569934845 13.9455633163452
-9999 -9999 -9999 -9999 -9999 -9999 -9999 -9999 -9999 -9999 -9999 -9999 -9999 -9999 -9999 -9999 -9999 -9999 -9999 -9999 -9999 -9999 -9999 -9999 -9999 -9999 -9999 -9999 -9999 -9999 -9999 -9999 -9999 -9999 -9999 -9999 -9999 -9999 -9999 -9999 -9999 -9999 -9999 -9999 11.3008530934652 -9999 -9999 11.4999012947083 11.4892988204956 11.4042949676514 11.303092956543 11.2415409088135 11.261251449585 11.2877321243286 11.1724901199341 -9999 -9999 -9999 -9999 -9999 -9999 -9999 -9999 12.7030553817749 12.9224653244019 13.1071710586548 13.5076551437378 14.0879564285278 14.5386075973511 14.9801006317139
-9999 -9999 -9999 -9999 -9999 -9999 -9999 -9999 -9999 -9999 -9999 -9999 -9999 -9999 -9999 -9999 -9999 -9999 -9999 -9999 -9999 -9999 -9999 -9999 -9999 -9999 -9999 -9999 -9999 -9999 -9999 -9999 -9999 -9999 -9999 -9999 -9999 -9999 -9999 -9999 -9999 -9999 -9999 -9999 11.2723741531372 11.4234189987183 11.5326900482178 11.5299367904663 11.4476795196533 11.3599529266357 11.2813444137573 11.1794509887695 11.1097755432129 11.1659069061279 11.2271635532379 -9999 -9999 -9999 -9999 -9999 -9999 -9999 12.5355844497681 13.0059947967529 13.4987678527832 13.8244390487671 14.1851873397827 14.5843467712402 14.9495573043823 15.2226142883301
-9999 -9999 -9999 -9999 -9999 -9999 -9999 -9999 -9999 -9999 -9999 -9999 -9999 -9999 -9999 -9999 -9999 -9999 -9999 -9999 -9999 -9999 -9999 -9999 -9999 -9999 -9999 -9999 -9999 -9999 -9999 -9999 -9999 -9999 -9999 -9999 -9999 -9999 -9999 -9999 11.7527367273966 11.7443923950195 11.3705238342285 10.7236375808716 10.698205947876 10.8539772033691 11.0834951400757 11.3229141235352 11.5041608810425 11.5713777542114 11.5325927734375 11.4054498672485 11.2702579498291 11.282525062561 11.430632019043 -9999 -9999 -9999 -9999 -9999 12.7615200678507 12.681040763855 13.25523853302 13.8206329345703 14.0103712081909 14.1327724456787 14.3143663406372 14.5546531677246 14.8624935150146 15.1379327774048
-9999 -9999 -9999 -9999 -9999 -9999 -9999 -9999 -9999 -9999 -9999 -9999 -9999 -9999 -9999 -9999 -9999 -9999 -9999 -9999 -9999 -9999 -9999 -9999 -9999 -9999 -9999 -9999 -9999 -9999 -9999 -9999 -9999 -9999 -9999 -9999 -9999 -9999 -9999 11.6985673904419 11.7699613571167 11.7896814346313 11.6735343933105 11.4589996337891 11.2882690429688 11.2231378555298 11.335470199585 11.6923084259033 12.0799255371094 12.2203454971313 12.1292266845703 11.9277172088623 11.7414293289185 11.6299705505371 11.5579099655151 11.5168476104736 -9999 -9999 -9999 12.5897908210754 12.5145215988159 13.0889978408813 13.7533960342407 14.0345401763916 14.1222124099731 14.2703561782837 14.3899021148682 14.5653858184814 14.8803768157959 15.2034130096436
-9999 -9999 -9999 -9999 -9999 -9999 -9999 -9999 -9999 -9999 -9999 -9999 -9999 -9999 -9999 -9999 -9999 -9999 -9999 -9999 -9999 -9999 -9999 -9999 -9999 -9999 -9999 -9999 -9999 -9999 -9999 -9999 -9999 -9999 -9999 -9999 -9999 -9999 12.4336780548096 12.3201236724854 12.5139923095703 12.8476247787476 12.8059682846069 12.352162361145 11.8265151977539 11.6210908889771 11.9592809677124 12.6098918914795 13.0393056869507 13.0467977523804 12.806004524231 12.477276802063 12.1853084564209 11.9347200393677 11.7828283309937 11.7920961380005 11.8812046051025 12.2533601125081 12.4278354644775 12.5352268218994 12.8815793991089 13.3625335693359 13.772439956665 14.0363368988037 14.3562126159668 14.7126407623291 14.8673582077026 14.9756927490234 15.2489109039307 15.6137361526489
-9999 -9999 -9999 -9999 -9999 -9999 -9999 -9999 -9999 -9999 -9999 -9999 -9999 -9999 -9999 -9999 -9999 -9999 -9999 -9999 -9999 -9999 -9999 -9999 -9999 -9999 -9999 -9999 -9999 -9999 -9999 -9999 -9999 -9999 -9999 -9999 -9999 12.4362726211548 12.6493663787842 13.0640602111816 13.3451356887817 13.3401145935059 12.9946756362915 12.3797149658203 11.886866569519 11.9709987640381 12.6157312393188 13.266357421875 13.4826936721802 13.3607397079468 13.1282405853271 12.8407192230225 12.5586824417114 12.3436574935913 12.2605066299438 12.324236869812 12.3808498382568 12.5467042922974 12.7897472381592 13.0280647277832 13.259859085083 13.4952278137207 13.7664413452148 14.1418724060059 14.704008102417 15.1395778656006 15.3318214416504 15.5132246017456 15.7966794967651 16.1482391357422
-9999 -9999 -9999 -9999 -9999 -9999 -9999 -9999 -9999 -9999 -9999 -9999 -9999 -9999 -9999 -9999 -9999 -9999 -9999 -9999 -9999 -9999 -9999 -9999 -9999 -9999 -9999 -9999 -9999 -9999 -9999 -9999 -9999 -9999 -9999 -9999 -9999 12.7057218551636 12.9286556243896 13.2839441299438 13.4660301208496 13.4011192321777 13.0553865432739 12.5574703216553 12.3228197097778 12.6320009231567 13.2202262878418 13.6131992340088 13.6018342971802 13.3656902313232 13.1725788116455 13.0145835876465 12.8187999725342 12.6850147247314 12.7150955200195 12.8619136810303 12.9885501861572 13.0875825881958 13.24769115448 13.4145336151123 13.576455116272 13.7423286437988 14.009446144104 14.363000869751 14.8492488861084 15.1870489120483 15.3229904174805 15.7195911407471 16.1600666046143 16.5458965301514
-9999 -9999 -9999 -9999 -9999 -9999 -9999 -9999 -9999 -9999 -9999 -9999 -9999 -9999 -9999 -9999 -9999 -9999 -9999 -9999 -9999 -9999 -9999 -9999 -9999 -9999 -9999 -9999 -9999 -9999 -9999 -9999 -9999 -9999 -9999 -9999 -9999 13.5703296661377 13.4776945114136 13.5437049865723 13.5885229110718 13.6014776229858 13.4781122207642 13.2467060089111 13.2267694473267 13.5292434692383 13.8855056762695 14.0080051422119 13.8100614547729 13.4248476028442 13.1358757019043 13.0073318481445 12.9523935317993 12.9918880462646 13.0577983856201 13.1218795776367 13.2100858688354 13.2903728485107 13.461254119873 13.6514520645142 13.9670305252075 14.3077774047852 14.6904411315918 14.7870788574219 15.0034284591675 15.367772102356 15.8163042068481 16.962345123291 17.8232192993164 18.3097877502441
-9999 -9999 -9999 -9999 -9999 -9999 -9999 -9999 -9999 -9999 -9999 -9999 -9999 -9999 -9999 -9999 -9999 -9999 -9999 -9999 -9999 -9999 -9999 -9999 -9999 -9999 -9999 -9999 -9999 -9999 -9999 -9999 -9999 -9999 -9999 -9999 14.1690587997437 13.8465814590454 13.6404209136963 13.6401481628418 13.6510744094849 13.762638092041 13.9023456573486 13.9332056045532 14.006308555603 14.1860017776489 14.34778881073 14.3661775588989 14.1841058731079 13.8345918655396 13.4749116897583 13.2638320922852 13.2843942642212 13.4965867996216 13.5995635986328 13.5136747360229 13.3787755966187 13.2632369995117 13.5896215438843 14.015417098999 14.663064956665 15.264102935791 15.7004270553589 15.3729915618896 15.5935029983521 16.4844989776611 17.9734535217285 19.8941478729248 20.767297744751 21.2638664245605
-9999 -9999 -9999 -9999 -9999 -9999 -9999 -9999 -9999 -9999 -9999 -9999 -9999 -9999 -9999 -9999 -9999 -9999 -9999 -9999 -9999 -9999 -9999 -9999 -9999 -9999 -9999 -9999 -9999 -9999 -9999 -9999 -9999 -9999 -9999 -9999 -9999 13.7527923583984 13.7699718475342 13.7618083953857 13.641697883606 13.7453327178955 14.1012496948242 14.3127517700195 14.4016885757446 14.502462387085 14.6393575668335 14.7296581268311 14.6740999221802 14.4887208938599 14.2651376724243 14.0198774337769 13.9224147796631 14.0250797271729 14.1305885314941 13.9695129394531 13.7201747894287 13.5904636383057 14.4648036956787 15.4972486495972 16.2254829406738 16.7309303283691 16.8497714996338 16.0629348754883 16.7449131011963 17.7693862915039 19.5167121887207 21.2745933532715 21.8952198028564 22.5955142974854
-9999 -9999 -9999 -9999 -9999 -9999 -9999 -9999 -9999 -9999 -9999 -9999 -9999 -9999 -9999 -9999 -9999 -9999 -9999 -9999 -9999 -9999 -9999 -9999 -9999 -9999 -9999 -9999 -9999 -9999 -9999 -9999 -9999 -9999 -9999 -9999 -9999 -9999 13.950026512146 -9999 13.4854211807251 13.5779609680176 14.131908416748 14.4931879043579 14.5886650085449 14.6602077484131 14.8746194839478 15.1132860183716 15.157844543457 15.0904302597046 15.0013856887817 14.8328723907471 14.6595764160156 14.5146684646606 14.4369354248047 14.182300567627 14.0708684921265 14.6197175979614 16.3899230957031 17.4691982269287 17.629451751709 17.5940227508545 17.3932933807373 16.6076698303223 17.2207584381104 18.5534057617188 20.3122444152832 22.0555419921875 22.7753067016602 23.1020030975342
-9999 -9999 -9999 -9999 -9999 -9999 -9999 -9999 -9999 -9999 -9999 -9999 -9999 -9999 -9999 -9999 -9999 -9999 -9999 -9999 -9999 -9999 -9999 -9999 -9999 -9999 -9999 -9999 -9999 -9999 -9999 -9999 -9999 -9999 -9999 -9999 -9999 -9999 -9999 -9999 13.0877990722656 13.4114942550659 14.0401086807251 14.4198570251465 14.5213394165039 14.6438655853271 14.9986419677734 15.3836221694946 15.531943321228 15.493145942688 15.4107980728149 15.2634868621826 15.0497426986694 14.8104381561279 14.5633897781372 14.381965637207 14.518443107605 16.2525100708008 17.9709377288818 18.228099822998 17.952428817749 17.8700542449951 17.7187938690186 17.287670135498 17.7226448059082 18.7168922424316 19.8511695861816 21.4112491607666 22.5863304138184 22.9941310882568
-9999 -9999 -9999 -9999 -9999 -9999 -9999 -9999 -9999 -9999 -9999 -9999 -9999 -9999 -9999 -9999 -9999 -9999 -9999 -9999 -9999 -9999 -9999 -9999 -9999 -9999 -9999 -9999 -9999 -9999 -9999 -9999 -9999 -9999 16.4504504203796 16.3150520324707 16.1486644744873 -9999 15.1223678588867 14.083646774292 13.331337928772 13.6117248535156 14.185154914856 14.3768167495728 14.4623193740845 14.7487764358521 15.1803827285767 15.5081024169922 15.5830326080322 15.4331150054932 15.2397174835205 15.146372795105 15.0518379211426 14.9369125366211 14.8558368682861 14.9564943313599 15.7929334640503 17.9964733123779 18.9911041259766 18.8010597229004 18.7252616882324 19.0147914886475 19.1830959320068 19.2059230804443 19.562328338623 19.8627986907959 20.1056995391846 20.551326751709 21.6635627746582 22.4988403320312
-9999 -9999 -9999 -9999 -9999 -9999 -9999 -9999 -9999 -9999 -9999 -9999 -9999 -9999 -9999 -9999 -9999 -9999 -9999 -9999 -9999 -9999 -9999 -9999 -9999 -9999 -9999 17.3903636932373 17.3903636932373 17.2214546203613 17.0917835235596 16.7766151428223 16.5019626617432 16.5377311706543 16.5211315155029 16.4278869628906 16.3406391143799 16.1229305267334 15.6087846755981 14.7882852554321 14.1802272796631 14.4060010910034 14.7864894866943 14.8085851669312 14.8712368011475 15.1129388809204 15.3606834411621 15.4542036056519 15.3538675308228 15.1263132095337 14.9689464569092 15.0136289596558 15.1679162979126 15.5540456771851 15.9906940460205 16.2458419799805 17.5471134185791 19.1553497314453 19.4126377105713 19.1953392028809 19.3889331817627 20.0316123962402 20.6141262054443 21.1574249267578 21.5433616638184 21.8895721435547 22.0774955749512 22.1258754730225 22.1885528564453 22.5008850097656
-9999 -9999 -9999 -9999 -9999 -9999 -9999 -9999 -9999 -9999 -9999 -9999 -9999 -9999 -9999 -9999 -9999 -9999 -9999 -9999 -9999 -9999 -9999 -9999 -9999 -9999 -9999 -9999 -9999 -9999 17.0933303833008 16.8040161132812 16.6598663330078 16.6347045898438 16.5885238647461 16.538688659668 16.4912185668945 16.3294582366943 15.975715637207 15.4934921264648 15.2872114181519 15.4444885253906 15.414605140686 15.1585607528687 15.0916109085083 15.1812438964844 15.250262260437 15.2471303939819 15.224630355835 15.2628679275513 15.3537530899048 15.4510097503662 15.7477569580078 16.644624710083 17.5094833374023 17.7395858764648 18.544506072998 19.3809108734131 19.435848236084 19.4537410736084 19.9345569610596 20.7992324829102 21.5902194976807 22.2399616241455 22.6610660552979 23.0348720550537 23.1795120239258 23.3382358551025 23.3124656677246 23.1778335571289
-9999 -9999 -9999 -9999 -9999 -9999 -9999 -9999 -9999 -9999 -9999 -9999 -9999 -9999 -9999 -9999 -9999 -9999 -9999 -9999 -9999 -9999 -9999 -9999 -9999 17.6832733154297 17.5961971282959 17.5488236745199 17.4911985397339 17.3686408996582 17.2554759979248 17.2029209136963 17.2930679321289 17.2467041015625 17.1470527648926 17.1047286987305 17.1142177581787 17.0980968475342 16.9498138427734 16.6871280670166 16.5369701385498 16.3871974945068 15.8944644927979 15.4402322769165 15.454873085022 15.575909614563 15.6131906509399 15.7448692321777 16.0623798370361 16.430196762085 16.671911239624 16.7593269348145 16.9508438110352 17.6580219268799 18.357572555542 18.5733489990234 18.941535949707 19.4203357696533 19.7024707794189 20.1546230316162 20.91628074646 21.7962970733643 22.5260238647461 23.1113090515137 23.5405292510986 23.8341617584229 23.89453125 23.9265308380127 23.9001064300537 23.7133407592773
-9999 -9999 -9999 -9999 -9999 -9999 -9999 -9999 -9999 -9999 -9999 -9999 -9999 -9999 -9999 -9999 -9999 -9999 -9999 -9999 -9999 -9999 -9999 -9999 17.7995853424072 17.6717071533203 17.5785274505615 17.5383567810059 17.5295867919922 17.5282096862793 17.515567779541 17.5388488769531 17.5896835327148 17.6645927429199 17.8120727539062 18.0037517547607 18.1704540252686 18.234224319458 18.0552883148193 17.628002166748 17.1607398986816 16.7043628692627 16.2579727172852 16.2538166046143 16.7040119171143 16.9883937835693 17.0978927612305 17.3350391387939 17.6843490600586 17.8639965057373 17.8716926574707 17.9122276306152 18.0795745849609 18.5298194885254 18.9458770751953 19.1250801086426 19.4363307952881 19.9379367828369 20.5809078216553 21.3081722259521 22.0532703399658 22.7428169250488 23.2875347137451 23.7570552825928 24.2053852081299 24.4615020751953 24.5116100311279 24.4341220855713 24.3297996520996 24.1240653991699
-9999 -9999 -9999 -9999 -9999 -9999 -9999 -9999 -9999 -9999 -9999 -9999 -9999 -9999 -9999 -9999 -9999 -9999 -9999 -9999 -9999 -9999 -9999 -9999 17.8107089996338 17.5742301940918 17.4011859893799 17.4039993286133 17.5325088500977 17.6819972991943 17.8222808837891 17.9772987365723 18.1587085723877 18.383768081665 18.6154861450195 18.8010005950928 18.8850784301758 18.7968158721924 18.4843368530273 18.0123291015625 17.5241813659668 17.1635398864746 17.1327133178711 17.6117248535156 18.1969623565674 18.4073925018311 18.4650478363037 18.6568660736084 18.878662109375 18.7545967102051 18.4505596160889 18.4079475402832 18.5892200469971 18.9000701904297 19.1669826507568 19.4245548248291 19.9190731048584 20.6889591217041 21.5429973602295 22.2477722167969 22.8462085723877 23.3648777008057 23.7988700866699 24.1851539611816 24.5766334533691 24.8130779266357 24.8798351287842 24.7969036102295 24.6610927581787 24.4663906097412
-9999 -9999 -9999 -9999 -9999 -9999 -9999 -9999 -9999 -9999 -9999 -9999 -9999 -9999 -9999 -9999 -9999 -9999 -9999 -9999 -9999 -9999 -9999 17.8424563407898 17.7942085266113 17.4890327453613 17.2835731506348 17.3019886016846 17.4872875213623 17.7646484375 18.0991878509521 18.4288921356201 18.7074680328369 18.9668560028076 19.1823921203613 19.3164806365967 19.3434181213379 19.2641086578369 19.1453094482422 19.0103244781494 18.7871780395508 18.4997501373291 18.4587669372559 18.8318939208984 19.189338684082 19.1937427520752 19.1172885894775 19.2008247375488 19.3661575317383 19.238748550415 18.9117107391357 18.84543800354 19.023099899292 19.2186431884766 19.3390026092529 19.6145133972168 20.2470836639404 21.1617527008057 22.101016998291 22.7657928466797 23.2417697906494 23.6954078674316 24.12135887146 24.479284286499 24.8123397827148 25.0516700744629 25.1254291534424 25.0495319366455 24.916332244873 24.7826290130615
-9999 -9999 -9999 -9999 -9999 -9999 -9999 -9999 -9999 -9999 -9999 -9999 -9999 -9999 -9999 -9999 -9999 -9999 -9999 -9999 -9999 -9999 -9999 18.0233535766602 17.7415542602539 17.3977890014648 17.2268943786621 17.2971591949463 17.5618782043457 17.9720726013184 18.4311504364014 18.8352699279785 19.1906909942627 19.5363941192627 19.8126544952393 19.9791107177734 20.0423030853271 20.0314540863037 20.0059452056885 19.9794883728027 19.9067211151123 19.7497901916504 19.6850242614746 19.8267154693604 19.8948307037354 19.7469367980957 19.6714954376221 19.7520294189453 19.8776531219482 19.9146118164062 19.8469486236572 19.8587303161621 19.9761409759521 20.1065044403076 20.2067394256592 20.4721565246582 20.9653568267822 21.606876373291 22.3619003295898 22.9853992462158 23.4076251983643 23.8238296508789 24.2287464141846 24.5414333343506 24.8248023986816 25.1130981445312 25.2495021820068 25.2179355621338 25.1368274688721 25.0943279266357
-9999 -9999 -9999 -9999 -9999 -9999 -9999 -9999 -9999 -9999 -9999 -9999 -9999 -9999 -9999 -9999 -9999 -9999 -9999 -9999 -9999 -9999 18.1888999938965 17.9502086639404 17.6364860534668 17.4321365356445 17.4540977478027 17.6401214599609 17.9713554382324 18.4524993896484 18.9007148742676 19.2666168212891 19.6704864501953 20.0616054534912 20.3071117401123 20.4386386871338 20.5285205841064 20.5849704742432 20.6144485473633 20.6581230163574 20.7284984588623 20.7624931335449 20.7822151184082 20.7813682556152 20.641773223877 20.40700340271 20.3618450164795 20.5251998901367 20.690710067749 20.8036041259766 20.8840389251709 20.9869518280029 21.1143283843994 21.2288513183594 21.3501110076904 21.6205425262451 22.0193176269531 22.3863067626953 22.8093147277832 23.246753692627 23.557731628418 23.8868217468262 24.2511749267578 24.5322570800781 24.7314739227295 24.9870567321777 25.2089424133301 25.3191928863525 25.3793983459473 25.4430675506592
-9999 -9999 -9999 -9999 -9999 -9999 -9999 -9999 -9999 -9999 -9999 -9999 -9999 -9999 19.7272555033366 -9999 -9999 -9999 -9999 18.6580238342285 -9999 18.4389591217041 18.1890487670898 17.8669967651367 17.6933116912842 17.8147392272949 18.144344329834 18.4187068939209 18.6042976379395 18.888614654541 19.2274055480957 19.5802173614502 20.0141677856445 20.3832950592041 20.5779132843018 20.6828804016113 20.7509918212891 20.8175830841064 20.9212398529053 21.0901107788086 21.2862205505371 21.4052391052246 21.4400730133057 21.3913879394531 21.2037143707275 20.9718227386475 20.918851852417 21.0489521026611 21.2026119232178 21.2808036804199 21.3099498748779 21.4074440002441 21.6200847625732 21.8363380432129 21.995922088623 22.245813369751 22.6445293426514 22.9576072692871 23.1812629699707 23.4557800292969 23.7200183868408 24.0688819885254 24.4614295959473 24.7530040740967 24.9244117736816 25.0760040283203 25.2567520141602 25.4169502258301 25.5008869171143 25.5525550842285
-9999 -9999 -9999 -9999 -9999 -9999 -9999 -9999 -9999 -9999 -9999 -9999 -9999 -9999 19.7270317077637 -9999 -9999 -9999 -9999 18.6386909484863 18.5271785736084 18.4466133117676 18.1362190246582 17.9312877655029 18.0028743743896 18.3854389190674 18.9156303405762 19.3018779754639 19.409008026123 19.4225025177002 19.526330947876 19.7787170410156 20.1846199035645 20.5414295196533 20.7418270111084 20.8732299804688 20.8995361328125 20.8674278259277 20.9242286682129 21.1285076141357 21.4059906005859 21.6217403411865 21.7200202941895 21.6956233978271 21.528787612915 21.3072090148926 21.2106876373291 21.2780380249023 21.4358081817627 21.5373287200928 21.5390453338623 21.5928344726562 21.7997779846191 22.0656223297119 22.2734127044678 22.4538841247559 22.7483406066895 23.0720157623291 23.2682075500488 23.4781894683838 23.7931823730469 24.2377414703369 24.6260585784912 24.8546657562256 25.022424697876 25.1469955444336 25.2806034088135 25.3855991363525 25.3945903778076 25.3895854949951
-9999 -9999 -9999 -9999 -9999 -9999 -9999 -9999 -9999 -9999 -9999 -9999 -9999 -9999 19.7280387878418 -9999 -9999 -9999 -9999 -9999 18.6566867828369 18.4729385375977 18.1778926849365 18.1782894134521 18.4718704223633 18.9446334838867 19.5177516937256 19.9758396148682 20.1083946228027 20.0215301513672 19.9254474639893 20.0000419616699 20.280345916748 20.5561656951904 20.7661247253418 20.979585647583 21.0746841430664 21.0450496673584 21.0819473266602 21.3130207061768 21.6819152832031 22.0160884857178 22.1834506988525 22.194766998291 22.0610961914062 21.8072509765625 21.6376037597656 21.6766414642334 21.8460845947266 22.016450881958 22.0998725891113 22.185827255249 22.3645057678223 22.5588970184326 22.6794548034668 22.7230625152588 22.8102378845215 22.9987487792969 23.1496028900146 23.3021659851074 23.6356449127197 24.1053276062012 24.4181938171387 24.5831451416016 24.7449131011963 24.8669204711914 24.9966735839844 25.1228408813477 25.1762962341309 25.2206439971924
-9999 -9999 -9999 -9999 -9999 -9999 -9999 -9999 -9999 -9999 -9999 -9999 -9999 -9999 19.7383413314819 -9999 19.7240104675293 -9999 -9999 -9999 19.0263824462891 18.6808128356934 18.4840450286865 18.7141132354736 19.1968517303467 19.654109954834 20.1153717041016 20.4552421569824 20.490779876709 20.3555583953857 20.1955261230469 20.184398651123 20.3414134979248 20.4677848815918 20.662525177002 20.9704780578613 21.1485977172852 21.279993057251 21.5852241516113 21.9778289794922 22.3471279144287 22.6509666442871 22.8289737701416 22.871883392334 22.7556343078613 22.5277118682861 22.3846435546875 22.4223289489746 22.561580657959 22.7534313201904 22.910213470459 23.0464248657227 23.2162685394287 23.3575229644775 23.4114151000977 23.3722381591797 23.2795295715332 23.1893501281738 23.1063079833984 23.0371932983398 23.102087020874 23.3839950561523 23.7406330108643 24.055347442627 24.3441505432129 24.5519199371338 24.6887474060059 24.8419799804688 24.9882926940918 25.0952911376953
-9999 -9999 -9999 -9999 -9999 -9999 -9999 -9999 -9999 -9999 -9999 -9999 -9999 -9999 19.7383413314819 19.7486438751221 19.7161235809326 -9999 -9999 19.3694639205933 19.2339401245117 19.0042247772217 19.0310306549072 19.4865036010742 20.0395164489746 20.3609619140625 20.6136169433594 20.8170986175537 20.8212738037109 20.7202262878418 20.597240447998 20.4992389678955 20.4317321777344 20.3512630462646 20.533224105835 21.0150489807129 21.4604797363281 21.9471740722656 22.588228225708 23.1286888122559 23.4892311096191 23.7310543060303 23.8348979949951 23.7978553771973 23.6009750366211 23.2438373565674 22.9003314971924 22.8470153808594 23.0354461669922 23.3006038665771 23.5332107543945 23.743465423584 23.9753646850586 24.1674251556396 24.2632675170898 24.2548809051514 24.1405220031738 23.9402198791504 23.6843814849854 23.4074840545654 23.1523418426514 23.0313110351562 23.0922050476074 23.2574005126953 23.544548034668 24.0077877044678 24.4006938934326 24.6154537200928 24.816801071167 24.9995441436768
-9999 -9999 -9999 -9999 -9999 -9999 -9999 -9999 -9999 -9999 -9999 -9999 -9999 -9999 -9999 19.7171184539795 19.6874370574951 -9999 19.8535742759705 19.7163677215576 19.5011653900146 19.3762912750244 19.6183910369873 20.2233486175537 20.8449573516846 21.1922264099121 21.3582496643066 21.4115047454834 21.3303852081299 21.3299331665039 21.394889831543 21.2880687713623 21.056697845459 20.8636627197266 21.097635269165 21.8206157684326 22.6367416381836 23.3362636566162 23.9078674316406 24.346715927124 24.6914329528809 24.9328727722168 25.0205383300781 24.9581966400146 24.7607860565186 24.399169921875 23.8195266723633 23.3988437652588 23.4291305541992 23.7254123687744 24.0515804290771 24.3805904388428 24.6913414001465 24.9016284942627 24.9982948303223 25.001781463623 24.9267539978027 24.7839946746826 24.5759296417236 24.328182220459 24.0631141662598 23.8198852539062 23.6550979614258 23.6169281005859 23.7322006225586 24.0367012023926 24.3629055023193 24.5869216918945 24.7763690948486 24.9666233062744
-9999 -9999 -9999 -9999 -9999 -9999 -9999 -9999 -9999 -9999 -9999 -9999 -9999 -9999 -9999 19.6966323852539 19.7367553710938 -9999 20.0393218994141 19.9725532531738 19.8107089996338 19.8216381072998 20.2817878723145 21.0334701538086 21.7449569702148 22.1053276062012 22.0742282867432 21.8774757385254 21.8136196136475 22.0303802490234 22.2151889801025 22.1261806488037 21.9442405700684 21.8959732055664 22.345401763916 23.2088851928711 24.0094318389893 24.5732975006104 24.962064743042 25.2552738189697 25.4753322601318 25.6049728393555 25.636302947998 25.5846157073975 25.476900100708 25.3129043579102 24.9452648162842 24.4649295806885 24.262451171875 24.4052715301514 24.6904125213623 24.9909973144531 25.2237224578857 25.3441791534424 25.3787002563477 25.3591156005859 25.3063201904297 25.2319297790527 25.1310977935791 25.0057926177979 24.8693504333496 24.7448959350586 24.6432952880859 24.6021633148193 24.6229095458984 24.7037925720215 24.82373046875 24.9584655761719 25.0805988311768 25.2073650360107
-9999 -9999 -9999 -9999 -9999 -9999 -9999 -9999 -9999 -9999 -9999 -9999 -9999 -9999 -9999 19.7163925170898 -9999 20.0460938044957 20.2219295501709 20.1909637451172 20.1143474578857 20.42795753479 21.1156406402588 21.8004951477051 22.3872528076172 22.6760406494141 22.6552658081055 22.6630172729492 22.8991775512695 23.1537208557129 23.1836013793945 23.0916728973389 23.0639190673828 23.2784481048584 23.8942699432373 24.6303119659424 25.1582431793213 25.4665966033936 25.6322441101074 25.7241153717041 25.7754287719727 25.7780075073242 25.7345752716064 25.6739501953125 25.6122570037842 25.5556125640869 25.4440383911133 25.2003612518311 25.0014190673828 25.0131740570068 25.1482276916504 25.2937412261963 25.3921813964844 25.443546295166 25.4653701782227 25.4586963653564 25.4366073608398 25.4067516326904 25.3777084350586 25.3390789031982 25.2947978973389 25.2561168670654 25.2247219085693 25.2145195007324 25.222900390625 25.2542858123779 25.3039283752441 25.3714046478271 25.4433746337891 25.5339889526367
-9999 -9999 -9999 -9999 -9999 -9999 -9999 -9999 -9999 -9999 -9999 -9999 -9999 -9999 19.7163925170898 19.7838821411133 19.8798980712891 20.2735939025879 20.4158020019531 20.3894691467285 20.5006828308105 21.0223236083984 21.6372356414795 22.121789932251 22.6910991668701 23.1367740631104 23.3600788116455 23.6450099945068 24.0227127075195 24.3122367858887 24.4431896209717 24.5523147583008 24.7414207458496 25.0635643005371 25.4803638458252 25.8033008575439 25.9462299346924 25.9249572753906 25.8624992370605 25.8607444763184 25.8593311309814 25.7847747802734 25.6880893707275 25.6206645965576 25.5738391876221 25.5373401641846 25.5072040557861 25.4123554229736 25.2856769561768 25.2429180145264 25.2641658782959 25.3080863952637 25.3827743530273 25.4804859161377 25.5325584411621 25.5340480804443 25.510814666748 25.4847316741943 25.4825782775879 25.4902610778809 25.4972953796387 25.5018692016602 25.5049877166748 25.5144386291504 25.5293560028076 25.5472297668457 25.5685234069824 25.6007823944092 25.6559257507324 25.7487716674805
-9999 -9999 -9999 -9999 -9999 -9999 -9999 -9999 -9999 -9999 -9999 -9999 -9999 -9999 -9999 -9999 20.4036703109741 20.5594749450684 20.6432132720947 20.5481472015381 20.7657089233398 21.4947738647461 22.1939525604248 22.7215709686279 23.5204963684082 24.3044052124023 24.7292881011963 25.0531921386719 25.3432846069336 25.5735397338867 25.7427234649658 25.8937377929688 26.0348701477051 26.1596279144287 26.206714630127 26.1309509277344 25.9760799407959 25.835319519043 25.7950859069824 25.7862606048584 25.7006740570068 25.5680046081543 25.470100402832 25.4056148529053 25.3724422454834 25.3635444641113 25.3755912780762 25.3536396026611 25.2759418487549 25.2114334106445 25.1837043762207 25.2339992523193 25.3674221038818 25.467456817627 25.4967613220215 25.5160331726074 25.5383033752441 25.5445499420166 25.5563182830811 25.5853233337402 25.6029930114746 25.6125450134277 25.6121101379395 25.6145133972168 25.6304321289062 25.6501140594482 25.6875095367432 25.7873878479004 25.8818778991699 25.9243030548096
-9999 -9999 -9999 -9999 -9999 -9999 -9999 -9999 -9999 -9999 -9999 -9999 -9999 -9999 -9999 -9999 20.7305946350098 20.9017143249512 20.8776531219482 20.7027339935303 21.1323833465576 22.3541831970215 23.3525123596191 24.1690101623535 25.0100040435791 25.5643291473389 25.8280620574951 26.0243034362793 26.1898460388184 26.2909870147705 26.3220367431641 26.2968559265137 26.2152633666992 26.0907230377197 25.9322662353516 25.7614440917969 25.6211128234863 25.5596618652344 25.5515727996826 25.4772968292236 25.3428325653076 25.251823425293 25.2237281799316 25.2064571380615 25.192964553833 25.1930141448975 25.2081489562988 25.1962356567383 25.1317138671875 25.0769386291504 25.1122627258301 25.235767364502 25.3333854675293 25.3608303070068 25.3858222961426 25.4397563934326 25.50710105896 25.5301284790039 25.5214767456055 25.5280647277832 25.5323657989502 25.5351715087891 25.5484752655029 25.578031539917 25.6292705535889 25.6886253356934 25.7600631713867 25.8303661346436 25.8761081695557 25.8870391845703
-9999 -9999 -9999 -9999 -9999 -9999 -9999 -9999 -9999 -9999 -9999 -9999 -9999 -9999 -9999 -9999 -9999 21.029956817627 21.097900390625 21.0794868469238 21.9741649627686 23.5520458221436 24.5474224090576 25.2571868896484 25.8486022949219 26.2088718414307 26.4165725708008 26.5022449493408 26.449800491333 26.2909088134766 26.0921001434326 25.8823108673096 25.6895999908447 25.5477695465088 25.4498405456543 25.3746910095215 25.3145446777344 25.3088626861572 25.3056087493896 25.2073612213135 25.1028900146484 25.0673942565918 25.086612701416 25.1072120666504 25.1040706634521 25.0847320556641 25.0611839294434 25.040376663208 25.0398445129395 25.0932922363281 25.19215965271 25.2572021484375 25.2664794921875 25.286657333374 25.3269577026367 25.3840866088867 25.4481983184814 25.4737606048584 25.4539737701416 25.4385452270508 25.4454917907715 25.4776744842529 25.5425395965576 25.6072444915771 25.6317882537842 25.6410503387451 25.6545791625977 25.6696300506592 25.6878509521484 25.6964092254639
-9999 -9999 -9999 -9999 -9999 -9999 -9999 -9999 -9999 -9999 -9999 -9999 -9999 -9999 20.8589344024658 20.9017143249512 21.0861151218414 21.1702299118042 21.2425594329834 21.415943145752 22.5798988342285 24.1997852325439 25.2184181213379 25.9141979217529 26.4220027923584 26.7074375152588 26.716007232666 26.4632263183594 26.1219177246094 25.8408355712891 25.626579284668 25.4594440460205 25.3519840240479 25.2957420349121 25.2411823272705 25.1839332580566 25.192756652832 25.2468032836914 25.2200584411621 25.117525100708 25.0557289123535 25.0442733764648 25.0578117370605 25.0716438293457 25.0728092193604 25.0680999755859 25.0773639678955 25.1104679107666 25.1649436950684 25.2252426147461 25.2662467956543 25.2750225067139 25.2986278533936 25.3472690582275 25.3894805908203 25.4288139343262 25.4819946289062 25.5142841339111 25.5230617523193 25.5263977050781 25.5367660522461 25.5574798583984 25.6020050048828 25.650842666626 25.633092880249 25.5717849731445 25.5309791564941 25.517240524292 25.4911670684814 25.4369220733643
-9999 -9999 -9999 -9999 -9999 -9999 -9999 -9999 -9999 -9999 -9999 -9999 -9999 -9999 -9999 -9999 -9999 -9999 21.7684416770935 21.6581687927246 22.7011737823486 24.4826698303223 25.8688316345215 26.6284713745117 26.9463176727295 26.9006252288818 26.5618133544922 26.1374454498291 25.8037567138672 25.5813102722168 25.4382305145264 25.3377876281738 25.2552852630615 25.1977653503418 25.1696720123291 25.1823463439941 25.2360877990723 25.2534351348877 25.1803016662598 25.0999870300293 25.0740394592285 25.0780963897705 25.092212677002 25.1071605682373 25.1210422515869 25.134822845459 25.1533050537109 25.1786766052246 25.2036514282227 25.215747833252 25.22292137146 25.2496356964111 25.3090515136719 25.3951053619385 25.4594993591309 25.4940376281738 25.5439891815186 25.5847282409668 25.6136646270752 25.6581192016602 25.701904296875 25.7279415130615 25.7085494995117 25.6636867523193 25.5825042724609 25.4861087799072 25.4241809844971 25.3944110870361 25.3281841278076 25.2055625915527
-9999 -9999 -9999 -9999 -9999 -9999 -9999 -9999 -9999 -9999 -9999 -9999 -9999 -9999 -9999 -9999 -9999 23.2804527282715 23.0022749900818 22.7570953369141 23.9921817779541 25.8734664916992 26.8764591217041 27.1669502258301 27.0648345947266 26.6949672698975 26.2298316955566 25.8429145812988 25.5963821411133 25.4606513977051 25.3688697814941 25.2757797241211 25.2156200408936 25.1978549957275 25.2059497833252 25.2316360473633 25.2432613372803 25.2099666595459 25.1474285125732 25.1080989837646 25.1013622283936 25.1110897064209 25.1273307800293 25.1418724060059 25.1515827178955 25.1572360992432 25.1596755981445 25.1614322662354 25.1635265350342 25.168571472168 25.1841773986816 25.2191371917725 25.2799797058105 25.3680438995361 25.4557933807373 25.5211963653564 25.5790348052979 25.6124954223633 25.6290969848633 25.643892288208 25.6986980438232 25.7685012817383 25.7486114501953 25.6727848052979 25.5651664733887 25.4288501739502 25.3258857727051 25.2475738525391 25.1694564819336 25.0521907806396
-9999 -9999 -9999 -9999 -9999 -9999 -9999 -9999 -9999 -9999 -9999 -9999 -9999 23.7674694061279 23.8464970058865 -9999 23.9059963226318 23.8661131858826 23.2804527282715 24.313383102417 26.0301189422607 26.9532260894775 27.258487701416 27.1969337463379 26.8603973388672 26.3950824737549 25.9695129394531 25.6606044769287 25.5188846588135 25.4684925079346 25.3899822235107 25.3117542266846 25.264123916626 25.2528991699219 25.2541370391846 25.2607688903809 25.2631225585938 25.255895614624 25.2283096313477 25.1905460357666 25.1548690795898 25.1327362060547 25.1288719177246 25.1320991516113 25.1316432952881 25.1267414093018 25.1187362670898 25.1089954376221 25.1050586700439 25.1155433654785 25.1471900939941 25.1996307373047 25.28147315979 25.3935699462891 25.4881649017334 25.5559158325195 25.6249980926514 25.6755142211914 25.67822265625 25.6154365539551 25.5881500244141 25.6567478179932 25.6457862854004 25.5866870880127 25.5221004486084 25.4222812652588 25.2893142700195 25.154167175293 25.0551700592041 24.9990692138672
-9999 -9999 -9999 -9999 -9999 -9999 -9999 -9999 -9999 -9999 -9999 -9999 -9999 -9999 23.7674694061279 23.9805787404378 23.7914428710938 24.0205497741699 24.3720073699951 26.031099319458 27.1559638977051 27.4813499450684 27.4365539550781 27.1271419525146 26.6546535491943 26.1577930450439 25.8197536468506 25.6279182434082 25.5877304077148 25.5822372436523 25.5369701385498 25.5024642944336 25.482141494751 25.4644260406494 25.4500122070312 25.4435157775879 25.4391498565674 25.4255619049072 25.3928718566895 25.3483467102051 25.2874622344971 25.2214393615723 25.1724319458008 25.1379947662354 25.1132221221924 25.0980472564697 25.0898914337158 25.0860500335693 25.0900993347168 25.1025009155273 25.1264839172363 25.1709594726562 25.2536773681641 25.3980445861816 25.5404109954834 25.6210289001465 25.6834869384766 25.7357654571533 25.7386322021484 25.6555786132812 25.5557956695557 25.5561256408691 25.5291862487793 25.4580268859863 25.4206962585449 25.3731327056885 25.2560253143311 25.1155776977539 25.0757274627686 25.1126174926758
-9999 -9999 -9999 -9999 -9999 -9999 -9999 -9999 -9999 -9999 -9999 -9999 -9999 -9999 24.0197367668152 23.7674694061279 24.3828239440918 24.8912620544434 26.0031986236572 27.2001800537109 27.538761138916 27.4856262207031 27.1721439361572 26.7188148498535 26.273832321167 25.9320240020752 25.7297344207764 25.6170501708984 25.623119354248 25.6308288574219 25.6291103363037 25.6372852325439 25.6393623352051 25.6366271972656 25.6390151977539 25.636812210083 25.6195049285889 25.5769119262695 25.5244255065918 25.4742240905762 25.4048347473145 25.3275623321533 25.2750549316406 25.2346782684326 25.2026290893555 25.1865882873535 25.1828269958496 25.1884651184082 25.1949520111084 25.2043209075928 25.2218284606934 25.2437553405762 25.2834053039551 25.3984680175781 25.5584564208984 25.6821250915527 25.7717552185059 25.8324813842773 25.821418762207 25.7378787994385 25.6090087890625 25.5031604766846 25.4494152069092 25.3780059814453 25.3548278808594 25.3311824798584 25.2384166717529 25.1624774932861 25.2495803833008 25.25612449646
-9999 -9999 -9999 -9999 -9999 -9999 -9999 -9999 -9999 -9999 -9999 23.4044971466064 23.6771812438965 24.0142440795898 23.8755264282227 24.4217071533203 25.6049957275391 26.6315116882324 27.3339786529541 27.5813789367676 27.5633735656738 27.2849445343018 26.8357276916504 26.4142951965332 26.1187763214111 25.8954925537109 25.7074337005615 25.6274890899658 25.6355419158936 25.6517868041992 25.6771240234375 25.69753074646 25.7072353363037 25.7185516357422 25.7224292755127 25.7010078430176 25.6756229400635 25.6357898712158 25.5951118469238 25.5609455108643 25.5065689086914 25.4423141479492 25.4108543395996 25.386381149292 25.3577136993408 25.3435153961182 25.3367900848389 25.338357925415 25.343542098999 25.3572082519531 25.3832874298096 25.3898830413818 25.3865242004395 25.4551315307617 25.5865955352783 25.7177467346191 25.84104347229 25.940580368042 25.9234600067139 25.835973739624 25.7356243133545 25.566162109375 25.4476356506348 25.3772850036621 25.3536720275879 25.3239459991455 25.2390842437744 25.2559852600098 25.464822769165 25.5998497009277
-9999 -9999 -9999 -9999 -9999 -9999 -9999 -9999 -9999 23.2453098297119 23.6167659759521 24.0465774536133 24.480110168457 24.8932476043701 24.8230781555176 25.4935550689697 26.9511032104492 27.4413108825684 27.60520362854 27.6390647888184 27.4223899841309 27.0156421661377 26.589168548584 26.2548084259033 26.0647239685059 25.8731498718262 25.686393737793 25.6217460632324 25.6249675750732 25.6470680236816 25.6878604888916 25.727689743042 25.7363338470459 25.7295970916748 25.7300720214844 25.7233943939209 25.7343235015869 25.7343711853027 25.7117118835449 25.6846694946289 25.6437702178955 25.585994720459 25.5491027832031 25.5198020935059 25.4828681945801 25.4488277435303 25.4172630310059 25.403600692749 25.4201622009277 25.460521697998 25.5101680755615 25.5361366271973 25.5387115478516 25.574161529541 25.6524295806885 25.7602043151855 25.8964176177979 26.0335826873779 26.0450077056885 25.944221496582 25.8472747802734 25.7238121032715 25.5413818359375 25.4319286346436 25.3960819244385 25.3561305999756 25.2776546478271 25.4155197143555 25.690767288208 25.9420375823975
-9999 -9999 -9999 -9999 -9999 -9999 -9999 -9999 -9999 23.6371726989746 24.1598377227783 24.7274131774902 25.3388004302979 25.7278537750244 25.6515808105469 26.6256198883057 27.4696998596191 27.6966419219971 27.6937484741211 27.4779644012451 27.0168190002441 26.5752449035645 26.308084487915 26.1385135650635 26.016508102417 25.8350887298584 25.6784343719482 25.6277732849121 25.6105842590332 25.6200428009033 25.6653289794922 25.7110862731934 25.72682762146 25.7362880706787 25.7550449371338 25.7721481323242 25.8179988861084 25.8605651855469 25.8551254272461 25.8211975097656 25.7677631378174 25.7032508850098 25.6547756195068 25.6050357818604 25.5492477416992 25.5029544830322 25.4698867797852 25.4556922912598 25.4751644134521 25.5217704772949 25.5991592407227 25.6682872772217 25.6936416625977 25.7158489227295 25.766077041626 25.8470916748047 25.9588737487793 26.0808391571045 26.1022815704346 26.0106925964355 25.9052600860596 25.8636531829834 25.7333679199219 25.5579071044922 25.4720211029053 25.405876159668 25.3536701202393 25.6003532409668 26.0179996490479 26.3273296356201
-9999 -9999 -9999 -9999 -9999 23.683705329895 23.6145534515381 23.7926177978516 23.7182235717773 23.8707675933838 24.3407344818115 25.1433200836182 25.9236297607422 26.4774284362793 27.0568771362305 27.6486167907715 27.8052101135254 27.7573413848877 27.5620555877686 27.1424140930176 26.6421070098877 26.3237133026123 26.1743469238281 26.0977916717529 25.9962730407715 25.8271389007568 25.6995620727539 25.6513500213623 25.6368103027344 25.662088394165 25.7219009399414 25.7648963928223 25.7873668670654 25.83225440979 25.8599700927734 25.8506965637207 25.8780174255371 25.9231872558594 25.907808303833 25.8330154418945 25.7551822662354 25.7184314727783 25.7023696899414 25.6579608917236 25.5811157226562 25.5212421417236 25.511058807373 25.5020294189453 25.5094890594482 25.571985244751 25.6855735778809 25.7757606506348 25.8312091827393 25.8790988922119 25.9229030609131 25.961145401001 25.9960803985596 26.0641632080078 26.0790634155273 25.9931144714355 25.8827018737793 25.8637351989746 25.8603229522705 25.7281284332275 25.5888748168945 25.4710750579834 25.4141178131104 25.7245349884033 26.3648796081543 26.6516075134277
-9999 -9999 -9999 -9999 23.3362197875977 23.5383720397949 24.2456760406494 24.5541534423828 24.5893135070801 24.7442665100098 24.9329032897949 25.792085647583 26.6068019866943 27.5030269622803 27.8297023773193 27.8138561248779 27.7794532775879 27.6659355163574 27.3157405853271 26.762580871582 26.3040008544922 26.1458129882812 26.1218204498291 26.1040897369385 26.0520553588867 25.916675567627 25.8023109436035 25.7555027008057 25.7594623565674 25.8172378540039 25.8729095458984 25.888298034668 25.899974822998 25.952449798584 25.9666175842285 25.9210891723633 25.9099559783936 25.915246963501 25.8502464294434 25.7472515106201 25.6929054260254 25.7009983062744 25.7092685699463 25.6717109680176 25.5882263183594 25.5281181335449 25.5325469970703 25.5406951904297 25.5718326568604 25.6722030639648 25.7985153198242 25.9025535583496 25.9873943328857 26.0406322479248 26.0439052581787 25.9890460968018 25.9390277862549 25.9700622558594 25.9751739501953 25.9010124206543 25.8083209991455 25.7863502502441 25.7892475128174 25.7597675323486 25.6974601745605 25.5501136779785 25.4606857299805 25.8969573974609 26.632438659668 26.8107891082764
-9999 -9999 -9999 23.7248568534851 23.6805191040039 24.1749153137207 24.8671131134033 25.1387977600098 25.5056762695312 25.7359790802002 26.0362663269043 26.8141460418701 27.662410736084 27.8112239837646 27.8193016052246 27.7642498016357 27.7315273284912 27.5432262420654 26.9775447845459 26.2848701477051 25.9807243347168 25.9896259307861 26.0528755187988 26.0867710113525 26.1075191497803 26.0653839111328 25.978120803833 25.9382514953613 25.9411525726318 25.9546489715576 25.9381370544434 25.9141788482666 25.9350471496582 25.9947414398193 25.9800853729248 25.8730068206787 25.8012466430664 25.7961597442627 25.7601547241211 25.7019176483154 25.6905136108398 25.7187595367432 25.7350769042969 25.7034282684326 25.6323471069336 25.5904312133789 25.6107425689697 25.6448631286621 25.7220401763916 25.8578338623047 25.9720363616943 26.0434608459473 26.0819759368896 26.0658226013184 25.9942264556885 25.8980617523193 25.8527603149414 25.8789291381836 25.8670272827148 25.7923717498779 25.7114810943604 25.7221126556396 25.6947364807129 25.6591987609863 25.7339668273926 25.6570720672607 25.5694160461426 25.9973659515381 26.5601634979248 26.7653656005859
-9999 -9999 -9999 23.7994804382324 24.0832080841064 24.7650852203369 25.440788269043 25.8138084411621 26.4400501251221 26.9125518798828 27.391565322876 27.8105697631836 27.8690490722656 27.8989124298096 27.8453636169434 27.7745208740234 27.6985378265381 27.3219547271729 26.5752239227295 25.9573383331299 25.8178043365479 25.8744163513184 25.9540271759033 26.0043811798096 26.0753402709961 26.1165733337402 26.0880451202393 26.0584106445312 26.0274028778076 25.975284576416 25.9432582855225 25.952766418457 25.9840793609619 26.0160961151123 25.9316387176514 25.7644538879395 25.7142219543457 25.7466201782227 25.7379055023193 25.7124633789062 25.7047519683838 25.7141056060791 25.7081642150879 25.6783599853516 25.650806427002 25.6632785797119 25.7324733734131 25.818359375 25.9338035583496 26.0243606567383 26.0538940429688 26.0637340545654 26.0557155609131 26.0092029571533 25.9405345916748 25.873950958252 25.8555145263672 25.8471775054932 25.8077774047852 25.7369976043701 25.6528167724609 25.678279876709 25.6495475769043 25.5830612182617 25.7090473175049 25.779125213623 25.8116302490234 25.9510288238525 26.2100086212158 26.4592456817627
