NCOLS 70 
NROWS 52 
XLLCORNER -80 
YLLCORNER 33 
CELLSIZE 0.25 
NODATA_value -9999 
-9999.000000000000000 -9999 -9999 -9999 -9999 -9999 -9999 -9999 -9999 -9999 -9999 -9999 -9999 -9999 -9999 -9999 -9999 -9999 -9999 -9999 -9999 -9999 -9999 -9999 -9999 -9999 -9999 -9999 -9999 -9999 -9999 -9999 -9999 -9999 -9999 -9999 -9999 -9999 -9999 -9999 -9999 -9999 -9999 -9999 -9999 -9999 -9999 -9999 -9999 -9999 -9999 -9999 -9999 -9999 -9999 -9999 -9999 -9999 -9999 -9999 -9999 -9999 -9999 -9999 -9999 -9999 -9999 -9999 -9999 -9999
-9999 -9999 -9999 -9999 -9999 -9999 -9999 -9999 -9999 -9999 -9999 -9999 -9999 -9999 -9999 -9999 -9999 -9999 -9999 -9999 -9999 -9999 -9999 -9999 -9999 -9999 -9999 -9999 -9999 -9999 -9999 -9999 -9999 -9999 -9999 -9999 -9999 -9999 -9999 -9999 -9999 -9999 -9999 -9999 -9999 -9999 -9999 -9999 -9999 -9999 -9999 -9999 -9999 -9999 -9999 -9999 -9999 -9999 -9999 -9999 -9999 -9999 -9999 -9999 -9999 -9999 -9999 -9999 -9999 -9999
-9999 -9999 -9999 -9999 -9999 -9999 -9999 -9999 -9999 -9999 -9999 -9999 -9999 -9999 -9999 -9999 -9999 -9999 -9999 -9999 -9999 -9999 -9999 -9999 -9999 -9999 -9999 -9999 -9999 -9999 -9999 -9999 -9999 -9999 -9999 -9999 -9999 -9999 -9999 -9999 -9999 -9999 -9999 -9999 -9999 -9999 -9999 -9999 -9999 -9999 -9999 -9999 -9999 -9999 -9999 -9999 -9999 -9999 -9999 17.4789581298828 -9999 -9999 -9999 -9999 -9999 -9999 -9999 -9999 -9999 -9999
-9999 -9999 -9999 -9999 -9999 -9999 -9999 -9999 -9999 -9999 -9999 -9999 -9999 -9999 -9999 -9999 -9999 -9999 -9999 -9999 -9999 -9999 -9999 -9999 -9999 -9999 -9999 -9999 -9999 -9999 -9999 -9999 -9999 -9999 -9999 -9999 -9999 -9999 -9999 -9999 -9999 -9999 -9999 -9999 -9999 -9999 -9999 -9999 -9999 -9999 -9999 -9999 -9999 -9999 -9999 15.1294355392456 15.4021329879761 15.807168006897 16.2278442382812 16.7710189819336 -9999 -9999 -9999 -9999 -9999 -9999 -9999 -9999 -9999 -9999
-9999 -9999 -9999 -9999 -9999 -9999 -9999 -9999 -9999 -9999 -9999 -9999 -9999 -9999 -9999 -9999 -9999 -9999 -9999 -9999 -9999 -9999 -9999 -9999 -9999 -9999 -9999 -9999 -9999 -9999 -9999 -9999 -9999 -9999 -9999 -9999 -9999 -9999 -9999 -9999 -9999 -9999 -9999 -9999 -9999 -9999 -9999 -9999 -9999 -9999 -9999 -9999 14.5303468704224 14.3347082138062 14.1122484207153 14.1629581451416 14.7580308914185 15.4579668045044 -9999 -9999 -9999 -9999 -9999 -9999 -9999 -9999 -9999 -9999 -9999 -9999
-9999 -9999 -9999 -9999 -9999 -9999 -9999 -9999 -9999 -9999 -9999 -9999 -9999 -9999 -9999 -9999 -9999 -9999 -9999 -9999 -9999 -9999 -9999 -9999 -9999 -9999 -9999 -9999 -9999 -9999 -9999 -9999 -9999 -9999 -9999 -9999 -9999 -9999 -9999 -9999 -9999 -9999 -9999 -9999 -9999 -9999 -9999 -9999 -9999 -9999 12.439483833313 12.3379001617432 12.6640377044678 12.6551027297974 12.7967662811279 13.1871309280396 -9999 -9999 -9999 -9999 -9999 -9999 -9999 -9999 -9999 -9999 -9999 16.1345895131429 16.0037930011749 15.63978099823
-9999 -9999 -9999 -9999 -9999 -9999 -9999 -9999 -9999 -9999 -9999 -9999 -9999 -9999 -9999 -9999 -9999 -9999 -9999 -9999 -9999 -9999 -9999 -9999 -9999 -9999 -9999 -9999 -9999 -9999 -9999 -9999 -9999 -9999 -9999 -9999 -9999 -9999 -9999 -9999 -9999 -9999 -9999 -9999 13.6678647994995 -9999 -9999 13.3610420227051 12.9431762695312 12.3688526153564 11.5950775146484 11.3472337722778 11.5983810424805 11.8632650375366 12.169282913208 -9999 -9999 -9999 -9999 -9999 -9999 -9999 -9999 16.5371570587158 16.4516658782959 16.3298587799072 16.1341590881348 16.1046657562256 16.1649436950684 16.1057815551758
-9999 -9999 -9999 -9999 -9999 -9999 -9999 -9999 -9999 -9999 -9999 -9999 -9999 -9999 -9999 -9999 -9999 -9999 -9999 -9999 -9999 -9999 -9999 -9999 -9999 -9999 -9999 -9999 -9999 -9999 -9999 -9999 -9999 -9999 -9999 -9999 -9999 -9999 -9999 -9999 -9999 -9999 -9999 -9999 13.7345819473267 13.1414098739624 13.0354127883911 13.5441780090332 13.9214010238647 13.8813753128052 13.4817771911621 12.9556550979614 12.5934858322144 12.6055564880371 12.4888308048248 -9999 -9999 -9999 -9999 -9999 -9999 -9999 15.6516056060791 15.7728862762451 15.8519906997681 15.9119367599487 16.0025253295898 16.2002563476562 16.4025592803955 16.4936294555664
-9999 -9999 -9999 -9999 -9999 -9999 -9999 -9999 -9999 -9999 -9999 -9999 -9999 -9999 -9999 -9999 -9999 -9999 -9999 -9999 -9999 -9999 -9999 -9999 -9999 -9999 -9999 -9999 -9999 -9999 -9999 -9999 -9999 -9999 -9999 -9999 -9999 -9999 -9999 -9999 16.8153635660807 16.3625968297323 15.4057607650757 15.160267829895 14.5947113037109 14.1629266738892 14.2889175415039 14.7400531768799 15.0719871520996 15.0118579864502 14.5540142059326 13.9363536834717 13.4360952377319 13.3172187805176 13.5279376983643 -9999 -9999 -9999 -9999 -9999 15.0681142807007 15.2678060531616 15.3487796783447 15.3219785690308 15.3819856643677 15.6517496109009 16.0358371734619 16.3781051635742 16.5715675354004 16.6129493713379
-9999 -9999 -9999 -9999 -9999 -9999 -9999 -9999 -9999 -9999 -9999 -9999 -9999 -9999 -9999 -9999 -9999 -9999 -9999 -9999 -9999 -9999 -9999 -9999 -9999 -9999 -9999 -9999 -9999 -9999 -9999 -9999 -9999 -9999 -9999 -9999 -9999 -9999 -9999 17.2378349304199 16.8804416656494 16.3278141021729 15.8795347213745 15.5335845947266 15.4484996795654 15.6477146148682 15.9149599075317 16.0728702545166 15.9700288772583 15.5763339996338 14.957576751709 14.3457698822021 13.9084997177124 13.6608867645264 13.7385597229004 14.3174667358398 -9999 -9999 -9999 15.2602872848511 14.9106683731079 15.0258684158325 15.1609830856323 15.1609954833984 15.1917448043823 15.4699230194092 15.9998731613159 16.5246849060059 16.8150062561035 16.8569412231445
-9999 -9999 -9999 -9999 -9999 -9999 -9999 -9999 -9999 -9999 -9999 -9999 -9999 -9999 -9999 -9999 -9999 -9999 -9999 -9999 -9999 -9999 -9999 -9999 -9999 -9999 -9999 -9999 -9999 -9999 -9999 -9999 -9999 -9999 -9999 -9999 -9999 -9999 17.6401371002197 17.3745136260986 17.1871852874756 16.9264392852783 16.633279800415 16.4603118896484 16.4910297393799 16.6116809844971 16.6737976074219 16.6382656097412 16.4838695526123 16.1171588897705 15.5262746810913 14.9192752838135 14.4198970794678 13.9253454208374 13.6468496322632 13.8846340179443 14.3694286346436 14.9235033988953 15.4304265975952 15.3552503585815 15.3448038101196 15.5085916519165 15.6519746780396 15.6684913635254 15.63498878479 15.7964935302734 16.31005859375 16.9287910461426 17.2498683929443 17.2680892944336
-9999 -9999 -9999 -9999 -9999 -9999 -9999 -9999 -9999 -9999 -9999 -9999 -9999 -9999 -9999 -9999 -9999 -9999 -9999 -9999 -9999 -9999 -9999 -9999 -9999 -9999 -9999 -9999 -9999 -9999 -9999 -9999 -9999 -9999 -9999 -9999 -9999 17.8106727600098 17.8443145751953 17.933349609375 17.8955821990967 17.6049823760986 17.2395267486572 17.0099925994873 16.9266910552979 16.9002552032471 16.879919052124 16.8758335113525 16.865873336792 16.6880798339844 16.2548427581787 15.6760740280151 15.1124620437622 14.5584096908569 14.1380777359009 14.0954580307007 14.4227380752563 14.918794631958 15.4580278396606 15.8900384902954 16.2203521728516 16.467342376709 16.5924911499023 16.5733394622803 16.4413433074951 16.4192352294922 16.7790069580078 17.3323822021484 17.603832244873 17.6697406768799
-9999 -9999 -9999 -9999 -9999 -9999 -9999 -9999 -9999 -9999 -9999 -9999 -9999 -9999 -9999 -9999 -9999 -9999 -9999 -9999 -9999 -9999 -9999 -9999 -9999 -9999 -9999 -9999 -9999 -9999 -9999 -9999 -9999 -9999 -9999 -9999 -9999 18.1560935974121 18.28835105896 18.4818286895752 18.4033432006836 18.0994415283203 17.7944164276123 17.4735507965088 17.1995239257812 17.0438404083252 16.9696922302246 17.0311584472656 17.1232738494873 17.0469188690186 16.7617282867432 16.2796440124512 15.74547290802 15.2614145278931 14.9142417907715 14.935474395752 15.2519569396973 15.6263217926025 16.0569038391113 16.4257469177246 16.7186717987061 16.9810581207275 17.186939239502 17.3027973175049 17.2762756347656 17.1189022064209 17.1750011444092 17.539924621582 17.7708530426025 17.9726619720459
-9999 -9999 -9999 -9999 -9999 -9999 -9999 -9999 -9999 -9999 -9999 -9999 -9999 -9999 -9999 -9999 -9999 -9999 -9999 -9999 -9999 -9999 -9999 -9999 -9999 -9999 -9999 -9999 -9999 -9999 -9999 -9999 -9999 -9999 -9999 -9999 -9999 18.9364070892334 18.8923645019531 19.0148010253906 18.9818878173828 18.8677921295166 18.7280235290527 18.428071975708 18.0456962585449 17.6680660247803 17.3751926422119 17.3806381225586 17.4406776428223 17.293285369873 16.986743927002 16.5096282958984 16.0209102630615 15.6870822906494 15.5932350158691 15.8642234802246 16.2715377807617 16.4551086425781 16.6781959533691 16.7347011566162 16.9418926239014 17.3381729125977 17.7256641387939 18.1796588897705 18.4344806671143 18.293643951416 17.8710308074951 17.9121131896973 18.1893787384033 18.4967288970947
-9999 -9999 -9999 -9999 -9999 -9999 -9999 -9999 -9999 -9999 -9999 -9999 -9999 -9999 -9999 -9999 -9999 -9999 -9999 -9999 -9999 -9999 -9999 -9999 -9999 -9999 -9999 -9999 -9999 -9999 -9999 -9999 -9999 -9999 -9999 -9999 19.4896583557129 19.3959274291992 19.3098621368408 19.3627777099609 19.4183082580566 19.44704246521 19.4430980682373 19.3020915985107 19.0199794769287 18.5662384033203 18.056468963623 17.838451385498 17.7181015014648 17.4207973480225 17.0225448608398 16.5044956207275 16.1138782501221 15.9984798431396 16.1752700805664 16.5410079956055 17.0783290863037 17.3038692474365 17.5258560180664 17.4197006225586 17.5194053649902 17.9566287994385 18.4658889770508 19.2801952362061 19.6836071014404 19.8520584106445 19.1397018432617 18.4719257354736 18.5505867004395 18.8366203308105
-9999 -9999 -9999 -9999 -9999 -9999 -9999 -9999 -9999 -9999 -9999 -9999 -9999 -9999 -9999 -9999 -9999 -9999 -9999 -9999 -9999 -9999 -9999 -9999 -9999 -9999 -9999 -9999 -9999 -9999 -9999 -9999 -9999 -9999 -9999 -9999 -9999 19.7574405670166 19.6260375976562 19.5428829193115 19.5968685150146 19.669807434082 19.7166843414307 19.6729793548584 19.5308799743652 19.2332878112793 18.7722187042236 18.332368850708 17.8698749542236 17.3351860046387 16.8648834228516 16.413423538208 16.1329975128174 16.0759963989258 16.2937660217285 16.7804470062256 18.0115375518799 18.8263607025146 19.0838031768799 18.9780559539795 18.7305145263672 19.1754570007324 20.0248279571533 20.8113536834717 21.0204582214355 21.2198009490967 20.5647239685059 19.2690448760986 18.7177658081055 19.0838947296143
-9999 -9999 -9999 -9999 -9999 -9999 -9999 -9999 -9999 -9999 -9999 -9999 -9999 -9999 -9999 -9999 -9999 -9999 -9999 -9999 -9999 -9999 -9999 -9999 -9999 -9999 -9999 -9999 -9999 -9999 -9999 -9999 -9999 -9999 -9999 -9999 -9999 -9999 20.0196647644043 -9999 19.74342918396 19.743350982666 19.624849319458 19.4405059814453 19.2747325897217 19.0561504364014 18.7529792785645 18.227367401123 17.5448131561279 16.9222412109375 16.591381072998 16.4040279388428 16.254077911377 16.0250854492188 16.2714233398438 17.241886138916 19.2489376068115 20.4672393798828 20.7856006622314 20.4317073822021 19.8639583587646 20.3203811645508 21.1421871185303 21.6322193145752 21.6071529388428 21.5854034423828 21.354679107666 20.0578022003174 19.0425720214844 19.4395694732666
-9999 -9999 -9999 -9999 -9999 -9999 -9999 -9999 -9999 -9999 -9999 -9999 -9999 -9999 -9999 -9999 -9999 -9999 -9999 -9999 -9999 -9999 -9999 -9999 -9999 -9999 -9999 -9999 -9999 -9999 -9999 -9999 -9999 -9999 -9999 -9999 -9999 -9999 -9999 -9999 20.7464389801025 20.0511875152588 19.5482635498047 19.1027450561523 18.8037605285645 18.5454254150391 18.26540184021 17.8040103912354 17.3514137268066 16.9586391448975 16.8658485412598 16.8107757568359 16.6539344787598 16.3551120758057 16.547176361084 18.0941562652588 20.2636184692383 21.6444931030273 22.1103973388672 21.7707996368408 21.0198554992676 20.9517955780029 21.6117820739746 22.2613220214844 22.2528991699219 21.572322845459 21.344877243042 20.3265914916992 19.337610244751 19.7128582000732
-9999 -9999 -9999 -9999 -9999 -9999 -9999 -9999 -9999 -9999 -9999 -9999 -9999 -9999 -9999 -9999 -9999 -9999 -9999 -9999 -9999 -9999 -9999 -9999 -9999 -9999 -9999 -9999 -9999 -9999 -9999 -9999 -9999 -9999 21.6492247581482 22.100772857666 22.0327434539795 -9999 21.908655166626 22.001407623291 21.2649097442627 20.1888484954834 19.4342384338379 18.870433807373 18.4747219085693 18.2625312805176 18.0772171020508 17.8402652740479 17.6349468231201 17.4355926513672 17.3334712982178 17.2561702728271 17.0075073242188 16.791820526123 17.3828468322754 19.5717277526855 21.4659996032715 22.4995021820068 22.9216003417969 22.7985210418701 22.2538108825684 21.8800563812256 22.3009243011475 23.0110549926758 23.1780700683594 22.0410385131836 21.3666095733643 20.582332611084 19.8608570098877 20.4772567749023
-9999 -9999 -9999 -9999 -9999 -9999 -9999 -9999 -9999 -9999 -9999 -9999 -9999 -9999 -9999 -9999 -9999 -9999 -9999 -9999 -9999 -9999 -9999 -9999 -9999 -9999 -9999 23.6939144134521 23.6939144134521 23.6313495635986 23.535982131958 22.8235626220703 21.8562507629395 21.6066207885742 21.5602703094482 21.3292350769043 20.9071025848389 20.5301876068115 20.5519695281982 20.7292613983154 20.3068218231201 19.3845863342285 18.8490657806396 18.5803356170654 18.3138027191162 18.1673355102539 18.0966777801514 18.0225048065186 17.9479904174805 17.8601036071777 17.9045486450195 18.0445766448975 17.9990100860596 18.1487331390381 19.2508754730225 21.3131866455078 22.4183101654053 22.9000263214111 23.2023162841797 23.3480911254883 23.3687210083008 23.2296466827393 23.2151660919189 23.631477355957 23.8570079803467 22.7583618164062 21.8888492584229 21.2782306671143 21.2408847808838 22.194429397583
-9999 -9999 -9999 -9999 -9999 -9999 -9999 -9999 -9999 -9999 -9999 -9999 -9999 -9999 -9999 -9999 -9999 -9999 -9999 -9999 -9999 -9999 -9999 -9999 -9999 -9999 -9999 -9999 -9999 -9999 22.8618850708008 22.1688995361328 21.2280235290527 21.0974903106689 21.15256690979 20.9507141113281 20.4835319519043 20.0532379150391 19.9035816192627 19.8098258972168 19.4501342773438 18.7743244171143 18.4960880279541 18.4908504486084 18.4292964935303 18.4489917755127 18.4953842163086 18.49658203125 18.5082759857178 18.6106109619141 18.9701843261719 19.4228630065918 19.7398777008057 20.1814746856689 21.114221572876 22.245267868042 22.7637557983398 23.0753593444824 23.257287979126 23.5478973388672 23.9185104370117 24.2050552368164 24.1921901702881 24.3273811340332 24.3132877349854 23.5140800476074 22.8731689453125 22.6476459503174 23.3820419311523 24.0817546844482
-9999 -9999 -9999 -9999 -9999 -9999 -9999 -9999 -9999 -9999 -9999 -9999 -9999 -9999 -9999 -9999 -9999 -9999 -9999 -9999 -9999 -9999 -9999 -9999 -9999 22.8103408813477 22.4401747385661 22.1804084777832 21.9135928153992 21.5401344299316 21.3786373138428 21.3721866607666 21.5261363983154 21.6007080078125 21.5121097564697 21.2641277313232 20.826150894165 20.3707141876221 20.0725898742676 19.841381072998 19.5333061218262 19.2471485137939 19.1365985870361 19.1879272460938 19.4003162384033 19.6960353851318 19.8671016693115 19.8803367614746 19.9846210479736 20.2802486419678 20.8615207672119 21.4794445037842 21.8818798065186 22.2381591796875 22.7775249481201 23.0966701507568 23.2578964233398 23.5056190490723 23.6369743347168 23.8723583221436 24.0938701629639 24.3085632324219 24.4908180236816 24.6736812591553 24.7593822479248 24.5352954864502 24.1935424804688 24.283016204834 24.7705955505371 24.8081836700439
-9999 -9999 -9999 -9999 -9999 -9999 -9999 -9999 -9999 -9999 -9999 -9999 -9999 -9999 -9999 -9999 -9999 -9999 -9999 -9999 -9999 -9999 -9999 -9999 23.2585868835449 22.7859039306641 22.386531829834 22.1480884552002 22.0066051483154 21.9595432281494 22.0156593322754 22.150411605835 22.2730369567871 22.2247829437256 22.0359325408936 21.8474540710449 21.6183071136475 21.2405338287354 20.7536067962646 20.3609790802002 20.1440773010254 20.1531085968018 20.2665672302246 20.459264755249 20.8081111907959 21.2888088226318 21.6940937042236 21.8787899017334 22.0591259002686 22.3984642028809 22.8333835601807 23.2525768280029 23.430570602417 23.5423030853271 23.8360710144043 24.0506572723389 24.0677833557129 24.0301685333252 24.0953750610352 24.3368320465088 24.5053367614746 24.6195392608643 24.9537830352783 25.2269649505615 25.3753318786621 25.3529224395752 25.0805835723877 24.8466625213623 25.0085430145264 25.1313304901123
-9999 -9999 -9999 -9999 -9999 -9999 -9999 -9999 -9999 -9999 -9999 -9999 -9999 -9999 -9999 -9999 -9999 -9999 -9999 -9999 -9999 -9999 -9999 -9999 22.9018402099609 22.59375 22.4604549407959 22.4182434082031 22.3510417938232 22.3690032958984 22.4883804321289 22.6907119750977 22.9845714569092 23.127405166626 22.9937419891357 22.8251266479492 22.693286895752 22.3472518920898 21.8069763183594 21.3725662231445 21.1644401550293 21.312915802002 21.6869945526123 22.030445098877 22.3898696899414 22.947208404541 23.5452575683594 23.9013042449951 24.016752243042 24.1483306884766 24.3125305175781 24.429988861084 24.4303588867188 24.5660610198975 24.8362941741943 25.0365161895752 24.9998912811279 24.7077465057373 24.5115756988525 24.5911865234375 24.7160911560059 24.8384971618652 25.1474132537842 25.3743152618408 25.4833583831787 25.3632106781006 25.0115261077881 24.8520889282227 25.0435085296631 25.17356300354
-9999 -9999 -9999 -9999 -9999 -9999 -9999 -9999 -9999 -9999 -9999 -9999 -9999 -9999 -9999 -9999 -9999 -9999 -9999 -9999 -9999 -9999 -9999 22.6109519004822 22.6075115203857 22.4948959350586 22.6337890625 22.773738861084 22.7260627746582 22.6587772369385 22.6879081726074 22.9103355407715 23.4350852966309 23.9115180969238 23.9552192687988 23.7404689788818 23.4823455810547 23.1857795715332 23.013578414917 23.0370922088623 23.0545330047607 23.1684436798096 23.5528182983398 24.017427444458 24.4405136108398 24.8978443145752 25.3104305267334 25.5174007415771 25.5439109802246 25.5651454925537 25.6414031982422 25.6082286834717 25.4504222869873 25.4396095275879 25.5516624450684 25.6378479003906 25.5394744873047 25.1482677459717 24.7278232574463 24.6195125579834 24.6425228118896 24.5396671295166 24.5008983612061 24.5871047973633 24.762752532959 24.7631072998047 24.5606517791748 24.5729598999023 24.8194103240967 24.9907779693604
-9999 -9999 -9999 -9999 -9999 -9999 -9999 -9999 -9999 -9999 -9999 -9999 -9999 -9999 -9999 -9999 -9999 -9999 -9999 -9999 -9999 -9999 -9999 22.6125545501709 22.3219013214111 22.3714370727539 22.6429405212402 22.8080558776855 22.7076530456543 22.6367263793945 22.8843727111816 23.4191570281982 24.0668773651123 24.5466785430908 24.6484794616699 24.4559669494629 24.1328716278076 23.8548488616943 23.8395156860352 24.1491985321045 24.481128692627 24.6120166778564 24.7900066375732 25.112979888916 25.4397010803223 25.7138290405273 25.8813304901123 25.9251842498779 25.9504261016846 26.0518913269043 26.1462841033936 26.0979652404785 25.9103260040283 25.7553749084473 25.7167339324951 25.711820602417 25.588134765625 25.1869220733643 24.7078590393066 24.484411239624 24.4406490325928 24.3131866455078 24.272741317749 24.3977222442627 24.5491180419922 24.6225490570068 24.5581169128418 24.5645790100098 24.7666988372803 24.9614601135254
-9999 -9999 -9999 -9999 -9999 -9999 -9999 -9999 -9999 -9999 -9999 -9999 -9999 -9999 -9999 -9999 -9999 -9999 -9999 -9999 -9999 -9999 23.4064846038818 22.7290840148926 22.4082660675049 22.4858474731445 22.6606903076172 22.7167568206787 22.6787223815918 22.8754043579102 23.4335422515869 24.1102504730225 24.6530284881592 24.9344100952148 24.9499855041504 24.7678279876709 24.4865798950195 24.1995391845703 24.0955448150635 24.3276462554932 24.6958446502686 24.9027538299561 25.0716152191162 25.3103122711182 25.5372848510742 25.7411022186279 25.8915328979492 25.971321105957 26.0585918426514 26.2071094512939 26.2979183197021 26.2182445526123 25.9889335632324 25.8118839263916 25.7665042877197 25.753360748291 25.584264755249 25.14013671875 24.6766147613525 24.5076446533203 24.6433448791504 24.8592281341553 25.0878582000732 25.2720985412598 25.3452396392822 25.3358612060547 25.259859085083 25.1647453308105 25.1862907409668 25.2836723327637
-9999 -9999 -9999 -9999 -9999 -9999 -9999 -9999 -9999 -9999 -9999 -9999 -9999 -9999 28.217021783193 -9999 -9999 -9999 -9999 26.2606735229492 -9999 24.4320755004883 23.7021999359131 23.1837100982666 22.9942970275879 22.9836444854736 22.9677181243896 22.942834854126 23.1182918548584 23.5760402679443 24.1023826599121 24.5388984680176 24.8818264007568 25.0883769989014 25.0760822296143 24.8368797302246 24.5448055267334 24.3239078521729 24.1967086791992 24.2991847991943 24.6423530578613 24.9330978393555 25.1222629547119 25.2789154052734 25.4082126617432 25.5705890655518 25.7336349487305 25.8556804656982 25.9706439971924 26.166374206543 26.3484535217285 26.3192253112793 26.0264701843262 25.789342880249 25.754415512085 25.7356204986572 25.5219383239746 25.1624507904053 24.9934139251709 25.1908512115479 25.6269474029541 26.0033187866211 26.1795825958252 26.1948986053467 26.1294403076172 26.0092449188232 25.853723526001 25.7134971618652 25.6639537811279 25.6968936920166
-9999 -9999 -9999 -9999 -9999 -9999 -9999 -9999 -9999 -9999 -9999 -9999 -9999 -9999 28.2195715904236 -9999 -9999 -9999 -9999 25.9478921890259 24.8096172332764 24.1254043579102 23.613920211792 23.4737281799316 23.4453296661377 23.4248104095459 23.3830490112305 23.4669933319092 23.869119644165 24.4029102325439 24.7841110229492 25.0498905181885 25.3035354614258 25.4740371704102 25.4190101623535 25.097074508667 24.7058525085449 24.4985008239746 24.4502696990967 24.4535388946533 24.622932434082 24.8518047332764 24.9705543518066 25.0563373565674 25.2058544158936 25.4354438781738 25.6430072784424 25.7812061309814 25.8956127166748 26.1070003509521 26.3545589447021 26.4482231140137 26.2334175109863 25.9251651763916 25.8186054229736 25.7378368377686 25.5053329467773 25.5298290252686 25.948787689209 26.3955688476562 26.6889114379883 26.8005561828613 26.7827854156494 26.7018413543701 26.6126365661621 26.4734668731689 26.2939643859863 26.1680583953857 26.1428031921387 26.2006759643555
-9999 -9999 -9999 -9999 -9999 -9999 -9999 -9999 -9999 -9999 -9999 -9999 -9999 -9999 28.2080974578857 -9999 -9999 -9999 -9999 -9999 23.7737135887146 23.5948219299316 23.4773998260498 23.4763374328613 23.496166229248 23.5647773742676 23.7114543914795 24.0586605072021 24.5758972167969 25.0002002716064 25.2572040557861 25.4756164550781 25.693229675293 25.8335933685303 25.7873115539551 25.4345111846924 24.9270534515381 24.6561336517334 24.6802196502686 24.7183074951172 24.8017997741699 24.9722709655762 25.0537414550781 25.1176166534424 25.3084259033203 25.6165637969971 25.8997058868408 26.0454025268555 26.099781036377 26.239839553833 26.4404582977295 26.5806846618652 26.517463684082 26.2773532867432 26.1086807250977 25.9618549346924 25.9511775970459 26.3902969360352 26.8981533050537 27.0766582489014 27.0863418579102 27.0525074005127 27.0198574066162 26.9737739562988 26.9266147613525 26.8146018981934 26.6638698577881 26.572868347168 26.574312210083 26.6427536010742
-9999 -9999 -9999 -9999 -9999 -9999 -9999 -9999 -9999 -9999 -9999 -9999 -9999 -9999 28.1816301345825 -9999 28.2539939880371 -9999 -9999 -9999 23.7718830108643 23.6027450561523 23.5860691070557 23.4877223968506 23.4405994415283 23.6293087005615 24.0026664733887 24.4868984222412 25.02952003479 25.4694213867188 25.7716960906982 26.0077991485596 26.161470413208 26.1927833557129 26.0641975402832 25.6825065612793 25.1720390319824 24.9095840454102 24.9971313476562 25.1643943786621 25.3712940216064 25.6556701660156 25.8596839904785 26.0042037963867 26.1884670257568 26.4019184112549 26.5625171661377 26.6035614013672 26.5794105529785 26.6264877319336 26.7299404144287 26.7815914154053 26.7231006622314 26.5703029632568 26.4246940612793 26.3077964782715 26.5206241607666 27.0336856842041 27.2300090789795 27.1480712890625 27.1248741149902 27.1446685791016 27.1699256896973 27.1764030456543 27.1377220153809 26.9959297180176 26.8163013458252 26.7220554351807 26.6995239257812 26.7335052490234
-9999 -9999 -9999 -9999 -9999 -9999 -9999 -9999 -9999 -9999 -9999 -9999 -9999 -9999 28.1816301345825 28.1551628112793 28.2001686096191 -9999 -9999 23.8013296127319 23.8020801544189 23.7401313781738 23.6806621551514 23.5596122741699 23.5325870513916 23.7436923980713 24.1571578979492 24.7283630371094 25.3873729705811 25.9412746429443 26.3095760345459 26.5467624664307 26.6482429504395 26.5526294708252 26.2912559509277 25.9406795501709 25.6228084564209 25.4993839263916 25.6129970550537 25.8550796508789 26.177713394165 26.5280494689941 26.7859153747559 26.9467506408691 27.064847946167 27.150562286377 27.1788501739502 27.1395454406738 27.0674095153809 27.0365123748779 27.0692691802979 27.0896244049072 26.9957294464111 26.847469329834 26.7420101165771 26.7221050262451 26.8985271453857 27.226375579834 27.2347373962402 27.0910625457764 27.0794010162354 27.1314945220947 27.2154121398926 27.2872428894043 27.2700119018555 27.0884532928467 26.8472557067871 26.7207450866699 26.6800155639648 26.6948699951172
-9999 -9999 -9999 -9999 -9999 -9999 -9999 -9999 -9999 -9999 -9999 -9999 -9999 -9999 -9999 27.7556358337402 28.0618419647217 -9999 25.0036196708679 23.7868213653564 23.8445339202881 23.8272609710693 23.6942405700684 23.6478633880615 23.7473392486572 24.0184841156006 24.5399188995361 25.2426147460938 25.900936126709 26.4003429412842 26.7433032989502 26.9681053161621 27.0844554901123 27.0416297912598 26.7847900390625 26.4338855743408 26.1793842315674 25.9881858825684 25.9242877960205 26.1480140686035 26.5560779571533 26.9374141693115 27.1980838775635 27.3526153564453 27.4601249694824 27.5147590637207 27.5006809234619 27.4420528411865 27.3440380096436 27.2723159790039 27.2537899017334 27.2929706573486 27.2821731567383 27.169017791748 26.9964389801025 26.9483699798584 27.0526733398438 27.2285900115967 27.1942310333252 27.0334129333496 26.9949150085449 27.0812110900879 27.194221496582 27.2757434844971 27.2344627380371 27.0254707336426 26.75852394104 26.5889301300049 26.5011653900146 26.5292644500732
-9999 -9999 -9999 -9999 -9999 -9999 -9999 -9999 -9999 -9999 -9999 -9999 -9999 -9999 -9999 27.426887512207 26.934118270874 -9999 23.9540176391602 23.99342918396 24.1191062927246 24.0243797302246 23.7815818786621 23.77268409729 23.9941844940186 24.509334564209 25.3273639678955 26.08766746521 26.5991554260254 26.9405479431152 27.1963748931885 27.3866634368896 27.5057964324951 27.5525379180908 27.4512042999268 27.150785446167 26.7944183349609 26.4717502593994 26.278470993042 26.3837623596191 26.7531681060791 27.1645793914795 27.4563598632812 27.6127452850342 27.6848316192627 27.6621112823486 27.5610790252686 27.4431324005127 27.3242473602295 27.2466487884521 27.2575359344482 27.3535957336426 27.4723434448242 27.4790725708008 27.3081436157227 27.0945606231689 26.9980087280273 27.0230007171631 27.0052452087402 26.925178527832 26.9391975402832 27.0719184875488 27.1872463226318 27.2233352661133 27.0850028991699 26.851131439209 26.6842613220215 26.5679626464844 26.4400253295898 26.437442779541
-9999 -9999 -9999 -9999 -9999 -9999 -9999 -9999 -9999 -9999 -9999 -9999 -9999 -9999 -9999 27.1754264831543 -9999 25.467296055385 24.3461151123047 24.44065284729 24.5110168457031 24.3654899597168 24.0439987182617 23.9924163818359 24.376745223999 25.2092514038086 26.1650485992432 26.804479598999 27.1600856781006 27.4202156066895 27.6514701843262 27.8159103393555 27.8974151611328 27.9267692565918 27.9039974212646 27.7734508514404 27.5248050689697 27.2412223815918 27.0437278747559 27.0657367706299 27.3278999328613 27.6417541503906 27.8551998138428 27.9095344543457 27.8087120056152 27.6657943725586 27.5124130249023 27.3190479278564 27.1339511871338 27.0449695587158 27.0835266113281 27.190128326416 27.3858108520508 27.580135345459 27.6266117095947 27.4921073913574 27.3064231872559 27.1924324035645 27.1418170928955 27.118350982666 27.157527923584 27.233814239502 27.2571277618408 27.217658996582 26.9975738525391 26.7337265014648 26.6530723571777 26.6181221008301 26.5564937591553 26.5590572357178
-9999 -9999 -9999 -9999 -9999 -9999 -9999 -9999 -9999 -9999 -9999 -9999 -9999 -9999 27.1754264831543 26.6361935933431 26.2703952789307 25.3900356292725 24.913631439209 24.8238086700439 24.792459487915 24.6601448059082 24.3390426635742 24.2915878295898 25.0130634307861 26.0955371856689 26.7759475708008 27.2277297973633 27.5488090515137 27.8224201202393 28.0132160186768 28.0872764587402 28.0825176239014 28.0410270690918 27.9855213165283 27.9449424743652 27.8836860656738 27.7773628234863 27.6846103668213 27.7066497802734 27.8449954986572 27.9914665222168 28.0062789916992 27.8261909484863 27.6355323791504 27.517391204834 27.3199462890625 27.0591373443604 26.898775100708 26.8590316772461 26.8824138641357 26.9363231658936 27.0582408905029 27.2625789642334 27.4744873046875 27.578950881958 27.5545463562012 27.4891128540039 27.4311771392822 27.3875598907471 27.3567352294922 27.3157157897949 27.2421035766602 27.1787223815918 26.9677658081055 26.6628646850586 26.57053565979 26.5962085723877 26.6051654815674 26.6375255584717
-9999 -9999 -9999 -9999 -9999 -9999 -9999 -9999 -9999 -9999 -9999 -9999 -9999 -9999 -9999 -9999 25.6197552680969 25.4065952301025 25.1711101531982 25.0585021972656 24.8899250030518 24.7443065643311 24.6407985687256 24.9543685913086 25.9369735717773 26.680513381958 27.1412792205811 27.5905437469482 27.9120006561279 28.1047554016113 28.1806144714355 28.1413326263428 28.0361633300781 27.9212894439697 27.8342399597168 27.823486328125 27.8470897674561 27.8525199890137 27.8547973632812 27.8643817901611 27.8477478027344 27.7697811126709 27.5901756286621 27.4002456665039 27.3321990966797 27.2239398956299 26.9670333862305 26.7569942474365 26.7263851165771 26.7516975402832 26.7512855529785 26.7483901977539 26.7668075561523 26.8565254211426 27.0197830200195 27.1971225738525 27.3047695159912 27.3472061157227 27.3388080596924 27.3106670379639 27.2572937011719 27.1687450408936 27.0740852355957 27.0425872802734 26.8862037658691 26.5878467559814 26.4881000518799 26.5379981994629 26.5563869476318 26.5791091918945
-9999 -9999 -9999 -9999 -9999 -9999 -9999 -9999 -9999 -9999 -9999 -9999 -9999 -9999 -9999 -9999 25.4092950820923 25.411994934082 25.5134239196777 25.5510692596436 25.2125663757324 24.9306526184082 25.0350589752197 25.5856437683105 26.474666595459 27.0979671478271 27.5755233764648 27.9387607574463 28.1370735168457 28.2135143280029 28.1661853790283 28.0001640319824 27.8029003143311 27.6466674804688 27.5615882873535 27.5772037506104 27.6344165802002 27.6779880523682 27.6839275360107 27.6210670471191 27.4794216156006 27.2698993682861 27.0725688934326 27.0282497406006 27.0444564819336 26.8844890594482 26.6369781494141 26.556734085083 26.6288299560547 26.6984615325928 26.7073249816895 26.6767978668213 26.6308097839355 26.6048564910889 26.6474590301514 26.7553215026855 26.8833847045898 27.0034408569336 27.0630874633789 27.0865421295166 27.0765552520752 27.0152397155762 26.921875 26.9015769958496 26.7667980194092 26.5009098052979 26.4173316955566 26.4719409942627 26.4813442230225 26.5273933410645
-9999 -9999 -9999 -9999 -9999 -9999 -9999 -9999 -9999 -9999 -9999 -9999 -9999 -9999 -9999 -9999 -9999 25.7998199462891 25.9830722808838 26.0690975189209 25.6878299713135 25.4540481567383 25.7790946960449 26.4585666656494 27.1940364837646 27.6862831115723 28.0147361755371 28.2008056640625 28.2632846832275 28.1890411376953 27.9640617370605 27.6844482421875 27.4804840087891 27.363151550293 27.3502063751221 27.4181423187256 27.4789333343506 27.4906368255615 27.4024200439453 27.2143669128418 27.026309967041 26.8602104187012 26.73410987854 26.7455196380615 26.789119720459 26.6499843597412 26.4611625671387 26.4574890136719 26.548038482666 26.6254901885986 26.6584777832031 26.6503448486328 26.6223945617676 26.5706977844238 26.5290908813477 26.5305137634277 26.5885848999023 26.6914768218994 26.7733383178711 26.8544540405273 26.9341983795166 26.9432315826416 26.833194732666 26.7691020965576 26.7170562744141 26.5708618164062 26.4951972961426 26.483943939209 26.4978103637695 26.5525169372559
-9999 -9999 -9999 -9999 -9999 -9999 -9999 -9999 -9999 -9999 -9999 -9999 -9999 -9999 25.4113199710846 25.411994934082 25.9098834991455 26.1369304656982 26.2907886505127 26.4222469329834 26.2091503143311 26.2707862854004 26.8051490783691 27.3759784698486 27.7919979095459 28.0899620056152 28.2837810516357 28.3309440612793 28.237678527832 27.9963130950928 27.6606311798096 27.4165744781494 27.3242664337158 27.2874794006348 27.2933578491211 27.3226795196533 27.3080501556396 27.1904296875 26.965539932251 26.7648029327393 26.6852054595947 26.63503074646 26.5775699615479 26.5955657958984 26.6355934143066 26.5507144927979 26.4353199005127 26.4557266235352 26.5014820098877 26.5529518127441 26.6229457855225 26.6421947479248 26.6083583831787 26.5477104187012 26.4905376434326 26.4509582519531 26.4370002746582 26.4826507568359 26.5585899353027 26.6590023040771 26.7828674316406 26.8489093780518 26.7625789642334 26.7022094726562 26.7447929382324 26.6968612670898 26.6135883331299 26.555944442749 26.543607711792 26.5628299713135
-9999 -9999 -9999 -9999 -9999 -9999 -9999 -9999 -9999 -9999 -9999 -9999 -9999 -9999 -9999 -9999 -9999 -9999 26.5591382980347 26.7189884185791 26.5971088409424 26.8316860198975 27.4062366485596 27.8981094360352 28.242733001709 28.4301261901855 28.4421787261963 28.2779674530029 27.9923896789551 27.6565608978271 27.3798065185547 27.2908573150635 27.3299140930176 27.3192253112793 27.2834854125977 27.2339782714844 27.1222877502441 26.9578456878662 26.7927093505859 26.6799602508545 26.656810760498 26.6373653411865 26.5849380493164 26.5599803924561 26.5571632385254 26.5047702789307 26.4652862548828 26.4788837432861 26.4626235961914 26.5134181976318 26.6337814331055 26.6852149963379 26.6331043243408 26.5068206787109 26.4083805084229 26.3551425933838 26.3207454681396 26.3494701385498 26.4150371551514 26.4851608276367 26.6080074310303 26.718204498291 26.7288379669189 26.7326831817627 26.7240104675293 26.6553268432617 26.5693054199219 26.5313282012939 26.5123138427734 26.5381259918213
-9999 -9999 -9999 -9999 -9999 -9999 -9999 -9999 -9999 -9999 -9999 -9999 -9999 -9999 -9999 -9999 -9999 26.762809753418 26.7990803718567 26.8045291900635 26.8504810333252 27.392276763916 28.0325412750244 28.3912906646729 28.498140335083 28.4207248687744 28.1907024383545 27.8459663391113 27.5338020324707 27.3191356658936 27.2095279693604 27.2472343444824 27.3636913299561 27.3713912963867 27.3043651580811 27.1999053955078 27.0438137054443 26.9268817901611 26.8420085906982 26.7392864227295 26.6985683441162 26.6768608093262 26.6149044036865 26.5571575164795 26.5323963165283 26.5091571807861 26.5039615631104 26.4814434051514 26.432991027832 26.5007419586182 26.6394462585449 26.7266693115234 26.7197780609131 26.5644092559814 26.4066867828369 26.3394660949707 26.3113899230957 26.3137302398682 26.3107452392578 26.3341541290283 26.4695358276367 26.6097011566162 26.7153072357178 26.7214050292969 26.6305732727051 26.5349788665771 26.4744186401367 26.4299411773682 26.4220657348633 26.4667549133301
-9999 -9999 -9999 -9999 -9999 -9999 -9999 -9999 -9999 -9999 -9999 -9999 -9999 27.3364315032959 27.2457747989231 -9999 27.1126346588135 26.9752821922302 26.762809753418 26.9099941253662 27.5491924285889 28.1809558868408 28.5022068023682 28.5222549438477 28.3679275512695 28.080379486084 27.7248153686523 27.4229145050049 27.2247581481934 27.1171989440918 27.114049911499 27.2477283477783 27.4211769104004 27.4425945281982 27.3636589050293 27.2292423248291 27.0739803314209 26.99680519104 26.8974571228027 26.7654151916504 26.7199687957764 26.7036933898926 26.6630172729492 26.6145553588867 26.5880374908447 26.5662269592285 26.5337162017822 26.4769515991211 26.4156932830811 26.4324951171875 26.5440502166748 26.6507892608643 26.7000751495361 26.6099891662598 26.4530811309814 26.3695659637451 26.3553047180176 26.3324108123779 26.271842956543 26.2791919708252 26.3681793212891 26.4545783996582 26.5586338043213 26.5870227813721 26.5492534637451 26.4659194946289 26.3815536499023 26.3561859130859 26.4091987609863 26.4628086090088
-9999 -9999 -9999 -9999 -9999 -9999 -9999 -9999 -9999 -9999 -9999 -9999 -9999 -9999 27.3364315032959 27.2444655100505 27.1564273834229 27.0688419342041 26.913049697876 27.5520133972168 28.357572555542 28.5660877227783 28.5431747436523 28.3649787902832 28.0656356811523 27.6757431030273 27.35085105896 27.1502342224121 27.0158977508545 27.0119705200195 27.1133766174316 27.2867870330811 27.4527282714844 27.4811992645264 27.404483795166 27.2647800445557 27.1336154937744 27.0105953216553 26.8404960632324 26.712703704834 26.6716594696045 26.6755790710449 26.6835746765137 26.6700572967529 26.6513137817383 26.625093460083 26.5801620483398 26.5254325866699 26.4661083221436 26.4358062744141 26.4725475311279 26.5413436889648 26.5980587005615 26.574743270874 26.4689426422119 26.4048728942871 26.4057064056396 26.3918418884277 26.3409461975098 26.34792137146 26.4288272857666 26.5525131225586 26.6623840332031 26.6890773773193 26.6254539489746 26.5199527740479 26.4634017944336 26.437744140625 26.4665927886963 26.4690475463867
-9999 -9999 -9999 -9999 -9999 -9999 -9999 -9999 -9999 -9999 -9999 -9999 -9999 -9999 27.3102831840515 27.3364315032959 27.2405376434326 27.331844329834 27.7478561401367 28.3870697021484 28.5750408172607 28.5271682739258 28.370584487915 28.0696792602539 27.6697101593018 27.3317279815674 27.1467628479004 27.0009346008301 26.9278411865234 27.0080299377441 27.1750755310059 27.3387107849121 27.467809677124 27.4936504364014 27.4043788909912 27.2632827758789 27.1350536346436 26.9491806030273 26.7514228820801 26.6542377471924 26.617748260498 26.6146392822266 26.6414318084717 26.666524887085 26.6846389770508 26.6788444519043 26.6431427001953 26.6004371643066 26.5559101104736 26.5140933990479 26.5054016113281 26.5321197509766 26.5676822662354 26.5593147277832 26.4991321563721 26.4572811126709 26.4733810424805 26.5041656494141 26.4957675933838 26.515567779541 26.6279487609863 26.790807723999 26.8507747650146 26.7871112823486 26.6350193023682 26.5563411712646 26.5095996856689 26.4926624298096 26.5060386657715 26.4593658447266
-9999 -9999 -9999 -9999 -9999 -9999 -9999 -9999 -9999 -9999 -9999 27.6639213562012 27.4759330749512 27.2574844360352 27.396692276001 27.250524520874 27.6286010742188 28.152006149292 28.4638347625732 28.5735473632812 28.5227966308594 28.3413867950439 28.0872402191162 27.6941471099854 27.3534355163574 27.1542015075684 27.0185108184814 26.9368839263916 26.9142246246338 27.0100631713867 27.1843948364258 27.3432846069336 27.4429359436035 27.4467258453369 27.3447246551514 27.2218017578125 27.0761871337891 26.8662109375 26.7482738494873 26.7179069519043 26.6766052246094 26.6376876831055 26.6288719177246 26.6394462585449 26.6787300109863 26.7201519012451 26.7084007263184 26.6734714508057 26.6494369506836 26.6131973266602 26.551082611084 26.5071964263916 26.5245132446289 26.5115642547607 26.4765110015869 26.4757347106934 26.4954261779785 26.5332145690918 26.5594902038574 26.5992908477783 26.7218246459961 26.8493633270264 26.8424205780029 26.7322845458984 26.5973873138428 26.5380344390869 26.4935607910156 26.5135631561279 26.5383396148682 26.496265411377
-9999 -9999 -9999 -9999 -9999 -9999 -9999 -9999 -9999 27.8327579498291 27.596212387085 27.422306060791 27.2185535430908 27.1994285583496 27.2879467010498 27.3938827514648 28.1741333007812 28.4112281799316 28.5567092895508 28.6118049621582 28.5088901519775 28.2538814544678 27.8382186889648 27.429105758667 27.1919097900391 27.0471820831299 26.965970993042 26.953067779541 26.9487113952637 27.0130672454834 27.1492824554443 27.2891960144043 27.3735523223877 27.3693313598633 27.2746467590332 27.1452770233154 26.9823589324951 26.8416557312012 26.8314228057861 26.8483352661133 26.7988796234131 26.7301025390625 26.6873531341553 26.6526756286621 26.6598968505859 26.7156734466553 26.7402305603027 26.7182216644287 26.6916542053223 26.6593761444092 26.5934619903564 26.5055713653564 26.4821929931641 26.4335479736328 26.3935031890869 26.4192695617676 26.4752368927002 26.5340900421143 26.6068363189697 26.664794921875 26.7496433258057 26.8152027130127 26.7564716339111 26.6426029205322 26.508695602417 26.4026031494141 26.3716602325439 26.4322185516357 26.5006790161133 26.4990386962891
-9999 -9999 -9999 -9999 -9999 -9999 -9999 -9999 -9999 27.6890926361084 27.4119853973389 27.2219467163086 27.2372283935547 27.3736171722412 27.5295543670654 28.0913715362549 28.4780750274658 28.6409130096436 28.6499290466309 28.5125064849854 28.3406944274902 28.0323238372803 27.5626831054688 27.2766723632812 27.1324195861816 27.0021457672119 26.9508590698242 26.9766521453857 26.994930267334 27.0320434570312 27.1274147033691 27.2363739013672 27.297924041748 27.2778797149658 27.1743392944336 27.031702041626 26.8958072662354 26.853759765625 26.8887710571289 26.9121570587158 26.8795433044434 26.7968349456787 26.7198448181152 26.643798828125 26.6317844390869 26.6893672943115 26.7288951873779 26.7255668640137 26.7122783660889 26.6919555664062 26.6541137695312 26.5692291259766 26.5076217651367 26.4748458862305 26.4684619903564 26.4987316131592 26.5580387115479 26.6245307922363 26.7028408050537 26.7438793182373 26.7701053619385 26.7529773712158 26.6751289367676 26.5876865386963 26.4604759216309 26.3111476898193 26.2918910980225 26.4011688232422 26.5185413360596 26.5523910522461
-9999 -9999 -9999 -9999 -9999 27.8385610580444 27.7445106506348 27.6184768676758 27.6124897003174 27.5690288543701 27.3661823272705 27.2310104370117 27.3805847167969 27.6835651397705 28.094518661499 28.4471454620361 28.6151561737061 28.6475200653076 28.5827960968018 28.4427070617676 28.2386703491211 27.8670711517334 27.4593105316162 27.278018951416 27.1851711273193 27.0566387176514 26.978479385376 26.9827117919922 27.0159187316895 27.0533599853516 27.1296691894531 27.2149543762207 27.2491397857666 27.218111038208 27.1301517486572 27.0055675506592 26.9100723266602 26.9005947113037 26.9253768920898 26.9439258575439 26.9223613739014 26.845458984375 26.7526912689209 26.6531734466553 26.6317691802979 26.6794261932373 26.7096767425537 26.7110366821289 26.7167778015137 26.7162170410156 26.7150096893311 26.6899833679199 26.6365451812744 26.6271228790283 26.6673774719238 26.6992130279541 26.7384777069092 26.8012866973877 26.8385944366455 26.8243579864502 26.7694034576416 26.6920280456543 26.6294479370117 26.5841464996338 26.4612197875977 26.3516521453857 26.3768978118896 26.4479293823242 26.557243347168 26.6372890472412
-9999 -9999 -9999 -9999 28.3057079315186 27.8365631103516 27.4674625396729 27.2989463806152 27.2817573547363 27.2767028808594 27.1973400115967 27.2733535766602 27.7230892181396 28.1928825378418 28.4823665618896 28.6192531585693 28.6689224243164 28.6371231079102 28.5171756744385 28.3528709411621 28.1144123077393 27.7169628143311 27.4374084472656 27.3474025726318 27.2886219024658 27.196252822876 27.1016407012939 27.0423984527588 27.0561275482178 27.0978603363037 27.1595649719238 27.2181510925293 27.228422164917 27.1928672790527 27.135871887207 27.0531616210938 26.9871597290039 26.9593143463135 26.9635715484619 26.9899482727051 26.9739360809326 26.9003734588623 26.7962703704834 26.6939239501953 26.6732959747314 26.6970901489258 26.6985893249512 26.6801738739014 26.6924171447754 26.7192344665527 26.7514362335205 26.7729549407959 26.7381649017334 26.7103424072266 26.7484245300293 26.7858180999756 26.8049964904785 26.8584289550781 26.9033317565918 26.8800468444824 26.7852115631104 26.6938133239746 26.6794528961182 26.6461448669434 26.5151214599609 26.4868450164795 26.5017070770264 26.5216045379639 26.6098976135254 26.7025966644287
-9999 -9999 -9999 27.9329152107239 27.9105205535889 27.3620204925537 27.2348613739014 27.2452125549316 27.3035755157471 27.3921604156494 27.3812065124512 27.8374347686768 28.3258190155029 28.5424671173096 28.6305027008057 28.6669635772705 28.6631507873535 28.5726280212402 28.4343967437744 28.26780128479 28.0576419830322 27.7121543884277 27.4877777099609 27.4223461151123 27.3911743164062 27.335865020752 27.2671298980713 27.1626014709473 27.1025676727295 27.1275119781494 27.1833114624023 27.2338256835938 27.2341861724854 27.191219329834 27.1314640045166 27.079475402832 27.0314826965332 27.0162658691406 27.0569877624512 27.0983219146729 27.0842990875244 27.0039253234863 26.8720188140869 26.7731266021729 26.7640247344971 26.7599506378174 26.7319431304932 26.6891460418701 26.6782150268555 26.7247982025146 26.780101776123 26.82546043396 26.8279972076416 26.8242588043213 26.8469905853271 26.8651695251465 26.879861831665 26.9223461151123 26.9386253356934 26.8982715606689 26.8148365020752 26.7756824493408 26.8049697875977 26.7611064910889 26.6707611083984 26.6785087585449 26.6325340270996 26.6323738098145 26.6881256103516 26.7548713684082
-9999 -9999 -9999 27.9646644592285 27.5507678985596 27.2698764801025 27.3682270050049 27.495849609375 27.6662292480469 27.873327255249 28.1364135742188 28.4731426239014 28.5724678039551 28.6226482391357 28.6582832336426 28.645622253418 28.5750694274902 28.4505462646484 28.3084259033203 28.152307510376 27.9745330810547 27.7259273529053 27.5237083435059 27.4436302185059 27.4123439788818 27.3908653259277 27.3852672576904 27.3437232971191 27.2230758666992 27.1414012908936 27.1459121704102 27.1883888244629 27.2042236328125 27.1808052062988 27.1381359100342 27.1034488677979 27.1169013977051 27.1853675842285 27.2536010742188 27.2888698577881 27.2655353546143 27.1617012023926 26.9959716796875 26.9094753265381 26.8997840881348 26.8582210540771 26.8093700408936 26.7626514434814 26.730052947998 26.7440662384033 26.776330947876 26.8158149719238 26.8538246154785 26.8880596160889 26.9203090667725 26.9371109008789 26.9638404846191 26.9912757873535 26.9852905273438 26.9476261138916 26.9131278991699 26.9341793060303 26.9574298858643 26.8779277801514 26.8157920837402 26.8095417022705 26.7203464508057 26.6839294433594 26.6859340667725 26.7691345214844
