NCOLS 70 
NROWS 52 
XLLCORNER -80 
YLLCORNER 33 
CELLSIZE 0.25 
NODATA_value -9999 
-9999.000000000000000 -9999 -9999 -9999 -9999 -9999 -9999 -9999 -9999 -9999 -9999 -9999 -9999 -9999 -9999 -9999 -9999 -9999 -9999 -9999 -9999 -9999 -9999 -9999 -9999 -9999 -9999 -9999 -9999 -9999 -9999 -9999 -9999 -9999 -9999 -9999 -9999 -9999 -9999 -9999 -9999 -9999 -9999 -9999 -9999 -9999 -9999 -9999 -9999 -9999 -9999 -9999 -9999 -9999 -9999 -9999 -9999 -9999 -9999 -9999 -9999 -9999 -9999 -9999 -9999 -9999 -9999 -9999 -9999 -9999
-9999 -9999 -9999 -9999 -9999 -9999 -9999 -9999 -9999 -9999 -9999 -9999 -9999 -9999 -9999 -9999 -9999 -9999 -9999 -9999 -9999 -9999 -9999 -9999 -9999 -9999 -9999 -9999 -9999 -9999 -9999 -9999 -9999 -9999 -9999 -9999 -9999 -9999 -9999 -9999 -9999 -9999 -9999 -9999 -9999 -9999 -9999 -9999 -9999 -9999 -9999 -9999 -9999 -9999 -9999 -9999 -9999 -9999 -9999 -9999 -9999 -9999 -9999 -9999 -9999 -9999 -9999 -9999 -9999 -9999
-9999 -9999 -9999 -9999 -9999 -9999 -9999 -9999 -9999 -9999 -9999 -9999 -9999 -9999 -9999 -9999 -9999 -9999 -9999 -9999 -9999 -9999 -9999 -9999 -9999 -9999 -9999 -9999 -9999 -9999 -9999 -9999 -9999 -9999 -9999 -9999 -9999 -9999 -9999 -9999 -9999 -9999 -9999 -9999 -9999 -9999 -9999 -9999 -9999 -9999 -9999 -9999 -9999 -9999 -9999 -9999 -9999 -9999 -9999 7.46605396270752 -9999 -9999 -9999 -9999 -9999 -9999 -9999 -9999 -9999 -9999
-9999 -9999 -9999 -9999 -9999 -9999 -9999 -9999 -9999 -9999 -9999 -9999 -9999 -9999 -9999 -9999 -9999 -9999 -9999 -9999 -9999 -9999 -9999 -9999 -9999 -9999 -9999 -9999 -9999 -9999 -9999 -9999 -9999 -9999 -9999 -9999 -9999 -9999 -9999 -9999 -9999 -9999 -9999 -9999 -9999 -9999 -9999 -9999 -9999 -9999 -9999 -9999 -9999 -9999 -9999 7.59914779663086 7.50613307952881 7.56804037094116 7.54272651672363 7.52279281616211 -9999 -9999 -9999 -9999 -9999 -9999 -9999 -9999 -9999 -9999
-9999 -9999 -9999 -9999 -9999 -9999 -9999 -9999 -9999 -9999 -9999 -9999 -9999 -9999 -9999 -9999 -9999 -9999 -9999 -9999 -9999 -9999 -9999 -9999 -9999 -9999 -9999 -9999 -9999 -9999 -9999 -9999 -9999 -9999 -9999 -9999 -9999 -9999 -9999 -9999 -9999 -9999 -9999 -9999 -9999 -9999 -9999 -9999 -9999 -9999 -9999 -9999 7.45743846893311 7.46301221847534 7.49360370635986 7.43607950210571 7.42606544494629 7.48420333862305 -9999 -9999 -9999 -9999 -9999 -9999 -9999 -9999 -9999 -9999 -9999 -9999
-9999 -9999 -9999 -9999 -9999 -9999 -9999 -9999 -9999 -9999 -9999 -9999 -9999 -9999 -9999 -9999 -9999 -9999 -9999 -9999 -9999 -9999 -9999 -9999 -9999 -9999 -9999 -9999 -9999 -9999 -9999 -9999 -9999 -9999 -9999 -9999 -9999 -9999 -9999 -9999 -9999 -9999 -9999 -9999 -9999 -9999 -9999 -9999 -9999 -9999 6.61939029693603 6.7425217628479 6.75131702423096 6.73578548431396 6.81015062332153 7.05491018295288 -9999 -9999 -9999 -9999 -9999 -9999 -9999 -9999 -9999 -9999 -9999 5.36843093236287 5.35091137886047 5.59237957000732
-9999 -9999 -9999 -9999 -9999 -9999 -9999 -9999 -9999 -9999 -9999 -9999 -9999 -9999 -9999 -9999 -9999 -9999 -9999 -9999 -9999 -9999 -9999 -9999 -9999 -9999 -9999 -9999 -9999 -9999 -9999 -9999 -9999 -9999 -9999 -9999 -9999 -9999 -9999 -9999 -9999 -9999 -9999 -9999 7.74135080973307 -9999 -9999 6.91272294521332 6.74643659591675 6.52378940582275 6.26873302459717 6.05309247970581 6.1312575340271 6.2594428062439 6.64571809768677 -9999 -9999 -9999 -9999 -9999 -9999 -9999 -9999 5.8910608291626 5.63646411895752 5.53057956695557 5.48607635498047 5.38374948501587 5.23546695709229 5.19204950332642
-9999 -9999 -9999 -9999 -9999 -9999 -9999 -9999 -9999 -9999 -9999 -9999 -9999 -9999 -9999 -9999 -9999 -9999 -9999 -9999 -9999 -9999 -9999 -9999 -9999 -9999 -9999 -9999 -9999 -9999 -9999 -9999 -9999 -9999 -9999 -9999 -9999 -9999 -9999 -9999 -9999 -9999 -9999 -9999 7.78849411010742 7.53998041152954 7.24113607406616 6.96548748016357 6.69783163070679 6.49589681625366 6.37696027755737 6.25871181488037 6.15407371520996 6.10391092300415 6.29475712776184 -9999 -9999 -9999 -9999 -9999 -9999 -9999 5.80233716964722 5.54012155532837 5.45221185684204 5.47238397598267 5.43935918807983 5.3043155670166 5.13534069061279 5.09713554382324
-9999 -9999 -9999 -9999 -9999 -9999 -9999 -9999 -9999 -9999 -9999 -9999 -9999 -9999 -9999 -9999 -9999 -9999 -9999 -9999 -9999 -9999 -9999 -9999 -9999 -9999 -9999 -9999 -9999 -9999 -9999 -9999 -9999 -9999 -9999 -9999 -9999 -9999 -9999 -9999 8.45716508229574 8.20754925409953 7.89364528656006 7.79317855834961 7.54287099838257 7.16418313980103 6.89679336547852 6.77253103256226 6.78435754776001 6.85665702819824 6.79360103607178 6.578773021698 6.34133672714233 6.16995668411255 6.38704462051392 -9999 -9999 -9999 -9999 -9999 5.86823097864787 5.82457208633423 5.69415760040283 5.58542585372925 5.61300992965698 5.77173900604248 5.88049173355103 5.75854635238647 5.43466949462891 5.22049760818481
-9999 -9999 -9999 -9999 -9999 -9999 -9999 -9999 -9999 -9999 -9999 -9999 -9999 -9999 -9999 -9999 -9999 -9999 -9999 -9999 -9999 -9999 -9999 -9999 -9999 -9999 -9999 -9999 -9999 -9999 -9999 -9999 -9999 -9999 -9999 -9999 -9999 -9999 -9999 8.6625452041626 8.49843597412109 8.21051406860352 7.91369771957397 7.65525817871094 7.3853063583374 7.13237333297729 7.00436067581177 7.01724815368652 7.1405348777771 7.22299528121948 6.99327230453491 6.54893827438354 6.22594833374023 6.11276626586914 6.39925861358643 7.14933061599731 -9999 -9999 -9999 5.98530113697052 6.02808237075806 5.75203847885132 5.62976789474487 5.59912109375 5.65992212295532 5.92193031311035 6.19326066970825 6.28896856307983 6.14957571029663 5.82709693908691
-9999 -9999 -9999 -9999 -9999 -9999 -9999 -9999 -9999 -9999 -9999 -9999 -9999 -9999 -9999 -9999 -9999 -9999 -9999 -9999 -9999 -9999 -9999 -9999 -9999 -9999 -9999 -9999 -9999 -9999 -9999 -9999 -9999 -9999 -9999 -9999 -9999 -9999 8.95472812652588 8.62680149078369 8.33473491668701 8.04396152496338 7.83651828765869 7.63415098190308 7.42046403884888 7.2365026473999 7.13431835174561 7.16704750061035 7.31373977661133 7.34136152267456 7.00055980682373 6.51748514175415 6.14516592025757 5.90285921096802 5.98737764358521 6.51762914657593 6.74357080459595 6.32159558931987 6.19037199020386 5.95750188827515 5.76524829864502 5.67892789840698 5.67356967926025 5.62382936477661 5.55474233627319 5.77387237548828 6.05151987075806 6.29342079162598 6.50422620773315 6.40713548660278
-9999 -9999 -9999 -9999 -9999 -9999 -9999 -9999 -9999 -9999 -9999 -9999 -9999 -9999 -9999 -9999 -9999 -9999 -9999 -9999 -9999 -9999 -9999 -9999 -9999 -9999 -9999 -9999 -9999 -9999 -9999 -9999 -9999 -9999 -9999 -9999 -9999 9.52631855010986 9.20883369445801 8.74914169311523 8.41449356079102 8.22399139404297 8.12891006469727 7.96741056442261 7.70261859893799 7.4699501991272 7.37347841262817 7.45003890991211 7.62256002426147 7.62536478042603 7.32560396194458 6.94996500015259 6.61942052841187 6.18850183486938 5.9147424697876 5.9305591583252 6.01857566833496 5.7984938621521 5.53626537322998 5.42666435241699 5.46723699569702 5.61239862442017 5.85380411148071 5.85544681549072 5.61048126220703 5.78251266479492 6.05773735046387 6.38614654541016 6.68508672714233 6.67909908294678
-9999 -9999 -9999 -9999 -9999 -9999 -9999 -9999 -9999 -9999 -9999 -9999 -9999 -9999 -9999 -9999 -9999 -9999 -9999 -9999 -9999 -9999 -9999 -9999 -9999 -9999 -9999 -9999 -9999 -9999 -9999 -9999 -9999 -9999 -9999 -9999 -9999 9.5657320022583 9.30890274047852 8.96338939666748 8.71359825134277 8.56650638580322 8.52624607086182 8.43914031982422 8.23924541473389 8.01541423797607 7.9091854095459 7.95781469345093 8.03125190734863 7.97825193405151 7.76337480545044 7.50988483428955 7.1933069229126 6.52803897857666 5.91050434112549 5.66411972045898 5.6083607673645 5.42420959472656 5.29247808456421 5.31727313995361 5.49375438690186 5.83103513717651 6.4312424659729 6.78392124176025 6.76549005508423 6.73496007919312 6.92394113540649 7.23745346069336 7.40642213821411 7.41865730285645
-9999 -9999 -9999 -9999 -9999 -9999 -9999 -9999 -9999 -9999 -9999 -9999 -9999 -9999 -9999 -9999 -9999 -9999 -9999 -9999 -9999 -9999 -9999 -9999 -9999 -9999 -9999 -9999 -9999 -9999 -9999 -9999 -9999 -9999 -9999 -9999 -9999 9.94081115722656 9.54052066802979 9.2427339553833 9.09565448760986 9.07227230072021 9.06744384765625 8.91970729827881 8.6822338104248 8.48853206634521 8.39363765716553 8.36038303375244 8.26982593536377 8.10888004302979 7.88402986526489 7.59962224960327 6.98522615432739 6.20056533813477 5.70908308029175 5.55173873901367 5.50179672241211 5.4041895866394 5.51218223571777 5.64080142974854 5.97192907333374 6.46868181228638 7.16117191314697 8.07684326171875 9.00506019592285 9.21797466278076 9.44235610961914 9.63760566711426 9.44397830963135 8.9550895690918
-9999 -9999 -9999 -9999 -9999 -9999 -9999 -9999 -9999 -9999 -9999 -9999 -9999 -9999 -9999 -9999 -9999 -9999 -9999 -9999 -9999 -9999 -9999 -9999 -9999 -9999 -9999 -9999 -9999 -9999 -9999 -9999 -9999 -9999 -9999 -9999 10.6527671813965 10.2065000534058 9.76340198516846 9.54237842559814 9.44578742980957 9.45546054840088 9.38637351989746 9.17347526550293 8.94089317321777 8.7777156829834 8.67692756652832 8.53526496887207 8.32774353027344 8.10071659088135 7.84890460968018 7.44874668121338 6.86355304718018 6.32684803009033 6.06353378295898 5.86098194122314 5.52388048171997 5.35223865509033 5.64577865600586 5.89235925674438 6.35035419464111 7.10564279556274 8.45281410217285 10.3889980316162 11.8407754898071 13.0297889709473 13.8674001693726 14.1926565170288 13.8549919128418 12.3921241760254
-9999 -9999 -9999 -9999 -9999 -9999 -9999 -9999 -9999 -9999 -9999 -9999 -9999 -9999 -9999 -9999 -9999 -9999 -9999 -9999 -9999 -9999 -9999 -9999 -9999 -9999 -9999 -9999 -9999 -9999 -9999 -9999 -9999 -9999 -9999 -9999 -9999 10.318829536438 10.1592359542847 9.91370964050293 9.73125648498535 9.64759731292725 9.51694869995117 9.28496170043945 9.07178974151611 8.92633533477783 8.80383014678955 8.56282138824463 8.26688671112061 8.01906490325928 7.81202077865601 7.55482196807861 7.29133605957031 6.98494577407837 6.6981029510498 6.06769418716431 5.59847354888916 5.6934118270874 5.92435359954834 6.34300851821899 7.41028118133545 9.38384914398193 12.5472412109375 15.3317213058472 16.5001106262207 17.3684673309326 17.9282779693604 18.2287464141846 17.8828048706055 16.3713302612305
-9999 -9999 -9999 -9999 -9999 -9999 -9999 -9999 -9999 -9999 -9999 -9999 -9999 -9999 -9999 -9999 -9999 -9999 -9999 -9999 -9999 -9999 -9999 -9999 -9999 -9999 -9999 -9999 -9999 -9999 -9999 -9999 -9999 -9999 -9999 -9999 -9999 -9999 10.6592464447021 -9999 9.970458984375 9.76329612731934 9.55861186981201 9.31453514099121 9.09860992431641 8.92506313323975 8.78796005249023 8.5340404510498 8.25480079650879 8.04145050048828 7.95272731781006 7.8769907951355 7.71914529800415 7.38965129852295 6.97913312911987 6.16885042190552 6.31198596954346 7.14729309082031 7.31278944015503 7.65863656997681 9.75163173675537 13.2959117889404 15.9440746307373 16.917724609375 17.5044250488281 18.2068862915039 18.7873039245605 19.0997428894043 18.9847545623779 18.7051296234131
-9999 -9999 -9999 -9999 -9999 -9999 -9999 -9999 -9999 -9999 -9999 -9999 -9999 -9999 -9999 -9999 -9999 -9999 -9999 -9999 -9999 -9999 -9999 -9999 -9999 -9999 -9999 -9999 -9999 -9999 -9999 -9999 -9999 -9999 -9999 -9999 -9999 -9999 -9999 -9999 10.2251129150391 9.8127965927124 9.55557346343994 9.30403327941895 9.06929492950439 8.87951183319092 8.76045608520508 8.60904216766357 8.489914894104 8.28272247314453 8.21664333343506 8.11681652069092 7.92262363433838 7.59254884719849 7.24583911895752 7.06058931350708 7.77830410003662 9.0638599395752 9.55880355834961 10.1716413497925 12.1692628860474 14.5450811386108 15.8514575958252 16.8697128295898 17.6490364074707 18.4843120574951 19.0117721557617 19.2924423217773 19.2766094207764 19.1598796844482
-9999 -9999 -9999 -9999 -9999 -9999 -9999 -9999 -9999 -9999 -9999 -9999 -9999 -9999 -9999 -9999 -9999 -9999 -9999 -9999 -9999 -9999 -9999 -9999 -9999 -9999 -9999 -9999 -9999 -9999 -9999 -9999 -9999 -9999 11.3411099910736 11.6547842025757 11.6801691055298 -9999 11.6515665054321 11.4266576766968 10.6547937393188 9.97121620178223 9.62784385681152 9.34294414520264 9.0754508972168 8.93348693847656 8.84322166442871 8.7111120223999 8.55700778961182 8.3618745803833 8.14752006530762 7.87394905090332 7.53998184204102 7.20177841186523 7.15070056915283 7.52835559844971 8.37005615234375 9.50390911102295 10.1811113357544 10.8845472335815 11.870982170105 13.676812171936 15.5728340148926 17.0979194641113 18.3283863067627 19.1800556182861 19.7071838378906 20.0140228271484 19.9612789154053 19.6177024841309
-9999 -9999 -9999 -9999 -9999 -9999 -9999 -9999 -9999 -9999 -9999 -9999 -9999 -9999 -9999 -9999 -9999 -9999 -9999 -9999 -9999 -9999 -9999 -9999 -9999 -9999 -9999 12.8564186096191 12.8564186096191 12.7524061203003 12.5826539993286 11.9579162597656 11.2318058013916 11.168267250061 11.2892599105835 11.2521286010742 11.1545639038086 11.139838218689 11.2159261703491 11.097204208374 10.4867725372314 9.85640907287598 9.58631992340088 9.38611221313477 9.15738964080811 8.99075222015381 8.83769989013672 8.65183162689209 8.45954036712646 8.25382900238037 8.01071834564209 7.75369119644165 7.53027534484863 7.52856779098511 7.79084491729736 8.36477661132812 9.04292774200439 9.7265625 10.410120010376 11.367467880249 12.2257595062256 13.9131937026978 15.9294910430908 17.6267642974854 18.7180919647217 19.3380069732666 19.8813877105713 20.222038269043 20.1974430084229 19.8562412261963
-9999 -9999 -9999 -9999 -9999 -9999 -9999 -9999 -9999 -9999 -9999 -9999 -9999 -9999 -9999 -9999 -9999 -9999 -9999 -9999 -9999 -9999 -9999 -9999 -9999 -9999 -9999 -9999 -9999 -9999 12.1826992034912 11.6156806945801 10.8998117446899 10.7785930633545 10.8864412307739 10.85280418396 10.7385673522949 10.6567096710205 10.6102085113525 10.4743223190308 10.0879974365234 9.62423992156982 9.46556568145752 9.37262439727783 9.1554536819458 8.91385555267334 8.71883392333984 8.57782745361328 8.49615478515625 8.45937252044678 8.40463829040527 8.36298561096191 8.55015754699707 9.0825777053833 9.82454490661621 10.5966768264771 10.6830606460571 10.6366539001465 11.3860464096069 13.0111961364746 14.2466650009155 15.4157333374023 17.1189880371094 18.3953475952148 19.0166473388672 19.408618927002 19.8565979003906 20.1642227172852 20.177318572998 19.9465808868408
-9999 -9999 -9999 -9999 -9999 -9999 -9999 -9999 -9999 -9999 -9999 -9999 -9999 -9999 -9999 -9999 -9999 -9999 -9999 -9999 -9999 -9999 -9999 -9999 -9999 12.467965443929 12.2470213572184 11.9831107457479 11.6672410964966 11.6805772781372 11.3460512161255 11.1485404968262 11.030876159668 10.9172973632812 10.8302335739136 10.7113342285156 10.5456304550171 10.3808317184448 10.2404632568359 10.1105871200562 9.88685035705566 9.61739444732666 9.44236278533936 9.26243305206299 9.02426242828369 8.84576511383057 8.76865673065186 8.79323863983154 9.01393795013428 9.33875942230225 9.61894226074219 9.81674385070801 10.3069257736206 11.0094203948975 11.9088363647461 12.6539373397827 12.3114881515503 11.9661893844604 12.929123878479 14.6009330749512 15.8295707702637 16.9005317687988 18.1087226867676 18.7807636260986 19.1429462432861 19.4267082214355 19.7453918457031 20.0589141845703 20.1999340057373 20.1821556091309
-9999 -9999 -9999 -9999 -9999 -9999 -9999 -9999 -9999 -9999 -9999 -9999 -9999 -9999 -9999 -9999 -9999 -9999 -9999 -9999 -9999 -9999 -9999 -9999 12.6829748153687 12.4616451263428 12.2592763900757 12.0201425552368 11.6699132919312 11.2983312606812 11.0615491867065 10.9897756576538 10.9855670928955 10.9064407348633 10.7489442825317 10.5587711334229 10.3882789611816 10.2697982788086 10.1625814437866 10.0521554946899 9.91308784484863 9.75816917419434 9.60483074188232 9.48173809051514 9.49058723449707 9.65406131744385 9.79553031921387 9.93211460113525 10.2987689971924 10.8679437637329 11.5453662872314 12.1492767333984 12.8066921234131 13.1324319839478 13.4580087661743 13.8535451889038 13.6512031555176 13.6962108612061 14.6863203048706 15.9481744766235 17.0259571075439 17.7741928100586 18.2787227630615 18.7071208953857 19.0165309906006 19.2187061309814 19.5043449401855 19.8477840423584 20.1321144104004 20.3282127380371
-9999 -9999 -9999 -9999 -9999 -9999 -9999 -9999 -9999 -9999 -9999 -9999 -9999 -9999 -9999 -9999 -9999 -9999 -9999 -9999 -9999 -9999 -9999 -9999 12.8661346435547 12.6330718994141 12.3312292098999 11.8931045532227 11.3541784286499 11.0259218215942 11.0479249954224 11.1865911483765 11.2371444702148 11.0839939117432 10.8219709396362 10.6291475296021 10.5682191848755 10.5859928131104 10.5984354019165 10.5885581970215 10.5085506439209 10.4635715484619 10.5217161178589 10.7102384567261 11.0829820632935 11.5316753387451 11.869815826416 12.1110010147095 12.3331985473633 12.6652889251709 13.2546558380127 13.9018478393555 14.3494520187378 14.3956689834595 14.6549015045166 14.9917039871216 15.0405054092407 15.3379831314087 16.1200580596924 17.0199718475342 17.6145820617676 17.8494281768799 18.0770416259766 18.3939189910889 18.7050170898438 18.9422931671143 19.2390213012695 19.5767517089844 19.9292526245117 20.3049831390381
-9999 -9999 -9999 -9999 -9999 -9999 -9999 -9999 -9999 -9999 -9999 -9999 -9999 -9999 -9999 -9999 -9999 -9999 -9999 -9999 -9999 -9999 -9999 13.4325616359711 13.3291482925415 12.9837923049927 12.5279989242554 11.8812980651855 11.241286277771 11.1692886352539 11.6754951477051 12.0519981384277 12.009069442749 11.7297019958496 11.5042810440063 11.4858694076538 11.5692443847656 11.6256256103516 11.7823133468628 12.0614204406738 12.0579776763916 11.8626718521118 11.9488048553467 12.3695306777954 12.8416967391968 13.1588077545166 13.444221496582 13.7406549453735 13.8465166091919 13.870698928833 14.0798425674438 14.4656019210815 14.7471551895142 14.9833536148071 15.378116607666 15.6865911483765 15.923583984375 16.3101501464844 16.7825241088867 17.2718257904053 17.6043663024902 17.7829704284668 17.9445476531982 18.156177520752 18.394079208374 18.5737991333008 18.8363132476807 19.1414165496826 19.4241218566895 19.7792263031006
-9999 -9999 -9999 -9999 -9999 -9999 -9999 -9999 -9999 -9999 -9999 -9999 -9999 -9999 -9999 -9999 -9999 -9999 -9999 -9999 -9999 -9999 -9999 14.0109386444092 13.5240249633789 13.0780191421509 12.4727058410645 11.7261486053467 11.2433109283447 11.670970916748 12.7386827468872 13.3959255218506 13.4181718826294 13.2146320343018 13.0915374755859 13.0360832214355 12.9666891098022 12.9679889678955 13.2924747467041 13.8048210144043 13.8814182281494 13.443829536438 13.1857461929321 13.4425849914551 13.7988710403442 13.9549913406372 14.1261653900146 14.384241104126 14.5216732025146 14.555456161499 14.6027822494507 14.7298545837402 14.9153623580933 15.1908721923828 15.4756927490234 15.6824598312378 15.9770259857178 16.3484687805176 16.6369972229004 16.9096794128418 17.1339492797852 17.3893642425537 17.6961631774902 17.9639453887939 18.1427707672119 18.2606830596924 18.5047283172607 18.8836345672607 19.204158782959 19.4417953491211
-9999 -9999 -9999 -9999 -9999 -9999 -9999 -9999 -9999 -9999 -9999 -9999 -9999 -9999 -9999 -9999 -9999 -9999 -9999 -9999 -9999 -9999 14.6658868789673 13.996021270752 13.4083366394043 12.8846874237061 12.2419452667236 11.6895971298218 11.707236289978 12.6436491012573 13.9151134490967 14.6966285705566 15.0149278640747 15.1227893829346 15.0323390960693 14.6261672973633 14.1133270263672 13.9766454696655 14.2570934295654 14.6643543243408 14.8728036880493 14.5814409255981 14.0806322097778 13.9973373413086 14.2851715087891 14.5380544662476 14.743311882019 14.9803133010864 15.1903324127197 15.29860496521 15.2337007522583 15.1212692260742 15.1905298233032 15.4871511459351 15.8536052703857 16.1556644439697 16.4468097686768 16.7228336334229 16.8666954040527 16.9107971191406 16.9324951171875 17.0796337127686 17.3470687866211 17.5581226348877 17.729190826416 17.929859161377 18.1548881530762 18.6415004730225 19.2121505737305 19.4509010314941
-9999 -9999 -9999 -9999 -9999 -9999 -9999 -9999 -9999 -9999 -9999 -9999 -9999 -9999 19.0793890423245 -9999 -9999 -9999 -9999 16.3501224517822 -9999 15.0494365692139 14.5676832199097 13.8669881820679 13.2939386367798 12.7651472091675 12.3287353515625 12.247124671936 12.8498601913452 14.0105571746826 15.066089630127 15.7561120986938 16.2910976409912 16.6559581756592 16.7041435241699 16.2093944549561 15.3031702041626 14.7893209457397 14.874306678772 15.2791023254395 15.6187734603882 15.4621877670288 14.9881343841553 14.8007230758667 14.9227676391602 15.0129995346069 15.1736154556274 15.4277801513672 15.7658891677856 16.1405582427979 16.3342380523682 16.4560298919678 16.79567527771 17.325855255127 17.8519153594971 18.2903060913086 18.6032943725586 18.7989826202393 18.8254222869873 18.6783828735352 18.4650936126709 18.2275314331055 18.0136947631836 17.7981777191162 17.8218841552734 17.9913806915283 18.0112457275391 18.4193172454834 19.1930904388428 19.5550842285156
-9999 -9999 -9999 -9999 -9999 -9999 -9999 -9999 -9999 -9999 -9999 -9999 -9999 -9999 19.0806608200073 -9999 -9999 -9999 -9999 16.0706486701965 15.2671514511108 14.6429595947266 14.0746479034424 13.5789804458618 13.1367168426514 12.8664207458496 12.9646558761597 13.4600973129272 14.3219175338745 15.3554153442383 16.2260398864746 16.8658313751221 17.3757934570312 17.6536598205566 17.6752624511719 17.2674655914307 16.2368850708008 15.4840097427368 15.7835416793823 16.6662101745605 17.1494483947754 16.8255462646484 16.1467609405518 15.7976398468018 15.7876062393188 15.6334190368652 15.6175470352173 15.909873008728 16.3314189910889 16.8954772949219 17.5801639556885 18.3574619293213 19.153772354126 19.7996921539307 20.2489109039307 20.6662559509277 20.9893169403076 21.1403884887695 21.1137542724609 20.9545955657959 20.6905307769775 20.3155307769775 19.8212642669678 19.3247356414795 19.0708351135254 18.8774509429932 18.6168880462646 18.7255344390869 19.2663230895996 19.6707706451416
-9999 -9999 -9999 -9999 -9999 -9999 -9999 -9999 -9999 -9999 -9999 -9999 -9999 -9999 19.0749378204346 -9999 -9999 -9999 -9999 -9999 14.8144147396088 14.5020637512207 13.9587392807007 13.495792388916 13.2435607910156 13.4386930465698 14.0936965942383 14.9328689575195 15.8790521621704 16.8925933837891 17.7703952789307 18.3938617706299 18.7505207061768 18.7794418334961 18.5696926116943 18.1602478027344 17.3193187713623 16.7986297607422 17.5574531555176 18.828556060791 19.378023147583 19.1248264312744 18.5679454803467 17.9504508972168 17.5140018463135 17.2630443572998 17.0961856842041 17.2740859985352 17.7161426544189 18.2415943145752 19.053050994873 20.001558303833 20.7129974365234 21.1773872375488 21.5677585601807 22.040714263916 22.4547462463379 22.6939563751221 22.7574977874756 22.7032527923584 22.5501842498779 22.2984275817871 21.8950004577637 21.360897064209 20.817361831665 20.3006687164307 19.9257259368896 19.7150039672852 19.766565322876 19.9876365661621
-9999 -9999 -9999 -9999 -9999 -9999 -9999 -9999 -9999 -9999 -9999 -9999 -9999 -9999 19.0748662948608 -9999 19.0978298187256 -9999 -9999 -9999 15.3824472427368 14.730188369751 14.0857982635498 13.6437158584595 13.6709136962891 14.2147617340088 15.0936317443848 16.1136589050293 17.2245101928711 18.3409080505371 19.3413887023926 20.0197505950928 20.3259468078613 20.3715667724609 20.2123527526855 19.9384517669678 19.5783576965332 19.5374488830566 20.190803527832 20.9451713562012 21.2660732269287 21.2611351013184 21.0895938873291 20.6572666168213 20.0300579071045 19.3985996246338 18.8241004943848 18.6978168487549 19.0195922851562 19.4421997070312 20.1386909484863 20.9228687286377 21.3789329528809 21.7049465179443 22.1967658996582 22.8303241729736 23.3528499603271 23.6565093994141 23.7689990997314 23.7561531066895 23.6763954162598 23.5424003601074 23.3437461853027 23.0106525421143 22.5337677001953 21.9642372131348 21.4319438934326 20.988697052002 20.6935729980469 20.6402702331543
-9999 -9999 -9999 -9999 -9999 -9999 -9999 -9999 -9999 -9999 -9999 -9999 -9999 -9999 19.0748662948608 19.0747947692871 19.0886993408203 -9999 -9999 15.4271376132965 15.3917284011841 14.7503967285156 14.1573085784912 13.9613332748413 14.3452014923096 15.0883712768555 16.0202445983887 17.0267429351807 18.0074291229248 19.0563697814941 20.2060050964355 21.037446975708 21.44455909729 21.6792469024658 21.7810077667236 21.7661170959473 21.7056617736816 21.7288703918457 21.9039611816406 22.110258102417 22.3083057403564 22.4604015350342 22.5247669219971 22.4646644592285 22.1814155578613 21.5957889556885 20.8188495635986 20.1584968566895 19.9336318969727 20.1162338256836 20.6428604125977 21.2214756011963 21.5753116607666 22.0115356445312 22.7501945495605 23.5130405426025 23.9825782775879 24.1312599182129 24.0810279846191 23.9378223419189 23.8177547454834 23.7509841918945 23.7086963653564 23.6338901519775 23.4780387878418 23.1620597839355 22.6730613708496 22.1751918792725 21.7698574066162 21.5244426727295
-9999 -9999 -9999 -9999 -9999 -9999 -9999 -9999 -9999 -9999 -9999 -9999 -9999 -9999 -9999 19.0322231292725 19.1492309570312 -9999 16.6871483325958 15.6391439437866 15.2952308654785 14.7095203399658 14.2907218933105 14.515721321106 15.182035446167 15.8277997970581 16.543270111084 17.3975448608398 18.3668975830078 19.6055393218994 20.9524612426758 21.892448425293 22.4012317657471 22.7564258575439 23.0307788848877 23.2307472229004 23.3629989624023 23.4658584594727 23.5704250335693 23.6887149810791 23.8330821990967 23.9684638977051 24.0752010345459 24.1041412353516 24.0036125183105 23.7114639282227 23.2014408111572 22.4532203674316 21.7535858154297 21.3603458404541 21.3607406616211 21.6459159851074 22.1221389770508 22.8239936828613 23.6155586242676 24.1439151763916 24.288610458374 24.122615814209 23.7436466217041 23.3546409606934 23.1780815124512 23.1877765655518 23.2417602539062 23.3243465423584 23.377592086792 23.3855400085449 23.2230167388916 22.8860816955566 22.5355968475342 22.237268447876
-9999 -9999 -9999 -9999 -9999 -9999 -9999 -9999 -9999 -9999 -9999 -9999 -9999 -9999 -9999 19.1390895843506 18.709300994873 -9999 16.18039894104 15.8200340270996 15.4494895935059 14.9820594787598 14.8834972381592 15.2306604385376 15.5961036682129 16.0933322906494 16.9643878936768 18.2479572296143 19.7348709106445 21.1940498352051 22.4247150421143 23.2579383850098 23.7908039093018 24.172607421875 24.4391574859619 24.6233139038086 24.761905670166 24.8555316925049 24.8993892669678 24.9085636138916 24.9029216766357 24.8945388793945 24.8939056396484 24.8867015838623 24.8497257232666 24.7422523498535 24.559009552002 24.2145347595215 23.735315322876 23.2759971618652 23.036657333374 23.1176681518555 23.4845142364502 23.9503612518311 24.285026550293 24.3232917785645 24.0786933898926 23.5460777282715 22.8980312347412 22.5229778289795 22.4255867004395 22.4616641998291 22.5292072296143 22.6856060028076 22.8616180419922 23.0134716033936 23.1235198974609 23.0544662475586 22.8544845581055 22.612699508667
-9999 -9999 -9999 -9999 -9999 -9999 -9999 -9999 -9999 -9999 -9999 -9999 -9999 -9999 -9999 19.1314964294434 -9999 17.6966716221401 16.5913219451904 16.1243877410889 15.6417446136475 15.3839654922485 15.6488018035889 15.8547420501709 16.1313495635986 17.2510261535645 18.9223575592041 20.6626796722412 22.2018871307373 23.3416023254395 24.1463623046875 24.6588115692139 24.928768157959 25.0188961029053 24.9947490692139 24.9352970123291 24.8865489959717 24.8446350097656 24.810905456543 24.7896251678467 24.7664813995361 24.7251663208008 24.6932220458984 24.6929950714111 24.7186374664307 24.7372417449951 24.7514495849609 24.724796295166 24.6178855895996 24.4623908996582 24.3459758758545 24.3346309661865 24.400785446167 24.4386215209961 24.3546810150146 24.099630355835 23.5504531860352 22.7355041503906 22.2238788604736 22.0632076263428 21.9904613494873 21.9984512329102 22.0900840759277 22.2747802734375 22.508394241333 22.6802005767822 22.8420181274414 22.9620418548584 22.9567413330078 22.8437442779541
-9999 -9999 -9999 -9999 -9999 -9999 -9999 -9999 -9999 -9999 -9999 -9999 -9999 -9999 19.1314964294434 18.860725402832 18.6974868774414 17.8286151885986 17.1163845062256 16.4930839538574 15.9501113891602 16.0423107147217 16.7359561920166 17.2427635192871 18.0906314849854 19.8561820983887 21.5247898101807 22.788272857666 23.8248519897461 24.5816879272461 25.0462245941162 25.2170028686523 25.1343784332275 24.8830680847168 24.626916885376 24.4999485015869 24.4584102630615 24.4549369812012 24.4676170349121 24.4523735046387 24.3894062042236 24.2961158752441 24.2777633666992 24.3317794799805 24.3877143859863 24.4336643218994 24.489709854126 24.5551776885986 24.5902309417725 24.5849571228027 24.5488147735596 24.4887180328369 24.3902339935303 24.2231426239014 23.9469623565674 23.4507446289062 22.7388305664062 22.1699905395508 22.0651721954346 21.9902782440186 21.8444061279297 21.8306198120117 21.9676856994629 22.1541862487793 22.3299312591553 22.4428596496582 22.5448741912842 22.719799041748 22.8432750701904 22.8818454742432
-9999 -9999 -9999 -9999 -9999 -9999 -9999 -9999 -9999 -9999 -9999 -9999 -9999 -9999 -9999 -9999 17.6668992042542 17.4309787750244 16.8999443054199 16.4928741455078 16.2827415466309 16.9916763305664 18.247428894043 19.4992542266846 20.6000537872314 21.9935035705566 23.1207885742188 24.0405864715576 24.8132381439209 25.2350311279297 25.2851600646973 25.0570087432861 24.6445178985596 24.242826461792 24.042989730835 24.0017795562744 24.0069274902344 23.9683475494385 23.8829364776611 23.8080711364746 23.7171020507812 23.6261730194092 23.6597995758057 23.7302017211914 23.790412902832 23.9084815979004 24.0375843048096 24.1464405059814 24.2103958129883 24.2124767303467 24.1566371917725 24.0549697875977 23.8935604095459 23.5555286407471 23.0583686828613 22.5247611999512 22.0797557830811 21.9858455657959 22.0553436279297 21.9713344573975 21.8218669891357 21.8303337097168 21.968334197998 22.145299911499 22.3143119812012 22.4032611846924 22.4146251678467 22.4485969543457 22.533145904541 22.6608257293701
-9999 -9999 -9999 -9999 -9999 -9999 -9999 -9999 -9999 -9999 -9999 -9999 -9999 -9999 -9999 -9999 17.0707473754883 16.7105159759521 16.4413642883301 16.398006439209 16.7319087982178 18.2303867340088 20.1594676971436 21.6935520172119 22.8867835998535 23.9224605560303 24.6569347381592 25.1358299255371 25.3509693145752 25.2283878326416 24.8708152770996 24.4030914306641 23.9208450317383 23.6145534515381 23.5375900268555 23.5142402648926 23.4394493103027 23.2786464691162 23.1427345275879 23.1116580963135 23.0900058746338 23.0895805358887 23.192741394043 23.3061618804932 23.4240436553955 23.6088256835938 23.7619190216064 23.8354969024658 23.8395709991455 23.7353553771973 23.5103340148926 23.2046680450439 22.834529876709 22.434476852417 22.0984210968018 21.9291839599609 21.8327579498291 21.8983402252197 21.9525413513184 21.8753395080566 21.7969970703125 21.8439502716064 21.9798126220703 22.1581325531006 22.3113594055176 22.373929977417 22.4140472412109 22.3822460174561 22.3310928344727 22.3827857971191
-9999 -9999 -9999 -9999 -9999 -9999 -9999 -9999 -9999 -9999 -9999 -9999 -9999 -9999 -9999 -9999 -9999 16.9490647315979 16.7642288208008 16.9105110168457 17.2985038757324 19.3829746246338 22.1688919067383 23.8126640319824 24.7273693084717 25.1843738555908 25.3521213531494 25.3091888427734 25.0708065032959 24.6717758178711 24.2450523376465 23.7901859283447 23.3402309417725 23.1452922821045 23.1327419281006 23.113561630249 23.0517864227295 22.9056358337402 22.7862281799316 22.7746315002441 22.8178386688232 22.9071941375732 23.0322589874268 23.1572647094727 23.2699279785156 23.3462085723877 23.3346672058105 23.2140502929688 23.008451461792 22.7118053436279 22.3914394378662 22.1126327514648 21.9015998840332 21.7656993865967 21.7267951965332 21.7565250396729 21.7628173828125 21.8012008666992 21.8298606872559 21.800724029541 21.8323764801025 21.9171581268311 22.0473899841309 22.2080917358398 22.3196468353271 22.3268089294434 22.3547496795654 22.3672943115234 22.2773742675781 22.2809028625488
-9999 -9999 -9999 -9999 -9999 -9999 -9999 -9999 -9999 -9999 -9999 -9999 -9999 -9999 16.8005738258362 16.7105159759521 17.2154799699783 17.3221893310547 17.8801498413086 18.461145401001 19.4535942077637 21.8912315368652 24.1795215606689 25.1256732940674 25.4172210693359 25.4257583618164 25.2859859466553 25.0140285491943 24.5799617767334 24.0883769989014 23.6657257080078 23.2055320739746 22.8725738525391 22.8717384338379 22.8977699279785 22.8596954345703 22.8020877838135 22.6796054840088 22.5548553466797 22.5059013366699 22.5610618591309 22.6749897003174 22.7537059783936 22.7964820861816 22.7840843200684 22.6660900115967 22.4644584655762 22.2432136535645 22.0230960845947 21.8246269226074 21.7051525115967 21.6618175506592 21.684455871582 21.708475112915 21.7410850524902 21.780553817749 21.7714557647705 21.7403678894043 21.7495746612549 21.7734184265137 21.8659648895264 21.9893054962158 22.0705680847168 22.1599216461182 22.2168960571289 22.2115669250488 22.2422199249268 22.2815189361572 22.2331638336182 22.2403087615967
-9999 -9999 -9999 -9999 -9999 -9999 -9999 -9999 -9999 -9999 -9999 -9999 -9999 -9999 -9999 -9999 -9999 -9999 19.4150314331055 19.7254390716553 21.3357200622559 24.179573059082 25.2592372894287 25.5383720397949 25.484411239624 25.2632942199707 24.9750022888184 24.5505027770996 24.0310459136963 23.575777053833 23.1482238769531 22.746618270874 22.6507453918457 22.7801475524902 22.7917346954346 22.7626934051514 22.7076225280762 22.5712299346924 22.4318618774414 22.3556900024414 22.3513641357422 22.3900966644287 22.3846988677979 22.3294868469238 22.1975250244141 22.0026569366455 21.8282947540283 21.6891174316406 21.5820140838623 21.5215835571289 21.5302295684814 21.5998649597168 21.7079925537109 21.7803001403809 21.7842826843262 21.78782081604 21.7845191955566 21.7579116821289 21.7636318206787 21.7757186889648 21.7983016967773 21.8919258117676 21.9569091796875 21.977518081665 22.0112285614014 22.0619049072266 22.1389999389648 22.1664447784424 22.164909362793 22.1723976135254
-9999 -9999 -9999 -9999 -9999 -9999 -9999 -9999 -9999 -9999 -9999 -9999 -9999 -9999 -9999 -9999 -9999 23.2215061187744 22.0392880439758 21.593391418457 23.2563419342041 25.2272281646729 25.5950241088867 25.5583801269531 25.3031406402588 24.9541015625 24.5283222198486 24.0707950592041 23.6743698120117 23.2748603820801 22.7886447906494 22.4871788024902 22.5772972106934 22.7212581634521 22.7464332580566 22.7526550292969 22.7073211669922 22.5635414123535 22.4180889129639 22.3331909179688 22.275857925415 22.2332286834717 22.1573257446289 22.0250816345215 21.8399772644043 21.6925392150879 21.6028614044189 21.5246047973633 21.4721164703369 21.4697418212891 21.5187320709229 21.5955333709717 21.6931858062744 21.8036422729492 21.8434982299805 21.8150119781494 21.8223114013672 21.8482646942139 21.8740100860596 21.872184753418 21.8208255767822 21.7985210418701 21.815372467041 21.8244724273682 21.8640060424805 21.9166927337646 21.9466094970703 21.9181709289551 21.8769645690918 21.8461170196533
-9999 -9999 -9999 -9999 -9999 -9999 -9999 -9999 -9999 -9999 -9999 -9999 -9999 23.1359615325928 23.3141360812717 -9999 23.4373035430908 23.4797101020813 23.2215061187744 23.6168155670166 24.9232692718506 25.6709365844727 25.7305240631104 25.4803581237793 25.0919666290283 24.6534099578857 24.167911529541 23.7918720245361 23.5044746398926 23.0981483459473 22.6385021209717 22.4273014068604 22.4927845001221 22.6415729522705 22.7300224304199 22.7466812133789 22.6981754302979 22.5628490447998 22.414924621582 22.3046951293945 22.2070865631104 22.1142139434814 22.0063858032227 21.8687171936035 21.730827331543 21.6501560211182 21.5969352722168 21.5436916351318 21.4972591400146 21.4514713287354 21.4440479278564 21.5038948059082 21.6140842437744 21.7423553466797 21.8425712585449 21.8684825897217 21.8764610290527 21.9132061004639 21.9589805603027 21.971263885498 21.9047412872314 21.7905807495117 21.7449645996094 21.7328262329102 21.7249279022217 21.6940021514893 21.6404857635498 21.5796775817871 21.5202503204346 21.4626636505127
-9999 -9999 -9999 -9999 -9999 -9999 -9999 -9999 -9999 -9999 -9999 -9999 -9999 -9999 23.1359615325928 23.3836943308512 23.4227523803711 23.4518547058105 23.8227272033691 24.9567832946777 25.7263107299805 25.8165740966797 25.6114273071289 25.2384548187256 24.8034267425537 24.3487644195557 23.9306831359863 23.65159034729 23.4652576446533 23.1090679168701 22.7194728851318 22.5262889862061 22.5027770996094 22.6489944458008 22.7782897949219 22.7968654632568 22.7241172790527 22.5936641693115 22.4415836334229 22.2978572845459 22.1657772064209 22.0577926635742 21.9759616851807 21.9006462097168 21.8552398681641 21.8547134399414 21.8561878204346 21.8389911651611 21.8250408172607 21.798885345459 21.7418174743652 21.6673755645752 21.6304492950439 21.6568546295166 21.7512969970703 21.8401947021484 21.8916397094727 21.9363479614258 21.9856109619141 22.0101642608643 21.9675693511963 21.8422508239746 21.7082862854004 21.6462078094482 21.5768184661865 21.4831771850586 21.3936882019043 21.3419017791748 21.3205432891846 21.3164176940918
-9999 -9999 -9999 -9999 -9999 -9999 -9999 -9999 -9999 -9999 -9999 -9999 -9999 -9999 23.1916012763977 23.1359615325928 23.5923690795898 24.024528503418 24.9088020324707 25.6563739776611 25.8617877960205 25.8006725311279 25.5209331512451 25.10329246521 24.6288070678711 24.214412689209 23.9033851623535 23.7325534820557 23.6018905639648 23.2803859710693 22.8781929016113 22.6224136352539 22.5590057373047 22.707052230835 22.8654308319092 22.9199390411377 22.8357982635498 22.6769523620605 22.5187282562256 22.3572978973389 22.2041664123535 22.1003513336182 22.0501918792725 22.0168571472168 22.0155124664307 22.0539073944092 22.1013813018799 22.1239395141602 22.1278896331787 22.1166648864746 22.0875492095947 22.0012302398682 21.9129943847656 21.8569812774658 21.815372467041 21.8263854980469 21.884635925293 21.949146270752 21.9899711608887 22.0106925964355 21.9850978851318 21.9119815826416 21.7295112609863 21.5742855072021 21.4810199737549 21.3875045776367 21.3053531646729 21.2536506652832 21.2241878509521 21.2247772216797
-9999 -9999 -9999 -9999 -9999 -9999 -9999 -9999 -9999 -9999 -9999 23.0861358642578 23.058141708374 23.0885181427002 23.07301902771 23.4689064025879 24.2871551513672 24.9819412231445 25.5333614349365 25.8680191040039 25.9298553466797 25.7617073059082 25.4249382019043 24.9681739807129 24.441822052002 24.0678768157959 23.8810443878174 23.8232040405273 23.726863861084 23.4329128265381 23.0280666351318 22.7524566650391 22.7225227355957 22.8981895446777 23.0507831573486 23.0897808074951 22.9744033813477 22.7859172821045 22.627950668335 22.4749412536621 22.3190650939941 22.2249507904053 22.1971797943115 22.1856460571289 22.1979370117188 22.2273349761963 22.2718658447266 22.3164730072021 22.3486614227295 22.3403072357178 22.2987995147705 22.2107200622559 22.0954303741455 22.0571308135986 22.0239677429199 21.955753326416 21.9269752502441 21.986701965332 22.0287570953369 22.0359859466553 22.0149040222168 21.9308338165283 21.7591857910156 21.5990829467773 21.4718379974365 21.3943519592285 21.3233776092529 21.2816562652588 21.2629947662354 21.2646026611328
-9999 -9999 -9999 -9999 -9999 -9999 -9999 -9999 -9999 23.2795009613037 23.290376663208 23.341194152832 23.4392490386963 23.5861854553223 23.6029872894287 24.110559463501 24.9200839996338 25.4023818969727 25.7804489135742 25.9286251068115 25.9130916595459 25.6944160461426 25.3302783966064 24.8215065002441 24.2456684112549 23.9030647277832 23.8004608154297 23.7715148925781 23.6749210357666 23.4541568756104 23.1663684844971 23.0028533935547 23.049617767334 23.1674785614014 23.1970062255859 23.1502628326416 23.0575103759766 22.9124717712402 22.7430667877197 22.5911884307861 22.4530735015869 22.374080657959 22.3624401092529 22.3761615753174 22.3979759216309 22.4256381988525 22.4752807617188 22.5255794525146 22.5610218048096 22.5434913635254 22.4765453338623 22.3600769042969 22.1976203918457 22.1195411682129 22.1729412078857 22.1701354980469 22.0884246826172 22.11745262146 22.1426982879639 22.1020278930664 22.0321788787842 21.9181861877441 21.7929096221924 21.6783123016357 21.5362701416016 21.4207782745361 21.3554153442383 21.3233833312988 21.3200454711914 21.3454742431641
-9999 -9999 -9999 -9999 -9999 -9999 -9999 -9999 -9999 23.5161991119385 23.5656318664551 23.7301959991455 23.9906826019287 24.2391529083252 24.4680156707764 25.0768375396729 25.5483798980713 25.8297386169434 25.9856605529785 26.0219917297363 25.8917102813721 25.6238384246826 25.2659587860107 24.7582988739014 24.1483764648438 23.7852840423584 23.670862197876 23.6030235290527 23.5237712860107 23.4019260406494 23.2853298187256 23.2355537414551 23.2325859069824 23.1855945587158 23.1039772033691 23.0412540435791 23.0327777862549 22.9910335540771 22.8593730926514 22.717794418335 22.602388381958 22.5350971221924 22.5258235931396 22.5435886383057 22.5679397583008 22.6051082611084 22.6491737365723 22.6869564056396 22.70876121521 22.6725196838379 22.5844783782959 22.4713878631592 22.3014373779297 22.2025623321533 22.2439632415771 22.271541595459 22.2105045318604 22.2292995452881 22.2590599060059 22.2369613647461 22.1009941101074 21.9629745483398 21.8793525695801 21.790319442749 21.6565723419189 21.5146579742432 21.4454879760742 21.3961334228516 21.360523223877 21.3684520721436
-9999 -9999 -9999 -9999 -9999 23.8575925827026 23.7223415374756 23.7342643737793 23.6386985778809 23.6267948150635 23.7247982025146 23.9936237335205 24.3657665252686 24.7475872039795 25.1659088134766 25.6111717224121 25.896089553833 26.0424537658691 26.0851783752441 25.991512298584 25.7649555206299 25.4953289031982 25.1773052215576 24.704740524292 24.0984001159668 23.7791137695312 23.7137088775635 23.5987071990967 23.5147914886475 23.4408187866211 23.3789329528809 23.3227519989014 23.2309246063232 23.0862140655518 22.9430923461914 22.8502674102783 22.862548828125 22.9226684570312 22.9050674438477 22.827091217041 22.7469997406006 22.6913890838623 22.6727619171143 22.6823043823242 22.7149314880371 22.7445011138916 22.7653846740723 22.8040046691895 22.819953918457 22.7537593841553 22.6342220306396 22.5289192199707 22.3848323822021 22.3066062927246 22.3240032196045 22.3195610046387 22.2578392028809 22.2838287353516 22.3779163360596 22.3988418579102 22.2331733703613 22.0793876647949 22.0074768066406 21.9193649291992 21.777904510498 21.6151561737061 21.5545120239258 21.5040454864502 21.4472885131836 21.4357242584229
-9999 -9999 -9999 -9999 24.0106182098389 23.8311061859131 23.866304397583 23.8779201507568 23.791088104248 23.8140525817871 23.8363609313965 24.2412586212158 24.8457775115967 25.4925765991211 25.8884029388428 26.0851192474365 26.1671333312988 26.1587753295898 26.0362701416016 25.804500579834 25.5403518676758 25.3273334503174 25.1084327697754 24.6691589355469 24.115406036377 23.9265117645264 23.9011211395264 23.7726726531982 23.6632804870605 23.5657596588135 23.4751491546631 23.3683090209961 23.2254905700684 23.0454387664795 22.8727760314941 22.7472457885742 22.710994720459 22.776948928833 22.8463077545166 22.8567695617676 22.8275623321533 22.7875499725342 22.7703895568848 22.7886810302734 22.8133544921875 22.8196048736572 22.8623428344727 22.9226188659668 22.9025421142578 22.7835483551025 22.6488666534424 22.5618419647217 22.4519119262695 22.3890552520752 22.3831653594971 22.34446144104 22.2695274353027 22.3384914398193 22.5466823577881 22.5353889465332 22.367467880249 22.2085056304932 22.1267585754395 22.0559539794922 21.963550567627 21.8157653808594 21.7303771972656 21.6781539916992 21.5869827270508 21.5254535675049
-9999 -9999 -9999 24.039523601532 24.0305061340332 23.8681526184082 23.9829578399658 23.9645919799805 23.9761390686035 24.0909481048584 24.2099838256836 24.9179058074951 25.6965618133545 26.0901489257812 26.195333480835 26.2045650482178 26.1688652038574 26.0266075134277 25.7591438293457 25.4927043914795 25.3061389923096 25.21018409729 25.0607719421387 24.6514739990234 24.1627960205078 24.0712089538574 24.065881729126 23.9752197265625 23.9005279541016 23.7628688812256 23.6004295349121 23.4605541229248 23.3234977722168 23.1610889434814 22.9997100830078 22.8629360198975 22.7648792266846 22.7425003051758 22.7855415344238 22.8183631896973 22.7962799072266 22.7699184417725 22.7854518890381 22.8275680541992 22.8633918762207 22.9159107208252 22.980016708374 22.9807872772217 22.886531829834 22.7535133361816 22.658655166626 22.5878582000732 22.505090713501 22.4752712249756 22.4448871612549 22.3614711761475 22.2964134216309 22.4834938049316 22.7098121643066 22.7040538787842 22.5318546295166 22.354621887207 22.2434692382812 22.1355876922607 22.0965805053711 22.0261840820312 21.9738159179688 21.9136409759521 21.8372402191162 21.731689453125
-9999 -9999 -9999 24.1193714141846 23.9975986480713 23.9677333831787 24.1581363677979 24.1610469818115 24.3911666870117 24.7805366516113 25.3317604064941 26.0210094451904 26.2194957733154 26.2451076507568 26.2159194946289 26.1361198425293 25.9339008331299 25.5970573425293 25.2901191711426 25.1207427978516 25.0747451782227 25.1137218475342 25.0218086242676 24.642448425293 24.3139495849609 24.3158264160156 24.1802463531494 24.0832366943359 24.0291843414307 23.9440097808838 23.78639793396 23.6000690460205 23.4420280456543 23.2814769744873 23.1208972930908 22.9642295837402 22.8275985717773 22.761100769043 22.7678833007812 22.7717247009277 22.7516670227051 22.7743453979492 22.8392868041992 22.8971881866455 22.9443817138672 23.0145092010498 23.0699825286865 23.0346508026123 22.9179306030273 22.7996196746826 22.7212829589844 22.6501636505127 22.5807247161865 22.5500659942627 22.4912853240967 22.4237384796143 22.4910259246826 22.7450733184814 22.8581523895264 22.8431072235107 22.7512016296387 22.6176376342773 22.4675636291504 22.3462982177734 22.261775970459 22.1841888427734 22.1189422607422 21.9970073699951 21.9377346038818 21.8780574798584
