NCOLS 70 
NROWS 52 
XLLCORNER -80 
YLLCORNER 33 
CELLSIZE 0.25 
NODATA_value -9999 
-9999.000000000000000 -9999 -9999 -9999 -9999 -9999 -9999 -9999 -9999 -9999 -9999 -9999 -9999 -9999 -9999 -9999 -9999 -9999 -9999 -9999 -9999 -9999 -9999 -9999 -9999 -9999 -9999 -9999 -9999 -9999 -9999 -9999 -9999 -9999 -9999 -9999 -9999 -9999 -9999 -9999 -9999 -9999 -9999 -9999 -9999 -9999 -9999 -9999 -9999 -9999 -9999 -9999 -9999 -9999 -9999 -9999 -9999 -9999 -9999 -9999 -9999 -9999 -9999 -9999 -9999 -9999 -9999 -9999 -9999 -9999
-9999 -9999 -9999 -9999 -9999 -9999 -9999 -9999 -9999 -9999 -9999 -9999 -9999 -9999 -9999 -9999 -9999 -9999 -9999 -9999 -9999 -9999 -9999 -9999 -9999 -9999 -9999 -9999 -9999 -9999 -9999 -9999 -9999 -9999 -9999 -9999 -9999 -9999 -9999 -9999 -9999 -9999 -9999 -9999 -9999 -9999 -9999 -9999 -9999 -9999 -9999 -9999 -9999 -9999 -9999 -9999 -9999 -9999 -9999 -9999 -9999 -9999 -9999 -9999 -9999 -9999 -9999 -9999 -9999 -9999
-9999 -9999 -9999 -9999 -9999 -9999 -9999 -9999 -9999 -9999 -9999 -9999 -9999 -9999 -9999 -9999 -9999 -9999 -9999 -9999 -9999 -9999 -9999 -9999 -9999 -9999 -9999 -9999 -9999 -9999 -9999 -9999 -9999 -9999 -9999 -9999 -9999 -9999 -9999 -9999 -9999 -9999 -9999 -9999 -9999 -9999 -9999 -9999 -9999 -9999 -9999 -9999 -9999 -9999 -9999 -9999 -9999 -9999 -9999 3.52339720726013 -9999 -9999 -9999 -9999 -9999 -9999 -9999 -9999 -9999 -9999
-9999 -9999 -9999 -9999 -9999 -9999 -9999 -9999 -9999 -9999 -9999 -9999 -9999 -9999 -9999 -9999 -9999 -9999 -9999 -9999 -9999 -9999 -9999 -9999 -9999 -9999 -9999 -9999 -9999 -9999 -9999 -9999 -9999 -9999 -9999 -9999 -9999 -9999 -9999 -9999 -9999 -9999 -9999 -9999 -9999 -9999 -9999 -9999 -9999 -9999 -9999 -9999 -9999 -9999 -9999 4.61219549179077 4.1748251914978 3.94641518592834 3.65543222427368 3.29863595962524 -9999 -9999 -9999 -9999 -9999 -9999 -9999 -9999 -9999 -9999
-9999 -9999 -9999 -9999 -9999 -9999 -9999 -9999 -9999 -9999 -9999 -9999 -9999 -9999 -9999 -9999 -9999 -9999 -9999 -9999 -9999 -9999 -9999 -9999 -9999 -9999 -9999 -9999 -9999 -9999 -9999 -9999 -9999 -9999 -9999 -9999 -9999 -9999 -9999 -9999 -9999 -9999 -9999 -9999 -9999 -9999 -9999 -9999 -9999 -9999 -9999 -9999 5.64366865158081 5.2272481918335 4.83039808273315 4.38258743286133 3.98249506950378 3.84576201438904 -9999 -9999 -9999 -9999 -9999 -9999 -9999 -9999 -9999 -9999 -9999 -9999
-9999 -9999 -9999 -9999 -9999 -9999 -9999 -9999 -9999 -9999 -9999 -9999 -9999 -9999 -9999 -9999 -9999 -9999 -9999 -9999 -9999 -9999 -9999 -9999 -9999 -9999 -9999 -9999 -9999 -9999 -9999 -9999 -9999 -9999 -9999 -9999 -9999 -9999 -9999 -9999 -9999 -9999 -9999 -9999 -9999 -9999 -9999 -9999 -9999 -9999 5.80332746505737 5.69166564941406 5.34253215789795 4.95781135559082 4.8247184753418 4.7385368347168 -9999 -9999 -9999 -9999 -9999 -9999 -9999 -9999 -9999 -9999 -9999 3.50758179028829 3.3629903793335 3.3886616230011
-9999 -9999 -9999 -9999 -9999 -9999 -9999 -9999 -9999 -9999 -9999 -9999 -9999 -9999 -9999 -9999 -9999 -9999 -9999 -9999 -9999 -9999 -9999 -9999 -9999 -9999 -9999 -9999 -9999 -9999 -9999 -9999 -9999 -9999 -9999 -9999 -9999 -9999 -9999 -9999 -9999 -9999 -9999 -9999 7.31652291615804 -9999 -9999 6.71478188037872 6.47028398513794 6.17275667190552 5.8328971862793 5.38831233978271 5.24833154678345 5.33953189849854 5.5057430267334 -9999 -9999 -9999 -9999 -9999 -9999 -9999 -9999 3.69341921806335 3.60824394226074 3.54575657844543 3.62150239944458 3.55696058273315 3.34428238868713 3.1620569229126
-9999 -9999 -9999 -9999 -9999 -9999 -9999 -9999 -9999 -9999 -9999 -9999 -9999 -9999 -9999 -9999 -9999 -9999 -9999 -9999 -9999 -9999 -9999 -9999 -9999 -9999 -9999 -9999 -9999 -9999 -9999 -9999 -9999 -9999 -9999 -9999 -9999 -9999 -9999 -9999 -9999 -9999 -9999 -9999 7.34528350830078 7.2842173576355 7.06329774856567 6.82752084732056 6.49802494049072 6.16887474060059 5.94784593582153 5.76556539535522 5.70946264266968 5.74870300292969 5.58627116680145 -9999 -9999 -9999 -9999 -9999 -9999 -9999 3.86424589157104 3.46144866943359 3.47426247596741 3.60380291938782 3.73293328285217 3.80586242675781 3.80922675132751 3.87073755264282
-9999 -9999 -9999 -9999 -9999 -9999 -9999 -9999 -9999 -9999 -9999 -9999 -9999 -9999 -9999 -9999 -9999 -9999 -9999 -9999 -9999 -9999 -9999 -9999 -9999 -9999 -9999 -9999 -9999 -9999 -9999 -9999 -9999 -9999 -9999 -9999 -9999 -9999 -9999 -9999 7.36291535695394 7.16362730662028 7.04198455810547 6.98755168914795 6.98795986175537 6.90856122970581 6.76910161972046 6.57142496109009 6.35180139541626 6.19383668899536 6.1190390586853 6.07628202438354 5.92925786972046 5.75110673904419 5.77229404449463 -9999 -9999 -9999 -9999 -9999 3.99615502357483 4.05985736846924 3.89415049552917 3.74972653388977 3.86034297943115 4.13494205474854 4.40963983535767 4.57080125808716 4.64515829086304 4.68877124786377
-9999 -9999 -9999 -9999 -9999 -9999 -9999 -9999 -9999 -9999 -9999 -9999 -9999 -9999 -9999 -9999 -9999 -9999 -9999 -9999 -9999 -9999 -9999 -9999 -9999 -9999 -9999 -9999 -9999 -9999 -9999 -9999 -9999 -9999 -9999 -9999 -9999 -9999 -9999 7.50408172607422 7.40997314453125 7.17469120025635 6.90621757507324 6.82139444351196 6.8406343460083 6.81722688674927 6.70456743240356 6.53758716583252 6.37817335128784 6.26441764831543 6.18022727966309 6.06367158889771 5.85412645339966 5.63286542892456 5.68221235275269 6.04658269882202 -9999 -9999 -9999 4.19491767883301 4.01711845397949 3.91148924827576 3.97976040840149 4.04765129089355 4.20451784133911 4.49117040634155 4.77568197250366 4.98559379577637 5.15185928344727 5.17954730987549
-9999 -9999 -9999 -9999 -9999 -9999 -9999 -9999 -9999 -9999 -9999 -9999 -9999 -9999 -9999 -9999 -9999 -9999 -9999 -9999 -9999 -9999 -9999 -9999 -9999 -9999 -9999 -9999 -9999 -9999 -9999 -9999 -9999 -9999 -9999 -9999 -9999 -9999 7.47295331954956 7.32007026672363 7.23700714111328 7.12455463409424 6.99680328369141 6.8802638053894 6.83732318878174 6.81833982467651 6.76416301727295 6.68069124221802 6.58701658248901 6.48315906524658 6.34569025039673 6.13298416137695 5.84879446029663 5.52337121963501 5.34969425201416 5.53201389312744 5.58031225204468 5.19895307223002 4.57297515869141 4.15771389007568 4.03186321258545 4.07050466537476 4.19642162322998 4.2833104133606 4.40275955200195 4.61211729049683 4.84323072433472 5.10481214523315 5.41290616989136 5.54345798492432
-9999 -9999 -9999 -9999 -9999 -9999 -9999 -9999 -9999 -9999 -9999 -9999 -9999 -9999 -9999 -9999 -9999 -9999 -9999 -9999 -9999 -9999 -9999 -9999 -9999 -9999 -9999 -9999 -9999 -9999 -9999 -9999 -9999 -9999 -9999 -9999 -9999 7.72056865692139 7.50454902648926 7.31549692153931 7.27710819244385 7.19163227081299 7.07429027557373 6.98298931121826 6.94268035888672 6.9221076965332 6.89352464675903 6.83422565460205 6.76658868789673 6.6715931892395 6.51381635665894 6.2762303352356 6.01746463775635 5.72917366027832 5.40275621414185 5.24870204925537 5.21331357955933 4.98879337310791 4.57187128067017 4.27248907089233 4.23538255691528 4.30082035064697 4.46034955978394 4.55855274200439 4.61388826370239 4.79933404922485 5.06487703323364 5.37806415557861 5.71943759918213 5.87773084640503
-9999 -9999 -9999 -9999 -9999 -9999 -9999 -9999 -9999 -9999 -9999 -9999 -9999 -9999 -9999 -9999 -9999 -9999 -9999 -9999 -9999 -9999 -9999 -9999 -9999 -9999 -9999 -9999 -9999 -9999 -9999 -9999 -9999 -9999 -9999 -9999 -9999 7.66672086715698 7.49217176437378 7.374596118927 7.33222246170044 7.23793458938599 7.18226718902588 7.18501138687134 7.20910215377808 7.19735431671143 7.13232851028442 7.02264642715454 6.91412878036499 6.79639339447021 6.65424585342407 6.48850727081299 6.35140752792358 6.17881345748901 5.81013059616089 5.48016548156738 5.28131580352783 5.02313995361328 4.74957036972046 4.5524730682373 4.58280944824219 4.77903366088867 5.10097694396973 5.08356189727783 4.97707748413086 5.01969289779663 5.25205755233765 5.53743696212769 5.91169500350952 6.14199304580688
-9999 -9999 -9999 -9999 -9999 -9999 -9999 -9999 -9999 -9999 -9999 -9999 -9999 -9999 -9999 -9999 -9999 -9999 -9999 -9999 -9999 -9999 -9999 -9999 -9999 -9999 -9999 -9999 -9999 -9999 -9999 -9999 -9999 -9999 -9999 -9999 -9999 7.93460655212402 7.62887525558472 7.50796175003052 7.44972610473633 7.34186983108521 7.30984354019165 7.34240102767944 7.37238311767578 7.35411071777344 7.26903343200684 7.14152574539185 7.0045018196106 6.86805772781372 6.76659345626831 6.70169162750244 6.70202255249023 6.67262077331543 6.29691123962402 5.76849603652954 5.4463005065918 5.22012996673584 5.21262264251709 5.08872032165527 5.1934871673584 5.558434009552 5.97022294998169 5.68242168426514 5.47768020629883 5.47372341156006 5.74394464492798 6.10679578781128 6.53451204299927 6.80758905410767
-9999 -9999 -9999 -9999 -9999 -9999 -9999 -9999 -9999 -9999 -9999 -9999 -9999 -9999 -9999 -9999 -9999 -9999 -9999 -9999 -9999 -9999 -9999 -9999 -9999 -9999 -9999 -9999 -9999 -9999 -9999 -9999 -9999 -9999 -9999 -9999 8.51132011413574 8.13239002227783 7.75409030914307 7.6588888168335 7.61045408248901 7.50929069519043 7.4722318649292 7.47787141799927 7.46788024902344 7.42402315139771 7.32960414886475 7.19939136505127 7.08504438400269 6.98530578613281 6.94773960113525 6.96953010559082 7.08690166473389 7.18778038024902 6.84281778335571 6.15578603744507 5.78100156784058 5.86977291107178 6.32147884368896 6.33174085617065 6.32334518432617 6.66744327545166 6.85145044326782 6.41473245620728 6.27870035171509 6.67727613449097 7.25080633163452 7.48762178421021 7.73914575576782 7.79216814041138
-9999 -9999 -9999 -9999 -9999 -9999 -9999 -9999 -9999 -9999 -9999 -9999 -9999 -9999 -9999 -9999 -9999 -9999 -9999 -9999 -9999 -9999 -9999 -9999 -9999 -9999 -9999 -9999 -9999 -9999 -9999 -9999 -9999 -9999 -9999 -9999 -9999 8.24622821807861 8.06537246704102 7.90664291381836 7.79639339447021 7.63245105743408 7.5506649017334 7.51855611801147 7.5061559677124 7.47794198989868 7.40385866165161 7.27511215209961 7.17429351806641 7.12202310562134 7.15760040283203 7.27072334289551 7.44900989532471 7.6055588722229 7.45814275741577 7.02418756484985 7.13724136352539 7.69073534011841 8.39670372009277 8.48160839080811 8.07787036895752 8.10565376281738 7.97089719772339 7.524582862854 7.43715858459473 7.99185705184937 8.57457447052002 8.76457405090332 8.84612464904785 8.744948387146
-9999 -9999 -9999 -9999 -9999 -9999 -9999 -9999 -9999 -9999 -9999 -9999 -9999 -9999 -9999 -9999 -9999 -9999 -9999 -9999 -9999 -9999 -9999 -9999 -9999 -9999 -9999 -9999 -9999 -9999 -9999 -9999 -9999 -9999 -9999 -9999 -9999 -9999 8.56797504425049 -9999 8.05558776855469 7.78423833847046 7.60772705078125 7.52075242996216 7.50766468048096 7.48406839370728 7.43376684188843 7.30923366546631 7.21588039398193 7.19843673706055 7.35342168807983 7.58930110931396 7.81688261032104 7.97760725021362 7.9923357963562 7.89085578918457 8.53441333770752 9.16215705871582 9.68599796295166 9.73922920227051 9.51041793823242 9.39369487762451 8.97720050811768 8.56720352172852 8.40933799743652 8.96123695373535 9.80940723419189 10.8048877716064 11.009895324707 11.049201965332
-9999 -9999 -9999 -9999 -9999 -9999 -9999 -9999 -9999 -9999 -9999 -9999 -9999 -9999 -9999 -9999 -9999 -9999 -9999 -9999 -9999 -9999 -9999 -9999 -9999 -9999 -9999 -9999 -9999 -9999 -9999 -9999 -9999 -9999 -9999 -9999 -9999 -9999 -9999 -9999 7.99951410293579 7.79088354110718 7.63224935531616 7.534348487854 7.49624252319336 7.47267293930054 7.46170043945312 7.44305276870728 7.51120042800903 7.57047605514526 7.76076555252075 7.94728565216064 8.16457080841064 8.38666915893555 8.46438503265381 8.68020248413086 9.3395824432373 9.93345165252686 10.4447202682495 10.7832183837891 10.8015251159668 10.6321649551392 10.0456199645996 9.55708885192871 9.48538208007812 10.2242794036865 11.5901231765747 13.1651287078857 13.806266784668 14.2197828292847
-9999 -9999 -9999 -9999 -9999 -9999 -9999 -9999 -9999 -9999 -9999 -9999 -9999 -9999 -9999 -9999 -9999 -9999 -9999 -9999 -9999 -9999 -9999 -9999 -9999 -9999 -9999 -9999 -9999 -9999 -9999 -9999 -9999 -9999 9.99929046630859 9.99838352203369 9.74333190917969 -9999 8.87589168548584 8.39666748046875 7.9491810798645 7.69988679885864 7.61562061309814 7.52767038345337 7.50392198562622 7.59718322753906 7.68560600280762 7.78893184661865 7.96504640579224 8.13576316833496 8.27068042755127 8.43623638153076 8.65630435943604 8.87481021881104 9.15506267547607 9.82110691070557 10.748514175415 11.5773639678955 12.2379484176636 12.6634387969971 12.7481088638306 12.5993146896362 11.9408979415894 11.1368217468262 11.0339441299438 11.733624458313 13.1674089431763 14.7187604904175 15.4330205917358 15.7829074859619
-9999 -9999 -9999 -9999 -9999 -9999 -9999 -9999 -9999 -9999 -9999 -9999 -9999 -9999 -9999 -9999 -9999 -9999 -9999 -9999 -9999 -9999 -9999 -9999 -9999 -9999 -9999 11.8248329162598 11.8248329162598 11.6747713088989 11.5647401809692 11.2348022460938 10.6786012649536 10.278528213501 10.0450458526611 9.67520427703857 9.24245357513428 8.89831447601318 8.5856990814209 8.22474479675293 7.7304859161377 7.42289733886719 7.45095205307007 7.50100469589233 7.61336898803711 7.83536958694458 8.02386856079102 8.23561477661133 8.52042293548584 8.75227832794189 8.96666812896729 9.2847900390625 9.71171951293945 10.2746829986572 11.0738115310669 12.1416320800781 13.2526149749756 13.8374223709106 14.2452144622803 14.4773616790771 14.5419692993164 14.4989671707153 14.1238975524902 13.0067586898804 12.4514350891113 12.5926713943481 13.7488050460815 15.3964910507202 16.2470245361328 16.6228656768799
-9999 -9999 -9999 -9999 -9999 -9999 -9999 -9999 -9999 -9999 -9999 -9999 -9999 -9999 -9999 -9999 -9999 -9999 -9999 -9999 -9999 -9999 -9999 -9999 -9999 -9999 -9999 -9999 -9999 -9999 11.1957454681396 10.9098062515259 10.2269248962402 9.69539260864258 9.44856834411621 9.06125354766846 8.73908805847168 8.45821189880371 8.16884326934814 7.89092111587524 7.5109691619873 7.23445844650269 7.35861396789551 7.56686449050903 7.83714580535889 8.15166568756104 8.45065402984619 8.81040859222412 9.19430160522461 9.53321647644043 9.93166828155518 10.3973569869995 11.1628284454346 12.3580493927002 13.5624418258667 14.4408235549927 14.9846048355103 15.1238145828247 15.1312084197998 15.1522922515869 15.1368980407715 14.960376739502 14.7644205093384 14.033016204834 13.7004680633545 14.0541343688965 15.3043699264526 16.5908336639404 17.2549076080322 17.5917320251465
-9999 -9999 -9999 -9999 -9999 -9999 -9999 -9999 -9999 -9999 -9999 -9999 -9999 -9999 -9999 -9999 -9999 -9999 -9999 -9999 -9999 -9999 -9999 -9999 -9999 11.8701299031576 11.4508374532064 11.0727577209473 10.7085921764374 10.5970115661621 10.3507490158081 10.2444219589233 9.91891860961914 9.48267555236816 9.25141334533691 9.00853824615479 8.88285255432129 8.70364665985107 8.39883041381836 8.14641857147217 7.89592266082764 7.76953601837158 7.80587434768677 8.02453899383545 8.41653728485107 8.76635646820068 9.27561283111572 9.90882110595703 10.3992872238159 10.7593927383423 11.1681537628174 11.7819375991821 12.9363965988159 14.2914667129517 15.1859359741211 15.6288642883301 15.8903255462646 15.9130640029907 15.7755107879639 15.5626964569092 15.3975162506104 15.1893920898438 15.212664604187 15.1785755157471 15.4850158691406 16.1686916351318 17.1828994750977 17.8408069610596 18.1359786987305 18.2788524627686
-9999 -9999 -9999 -9999 -9999 -9999 -9999 -9999 -9999 -9999 -9999 -9999 -9999 -9999 -9999 -9999 -9999 -9999 -9999 -9999 -9999 -9999 -9999 -9999 12.3126134872437 11.8720998764038 11.4256763458252 11.0547361373901 10.7378606796265 10.4447603225708 10.2196998596191 10.050145149231 9.83089160919189 9.59033584594727 9.50619220733643 9.49808788299561 9.69924736022949 9.82375717163086 9.67337131500244 9.59945678710938 9.48427772521973 9.39436626434326 9.40694427490234 9.6953239440918 10.1329774856567 10.4428663253784 10.9938068389893 11.7396402359009 12.3356494903564 12.7728891372681 13.1412734985352 13.8119382858276 14.7404232025146 15.4754247665405 15.8917255401611 16.1361541748047 16.3069820404053 16.2481288909912 16.0288963317871 15.7546997070312 15.6796073913574 16.0199699401855 16.5954437255859 16.9446849822998 17.2855091094971 17.6911334991455 18.1072235107422 18.3678894042969 18.5142364501953 18.5970096588135
-9999 -9999 -9999 -9999 -9999 -9999 -9999 -9999 -9999 -9999 -9999 -9999 -9999 -9999 -9999 -9999 -9999 -9999 -9999 -9999 -9999 -9999 -9999 -9999 12.3604898452759 11.9176340103149 11.4737281799316 11.0780344009399 10.8029346466064 10.6725091934204 10.5608100891113 10.3754024505615 10.2400379180908 10.2590341567993 10.3932514190674 10.5340690612793 10.9196004867554 11.3319320678711 11.4926996231079 11.7083406448364 11.8000593185425 11.7788829803467 11.8236169815063 12.0281543731689 12.346586227417 12.5652923583984 12.8875589370728 13.4459428787231 14.0080623626709 14.4210977554321 14.7005910873413 15.0479116439819 15.473427772522 15.826340675354 16.0511302947998 16.2501926422119 16.4055957794189 16.4488468170166 16.4433040618896 16.5433483123779 16.9157257080078 17.5949363708496 18.1276931762695 18.380952835083 18.6459636688232 18.9123210906982 19.1156959533691 19.2278957366943 19.2566509246826 19.2274284362793
-9999 -9999 -9999 -9999 -9999 -9999 -9999 -9999 -9999 -9999 -9999 -9999 -9999 -9999 -9999 -9999 -9999 -9999 -9999 -9999 -9999 -9999 -9999 12.53839635849 12.4712495803833 11.9751138687134 11.543719291687 11.2177352905273 11.1248054504395 11.2639245986938 11.2818307876587 11.1162719726562 11.1362037658691 11.4331321716309 11.7356386184692 11.8749132156372 12.0778007507324 12.3783884048462 12.6579275131226 13.0389232635498 13.3632802963257 13.4597234725952 13.4407253265381 13.4760904312134 13.5921974182129 13.6867427825928 13.8816232681274 14.2305526733398 14.5568380355835 14.8266448974609 15.0955219268799 15.4115476608276 15.8373498916626 16.1631870269775 16.3871936798096 16.6175193786621 16.8039817810059 16.9002437591553 16.9988975524902 17.1982345581055 17.4949131011963 17.9222602844238 18.2962474822998 18.5946846008301 18.9610500335693 19.3193855285645 19.6362457275391 19.9035549163818 20.0706729888916 20.0985374450684
-9999 -9999 -9999 -9999 -9999 -9999 -9999 -9999 -9999 -9999 -9999 -9999 -9999 -9999 -9999 -9999 -9999 -9999 -9999 -9999 -9999 -9999 -9999 12.8809652328491 12.4408807754517 11.9773769378662 11.6106691360474 11.4258699417114 11.5412225723267 11.8311004638672 11.9258146286011 11.9905958175659 12.3551769256592 12.8721609115601 13.2808437347412 13.461145401001 13.4998960494995 13.5233097076416 13.6107587814331 13.8388805389404 14.1535091400146 14.3608140945435 14.34889793396 14.258171081543 14.2399005889893 14.2979469299316 14.3896865844727 14.4992876052856 14.639627456665 14.884937286377 15.2855777740479 15.7637977600098 16.1907024383545 16.4467582702637 16.6035671234131 16.7178249359131 16.8034381866455 16.8295440673828 16.8825855255127 16.9908428192139 17.2125473022461 17.5842914581299 17.9909648895264 18.4031848907471 18.8982448577881 19.3927192687988 19.8176593780518 20.1633968353271 20.41676902771 20.5447196960449
-9999 -9999 -9999 -9999 -9999 -9999 -9999 -9999 -9999 -9999 -9999 -9999 -9999 -9999 -9999 -9999 -9999 -9999 -9999 -9999 -9999 -9999 12.8397693634033 12.6147441864014 12.353232383728 12.1912450790405 12.0300121307373 11.9471206665039 12.0421733856201 12.2795257568359 12.5808706283569 13.1019124984741 13.8119773864746 14.4483203887939 14.9037141799927 15.0985116958618 15.0381441116333 14.8168449401855 14.6291027069092 14.6743412017822 14.9163856506348 15.1540966033936 15.2232446670532 15.1336545944214 14.979190826416 14.8436727523804 14.7474374771118 14.7365531921387 14.7928104400635 14.969165802002 15.3449630737305 15.8170557022095 16.16335105896 16.3297328948975 16.4623489379883 16.5646305084229 16.6401233673096 16.7026653289795 16.8485374450684 17.0927600860596 17.4657917022705 17.9467163085938 18.4613742828369 18.9956741333008 19.5328845977783 19.988639831543 20.3128509521484 20.5070991516113 20.5909309387207 20.6068935394287
-9999 -9999 -9999 -9999 -9999 -9999 -9999 -9999 -9999 -9999 -9999 -9999 -9999 -9999 17.0550527572632 -9999 -9999 -9999 -9999 14.6605472564697 -9999 13.078782081604 12.7045793533325 12.5305690765381 12.6133575439453 12.7189283370972 12.6490144729614 12.5302715301514 12.5897274017334 13.0546350479126 13.830228805542 14.6397333145142 15.4461860656738 16.1853008270264 16.6452312469482 16.7314834594727 16.4573287963867 16.0149955749512 15.7648916244507 15.8800497055054 16.1785659790039 16.4076271057129 16.5098743438721 16.498950958252 16.3304386138916 16.0697402954102 15.7990055084229 15.5590534210205 15.3648986816406 15.2361526489258 15.3111953735352 15.6463794708252 15.9734134674072 16.2342891693115 16.5575466156006 16.8930835723877 17.1852626800537 17.4403190612793 17.7361450195312 18.1206741333008 18.577262878418 19.0582370758057 19.5387516021729 19.9680404663086 20.2812347412109 20.4670848846436 20.5611572265625 20.5724124908447 20.5132293701172 20.4626579284668
-9999 -9999 -9999 -9999 -9999 -9999 -9999 -9999 -9999 -9999 -9999 -9999 -9999 -9999 17.0509843826294 -9999 -9999 -9999 -9999 14.3325567245483 13.5852966308594 13.0582447052002 12.7289934158325 12.8324489593506 13.0158786773682 12.9988975524902 12.8289785385132 12.9361724853516 13.7516593933105 15.0960760116577 16.2498226165771 16.9745330810547 17.592399597168 18.0437335968018 18.0752143859863 17.8164920806885 17.5133228302002 17.3252201080322 17.2255783081055 17.1651916503906 17.2154426574707 17.3367366790771 17.4393749237061 17.5026741027832 17.5363845825195 17.5792865753174 17.5380916595459 17.267614364624 16.8585033416748 16.4501247406006 16.1722621917725 16.1885509490967 16.4341163635254 16.8719463348389 17.4134197235107 17.9036540985107 18.3125514984131 18.6787223815918 19.058012008667 19.4237728118896 19.7538757324219 20.0318393707275 20.2568950653076 20.4063529968262 20.4606056213379 20.4630355834961 20.4446487426758 20.38991355896 20.3160629272461 20.3243446350098
-9999 -9999 -9999 -9999 -9999 -9999 -9999 -9999 -9999 -9999 -9999 -9999 -9999 -9999 17.0692920684814 -9999 -9999 -9999 -9999 -9999 13.3779864311218 13.124342918396 13.0636100769043 13.2843255996704 13.3434562683105 13.1793069839478 13.2676458358765 14.3622713088989 16.1872062683105 17.6756114959717 18.521800994873 19.0432891845703 19.3910942077637 19.3826179504395 18.8865547180176 18.3580493927002 18.3138732910156 18.4370651245117 18.3001689910889 18.0046634674072 17.8573322296143 17.9323387145996 18.0920295715332 18.2324180603027 18.3570652008057 18.4752540588379 18.5409984588623 18.4205932617188 18.1150989532471 17.8085021972656 17.5679931640625 17.4734058380127 17.6563777923584 18.0934181213379 18.5622959136963 18.9498233795166 19.2741088867188 19.5667724609375 19.8407096862793 20.0410041809082 20.1726913452148 20.2679691314697 20.3538188934326 20.4123229980469 20.4113254547119 20.3468379974365 20.2641296386719 20.1879863739014 20.1416530609131 20.2115154266357
-9999 -9999 -9999 -9999 -9999 -9999 -9999 -9999 -9999 -9999 -9999 -9999 -9999 -9999 16.9734811782837 -9999 16.9960613250732 -9999 -9999 -9999 13.8872966766357 13.4420614242554 13.4534559249878 13.5851764678955 13.4989004135132 13.5392036437988 14.7775678634644 16.9695625305176 18.6000595092773 19.3979206085205 19.8524379730225 20.1724948883057 20.2834911346436 20.1238803863525 19.6774768829346 19.2671871185303 19.1925601959229 19.1157722473145 18.8630199432373 18.5944957733154 18.4665489196777 18.5790519714355 18.8315906524658 19.0738697052002 19.2282104492188 19.2692680358887 19.2219886779785 19.0703620910645 18.7878074645996 18.5250091552734 18.4456672668457 18.6056747436523 18.8873481750488 19.1513347625732 19.3723163604736 19.620491027832 19.8164024353027 19.9323406219482 19.9977130889893 20.0285053253174 20.0680065155029 20.1662406921387 20.2773380279541 20.2935085296631 20.2431678771973 20.1454315185547 20.0223903656006 19.946044921875 19.9221420288086 20.0054321289062
-9999 -9999 -9999 -9999 -9999 -9999 -9999 -9999 -9999 -9999 -9999 -9999 -9999 -9999 16.9734811782837 16.8776702880859 16.889669418335 -9999 -9999 14.2693331241608 14.0892686843872 13.7527132034302 13.7008609771729 13.6591520309448 13.7652750015259 14.8739042282104 17.1382217407227 19.0094814300537 19.7921409606934 20.1648120880127 20.5440101623535 20.8607177734375 20.9488563537598 20.7921161651611 20.5143985748291 20.2572193145752 20.0268993377686 19.7120780944824 19.3737659454346 19.0948066711426 18.950870513916 19.1022720336914 19.4747142791748 19.8511638641357 20.0766925811768 20.1420764923096 20.0843143463135 19.8987560272217 19.5576152801514 19.230598449707 19.198371887207 19.4908618927002 19.7022380828857 19.7237243652344 19.7663116455078 19.8852062225342 19.9277420043945 19.8835735321045 19.8532276153564 19.8755512237549 19.9631099700928 20.0764656066895 20.1110572814941 20.0467891693115 19.9818153381348 19.9018115997314 19.7732524871826 19.6835689544678 19.6475734710693 19.7145709991455
-9999 -9999 -9999 -9999 -9999 -9999 -9999 -9999 -9999 -9999 -9999 -9999 -9999 -9999 -9999 16.5217664718628 16.7133083343506 -9999 15.5759613513947 14.8347454071045 14.2660217285156 14.0757732391357 14.1712779998779 14.4465160369873 15.2042417526245 17.0230083465576 19.0100116729736 19.9374408721924 20.3171768188477 20.6096897125244 21.0649890899658 21.5233688354492 21.6930923461914 21.5562572479248 21.2285652160645 20.924840927124 20.6830520629883 20.3570995330811 19.9833869934082 19.6622066497803 19.474006652832 19.6296882629395 20.1032409667969 20.5647945404053 20.81422996521 20.9201526641846 20.9338607788086 20.8195514678955 20.4554576873779 20.0365028381348 19.874927520752 19.9686717987061 19.9376087188721 19.7760734558105 19.7577075958252 19.8205413818359 19.7979621887207 19.736608505249 19.7290573120117 19.7537422180176 19.8102874755859 19.8606700897217 19.8254661560059 19.7629108428955 19.7122707366943 19.6390266418457 19.5217876434326 19.4112815856934 19.3761825561523 19.48903465271
-9999 -9999 -9999 -9999 -9999 -9999 -9999 -9999 -9999 -9999 -9999 -9999 -9999 -9999 -9999 15.9210271835327 16.2071571350098 -9999 15.6935291290283 14.9724855422974 14.4111270904541 14.4346323013306 15.2105836868286 16.26491355896 17.2916240692139 18.743579864502 19.8863945007324 20.3428134918213 20.7200775146484 21.2531127929688 21.9183235168457 22.3778533935547 22.4795475006104 22.3289318084717 22.0036277770996 21.6395587921143 21.3709926605225 21.1615428924561 20.9773387908936 20.8596076965332 20.8202819824219 20.8939914703369 21.1053104400635 21.3098258972168 21.417724609375 21.4789371490479 21.4691200256348 21.367748260498 21.0463943481445 20.4915256500244 20.0189533233643 19.8466968536377 19.7378635406494 19.5958652496338 19.5591487884521 19.5682430267334 19.5575885772705 19.5745258331299 19.6297607421875 19.6495342254639 19.6502857208252 19.6349658966064 19.5698299407959 19.5069561004639 19.4506072998047 19.3721332550049 19.29833984375 19.261661529541 19.2744998931885 19.3979225158691
-9999 -9999 -9999 -9999 -9999 -9999 -9999 -9999 -9999 -9999 -9999 -9999 -9999 -9999 -9999 15.8763446807861 -9999 16.0245206015451 15.7354125976562 15.1159648895264 14.748122215271 15.2353706359863 16.5366630554199 17.5278854370117 18.2676982879639 19.3604927062988 20.131010055542 20.4909973144531 21.1207046508789 22.0421943664551 22.767650604248 23.0245742797852 22.9014625549316 22.60133934021 22.2732448577881 21.9804534912109 21.800313949585 21.7376155853271 21.7325878143311 21.7893295288086 21.8407897949219 21.7791805267334 21.6811065673828 21.6392765045166 21.6211166381836 21.5632095336914 21.4326000213623 21.2947158813477 21.117546081543 20.6694278717041 20.0387229919434 19.658618927002 19.550651550293 19.4811859130859 19.4277019500732 19.3955154418945 19.4443492889404 19.5237445831299 19.6120281219482 19.603910446167 19.5543327331543 19.4888725280762 19.3914070129395 19.3192405700684 19.2662773132324 19.2023754119873 19.1852931976318 19.2519512176514 19.3013877868652 19.3652725219727
-9999 -9999 -9999 -9999 -9999 -9999 -9999 -9999 -9999 -9999 -9999 -9999 -9999 -9999 15.8763446807861 16.0262902577718 16.2588043212891 16.3559303283691 15.9770889282227 15.369909286499 15.0610485076904 16.0583114624023 17.8425788879395 18.5009613037109 18.9467678070068 19.7719039916992 20.2441825866699 20.7431640625 21.8274059295654 22.84938621521 23.2836818695068 23.1884517669678 22.772647857666 22.328088760376 21.9997386932373 21.7902698516846 21.7195053100586 21.6971683502197 21.6861934661865 21.7135066986084 21.7447185516357 21.6996116638184 21.6553611755371 21.5482521057129 21.264123916626 20.961368560791 20.8121547698975 20.778247833252 20.7843036651611 20.6074180603027 20.1612701416016 19.7924270629883 19.678804397583 19.5890789031982 19.5224437713623 19.4895935058594 19.5319709777832 19.5974254608154 19.6163196563721 19.50830078125 19.4210510253906 19.4097385406494 19.3617668151855 19.2927055358887 19.2124252319336 19.136079788208 19.1586227416992 19.256010055542 19.3018379211426 19.3199653625488
-9999 -9999 -9999 -9999 -9999 -9999 -9999 -9999 -9999 -9999 -9999 -9999 -9999 -9999 -9999 -9999 16.6717939376831 16.8456401824951 16.2933311462402 15.5673723220825 15.4654550552368 16.894947052002 18.7501068115234 19.2574043273926 19.5755996704102 20.13352394104 20.6392288208008 21.6212120056152 22.8625717163086 23.4227638244629 23.3727035522461 22.9211177825928 22.3420715332031 21.8882827758789 21.5813770294189 21.4190616607666 21.3837413787842 21.3704395294189 21.3997650146484 21.4477958679199 21.4509048461914 21.3426609039307 21.1380996704102 20.808910369873 20.435510635376 20.2738227844238 20.2961120605469 20.3175048828125 20.3305397033691 20.2832679748535 20.1157913208008 19.9318809509277 19.8281059265137 19.6811752319336 19.5376930236816 19.4328117370605 19.4403305053711 19.479097366333 19.4599761962891 19.3513851165771 19.2883281707764 19.3069896697998 19.3116340637207 19.2524909973145 19.1284332275391 19.0239543914795 19.0662956237793 19.166389465332 19.2358226776123 19.2903099060059
-9999 -9999 -9999 -9999 -9999 -9999 -9999 -9999 -9999 -9999 -9999 -9999 -9999 -9999 -9999 -9999 17.0362205505371 17.2268009185791 16.4892902374268 15.7775316238403 16.0493221282959 17.833288192749 19.4264011383057 19.8182964324951 20.1673412322998 20.8439922332764 21.9250164031982 23.0324993133545 23.5731639862061 23.4927387237549 23.0026931762695 22.3524837493896 21.7900371551514 21.4165687561035 21.2024250030518 21.1192264556885 21.1198291778564 21.1539688110352 21.2076797485352 21.1994934082031 21.0862789154053 20.81982421875 20.4176692962646 20.0814037322998 19.9426860809326 19.981372833252 20.0318031311035 20.009298324585 20.0247707366943 20.0647926330566 20.0284538269043 19.9287910461426 19.8733768463135 19.6912403106689 19.4270343780518 19.2963428497314 19.2732944488525 19.2864837646484 19.2902450561523 19.2586288452148 19.2434234619141 19.2666683197021 19.2807159423828 19.2141017913818 19.0206527709961 18.8818473815918 18.9377460479736 19.0704555511475 19.2092628479004 19.3245124816895
-9999 -9999 -9999 -9999 -9999 -9999 -9999 -9999 -9999 -9999 -9999 -9999 -9999 -9999 -9999 -9999 -9999 16.8865194320679 16.7542591094971 16.3205013275146 16.9547367095947 19.0065784454346 20.4963245391846 20.8646240234375 21.5723495483398 22.5841159820557 23.369197845459 23.7040100097656 23.5510921478271 23.0229682922363 22.3314056396484 21.7315654754639 21.305139541626 21.009370803833 20.8429775238037 20.7643280029297 20.7083988189697 20.6991157531738 20.7526092529297 20.7602462768555 20.6041240692139 20.2137184143066 19.8286266326904 19.7095775604248 19.7803840637207 19.8533477783203 19.7844772338867 19.7176361083984 19.8772506713867 20.0499629974365 20.0080661773682 19.8534507751465 19.7756214141846 19.5676288604736 19.3403053283691 19.2499446868896 19.1883792877197 19.2006874084473 19.2461261749268 19.2370052337646 19.2308101654053 19.2497406005859 19.2697696685791 19.2131748199463 19.0186748504639 18.8876800537109 18.9399967193604 19.0779418945312 19.2172374725342 19.3123321533203
-9999 -9999 -9999 -9999 -9999 -9999 -9999 -9999 -9999 -9999 -9999 -9999 -9999 -9999 17.1791558265686 17.2268009185791 17.0260102748871 16.9149932861328 17.0757274627686 17.00657081604 17.8743896484375 20.3106784820557 21.6534881591797 22.3382625579834 23.2998714447021 23.738410949707 23.8376884460449 23.6286373138428 23.0219249725342 22.2574024200439 21.6981296539307 21.3222961425781 20.9922657012939 20.6335182189941 20.4073600769043 20.3388442993164 20.3315925598145 20.2851428985596 20.2074890136719 20.1226596832275 19.9604434967041 19.7008152008057 19.5623798370361 19.5841598510742 19.6390037536621 19.6792240142822 19.5927772521973 19.5154418945312 19.6967239379883 19.8583431243896 19.7633800506592 19.6155548095703 19.5781307220459 19.4660701751709 19.3261528015137 19.2197170257568 19.1166458129883 19.1289939880371 19.2043228149414 19.2118625640869 19.2009677886963 19.2023963928223 19.191089630127 19.14137840271 19.0097484588623 18.9112682342529 18.9144992828369 19.0223140716553 19.1532955169678 19.2265205383301
-9999 -9999 -9999 -9999 -9999 -9999 -9999 -9999 -9999 -9999 -9999 -9999 -9999 -9999 -9999 -9999 -9999 -9999 17.8523602485657 18.1284008026123 19.238733291626 21.2221660614014 22.4838771820068 23.4788208007812 23.9809837341309 23.9445018768311 23.6104049682617 22.9406108856201 22.1223850250244 21.5520801544189 21.269660949707 21.0970668792725 20.8050441741943 20.4526996612549 20.2468757629395 20.2113170623779 20.2247047424316 20.1516227722168 19.9903411865234 19.8023509979248 19.6187953948975 19.4600353240967 19.3674640655518 19.3385944366455 19.3444232940674 19.3739547729492 19.3649158477783 19.3757877349854 19.5037422180176 19.5987415313721 19.5029430389404 19.4079036712646 19.4319343566895 19.3897457122803 19.2571296691895 19.130880355835 19.0402698516846 19.0791664123535 19.1620330810547 19.1828575134277 19.1790142059326 19.1804180145264 19.1606845855713 19.1315937042236 19.0511169433594 18.9682445526123 18.913969039917 18.9296092987061 19.0224456787109 19.0828990936279
-9999 -9999 -9999 -9999 -9999 -9999 -9999 -9999 -9999 -9999 -9999 -9999 -9999 -9999 -9999 -9999 -9999 19.6645011901855 19.4433360099792 19.1987419128418 20.3423862457275 22.3984622955322 23.7264175415039 24.1922721862793 24.0807266235352 23.6291007995605 22.9256362915039 22.0645923614502 21.3956184387207 21.0845718383789 20.9652462005615 20.8484973907471 20.5942726135254 20.3300132751465 20.2045745849609 20.1979656219482 20.1705856323242 20.0092754364014 19.7982540130615 19.6205558776855 19.4862422943115 19.3838748931885 19.2921333312988 19.2213916778564 19.1712703704834 19.1667747497559 19.2004451751709 19.25608253479 19.309642791748 19.3184032440186 19.2412738800049 19.2384719848633 19.2948188781738 19.2323665618896 19.0947418212891 18.9971046447754 19.0184593200684 19.115119934082 19.1690502166748 19.181396484375 19.2103042602539 19.2367324829102 19.2428226470947 19.2391757965088 19.1931571960449 19.1549701690674 19.1425285339355 19.1063098907471 19.0797634124756 19.0622043609619
-9999 -9999 -9999 -9999 -9999 -9999 -9999 -9999 -9999 -9999 -9999 -9999 -9999 22.155445098877 22.1332372029622 -9999 21.6953392028809 21.1551876068115 19.6645011901855 20.7817001342773 22.9472179412842 24.1443481445312 24.4594287872314 24.1919403076172 23.6621208190918 23.0144691467285 22.1726703643799 21.2883415222168 20.7375259399414 20.6173839569092 20.6160297393799 20.5497627258301 20.4072456359863 20.2884311676025 20.2548236846924 20.2255325317383 20.1046485900879 19.8847637176514 19.7030811309814 19.5687847137451 19.4355144500732 19.309757232666 19.2031841278076 19.1069278717041 19.035270690918 19.0252914428711 19.0612030029297 19.1046905517578 19.1282253265381 19.1181831359863 19.1021270751953 19.1101417541504 19.0939178466797 19.006311416626 18.9131126403809 18.892541885376 18.9722709655762 19.0454864501953 19.0639095306396 19.1006050109863 19.1832084655762 19.2504768371582 19.2810974121094 19.2910137176514 19.2766628265381 19.2634258270264 19.2753086090088 19.2351779937744 19.1749935150146 19.1212062835693
-9999 -9999 -9999 -9999 -9999 -9999 -9999 -9999 -9999 -9999 -9999 -9999 -9999 -9999 22.155445098877 22.2320499420166 22.0122165679932 21.3784618377686 21.5655708312988 23.6291923522949 24.5601673126221 24.6828670501709 24.34153175354 23.7491283416748 23.1322937011719 22.3549537658691 21.4594326019287 20.7177257537842 20.4714374542236 20.452127456665 20.4173336029053 20.3641777038574 20.3110427856445 20.242467880249 20.154670715332 20.0363273620605 19.8623085021973 19.657320022583 19.4873237609863 19.3571243286133 19.2362766265869 19.1261138916016 19.0436038970947 18.9944114685059 18.97727394104 18.9667129516602 18.9719772338867 18.9861850738525 18.9746341705322 18.9575786590576 18.9387836456299 18.9162616729736 18.8844661712646 18.8405094146729 18.7968788146973 18.7770767211914 18.8032531738281 18.8585929870605 18.9422931671143 19.0491809844971 19.1737251281738 19.266881942749 19.3101024627686 19.3106842041016 19.2943515777588 19.2720241546631 19.2414054870605 19.18603515625 19.1452732086182 19.1386070251465
-9999 -9999 -9999 -9999 -9999 -9999 -9999 -9999 -9999 -9999 -9999 -9999 -9999 -9999 22.3924179077148 22.155445098877 22.5284881591797 22.8221302032471 23.8174533843994 24.7380638122559 24.8454627990723 24.5427169799805 23.9319458007812 23.2679805755615 22.5900268554688 21.7822265625 20.9888896942139 20.4844341278076 20.3659896850586 20.3013648986816 20.2576732635498 20.2216835021973 20.1827945709229 20.1026058197021 20.0031147003174 19.8884201049805 19.7360496520996 19.5342254638672 19.3437480926514 19.2425327301025 19.1716690063477 19.0970191955566 19.035665512085 19.0029182434082 18.9943199157715 18.9841232299805 18.9761943817139 18.962516784668 18.9274711608887 18.9070949554443 18.8919696807861 18.8750305175781 18.8683300018311 18.8664150238037 18.8456649780273 18.7966461181641 18.7741203308105 18.82444190979 18.9262504577637 19.0077705383301 19.0950336456299 19.2248916625977 19.2975406646729 19.3001117706299 19.2884464263916 19.2631320953369 19.2344055175781 19.2248802185059 19.2370223999023 19.2818641662598
-9999 -9999 -9999 -9999 -9999 -9999 -9999 -9999 -9999 -9999 -9999 22.237512588501 22.3420104980469 22.4355850219727 22.3799247741699 22.5987167358398 23.5443420410156 24.3841419219971 24.8748760223389 24.9799633026123 24.7819805145264 24.2839908599854 23.5732707977295 22.8651065826416 22.2211647033691 21.5647602081299 21.0137634277344 20.6975555419922 20.5315589904785 20.3968048095703 20.2657203674316 20.1702823638916 20.1200923919678 20.0657539367676 20.0079956054688 19.923152923584 19.7810668945312 19.5684814453125 19.3516979217529 19.2683544158936 19.2616119384766 19.2362689971924 19.1834926605225 19.1173362731934 19.059965133667 19.0220603942871 19.009593963623 18.9888191223145 18.9733257293701 18.9666519165039 18.9530277252197 18.9288883209229 18.9165096282959 18.9381484985352 18.9460201263428 18.8931980133057 18.8335056304932 18.874267578125 18.9745922088623 19.004732131958 19.059440612793 19.2216491699219 19.2841567993164 19.2804622650146 19.2890682220459 19.2834644317627 19.2513847351074 19.2459259033203 19.2494812011719 19.2704067230225
-9999 -9999 -9999 -9999 -9999 -9999 -9999 -9999 -9999 22.5020542144775 22.5208568572998 22.6142578125 22.888988494873 23.0627670288086 23.014799118042 23.502628326416 24.5508708953857 24.8948955535889 25.085916519165 25.0481967926025 24.7097778320312 24.1722297668457 23.458797454834 22.7554969787598 22.159818649292 21.7025661468506 21.3458499908447 21.1084899902344 20.9049301147461 20.7403202056885 20.5859489440918 20.4464797973633 20.338773727417 20.2248401641846 20.1143760681152 19.9899482727051 19.8218059539795 19.6201667785645 19.4386119842529 19.3839702606201 19.3971157073975 19.3845996856689 19.348258972168 19.2842788696289 19.2226505279541 19.1700172424316 19.1229953765869 19.0745086669922 19.0370712280273 19.0191287994385 19.0048294067383 18.989725112915 18.9867115020752 19.0304985046387 19.0460681915283 18.9839553833008 18.9033794403076 18.9682788848877 19.0554599761963 19.049711227417 19.1159477233887 19.2623767852783 19.2877750396729 19.2614612579346 19.2825336456299 19.3002338409424 19.2675819396973 19.2408103942871 19.2251262664795 19.2354774475098
-9999 -9999 -9999 -9999 -9999 -9999 -9999 -9999 -9999 22.9217929840088 22.9806423187256 23.2076358795166 23.4470520019531 23.5623893737793 23.7654685974121 24.5176887512207 25.033561706543 25.2794704437256 25.2544994354248 24.9559993743896 24.4622478485107 23.9122772216797 23.3013229370117 22.8050632476807 22.354320526123 21.9941062927246 21.8012351989746 21.5525722503662 21.2046184539795 20.895637512207 20.6710414886475 20.463399887085 20.2815647125244 20.112850189209 19.9652442932129 19.8639507293701 19.7754707336426 19.6730461120605 19.5703048706055 19.5317497253418 19.5489292144775 19.5588264465332 19.5339412689209 19.4727973937988 19.3982925415039 19.324369430542 19.2657241821289 19.2171154022217 19.1856842041016 19.1596374511719 19.1346530914307 19.1120204925537 19.1133213043213 19.1424713134766 19.1216621398926 19.0493087768555 19.0173473358154 19.1208724975586 19.1892108917236 19.1729640960693 19.2367324829102 19.332067489624 19.3368244171143 19.2864151000977 19.2888126373291 19.3210849761963 19.2749080657959 19.2175464630127 19.1881217956543 19.2006549835205
-9999 -9999 -9999 -9999 -9999 23.3415699005127 23.2323989868164 23.2336978912354 23.1737804412842 23.1424350738525 23.183479309082 23.3859691619873 23.6675930023193 24.0513401031494 24.6009712219238 25.1459293365479 25.4099369049072 25.3762626647949 25.1513977050781 24.7331104278564 24.2809143066406 23.7640972137451 23.2356052398682 23.0038776397705 22.6915225982666 22.2822647094727 22.131519317627 21.8564853668213 21.3828296661377 20.908145904541 20.6283435821533 20.410774230957 20.2028350830078 20.027042388916 19.9169425964355 19.8419151306152 19.7758483886719 19.726734161377 19.6821365356445 19.6596851348877 19.6740016937256 19.6855869293213 19.6676998138428 19.6294574737549 19.5813465118408 19.509744644165 19.4174785614014 19.3408241271973 19.3083362579346 19.2976665496826 19.2891101837158 19.2875995635986 19.2850532531738 19.2636547088623 19.2188854217529 19.1850051879883 19.2199096679688 19.3172035217285 19.3258266448975 19.3030967712402 19.3546657562256 19.4152431488037 19.4315567016602 19.3817539215088 19.3313331604004 19.34104347229 19.2782211303711 19.1914958953857 19.1500396728516 19.1584167480469
-9999 -9999 -9999 -9999 23.4747562408447 23.2966537475586 23.3624706268311 23.3918266296387 23.3110580444336 23.3403339385986 23.3051242828369 23.5894470214844 24.1529731750488 24.8215141296387 25.3390159606934 25.5762271881104 25.539665222168 25.3101615905762 24.93115234375 24.5102481842041 24.1279983520508 23.5896377563477 23.043004989624 23.0468902587891 22.9560070037842 22.6601810455322 22.5412044525146 22.0822525024414 21.3583507537842 20.8418712615967 20.5763721466064 20.4013710021973 20.2445030212402 20.0849342346191 19.9931106567383 19.9282493591309 19.8600826263428 19.8144207000732 19.7830944061279 19.7654342651367 19.7606449127197 19.7458305358887 19.7398586273193 19.7657356262207 19.7956237792969 19.7923126220703 19.7152614593506 19.5845050811768 19.48996925354 19.4584484100342 19.455099105835 19.4370594024658 19.4036617279053 19.3715171813965 19.3885116577148 19.4398345947266 19.5097160339355 19.5570278167725 19.5124683380127 19.4614868164062 19.475456237793 19.5121269226074 19.5376853942871 19.5250415802002 19.443380355835 19.3858871459961 19.2856769561768 19.1643943786621 19.1138973236084 19.1152629852295
-9999 -9999 -9999 23.4316411018372 23.4508876800537 23.3033142089844 23.5013065338135 23.5184631347656 23.5417823791504 23.6981830596924 23.6184406280518 24.2961235046387 25.0257263183594 25.4633407592773 25.6712799072266 25.7033462524414 25.5107650756836 25.0986309051514 24.6969375610352 24.3654270172119 23.8841552734375 23.2416801452637 22.7062530517578 22.7241401672363 22.5293788909912 22.2501258850098 21.9005336761475 21.3178405761719 20.7237548828125 20.4721984863281 20.3952465057373 20.3489036560059 20.2957401275635 20.2108554840088 20.1841278076172 20.1819400787354 20.1401672363281 20.0859146118164 20.0391712188721 20.0141830444336 20.029468536377 20.0588779449463 20.0834712982178 20.0896015167236 20.0736808776855 20.03244972229 19.9094085693359 19.7068462371826 19.5757904052734 19.5378265380859 19.5257472991943 19.523754119873 19.5434055328369 19.5981273651123 19.6748218536377 19.7320194244385 19.7788429260254 19.774751663208 19.6972179412842 19.6423492431641 19.6592540740967 19.6787643432617 19.664794921875 19.6353874206543 19.5537300109863 19.4648056030273 19.331449508667 19.1897468566895 19.1272602081299 19.1207218170166
-9999 -9999 -9999 23.4761867523193 23.3247337341309 23.3980350494385 23.7512550354004 23.8148593902588 24.1539344787598 24.5132923126221 24.8901920318604 25.5144119262695 25.6994094848633 25.7673206329346 25.8350143432617 25.7226886749268 25.2434597015381 24.728157043457 24.4560070037842 24.2931175231934 23.9178295135498 23.3937149047852 23.0357551574707 23.0495223999023 22.9286918640137 22.8120536804199 22.3638744354248 21.7883567810059 21.2630577087402 20.7906970977783 20.4580688476562 20.2955875396729 20.2016887664795 20.1484432220459 20.1491546630859 20.2311878204346 20.3148384094238 20.3777141571045 20.3870239257812 20.3500957489014 20.3406944274902 20.3294467926025 20.261360168457 20.1658153533936 20.0794067382812 19.9973068237305 19.8625240325928 19.722993850708 19.6907806396484 19.7244262695312 19.766508102417 19.8408641815186 19.9366817474365 19.9900035858154 19.9793739318848 19.9714679718018 19.9698448181152 19.92702293396 19.8523006439209 19.8310146331787 19.8606128692627 19.8515472412109 19.7904148101807 19.7131690979004 19.6419010162354 19.5528221130371 19.3951225280762 19.2419605255127 19.1655101776123 19.1479721069336
