NCOLS 70 
NROWS 52 
XLLCORNER -80 
YLLCORNER 33 
CELLSIZE 0.25 
NODATA_value -9999 
-9999.000000000000000 -9999 -9999 -9999 -9999 -9999 -9999 -9999 -9999 -9999 -9999 -9999 -9999 -9999 -9999 -9999 -9999 -9999 -9999 -9999 -9999 -9999 -9999 -9999 -9999 -9999 -9999 -9999 -9999 -9999 -9999 -9999 -9999 -9999 -9999 -9999 -9999 -9999 -9999 -9999 -9999 -9999 -9999 -9999 -9999 -9999 -9999 -9999 -9999 -9999 -9999 -9999 -9999 -9999 -9999 -9999 -9999 -9999 -9999 -9999 -9999 -9999 -9999 -9999 -9999 -9999 -9999 -9999 -9999 -9999
-9999 -9999 -9999 -9999 -9999 -9999 -9999 -9999 -9999 -9999 -9999 -9999 -9999 -9999 -9999 -9999 -9999 -9999 -9999 -9999 -9999 -9999 -9999 -9999 -9999 -9999 -9999 -9999 -9999 -9999 -9999 -9999 -9999 -9999 -9999 -9999 -9999 -9999 -9999 -9999 -9999 -9999 -9999 -9999 -9999 -9999 -9999 -9999 -9999 -9999 -9999 -9999 -9999 -9999 -9999 -9999 -9999 -9999 -9999 -9999 -9999 -9999 -9999 -9999 -9999 -9999 -9999 -9999 -9999 -9999
-9999 -9999 -9999 -9999 -9999 -9999 -9999 -9999 -9999 -9999 -9999 -9999 -9999 -9999 -9999 -9999 -9999 -9999 -9999 -9999 -9999 -9999 -9999 -9999 -9999 -9999 -9999 -9999 -9999 -9999 -9999 -9999 -9999 -9999 -9999 -9999 -9999 -9999 -9999 -9999 -9999 -9999 -9999 -9999 -9999 -9999 -9999 -9999 -9999 -9999 -9999 -9999 -9999 -9999 -9999 -9999 -9999 -9999 -9999 13.8416957855225 -9999 -9999 -9999 -9999 -9999 -9999 -9999 -9999 -9999 -9999
-9999 -9999 -9999 -9999 -9999 -9999 -9999 -9999 -9999 -9999 -9999 -9999 -9999 -9999 -9999 -9999 -9999 -9999 -9999 -9999 -9999 -9999 -9999 -9999 -9999 -9999 -9999 -9999 -9999 -9999 -9999 -9999 -9999 -9999 -9999 -9999 -9999 -9999 -9999 -9999 -9999 -9999 -9999 -9999 -9999 -9999 -9999 -9999 -9999 -9999 -9999 -9999 -9999 -9999 -9999 12.5991258621216 12.9398851394653 13.4059972763062 13.7357711791992 13.8598432540894 -9999 -9999 -9999 -9999 -9999 -9999 -9999 -9999 -9999 -9999
-9999 -9999 -9999 -9999 -9999 -9999 -9999 -9999 -9999 -9999 -9999 -9999 -9999 -9999 -9999 -9999 -9999 -9999 -9999 -9999 -9999 -9999 -9999 -9999 -9999 -9999 -9999 -9999 -9999 -9999 -9999 -9999 -9999 -9999 -9999 -9999 -9999 -9999 -9999 -9999 -9999 -9999 -9999 -9999 -9999 -9999 -9999 -9999 -9999 -9999 -9999 -9999 12.1495771408081 12.1771688461304 12.3655920028687 12.7209281921387 13.1333293914795 13.5081310272217 -9999 -9999 -9999 -9999 -9999 -9999 -9999 -9999 -9999 -9999 -9999 -9999
-9999 -9999 -9999 -9999 -9999 -9999 -9999 -9999 -9999 -9999 -9999 -9999 -9999 -9999 -9999 -9999 -9999 -9999 -9999 -9999 -9999 -9999 -9999 -9999 -9999 -9999 -9999 -9999 -9999 -9999 -9999 -9999 -9999 -9999 -9999 -9999 -9999 -9999 -9999 -9999 -9999 -9999 -9999 -9999 -9999 -9999 -9999 -9999 -9999 -9999 12.2894016265869 11.4788961410522 11.7233867645264 11.9855375289917 12.1435556411743 12.301664352417 -9999 -9999 -9999 -9999 -9999 -9999 -9999 -9999 -9999 -9999 -9999 14.2377497355143 14.4596118927002 14.1903133392334
-9999 -9999 -9999 -9999 -9999 -9999 -9999 -9999 -9999 -9999 -9999 -9999 -9999 -9999 -9999 -9999 -9999 -9999 -9999 -9999 -9999 -9999 -9999 -9999 -9999 -9999 -9999 -9999 -9999 -9999 -9999 -9999 -9999 -9999 -9999 -9999 -9999 -9999 -9999 -9999 -9999 -9999 -9999 -9999 15.5068241755168 -9999 -9999 14.7509326934814 14.0776348114014 13.487096786499 12.4926404953003 11.763484954834 11.7094974517822 11.9894485473633 12.0708646774292 -9999 -9999 -9999 -9999 -9999 -9999 -9999 -9999 13.7695369720459 13.9050636291504 13.9449243545532 13.9218797683716 14.223708152771 14.5676612854004 14.856764793396
-9999 -9999 -9999 -9999 -9999 -9999 -9999 -9999 -9999 -9999 -9999 -9999 -9999 -9999 -9999 -9999 -9999 -9999 -9999 -9999 -9999 -9999 -9999 -9999 -9999 -9999 -9999 -9999 -9999 -9999 -9999 -9999 -9999 -9999 -9999 -9999 -9999 -9999 -9999 -9999 -9999 -9999 -9999 -9999 15.530125617981 15.4049806594849 15.1897945404053 14.9567651748657 14.7795362472534 14.6969232559204 14.4835052490234 13.9324645996094 13.3263654708862 12.8730392456055 12.6139290332794 -9999 -9999 -9999 -9999 -9999 -9999 -9999 13.3428030014038 13.8866863250732 14.3971099853516 14.6469678878784 14.7719964981079 14.9039583206177 15.0696058273315 15.262017250061
-9999 -9999 -9999 -9999 -9999 -9999 -9999 -9999 -9999 -9999 -9999 -9999 -9999 -9999 -9999 -9999 -9999 -9999 -9999 -9999 -9999 -9999 -9999 -9999 -9999 -9999 -9999 -9999 -9999 -9999 -9999 -9999 -9999 -9999 -9999 -9999 -9999 -9999 -9999 -9999 14.5784737269084 14.5080140431722 14.7863735198975 14.9798917770386 14.9668741226196 14.8664102554321 14.7837724685669 14.7704677581787 14.7878246307373 14.767409324646 14.7488050460815 14.5828351974487 14.1278867721558 13.5223636627197 13.3009616851807 -9999 -9999 -9999 -9999 -9999 13.2227710088094 13.1774349212646 13.6363744735718 14.2148303985596 14.6291599273682 14.9269351959229 15.135139465332 15.2217273712158 15.2812452316284 15.3973808288574
-9999 -9999 -9999 -9999 -9999 -9999 -9999 -9999 -9999 -9999 -9999 -9999 -9999 -9999 -9999 -9999 -9999 -9999 -9999 -9999 -9999 -9999 -9999 -9999 -9999 -9999 -9999 -9999 -9999 -9999 -9999 -9999 -9999 -9999 -9999 -9999 -9999 -9999 -9999 14.6598863601685 14.5950326919556 14.4805021286011 14.44850730896 14.4376001358032 14.3840160369873 14.3797845840454 14.4754991531372 14.5727872848511 14.6048536300659 14.577582359314 14.5543556213379 14.5174741744995 14.2587242126465 13.730619430542 13.2545309066772 13.1242551803589 -9999 -9999 -9999 13.0546433925629 13.0097808837891 13.4810972213745 13.9287223815918 14.2618894577026 14.5677366256714 14.9587812423706 15.3082456588745 15.4829702377319 15.5903377532959 15.7369480133057
-9999 -9999 -9999 -9999 -9999 -9999 -9999 -9999 -9999 -9999 -9999 -9999 -9999 -9999 -9999 -9999 -9999 -9999 -9999 -9999 -9999 -9999 -9999 -9999 -9999 -9999 -9999 -9999 -9999 -9999 -9999 -9999 -9999 -9999 -9999 -9999 -9999 -9999 14.2798749923706 14.1300363540649 14.0679082870483 13.9157295227051 13.8048238754272 13.8006172180176 13.8632965087891 14.0371026992798 14.3360919952393 14.566554069519 14.6283731460571 14.5708026885986 14.4828653335571 14.4351577758789 14.2762842178345 13.809253692627 13.2783784866333 13.1072988510132 13.1024522781372 13.1805138587952 12.89879322052 12.9391136169434 13.370885848999 13.9181098937988 14.2814407348633 14.4807147979736 14.7261476516724 15.1283855438232 15.5205841064453 15.7684450149536 15.9513177871704 16.1354885101318
-9999 -9999 -9999 -9999 -9999 -9999 -9999 -9999 -9999 -9999 -9999 -9999 -9999 -9999 -9999 -9999 -9999 -9999 -9999 -9999 -9999 -9999 -9999 -9999 -9999 -9999 -9999 -9999 -9999 -9999 -9999 -9999 -9999 -9999 -9999 -9999 -9999 14.3765659332275 14.2263679504395 14.0065183639526 13.7692861557007 13.4797468185425 13.2704839706421 13.2706985473633 13.4784154891968 13.9201421737671 14.5125761032104 14.8884859085083 14.9458169937134 14.8100528717041 14.6031675338745 14.4444103240967 14.2760753631592 13.9361734390259 13.5088920593262 13.3439569473267 13.3387746810913 13.3222599029541 13.276515007019 13.3967761993408 13.8199558258057 14.3571681976318 14.7458639144897 14.9316568374634 15.1078100204468 15.4284763336182 15.7759733200073 16.0556392669678 16.2756633758545 16.4778594970703
-9999 -9999 -9999 -9999 -9999 -9999 -9999 -9999 -9999 -9999 -9999 -9999 -9999 -9999 -9999 -9999 -9999 -9999 -9999 -9999 -9999 -9999 -9999 -9999 -9999 -9999 -9999 -9999 -9999 -9999 -9999 -9999 -9999 -9999 -9999 -9999 -9999 14.097318649292 14.0679941177368 14.0485668182373 14.0680303573608 14.0585250854492 13.9771099090576 13.9461488723755 14.1385068893433 14.6429891586304 15.1703186035156 15.3085241317749 15.140682220459 14.8973340988159 14.6422328948975 14.4495229721069 14.2971134185791 14.1097583770752 13.9123134613037 13.8935317993164 13.9557514190674 14.0059442520142 13.9819097518921 13.995569229126 14.3083343505859 14.8422002792358 15.2732839584351 15.4719562530518 15.6225547790527 15.9173011779785 16.2942848205566 16.6192169189453 16.8569145202637 17.0550594329834
-9999 -9999 -9999 -9999 -9999 -9999 -9999 -9999 -9999 -9999 -9999 -9999 -9999 -9999 -9999 -9999 -9999 -9999 -9999 -9999 -9999 -9999 -9999 -9999 -9999 -9999 -9999 -9999 -9999 -9999 -9999 -9999 -9999 -9999 -9999 -9999 -9999 14.2590637207031 14.1159772872925 14.2452297210693 14.5657558441162 14.8843460083008 15.0394477844238 15.1017608642578 15.2769136428833 15.5970249176025 15.7368316650391 15.5109910964966 15.1359071731567 14.8407964706421 14.6184787750244 14.4765100479126 14.409252166748 14.4284114837646 14.523904800415 14.6254901885986 14.6738309860229 14.6872329711914 14.662579536438 14.6711950302124 15.0361499786377 15.6097774505615 15.9531564712524 16.0979747772217 16.4109039306641 16.920295715332 17.389627456665 17.6656684875488 17.8426208496094 18.0097846984863
-9999 -9999 -9999 -9999 -9999 -9999 -9999 -9999 -9999 -9999 -9999 -9999 -9999 -9999 -9999 -9999 -9999 -9999 -9999 -9999 -9999 -9999 -9999 -9999 -9999 -9999 -9999 -9999 -9999 -9999 -9999 -9999 -9999 -9999 -9999 -9999 14.8898811340332 14.636664390564 14.4335269927979 14.5426721572876 14.9160203933716 15.3254232406616 15.5730180740356 15.6862926483154 15.8473129272461 16.0467891693115 16.0953464508057 15.9164867401123 15.5951280593872 15.2589044570923 14.9818668365479 14.805832862854 14.7690658569336 14.9338665008545 15.1906709671021 15.2859058380127 15.2973937988281 15.3479747772217 15.5367708206177 15.7931280136108 16.2609558105469 16.5866222381592 16.7124652862549 16.9557590484619 17.761116027832 18.4387111663818 18.592622756958 18.5901737213135 18.653392791748 18.8285446166992
-9999 -9999 -9999 -9999 -9999 -9999 -9999 -9999 -9999 -9999 -9999 -9999 -9999 -9999 -9999 -9999 -9999 -9999 -9999 -9999 -9999 -9999 -9999 -9999 -9999 -9999 -9999 -9999 -9999 -9999 -9999 -9999 -9999 -9999 -9999 -9999 -9999 14.90869140625 14.8464012145996 14.866229057312 15.1804609298706 15.62082862854 15.9289836883545 16.0822620391846 16.2390193939209 16.4603977203369 16.6533470153809 16.733039855957 16.631326675415 16.3709812164307 16.0058193206787 15.6227397918701 15.3997535705566 15.462197303772 15.6811304092407 15.7509384155273 15.9396839141846 16.403205871582 17.0682048797607 17.6255207061768 17.9216136932373 17.7424182891846 17.540958404541 17.6909351348877 18.40207862854 18.9189929962158 19.0640716552734 19.0444736480713 19.1056613922119 19.2946071624756
-9999 -9999 -9999 -9999 -9999 -9999 -9999 -9999 -9999 -9999 -9999 -9999 -9999 -9999 -9999 -9999 -9999 -9999 -9999 -9999 -9999 -9999 -9999 -9999 -9999 -9999 -9999 -9999 -9999 -9999 -9999 -9999 -9999 -9999 -9999 -9999 -9999 -9999 15.2737827301025 -9999 15.5531015396118 15.9552726745605 16.2214241027832 16.4039077758789 16.5771732330322 16.7996273040771 17.0401077270508 17.1951427459717 17.1796054840088 17.0946731567383 16.8739700317383 16.4572257995605 16.0642528533936 15.8465995788574 15.9014530181885 15.9405918121338 16.3971748352051 17.4570789337158 18.4815425872803 19.1942806243896 19.5202655792236 19.3882541656494 18.9665279388428 18.6837425231934 18.867992401123 19.3766326904297 19.7016277313232 19.7165908813477 19.6300659179688 19.6083908081055
-9999 -9999 -9999 -9999 -9999 -9999 -9999 -9999 -9999 -9999 -9999 -9999 -9999 -9999 -9999 -9999 -9999 -9999 -9999 -9999 -9999 -9999 -9999 -9999 -9999 -9999 -9999 -9999 -9999 -9999 -9999 -9999 -9999 -9999 -9999 -9999 -9999 -9999 -9999 -9999 16.0934772491455 16.1226119995117 16.2858085632324 16.5072746276855 16.7740345001221 17.0058250427246 17.1634140014648 17.2336120605469 17.1835136413574 17.1390228271484 17.0413761138916 16.7661972045898 16.4018936157227 16.0432720184326 15.9408836364746 16.1315326690674 16.9704189300537 18.3461532592773 19.1515522003174 19.620677947998 20.0130233764648 20.3520832061768 20.5209808349609 20.404167175293 20.3722476959229 20.4954662322998 20.6158847808838 20.5520477294922 20.4905948638916 20.555685043335
-9999 -9999 -9999 -9999 -9999 -9999 -9999 -9999 -9999 -9999 -9999 -9999 -9999 -9999 -9999 -9999 -9999 -9999 -9999 -9999 -9999 -9999 -9999 -9999 -9999 -9999 -9999 -9999 -9999 -9999 -9999 -9999 -9999 -9999 17.3950452804565 17.2755851745605 17.188289642334 -9999 16.8897151947021 16.5607795715332 16.1667556762695 16.0104446411133 16.1029529571533 16.3150596618652 16.6531200408936 16.968879699707 17.1073226928711 17.0616493225098 16.9488201141357 16.8764705657959 16.744083404541 16.5218658447266 16.2852115631104 16.0411491394043 16.1911354064941 16.9220561981201 17.9320278167725 18.7218818664551 19.1938705444336 19.6256732940674 20.2549991607666 20.707592010498 21.0535182952881 21.2362537384033 21.2980308532715 21.3124485015869 21.4030513763428 21.3801555633545 21.4526462554932 21.7216987609863
-9999 -9999 -9999 -9999 -9999 -9999 -9999 -9999 -9999 -9999 -9999 -9999 -9999 -9999 -9999 -9999 -9999 -9999 -9999 -9999 -9999 -9999 -9999 -9999 -9999 -9999 -9999 18.1652870178223 18.1652870178223 18.0069885253906 17.8125190734863 17.4889335632324 17.3078422546387 17.4167079925537 17.4695644378662 17.4183235168457 17.3449172973633 17.2204990386963 16.9809398651123 16.6077995300293 16.1311664581299 15.8590612411499 15.9504861831665 16.2188625335693 16.6266937255859 17.0144081115723 17.143440246582 17.0413112640381 16.8838577270508 16.8004417419434 16.766658782959 16.7903060913086 16.7467746734619 16.7663478851318 17.2871494293213 17.8736152648926 18.4410190582275 19.2638168334961 20.0576782226562 20.8729553222656 21.5450992584229 21.9062404632568 22.1118030548096 22.1757507324219 22.0426425933838 21.9218082427979 22.2307758331299 22.4001426696777 22.5893745422363 22.9296398162842
-9999 -9999 -9999 -9999 -9999 -9999 -9999 -9999 -9999 -9999 -9999 -9999 -9999 -9999 -9999 -9999 -9999 -9999 -9999 -9999 -9999 -9999 -9999 -9999 -9999 -9999 -9999 -9999 -9999 -9999 17.704740524292 17.5152015686035 17.4472541809082 17.570915222168 17.6302375793457 17.589075088501 17.4662399291992 17.2601108551025 16.9590873718262 16.5965805053711 16.2200355529785 16.0277309417725 16.2046222686768 16.5915050506592 17.0472087860107 17.3957672119141 17.5121383666992 17.5443153381348 17.6581764221191 17.9255428314209 18.3640594482422 18.840051651001 18.9420642852783 18.8310661315918 19.0416564941406 19.3640594482422 20.2286739349365 21.3616714477539 22.0509471893311 22.4651489257812 22.7129192352295 22.8347244262695 22.9114761352539 23.0167694091797 22.7618103027344 22.4942378997803 22.6427211761475 22.7925262451172 23.0109195709229 23.3049373626709
-9999 -9999 -9999 -9999 -9999 -9999 -9999 -9999 -9999 -9999 -9999 -9999 -9999 -9999 -9999 -9999 -9999 -9999 -9999 -9999 -9999 -9999 -9999 -9999 -9999 18.3062502543132 18.1605186462402 18.0309238433838 17.9046740531921 17.6620292663574 17.7341442108154 17.833911895752 17.946704864502 17.9999542236328 18.0100479125977 17.9997730255127 17.933723449707 17.7709522247314 17.5078086853027 17.2005252838135 16.9671688079834 16.9405918121338 17.149206161499 17.4913806915283 17.8532009124756 18.1668071746826 18.4069805145264 18.7161178588867 19.1724014282227 19.7263946533203 20.3938465118408 21.0782489776611 21.5220317840576 21.4687995910645 21.4217586517334 21.5080223083496 22.2175712585449 23.0089836120605 23.112268447876 22.916898727417 22.8987636566162 23.025993347168 23.1214179992676 23.2645721435547 23.0948944091797 22.7369651794434 22.5051574707031 22.5554504394531 22.9157638549805 23.1341648101807
-9999 -9999 -9999 -9999 -9999 -9999 -9999 -9999 -9999 -9999 -9999 -9999 -9999 -9999 -9999 -9999 -9999 -9999 -9999 -9999 -9999 -9999 -9999 -9999 18.4281883239746 18.3330135345459 18.1575489044189 17.9909934997559 17.9442291259766 18.0214443206787 18.1388206481934 18.2271404266357 18.3130550384521 18.4535655975342 18.6327896118164 18.808126449585 18.9661712646484 19.0458240509033 18.9969997406006 18.8518657684326 18.698823928833 18.6266708374023 18.7195873260498 18.9457054138184 19.2222900390625 19.5169944763184 19.8316993713379 20.2357635498047 20.7400131225586 21.2366771697998 21.7672443389893 22.2968406677246 22.8056602478027 23.1647987365723 23.419958114624 23.4677810668945 23.6468868255615 23.9420166015625 23.9383850097656 23.5373706817627 23.2355937957764 23.1919441223145 23.2217388153076 23.3075618743896 23.2056007385254 22.8134326934814 22.439022064209 22.4132232666016 22.8053302764893 23.1191177368164
-9999 -9999 -9999 -9999 -9999 -9999 -9999 -9999 -9999 -9999 -9999 -9999 -9999 -9999 -9999 -9999 -9999 -9999 -9999 -9999 -9999 -9999 -9999 -9999 18.5870265960693 18.451868057251 18.2901344299316 18.2042121887207 18.248327255249 18.3844928741455 18.5288619995117 18.6695499420166 18.8496265411377 19.1049766540527 19.413501739502 19.738805770874 20.070405960083 20.3669300079346 20.5917530059814 20.7310676574707 20.7488651275635 20.6566352844238 20.6137027740479 20.7207717895508 20.9498805999756 21.2291603088379 21.5370941162109 21.9481258392334 22.4161338806152 22.8233852386475 23.1664733886719 23.4243659973145 23.6103115081787 23.7843990325928 24.0684604644775 24.3046092987061 24.4690780639648 24.5858268737793 24.4948997497559 24.0070858001709 23.5337944030762 23.2867889404297 23.1734619140625 23.1913585662842 23.1715431213379 22.8496494293213 22.5225734710693 22.5300769805908 23.012487411499 23.4062557220459
-9999 -9999 -9999 -9999 -9999 -9999 -9999 -9999 -9999 -9999 -9999 -9999 -9999 -9999 -9999 -9999 -9999 -9999 -9999 -9999 -9999 -9999 -9999 18.7971587181091 18.7358665466309 18.5200481414795 18.3492431640625 18.3077507019043 18.4141521453857 18.5789337158203 18.7176704406738 18.8759765625 19.1157493591309 19.427906036377 19.8100852966309 20.2696304321289 20.7373962402344 21.1325454711914 21.4810085296631 21.8219928741455 22.0738887786865 22.140079498291 22.0973796844482 22.1275119781494 22.3686408996582 22.7339363098145 23.0931053161621 23.464412689209 23.8135089874268 24.0852947235107 24.2665233612061 24.3628997802734 24.4311504364014 24.5138416290283 24.6008491516113 24.7101058959961 24.8093700408936 24.8288822174072 24.7041473388672 24.2987861633301 23.8784446716309 23.597583770752 23.3393745422363 23.1963939666748 23.1103172302246 22.8848247528076 22.7184543609619 22.9421043395996 23.4540882110596 23.7719383239746
-9999 -9999 -9999 -9999 -9999 -9999 -9999 -9999 -9999 -9999 -9999 -9999 -9999 -9999 -9999 -9999 -9999 -9999 -9999 -9999 -9999 -9999 -9999 19.085241317749 18.7805004119873 18.4767799377441 18.3039226531982 18.3008098602295 18.4388370513916 18.6252117156982 18.7910327911377 19.0223064422607 19.3602333068848 19.6655216217041 19.9571838378906 20.4236965179443 21.0717639923096 21.6643848419189 22.1103172302246 22.5244884490967 22.880859375 23.0645446777344 23.1019496917725 23.1748657226562 23.4673042297363 23.8447971343994 24.1594104766846 24.4707374572754 24.7573165893555 24.9656734466553 25.1132907867432 25.2031517028809 25.2738494873047 25.3118648529053 25.2670402526855 25.1553478240967 25.0272941589355 24.8818092346191 24.7147407531738 24.4671173095703 24.2563285827637 24.1224689483643 23.8761005401611 23.5441627502441 23.2563896179199 23.0205936431885 22.9706897735596 23.3271064758301 23.7982769012451 24.0848770141602
-9999 -9999 -9999 -9999 -9999 -9999 -9999 -9999 -9999 -9999 -9999 -9999 -9999 -9999 -9999 -9999 -9999 -9999 -9999 -9999 -9999 -9999 19.3479919433594 19.0936279296875 18.7559452056885 18.4790115356445 18.375617980957 18.4475917816162 18.6593322753906 18.9877471923828 19.3939838409424 19.8746032714844 20.327730178833 20.5633182525635 20.6433162689209 20.8701725006104 21.4136867523193 22.0335597991943 22.5246200561523 22.9845390319824 23.4019813537598 23.6695613861084 23.8271827697754 24.0108852386475 24.2779312133789 24.4825458526611 24.6579208374023 24.9471588134766 25.2450466156006 25.4647197723389 25.629207611084 25.7425479888916 25.8103523254395 25.8387012481689 25.7691993713379 25.5548095703125 25.2771530151367 25.0295391082764 24.8345184326172 24.6872310638428 24.5995178222656 24.5305957794189 24.3204650878906 23.9559841156006 23.6120414733887 23.35426902771 23.3009452819824 23.5826187133789 23.9704360961914 24.2780055999756
-9999 -9999 -9999 -9999 -9999 -9999 -9999 -9999 -9999 -9999 -9999 -9999 -9999 -9999 20.0046438641018 -9999 -9999 -9999 -9999 19.8063583374023 -9999 19.6471977233887 19.4407634735107 19.1549854278564 18.8768272399902 18.6984977722168 18.6987190246582 18.9221343994141 19.3665409088135 19.932107925415 20.5027694702148 21.0087299346924 21.3749408721924 21.5267639160156 21.4683322906494 21.4019355773926 21.6060810089111 22.0210666656494 22.5065059661865 23.0766201019287 23.6113300323486 23.997522354126 24.2640609741211 24.4642753601074 24.5903663635254 24.6424827575684 24.7930507659912 25.1154327392578 25.4520854949951 25.7418727874756 25.9783477783203 26.09716796875 26.1292324066162 26.1409587860107 26.0678787231445 25.8642425537109 25.6018600463867 25.3446731567383 25.1252822875977 24.9712734222412 24.869815826416 24.7684917449951 24.5760135650635 24.2933158874512 24.0134658813477 23.7807960510254 23.7257690429688 23.881160736084 24.1307315826416 24.4057540893555
-9999 -9999 -9999 -9999 -9999 -9999 -9999 -9999 -9999 -9999 -9999 -9999 -9999 -9999 20.0064764022827 -9999 -9999 -9999 -9999 19.7947435379028 19.7986812591553 19.8140525817871 19.5985069274902 19.3366355895996 19.1285629272461 19.0599269866943 19.2218971252441 19.6551380157471 20.2514019012451 20.8157558441162 21.2762889862061 21.6458358764648 21.8965873718262 22.0073013305664 21.9528713226318 21.7795925140381 21.7572154998779 22.0195503234863 22.4909534454346 23.0738391876221 23.5757656097412 23.9247455596924 24.2075424194336 24.4318504333496 24.534610748291 24.5967216491699 24.7789840698242 25.0903873443604 25.4418773651123 25.8159351348877 26.143159866333 26.2776222229004 26.2595596313477 26.2333030700684 26.1326751708984 25.9526309967041 25.7840251922607 25.5944404602051 25.3944225311279 25.2226181030273 25.0700950622559 24.9249629974365 24.7711448669434 24.5846691131592 24.3781509399414 24.1968555450439 24.1497459411621 24.2014636993408 24.3221225738525 24.5032596588135
-9999 -9999 -9999 -9999 -9999 -9999 -9999 -9999 -9999 -9999 -9999 -9999 -9999 -9999 19.9982299804688 -9999 -9999 -9999 -9999 -9999 19.9559473991394 19.9426689147949 19.7110328674316 19.4975757598877 19.4068431854248 19.5121898651123 19.860502243042 20.376371383667 20.8815002441406 21.2953338623047 21.7064552307129 22.1066074371338 22.3394622802734 22.4222316741943 22.4526596069336 22.4322509765625 22.447437286377 22.6447353363037 23.0541763305664 23.56569480896 23.9499588012695 24.1154003143311 24.1756591796875 24.2401542663574 24.3234424591064 24.4339904785156 24.6412448883057 24.9688091278076 25.3601818084717 25.7764949798584 26.1473846435547 26.3271732330322 26.3258647918701 26.2473258972168 26.0643768310547 25.8985080718994 25.842342376709 25.7512378692627 25.6013641357422 25.4295253753662 25.2370738983154 25.0472869873047 24.9089965820312 24.780445098877 24.6302280426025 24.4965114593506 24.4367790222168 24.4097900390625 24.4493160247803 24.5668849945068
-9999 -9999 -9999 -9999 -9999 -9999 -9999 -9999 -9999 -9999 -9999 -9999 -9999 -9999 19.9950408935547 -9999 20.0312156677246 -9999 -9999 -9999 20.0842170715332 19.9828510284424 19.7767009735107 19.6434879302979 19.7003955841064 19.9307689666748 20.3289356231689 20.822925567627 21.2943820953369 21.7562294006348 22.2264060974121 22.6019821166992 22.7903461456299 22.8524875640869 22.8863258361816 22.9749069213867 23.2033462524414 23.5756492614746 24.0072116851807 24.4391441345215 24.7434825897217 24.8755760192871 24.8701400756836 24.7933235168457 24.7271728515625 24.6889572143555 24.7704830169678 25.0420532226562 25.4091930389404 25.7939262390137 26.1514549255371 26.3610916137695 26.4082908630371 26.3412609100342 26.1375885009766 25.9408378601074 25.8395462036133 25.7007236480713 25.5382499694824 25.4113731384277 25.3001689910889 25.1849918365479 25.0538578033447 24.9104042053223 24.7874336242676 24.7004871368408 24.6519393920898 24.6240558624268 24.6539859771729 24.7532119750977
-9999 -9999 -9999 -9999 -9999 -9999 -9999 -9999 -9999 -9999 -9999 -9999 -9999 -9999 19.9950408935547 19.9918518066406 20.0320415496826 -9999 -9999 20.2266225814819 20.1358127593994 20.0423736572266 19.8793144226074 19.8028030395508 19.8937110900879 20.1132736206055 20.4748458862305 20.9875602722168 21.5892333984375 22.1593818664551 22.5698070526123 22.8481960296631 23.0051975250244 23.0455932617188 23.0851249694824 23.2976894378662 23.7382297515869 24.19873046875 24.5915012359619 24.9768505096436 25.3123435974121 25.5745487213135 25.718433380127 25.7307395935059 25.6322975158691 25.4468765258789 25.286039352417 25.3271598815918 25.5501327514648 25.8303546905518 26.1241989135742 26.3389434814453 26.4133548736572 26.3656978607178 26.1659755706787 25.9106616973877 25.6946449279785 25.4986038208008 25.3443622589111 25.2610759735107 25.2336616516113 25.223258972168 25.1490116119385 25.0511474609375 24.9859771728516 24.9418315887451 24.9294567108154 24.9467601776123 24.9912242889404 25.0837631225586
-9999 -9999 -9999 -9999 -9999 -9999 -9999 -9999 -9999 -9999 -9999 -9999 -9999 -9999 -9999 20.0534145355225 20.0143051147461 -9999 20.4021401405334 20.346321105957 20.3401393890381 20.2675895690918 20.1413116455078 20.0905742645264 20.1992111206055 20.3737392425537 20.5938663482666 21.0286903381348 21.6805877685547 22.2591457366943 22.6896743774414 23.108434677124 23.3452835083008 23.3118762969971 23.2516345977783 23.4245948791504 23.8078861236572 24.1921939849854 24.6367874145508 25.1813278198242 25.7071971893311 26.1161346435547 26.362211227417 26.4631938934326 26.4323921203613 26.2862758636475 26.0137023925781 25.7717113494873 25.7369728088379 25.8727340698242 26.1052703857422 26.3197174072266 26.401029586792 26.3388271331787 26.1281700134277 25.8872699737549 25.6620082855225 25.4850330352783 25.3663902282715 25.2968521118164 25.2956027984619 25.3353080749512 25.3060188293457 25.2290649414062 25.1840915679932 25.1817207336426 25.2101554870605 25.2741565704346 25.3485374450684 25.4260864257812
-9999 -9999 -9999 -9999 -9999 -9999 -9999 -9999 -9999 -9999 -9999 -9999 -9999 -9999 -9999 20.1123104095459 20.1165637969971 -9999 20.5623226165771 20.6199245452881 20.6438331604004 20.5583038330078 20.4826011657715 20.5029792785645 20.6906661987305 20.9510955810547 21.1833763122559 21.4915428161621 21.9691371917725 22.5237827301025 23.031644821167 23.4851741790771 23.8212471008301 24.0142765045166 24.0436038970947 24.0140228271484 24.1197032928467 24.4470462799072 25.037540435791 25.730318069458 26.3107833862305 26.6823501586914 26.8660678863525 26.9298210144043 26.9192218780518 26.8599510192871 26.6922245025635 26.3839473724365 26.09814453125 26.009838104248 26.1475925445557 26.3686904907227 26.4843215942383 26.4597072601318 26.298770904541 26.0861625671387 25.8604850769043 25.6553936004639 25.5291900634766 25.4921379089355 25.5328502655029 25.5936832427979 25.5706577301025 25.4894943237305 25.4496231079102 25.4840831756592 25.5334396362305 25.5999870300293 25.6443309783936 25.6358165740967
-9999 -9999 -9999 -9999 -9999 -9999 -9999 -9999 -9999 -9999 -9999 -9999 -9999 -9999 -9999 20.1839580535889 -9999 20.4941253662109 20.8114528656006 20.9336776733398 20.8493728637695 20.8471450805664 21.1457080841064 21.5509662628174 21.9635028839111 22.4689445495605 23.0010814666748 23.4547309875488 23.8453426361084 24.2622222900391 24.6188411712646 24.86887550354 25.0700168609619 25.2513599395752 25.3404006958008 25.3451347351074 25.4397811889648 25.7701873779297 26.2569484710693 26.6888198852539 26.9435768127441 27.0151882171631 26.9787673950195 26.9271011352539 26.9142875671387 26.9373931884766 26.9453563690186 26.8188514709473 26.539571762085 26.281192779541 26.2162075042725 26.3215522766113 26.4427242279053 26.5112686157227 26.4781627655029 26.3430099487305 26.1614723205566 25.967472076416 25.8306655883789 25.7948989868164 25.8537311553955 25.8994102478027 25.8390712738037 25.7497940063477 25.7274188995361 25.7470874786377 25.7541389465332 25.7749443054199 25.7384948730469 25.6598281860352
-9999 -9999 -9999 -9999 -9999 -9999 -9999 -9999 -9999 -9999 -9999 -9999 -9999 -9999 20.1839580535889 20.1890989939372 20.2000102996826 20.6104621887207 20.9747371673584 21.095739364624 21.0637130737305 21.4667568206787 22.4321269989014 23.3330707550049 24.1285018920898 24.9376926422119 25.5752201080322 25.9618644714355 26.1782455444336 26.3138523101807 26.3840618133545 26.4258613586426 26.4811859130859 26.5510540008545 26.6182250976562 26.6985664367676 26.8203926086426 26.9695930480957 27.0704765319824 27.0497894287109 26.9318313598633 26.7753734588623 26.6528434753418 26.6168746948242 26.6452751159668 26.7124462127686 26.8046207427979 26.8432369232178 26.7310791015625 26.4939594268799 26.3005466461182 26.2762336730957 26.3531455993652 26.4443302154541 26.5017108917236 26.492223739624 26.4077110290527 26.2746124267578 26.1533336639404 26.102954864502 26.1178894042969 26.1135139465332 26.0064888000488 25.886682510376 25.8438930511475 25.8129253387451 25.7787418365479 25.7391414642334 25.6411647796631 25.5293102264404
-9999 -9999 -9999 -9999 -9999 -9999 -9999 -9999 -9999 -9999 -9999 -9999 -9999 -9999 -9999 -9999 20.527223110199 20.6660919189453 20.9892597198486 21.1623668670654 21.5755481719971 22.7572574615479 24.3073844909668 25.4231224060059 26.1279144287109 26.5786628723145 26.8636665344238 27.0075302124023 27.067834854126 27.0657386779785 27.0336894989014 27.0014915466309 26.9866981506348 26.9928932189941 27.0081672668457 27.0211009979248 27.0190162658691 26.9809551239014 26.8831577301025 26.7399883270264 26.6037902832031 26.4892292022705 26.4647636413574 26.5426807403564 26.6192760467529 26.655689239502 26.6671333312988 26.6800899505615 26.6550674438477 26.5552730560303 26.4230327606201 26.3503379821777 26.3528995513916 26.4049053192139 26.490140914917 26.5688343048096 26.572925567627 26.5044193267822 26.4086246490479 26.3357772827148 26.2750663757324 26.2052383422852 26.0620918273926 25.9194812774658 25.8527774810791 25.7733573913574 25.6646938323975 25.5292491912842 25.393310546875 25.2772979736328
-9999 -9999 -9999 -9999 -9999 -9999 -9999 -9999 -9999 -9999 -9999 -9999 -9999 -9999 -9999 -9999 20.6492099761963 20.6323280334473 20.8888511657715 21.2639217376709 22.2655239105225 23.9825115203857 25.4793319702148 26.3062610626221 26.7926540374756 27.0785675048828 27.2102241516113 27.2352905273438 27.1980438232422 27.1125450134277 27.0028438568115 26.892183303833 26.816219329834 26.7820167541504 26.7576961517334 26.7141418457031 26.655647277832 26.5959453582764 26.5169811248779 26.4454689025879 26.3997497558594 26.3950099945068 26.4887237548828 26.6329574584961 26.719705581665 26.7173156738281 26.6644897460938 26.6374530792236 26.6437931060791 26.642448425293 26.6083393096924 26.55930519104 26.5301322937012 26.5288925170898 26.56715965271 26.6292705535889 26.6604824066162 26.6338710784912 26.5690040588379 26.4860038757324 26.3867263793945 26.2535591125488 26.0828285217285 25.9447193145752 25.8642673492432 25.6383590698242 25.3882865905762 25.242467880249 25.1623268127441 25.1084518432617
-9999 -9999 -9999 -9999 -9999 -9999 -9999 -9999 -9999 -9999 -9999 -9999 -9999 -9999 -9999 -9999 -9999 21.076117515564 21.1226768493652 21.8088626861572 23.0041065216064 24.644811630249 25.9976139068604 26.6810054779053 27.0614433288574 27.2689399719238 27.2985591888428 27.2049503326416 27.0734329223633 26.913610458374 26.742317199707 26.6092376708984 26.5396900177002 26.4938716888428 26.4386386871338 26.3797187805176 26.3496570587158 26.3381671905518 26.3262729644775 26.322078704834 26.3180103302002 26.3576755523682 26.4656391143799 26.5821590423584 26.6514339447021 26.6701831817627 26.67453956604 26.6841812133789 26.6924018859863 26.6974029541016 26.695276260376 26.6887760162354 26.683219909668 26.6670036315918 26.6525478363037 26.6597595214844 26.6683902740479 26.6514739990234 26.6075744628906 26.5376243591309 26.4468746185303 26.3134117126465 26.146167755127 25.9922714233398 25.8047351837158 25.4866409301758 25.255765914917 25.1680603027344 25.1270446777344 25.096212387085
-9999 -9999 -9999 -9999 -9999 -9999 -9999 -9999 -9999 -9999 -9999 -9999 -9999 -9999 20.6365485191345 20.6323280334473 21.1901762485504 21.3916454315186 21.6606140136719 22.291072845459 23.412260055542 25.0595760345459 26.3894023895264 26.939790725708 27.2502307891846 27.3711910247803 27.2761421203613 27.0990905761719 26.9378890991211 26.7190856933594 26.5260353088379 26.4116725921631 26.3391990661621 26.3088989257812 26.3009338378906 26.2851448059082 26.2793979644775 26.2900142669678 26.3062973022461 26.3037929534912 26.2907638549805 26.3077507019043 26.3597316741943 26.4283199310303 26.5237464904785 26.5681858062744 26.5525875091553 26.5692577362061 26.6123332977295 26.6436462402344 26.6574058532715 26.6647930145264 26.6628284454346 26.6326751708984 26.607946395874 26.6216144561768 26.6302127838135 26.6201152801514 26.5865783691406 26.5359630584717 26.4545860290527 26.3108921051025 26.1314029693604 25.9692478179932 25.7899761199951 25.5332984924316 25.3150539398193 25.2163848876953 25.1703262329102 25.1026039123535
-9999 -9999 -9999 -9999 -9999 -9999 -9999 -9999 -9999 -9999 -9999 -9999 -9999 -9999 -9999 -9999 -9999 -9999 22.3883624076843 22.5301685333252 23.9186172485352 25.9267692565918 26.7969703674316 27.1775646209717 27.3794536590576 27.3613300323486 27.1491050720215 26.9524154663086 26.7865905761719 26.5576000213623 26.3929958343506 26.3406295776367 26.325174331665 26.3148059844971 26.3096733093262 26.3046970367432 26.3082981109619 26.3275623321533 26.3389301300049 26.3161849975586 26.2833251953125 26.2722911834717 26.2842922210693 26.3321228027344 26.4295883178711 26.4717884063721 26.4504585266113 26.4798698425293 26.5404987335205 26.5766735076904 26.5747871398926 26.5521488189697 26.5380973815918 26.5334949493408 26.5553951263428 26.5858860015869 26.5871829986572 26.5720195770264 26.5369606018066 26.4816074371338 26.3467903137207 26.1225967407227 25.9430465698242 25.8637008666992 25.7884616851807 25.670373916626 25.4948062896729 25.375904083252 25.2936019897461 25.1699390411377
-9999 -9999 -9999 -9999 -9999 -9999 -9999 -9999 -9999 -9999 -9999 -9999 -9999 -9999 -9999 -9999 -9999 23.4042263031006 23.3655109405518 23.0715942382812 24.5121269226074 26.4704971313477 27.1531066894531 27.4208717346191 27.4451961517334 27.2777576446533 26.9817485809326 26.7878704071045 26.6464977264404 26.4504241943359 26.3430862426758 26.3353061676025 26.3300647735596 26.3157405853271 26.3108558654785 26.3195495605469 26.338794708252 26.357780456543 26.3498687744141 26.3142738342285 26.28590965271 26.2776107788086 26.2924423217773 26.3322849273682 26.3719577789307 26.3822917938232 26.3824768066406 26.4187755584717 26.4719142913818 26.5094013214111 26.49880027771 26.4889011383057 26.514217376709 26.5376129150391 26.5517520904541 26.5515480041504 26.532356262207 26.4843196868896 26.3808746337891 26.1893520355225 25.9393787384033 25.7332382202148 25.6602249145508 25.6462459564209 25.6556396484375 25.6370315551758 25.5627174377441 25.4254245758057 25.2893352508545 25.1669845581055
-9999 -9999 -9999 -9999 -9999 -9999 -9999 -9999 -9999 -9999 -9999 -9999 -9999 24.4566211700439 24.4845218658447 -9999 24.4081535339355 24.292191028595 23.4042263031006 24.4560546875 26.2598972320557 27.3223266601562 27.5707168579102 27.5227165222168 27.3741092681885 27.1267642974854 26.7859592437744 26.6054916381836 26.5187549591064 26.3809547424316 26.3325347900391 26.3560237884521 26.3517761230469 26.331672668457 26.3208827972412 26.3215579986572 26.3341522216797 26.3456554412842 26.3325099945068 26.3069477081299 26.3009986877441 26.3081359863281 26.3265705108643 26.356559753418 26.366849899292 26.3467311859131 26.3185958862305 26.3245525360107 26.3508148193359 26.3910007476807 26.4169750213623 26.4484214782715 26.4776363372803 26.4681816101074 26.4245376586914 26.3698463439941 26.2852668762207 26.1528568267822 25.967737197876 25.7766723632812 25.6516017913818 25.6272087097168 25.6401195526123 25.6509494781494 25.6568183898926 25.6244506835938 25.5524845123291 25.3748016357422 25.2241916656494 25.1333484649658
-9999 -9999 -9999 -9999 -9999 -9999 -9999 -9999 -9999 -9999 -9999 -9999 -9999 -9999 24.4566211700439 24.6066951751709 24.3902492523193 24.4260578155518 24.9482307434082 26.5742702484131 27.452112197876 27.6706809997559 27.6158237457275 27.450984954834 27.3099117279053 27.0295104980469 26.6313934326172 26.4527893066406 26.4187908172607 26.3428649902344 26.3132858276367 26.3325042724609 26.3304233551025 26.3299427032471 26.3394184112549 26.3361854553223 26.3282203674316 26.3196868896484 26.303373336792 26.2983779907227 26.3191223144531 26.3449611663818 26.3688583374023 26.3755683898926 26.3533802032471 26.3057708740234 26.2629013061523 26.2475967407227 26.2284889221191 26.2424850463867 26.2862815856934 26.3359622955322 26.3545379638672 26.3073844909668 26.2199249267578 26.1194190979004 25.9863681793213 25.8371334075928 25.7082176208496 25.6518611907959 25.6834259033203 25.7533569335938 25.7870674133301 25.7808513641357 25.7582225799561 25.689281463623 25.5976486206055 25.4079647064209 25.2100391387939 25.1029891967773
-9999 -9999 -9999 -9999 -9999 -9999 -9999 -9999 -9999 -9999 -9999 -9999 -9999 -9999 24.5920896530151 24.4566211700439 24.9732151031494 25.5527954101562 26.5633487701416 27.474458694458 27.7360820770264 27.717378616333 27.5555171966553 27.3742046356201 27.2592926025391 26.9781742095947 26.5642242431641 26.3988571166992 26.3840274810791 26.3201599121094 26.2595977783203 26.2391090393066 26.2486038208008 26.2883281707764 26.3366870880127 26.3549537658691 26.3430862426758 26.318717956543 26.2942695617676 26.2980651855469 26.3296947479248 26.3628845214844 26.3979625701904 26.4113254547119 26.3756999969482 26.3107433319092 26.2746047973633 26.255973815918 26.1952209472656 26.1546783447266 26.1713256835938 26.2237339019775 26.256908416748 26.2159366607666 26.1135959625244 25.9840507507324 25.8416213989258 25.7376365661621 25.6951007843018 25.7128295898438 25.7875461578369 25.8785381317139 25.9189414978027 25.9148235321045 25.8916091918945 25.7779178619385 25.6726322174072 25.5433197021484 25.2318572998047 25.0817737579346
-9999 -9999 -9999 -9999 -9999 -9999 -9999 -9999 -9999 -9999 -9999 23.9935359954834 24.3336715698242 24.51003074646 24.486701965332 24.9150047302246 26.0637626647949 27.0136470794678 27.5236759185791 27.7223091125488 27.749340057373 27.6558856964111 27.4740238189697 27.3283767700195 27.2663898468018 27.0412578582764 26.65456199646 26.449312210083 26.4034729003906 26.3399105072021 26.2607517242432 26.2300872802734 26.2478275299072 26.2877254486084 26.342170715332 26.3658313751221 26.3551177978516 26.3407039642334 26.3289108276367 26.3362331390381 26.3595333099365 26.3832263946533 26.399450302124 26.4020385742188 26.3990631103516 26.3723621368408 26.3524951934814 26.3315906524658 26.2517509460449 26.1676692962646 26.1513404846191 26.1791858673096 26.2341537475586 26.2437915802002 26.1858234405518 26.0956726074219 25.9937477111816 25.9205532073975 25.915620803833 25.933910369873 25.985408782959 26.0406322479248 26.0379199981689 26.0158786773682 25.9988994598389 25.8844318389893 25.7628402709961 25.7051448822021 25.3669738769531 25.1460762023926
-9999 -9999 -9999 -9999 -9999 -9999 -9999 -9999 -9999 23.7697830200195 24.1623458862305 24.5921573638916 25.0366535186768 25.2686462402344 25.2916374206543 25.8674659729004 27.046760559082 27.5049476623535 27.727668762207 27.8073978424072 27.7546920776367 27.6375465393066 27.4528045654297 27.3311138153076 27.3236103057861 27.1849269866943 26.8817462921143 26.6275520324707 26.5077686309814 26.4229946136475 26.3438110351562 26.3038635253906 26.3112182617188 26.3214893341064 26.3341693878174 26.3403263092041 26.3292484283447 26.3212833404541 26.3137092590332 26.3100433349609 26.312629699707 26.3192977905273 26.3269462585449 26.3444786071777 26.3851222991943 26.4129886627197 26.4176406860352 26.4146327972412 26.365650177002 26.2725448608398 26.2118015289307 26.1959114074707 26.2215805053711 26.2515029907227 26.2605400085449 26.2522602081299 26.2245502471924 26.1950988769531 26.1764335632324 26.1592407226562 26.1494216918945 26.1239109039307 26.0791511535645 26.0568733215332 26.0563220977783 25.9881057739258 25.9294757843018 25.8770923614502 25.5104789733887 25.2248878479004
-9999 -9999 -9999 -9999 -9999 -9999 -9999 -9999 -9999 24.1756076812744 24.8192749023438 25.3267269134521 25.6947536468506 25.894645690918 26.146577835083 26.9588947296143 27.4832401275635 27.7539863586426 27.7999744415283 27.7399864196777 27.6719169616699 27.5722389221191 27.4200706481934 27.3497295379639 27.3880004882812 27.3307495117188 27.1057777404785 26.8481750488281 26.6671409606934 26.5366706848145 26.4397277832031 26.3873691558838 26.392261505127 26.3875312805176 26.3671245574951 26.3689880371094 26.3794174194336 26.3978576660156 26.4159469604492 26.4307403564453 26.4392623901367 26.4436836242676 26.4403095245361 26.4356021881104 26.4543991088867 26.4601345062256 26.4451923370361 26.4463062286377 26.4531955718994 26.4335136413574 26.3902416229248 26.3386325836182 26.2983226776123 26.2568511962891 26.234769821167 26.2319145202637 26.237735748291 26.2332210540771 26.2161617279053 26.198221206665 26.1685180664062 26.1438255310059 26.122350692749 26.1163597106934 26.1205310821533 26.1088409423828 26.1380825042725 25.9932899475098 25.5832214355469 25.2939891815186
-9999 -9999 -9999 -9999 -9999 24.3092422485352 24.1158351898193 24.2120609283447 24.1970119476318 24.4174194335938 25.0278759002686 25.5962162017822 26.0712070465088 26.5296688079834 27.0160675048828 27.4762725830078 27.7404079437256 27.7930316925049 27.7527542114258 27.7236042022705 27.6672496795654 27.535888671875 27.3948440551758 27.3836994171143 27.4676742553711 27.4312133789062 27.2262001037598 26.9637489318848 26.7764949798584 26.6382503509521 26.5262718200684 26.4771537780762 26.4950408935547 26.4976825714111 26.4639930725098 26.4467792510986 26.4602394104004 26.4962520599365 26.5324859619141 26.5493755340576 26.5579166412354 26.5747146606445 26.5937194824219 26.5781669616699 26.5538787841797 26.5384483337402 26.5033493041992 26.4640445709229 26.4607791900635 26.4993495941162 26.4938335418701 26.413932800293 26.2916221618652 26.1982040405273 26.1824321746826 26.1984844207764 26.2284488677979 26.2515125274658 26.2628116607666 26.282154083252 26.2761631011963 26.2659912109375 26.2404136657715 26.2021160125732 26.1887302398682 26.193977355957 26.2152118682861 26.0269470214844 25.6698608398438 25.3719635009766
-9999 -9999 -9999 -9999 24.1256008148193 24.2421703338623 24.7533626556396 24.9864501953125 24.9381618499756 25.0489139556885 25.2925415039062 25.9087467193604 26.6339721679688 27.2635459899902 27.5742626190186 27.7193756103516 27.7762126922607 27.7315368652344 27.691951751709 27.652717590332 27.5478382110596 27.419828414917 27.3741836547852 27.4390888214111 27.5254745483398 27.4734649658203 27.2395038604736 26.9469337463379 26.7624435424805 26.6516380310059 26.5512371063232 26.5251369476318 26.5638408660889 26.5780048370361 26.5292224884033 26.4881153106689 26.498233795166 26.5406055450439 26.5548305511475 26.5572853088379 26.5763874053955 26.6181793212891 26.6824626922607 26.699499130249 26.6467208862305 26.6085681915283 26.5851802825928 26.5402336120605 26.5155029296875 26.5503959655762 26.5342178344727 26.4062099456787 26.2597312927246 26.2509384155273 26.2896385192871 26.3062782287598 26.3039379119873 26.2840766906738 26.2910327911377 26.3029766082764 26.2963829040527 26.2884044647217 26.2597389221191 26.2214050292969 26.2137680053711 26.2152671813965 26.2117748260498 26.082368850708 25.7958927154541 25.4942836761475
-9999 -9999 -9999 24.5141882896423 24.4305744171143 24.7854824066162 25.3603038787842 25.6096706390381 25.6938056945801 25.9164848327637 26.0770435333252 26.7526473999023 27.3761520385742 27.6055030822754 27.7110328674316 27.7395534515381 27.7109775543213 27.6359424591064 27.6123847961426 27.5446472167969 27.4127330780029 27.3550910949707 27.3728351593018 27.4400634765625 27.515645980835 27.4336624145508 27.1649303436279 26.8782634735107 26.7320041656494 26.6347312927246 26.5531387329102 26.5467147827148 26.5839557647705 26.5966701507568 26.5336418151855 26.4890365600586 26.5357341766357 26.5736846923828 26.5772762298584 26.6060237884521 26.6453762054443 26.6961975097656 26.7895774841309 26.8442211151123 26.7584190368652 26.6375637054443 26.5829391479492 26.5503787994385 26.5455551147461 26.5569648742676 26.5056285858154 26.3758354187012 26.3294544219971 26.404426574707 26.4159336090088 26.3387260437012 26.2618427276611 26.2374114990234 26.2447853088379 26.258960723877 26.2758483886719 26.270170211792 26.2493877410889 26.2055988311768 26.1870517730713 26.2109394073486 26.2212085723877 26.161247253418 25.9476490020752 25.652286529541
-9999 -9999 -9999 24.6334114074707 24.867166519165 25.4180603027344 26.0242462158203 26.3449573516846 26.6741180419922 27.0294551849365 27.3225383758545 27.6565761566162 27.7551345825195 27.8206596374512 27.805025100708 27.7119808197021 27.5893745422363 27.5121097564697 27.4824962615967 27.4029788970947 27.301025390625 27.2892780303955 27.3127384185791 27.3874053955078 27.4701957702637 27.3511142730713 27.0756530761719 26.8522968292236 26.7514133453369 26.6354713439941 26.5512943267822 26.5369472503662 26.5528812408447 26.5468826293945 26.5065994262695 26.522647857666 26.5817279815674 26.5944309234619 26.6082649230957 26.6462230682373 26.6942977905273 26.7515277862549 26.8558444976807 26.9533042907715 26.8882656097412 26.7019844055176 26.5823574066162 26.5294208526611 26.5173988342285 26.5112419128418 26.4242324829102 26.3558750152588 26.4374351501465 26.4953174591064 26.4522552490234 26.3697605133057 26.3013153076172 26.2633171081543 26.2744979858398 26.2872734069824 26.2628192901611 26.2492733001709 26.2214698791504 26.1439590454102 26.1018009185791 26.1646156311035 26.2409439086914 26.2460632324219 26.1034851074219 25.8589782714844
