NCOLS 70 
NROWS 52 
XLLCORNER -80 
YLLCORNER 33 
CELLSIZE 0.25 
NODATA_value -9999 
-9999.000000000000000 -9999 -9999 -9999 -9999 -9999 -9999 -9999 -9999 -9999 -9999 -9999 -9999 -9999 -9999 -9999 -9999 -9999 -9999 -9999 -9999 -9999 -9999 -9999 -9999 -9999 -9999 -9999 -9999 -9999 -9999 -9999 -9999 -9999 -9999 -9999 -9999 -9999 -9999 -9999 -9999 -9999 -9999 -9999 -9999 -9999 -9999 -9999 -9999 -9999 -9999 -9999 -9999 -9999 -9999 -9999 -9999 -9999 -9999 -9999 -9999 -9999 -9999 -9999 -9999 -9999 -9999 -9999 -9999 -9999
-9999 -9999 -9999 -9999 -9999 -9999 -9999 -9999 -9999 -9999 -9999 -9999 -9999 -9999 -9999 -9999 -9999 -9999 -9999 -9999 -9999 -9999 -9999 -9999 -9999 -9999 -9999 -9999 -9999 -9999 -9999 -9999 -9999 -9999 -9999 -9999 -9999 -9999 -9999 -9999 -9999 -9999 -9999 -9999 -9999 -9999 -9999 -9999 -9999 -9999 -9999 -9999 -9999 -9999 -9999 -9999 -9999 -9999 -9999 -9999 -9999 -9999 -9999 -9999 -9999 -9999 -9999 -9999 -9999 -9999
-9999 -9999 -9999 -9999 -9999 -9999 -9999 -9999 -9999 -9999 -9999 -9999 -9999 -9999 -9999 -9999 -9999 -9999 -9999 -9999 -9999 -9999 -9999 -9999 -9999 -9999 -9999 -9999 -9999 -9999 -9999 -9999 -9999 -9999 -9999 -9999 -9999 -9999 -9999 -9999 -9999 -9999 -9999 -9999 -9999 -9999 -9999 -9999 -9999 -9999 -9999 -9999 -9999 -9999 -9999 -9999 -9999 -9999 -9999 4.42627191543579 -9999 -9999 -9999 -9999 -9999 -9999 -9999 -9999 -9999 -9999
-9999 -9999 -9999 -9999 -9999 -9999 -9999 -9999 -9999 -9999 -9999 -9999 -9999 -9999 -9999 -9999 -9999 -9999 -9999 -9999 -9999 -9999 -9999 -9999 -9999 -9999 -9999 -9999 -9999 -9999 -9999 -9999 -9999 -9999 -9999 -9999 -9999 -9999 -9999 -9999 -9999 -9999 -9999 -9999 -9999 -9999 -9999 -9999 -9999 -9999 -9999 -9999 -9999 -9999 -9999 4.18806171417236 4.21813678741455 4.29384994506836 4.39096593856812 4.49701023101807 -9999 -9999 -9999 -9999 -9999 -9999 -9999 -9999 -9999 -9999
-9999 -9999 -9999 -9999 -9999 -9999 -9999 -9999 -9999 -9999 -9999 -9999 -9999 -9999 -9999 -9999 -9999 -9999 -9999 -9999 -9999 -9999 -9999 -9999 -9999 -9999 -9999 -9999 -9999 -9999 -9999 -9999 -9999 -9999 -9999 -9999 -9999 -9999 -9999 -9999 -9999 -9999 -9999 -9999 -9999 -9999 -9999 -9999 -9999 -9999 -9999 -9999 4.58156490325928 4.31660270690918 4.18235874176025 4.22191953659058 4.2918643951416 4.39584398269653 -9999 -9999 -9999 -9999 -9999 -9999 -9999 -9999 -9999 -9999 -9999 -9999
-9999 -9999 -9999 -9999 -9999 -9999 -9999 -9999 -9999 -9999 -9999 -9999 -9999 -9999 -9999 -9999 -9999 -9999 -9999 -9999 -9999 -9999 -9999 -9999 -9999 -9999 -9999 -9999 -9999 -9999 -9999 -9999 -9999 -9999 -9999 -9999 -9999 -9999 -9999 -9999 -9999 -9999 -9999 -9999 -9999 -9999 -9999 -9999 -9999 -9999 4.58708906173706 4.38693428039551 4.32785511016846 4.24057817459106 4.24485015869141 4.3632493019104 -9999 -9999 -9999 -9999 -9999 -9999 -9999 -9999 -9999 -9999 -9999 1.73047411441803 1.46291002631187 1.21906018257141
-9999 -9999 -9999 -9999 -9999 -9999 -9999 -9999 -9999 -9999 -9999 -9999 -9999 -9999 -9999 -9999 -9999 -9999 -9999 -9999 -9999 -9999 -9999 -9999 -9999 -9999 -9999 -9999 -9999 -9999 -9999 -9999 -9999 -9999 -9999 -9999 -9999 -9999 -9999 -9999 -9999 -9999 -9999 -9999 6.58230304718018 -9999 -9999 5.26409316062927 4.89984750747681 4.75550889968872 4.60248374938965 4.43370151519775 4.26333522796631 4.07891035079956 4.13924932479858 -9999 -9999 -9999 -9999 -9999 -9999 -9999 -9999 2.93450570106506 2.71418905258179 2.33586859703064 1.93706154823303 1.72553610801697 1.52882468700409 1.37821912765503
-9999 -9999 -9999 -9999 -9999 -9999 -9999 -9999 -9999 -9999 -9999 -9999 -9999 -9999 -9999 -9999 -9999 -9999 -9999 -9999 -9999 -9999 -9999 -9999 -9999 -9999 -9999 -9999 -9999 -9999 -9999 -9999 -9999 -9999 -9999 -9999 -9999 -9999 -9999 -9999 -9999 -9999 -9999 -9999 6.65026712417603 6.38799810409546 5.87214756011963 5.32951498031616 4.95486259460449 4.73958015441895 4.60965156555176 4.43263912200928 4.14279890060425 3.89067125320435 3.93388038873672 -9999 -9999 -9999 -9999 -9999 -9999 -9999 2.62712144851685 2.58029508590698 2.51384425163269 2.32980966567993 2.23184895515442 2.25835633277893 2.14935755729675 2.10046768188477
-9999 -9999 -9999 -9999 -9999 -9999 -9999 -9999 -9999 -9999 -9999 -9999 -9999 -9999 -9999 -9999 -9999 -9999 -9999 -9999 -9999 -9999 -9999 -9999 -9999 -9999 -9999 -9999 -9999 -9999 -9999 -9999 -9999 -9999 -9999 -9999 -9999 -9999 -9999 -9999 5.86743990580241 5.70952224731445 5.80569019317627 5.68363380432129 5.64569234848022 5.45899963378906 5.19343233108521 4.95387601852417 4.78938388824463 4.68646621704102 4.57259464263916 4.32939291000366 3.93990516662598 3.62669062614441 3.69122552871704 -9999 -9999 -9999 -9999 -9999 2.53697657585144 2.53853154182434 2.63264298439026 2.67158150672913 2.60059332847595 2.55086874961853 2.86909294128418 3.260413646698 3.17474269866943 3.03904056549072
-9999 -9999 -9999 -9999 -9999 -9999 -9999 -9999 -9999 -9999 -9999 -9999 -9999 -9999 -9999 -9999 -9999 -9999 -9999 -9999 -9999 -9999 -9999 -9999 -9999 -9999 -9999 -9999 -9999 -9999 -9999 -9999 -9999 -9999 -9999 -9999 -9999 -9999 -9999 6.00126504898071 5.89684915542603 5.70420551300049 5.52751207351685 5.40445566177368 5.29432821273804 5.1515645980835 5.00209093093872 4.91672992706299 4.89118385314941 4.86162614822388 4.7249002456665 4.39421272277832 3.91842579841614 3.52164483070374 3.49374198913574 3.92337894439697 -9999 -9999 -9999 2.71690046787262 2.4670786857605 2.60531949996948 2.78528308868408 2.8659360408783 2.9397337436676 3.24169945716858 3.96745157241821 4.55009937286377 4.37657833099365 3.95095467567444
-9999 -9999 -9999 -9999 -9999 -9999 -9999 -9999 -9999 -9999 -9999 -9999 -9999 -9999 -9999 -9999 -9999 -9999 -9999 -9999 -9999 -9999 -9999 -9999 -9999 -9999 -9999 -9999 -9999 -9999 -9999 -9999 -9999 -9999 -9999 -9999 -9999 -9999 5.91393909454346 5.7531270980835 5.67229461669922 5.61423063278198 5.59959125518799 5.59343671798706 5.53617095947266 5.39713144302368 5.26624631881714 5.28080177307129 5.34789323806763 5.30314970016479 5.05214214324951 4.57754850387573 3.9866738319397 3.48612403869629 3.26459193229675 3.4856538772583 3.722571849823 3.35545333226522 2.92950868606567 2.71080040931702 2.76021409034729 2.89402770996094 2.96043944358826 3.04588007926941 3.29591584205627 3.81411147117615 4.67597961425781 5.43003177642822 5.4028434753418 4.76881313323975
-9999 -9999 -9999 -9999 -9999 -9999 -9999 -9999 -9999 -9999 -9999 -9999 -9999 -9999 -9999 -9999 -9999 -9999 -9999 -9999 -9999 -9999 -9999 -9999 -9999 -9999 -9999 -9999 -9999 -9999 -9999 -9999 -9999 -9999 -9999 -9999 -9999 6.07389354705811 5.95366144180298 5.78774833679199 5.71580457687378 5.7499885559082 5.8534893989563 5.95082855224609 5.9837121963501 5.92464399337769 5.83397817611694 5.82003879547119 5.8250732421875 5.70196866989136 5.35405540466309 4.79335403442383 4.14218139648438 3.58797192573547 3.24203062057495 3.15216493606567 3.23339676856995 3.08444309234619 2.85174202919006 2.92769932746887 3.12391829490662 3.08480477333069 3.04557514190674 3.19312953948975 3.55449867248535 4.1488823890686 5.07934856414795 6.13506412506104 6.31841897964478 5.60209560394287
-9999 -9999 -9999 -9999 -9999 -9999 -9999 -9999 -9999 -9999 -9999 -9999 -9999 -9999 -9999 -9999 -9999 -9999 -9999 -9999 -9999 -9999 -9999 -9999 -9999 -9999 -9999 -9999 -9999 -9999 -9999 -9999 -9999 -9999 -9999 -9999 -9999 5.69521808624268 5.67618656158447 5.70907402038574 5.79310035705566 5.89854145050049 6.00322008132935 6.07394933700562 6.10159873962402 6.07174491882324 6.00536775588989 5.94487380981445 5.89486885070801 5.77854442596436 5.48368072509766 4.9970588684082 4.41023015975952 3.84303259849548 3.44500946998596 3.24121522903442 3.12752866744995 3.00819230079651 2.95906281471252 3.15678095817566 3.37561917304993 3.2726035118103 3.31172180175781 3.64325928688049 4.29265165328979 5.18493986129761 6.27364301681519 7.60375881195068 8.0696849822998 7.455735206604
-9999 -9999 -9999 -9999 -9999 -9999 -9999 -9999 -9999 -9999 -9999 -9999 -9999 -9999 -9999 -9999 -9999 -9999 -9999 -9999 -9999 -9999 -9999 -9999 -9999 -9999 -9999 -9999 -9999 -9999 -9999 -9999 -9999 -9999 -9999 -9999 -9999 5.63747882843018 5.5561203956604 5.64785003662109 5.788254737854 5.91792488098145 6.01950597763062 6.0913519859314 6.11384439468384 6.05709075927734 5.94542121887207 5.82250833511353 5.71797513961792 5.59886884689331 5.38395071029663 5.04321718215942 4.57819986343384 4.06993722915649 3.77102184295654 3.67455506324768 3.47981929779053 3.21860980987549 3.16908240318298 3.46850228309631 3.80105423927307 3.95264315605164 4.53319501876831 5.26947116851807 6.02906942367554 7.00211763381958 8.13284397125244 9.41496562957764 10.1033277511597 10.1151781082153
-9999 -9999 -9999 -9999 -9999 -9999 -9999 -9999 -9999 -9999 -9999 -9999 -9999 -9999 -9999 -9999 -9999 -9999 -9999 -9999 -9999 -9999 -9999 -9999 -9999 -9999 -9999 -9999 -9999 -9999 -9999 -9999 -9999 -9999 -9999 -9999 6.021559715271 5.71245813369751 5.4896068572998 5.54792881011963 5.68907451629639 5.85168790817261 6.00423336029053 6.12203121185303 6.17480087280273 6.14857530593872 6.0593581199646 5.91594219207764 5.75283145904541 5.59238862991333 5.40583753585815 5.14741182327271 4.78159332275391 4.40834665298462 4.30879306793213 4.41854381561279 4.19092702865601 3.79796528816223 3.78973054885864 4.29348516464233 4.69545030593872 5.12865877151489 6.0944356918335 6.7534646987915 7.10540819168091 8.25793647766113 9.45076274871826 10.3081874847412 10.7837152481079 11.137825012207
-9999 -9999 -9999 -9999 -9999 -9999 -9999 -9999 -9999 -9999 -9999 -9999 -9999 -9999 -9999 -9999 -9999 -9999 -9999 -9999 -9999 -9999 -9999 -9999 -9999 -9999 -9999 -9999 -9999 -9999 -9999 -9999 -9999 -9999 -9999 -9999 -9999 5.71826124191284 5.67757844924927 5.62105655670166 5.62467241287231 5.73689651489258 5.9210638999939 6.09021139144897 6.1929407119751 6.25021409988403 6.280357837677 6.24164438247681 6.1157865524292 5.96475458145142 5.81833505630493 5.64022302627563 5.38538455963135 5.11840152740479 5.05193853378296 5.20481014251709 5.03765392303467 4.68798446655273 4.72186183929443 5.26213932037354 5.56087732315063 5.75777244567871 6.47840690612793 6.97777318954468 7.26642417907715 8.23100566864014 9.29051208496094 9.97701740264893 10.4144086837769 10.8619031906128
-9999 -9999 -9999 -9999 -9999 -9999 -9999 -9999 -9999 -9999 -9999 -9999 -9999 -9999 -9999 -9999 -9999 -9999 -9999 -9999 -9999 -9999 -9999 -9999 -9999 -9999 -9999 -9999 -9999 -9999 -9999 -9999 -9999 -9999 -9999 -9999 -9999 -9999 6.23506450653076 -9999 5.72136259078979 5.67687702178955 5.78093671798706 5.92138767242432 6.02328777313232 6.13690948486328 6.32205295562744 6.46458196640015 6.46908903121948 6.38434410095215 6.29356861114502 6.19512367248535 6.03833246231079 5.81663036346436 5.61334991455078 5.64429712295532 5.58606004714966 5.37212419509888 5.39390230178833 5.99057102203369 6.48345136642456 6.58934497833252 6.79780197143555 7.02173566818237 7.27241325378418 8.21178913116455 9.20147514343262 9.76749515533447 10.3430919647217 11.0040111541748
-9999 -9999 -9999 -9999 -9999 -9999 -9999 -9999 -9999 -9999 -9999 -9999 -9999 -9999 -9999 -9999 -9999 -9999 -9999 -9999 -9999 -9999 -9999 -9999 -9999 -9999 -9999 -9999 -9999 -9999 -9999 -9999 -9999 -9999 -9999 -9999 -9999 -9999 -9999 -9999 6.0395131111145 5.77165937423706 5.76294279098511 5.82243728637695 5.93045091629028 6.14457845687866 6.44886875152588 6.63661623001099 6.66711902618408 6.59353017807007 6.51078367233276 6.41759729385376 6.28606557846069 6.09991550445557 5.89435005187988 5.92680644989014 6.01565837860107 5.93408203125 5.97785472869873 6.48217058181763 7.14981031417847 7.4555983543396 7.49753522872925 7.70109462738037 8.32209396362305 9.86380100250244 10.796573638916 11.2509956359863 11.7500638961792 12.0327529907227
-9999 -9999 -9999 -9999 -9999 -9999 -9999 -9999 -9999 -9999 -9999 -9999 -9999 -9999 -9999 -9999 -9999 -9999 -9999 -9999 -9999 -9999 -9999 -9999 -9999 -9999 -9999 -9999 -9999 -9999 -9999 -9999 -9999 -9999 7.42768752574921 7.50576400756836 7.44674730300903 -9999 7.34346866607666 7.16695022583008 6.62382364273071 6.17894887924194 6.01238965988159 5.9725170135498 6.11839199066162 6.45552015304565 6.71926021575928 6.75997400283813 6.70606279373169 6.61943578720093 6.49187994003296 6.36111450195312 6.20858478546143 6.12528038024902 6.16762590408325 6.42744255065918 6.68481302261353 6.67229318618774 6.73443365097046 7.20718574523926 7.87098789215088 8.07415580749512 8.13504123687744 8.793532371521 9.92126560211182 11.5619211196899 12.2821102142334 12.6608905792236 13.1912336349487 12.9270277023315
-9999 -9999 -9999 -9999 -9999 -9999 -9999 -9999 -9999 -9999 -9999 -9999 -9999 -9999 -9999 -9999 -9999 -9999 -9999 -9999 -9999 -9999 -9999 -9999 -9999 -9999 -9999 8.5654468536377 8.5654468536377 8.52335643768311 8.40328025817871 8.04146003723145 7.61136054992676 7.46268272399902 7.41143465042114 7.3308687210083 7.27657985687256 7.27003288269043 7.29321098327637 7.26080799102783 6.97072839736938 6.58582973480225 6.33833265304565 6.27104949951172 6.47189092636108 6.7564697265625 6.82375574111938 6.72610092163086 6.60734748840332 6.49548530578613 6.35699129104614 6.22605466842651 6.11195135116577 6.20800447463989 6.49528121948242 6.88046503067017 7.14945411682129 7.11528587341309 7.30600690841675 8.00880813598633 8.69508075714111 8.991379737854 9.19506931304932 9.95687103271484 11.0257902145386 12.5252304077148 13.1886320114136 12.9166440963745 12.6446218490601 12.4277267456055
-9999 -9999 -9999 -9999 -9999 -9999 -9999 -9999 -9999 -9999 -9999 -9999 -9999 -9999 -9999 -9999 -9999 -9999 -9999 -9999 -9999 -9999 -9999 -9999 -9999 -9999 -9999 -9999 -9999 -9999 8.17055702209473 7.8304271697998 7.39393329620361 7.1684718132019 7.09954833984375 7.07787656784058 7.08675527572632 7.11384439468384 7.15310192108154 7.16182613372803 7.00328922271729 6.75485706329346 6.59537744522095 6.59376096725464 6.76939105987549 6.84487390518188 6.75129175186157 6.63624048233032 6.53866147994995 6.44797563552856 6.41969347000122 6.4252610206604 6.47686624526978 6.66886043548584 6.8758978843689 7.15774774551392 7.40893173217773 7.50277471542358 7.93270635604858 8.9261646270752 9.96477890014648 10.5511283874512 10.6414260864258 11.3501195907593 12.6651830673218 14.237922668457 14.7149505615234 14.2451257705688 13.2533092498779 12.7931442260742
-9999 -9999 -9999 -9999 -9999 -9999 -9999 -9999 -9999 -9999 -9999 -9999 -9999 -9999 -9999 -9999 -9999 -9999 -9999 -9999 -9999 -9999 -9999 -9999 -9999 8.4760414759318 8.21027978261312 7.98840284347534 7.82565701007843 7.87865686416626 7.7031135559082 7.52934598922729 7.34042692184448 7.15655469894409 7.08203172683716 7.06969785690308 7.07981014251709 7.0892128944397 7.10112571716309 7.1047568321228 7.02559089660645 6.91739654541016 6.83556604385376 6.84994983673096 6.90658473968506 6.84507369995117 6.81092357635498 6.88350820541382 6.91801166534424 6.88646459579468 6.95871543884277 6.98594427108765 7.12261390686035 7.38607215881348 7.54807424545288 7.80958032608032 8.14705753326416 8.35456275939941 9.06761074066162 10.3638620376587 11.4011449813843 11.9651765823364 12.2922143936157 13.3332386016846 15.0318927764893 16.4017391204834 16.7174854278564 16.6227264404297 15.5545835494995 14.8947467803955
-9999 -9999 -9999 -9999 -9999 -9999 -9999 -9999 -9999 -9999 -9999 -9999 -9999 -9999 -9999 -9999 -9999 -9999 -9999 -9999 -9999 -9999 -9999 -9999 8.77615833282471 8.46995544433594 8.18201065063477 7.97887325286865 7.80432462692261 7.6407732963562 7.50582313537598 7.37389707565308 7.21602582931519 7.10217666625977 7.09765911102295 7.14258193969727 7.19731187820435 7.23293161392212 7.22385740280151 7.20330858230591 7.15505790710449 7.10097503662109 7.05524730682373 7.0868067741394 7.17120265960693 7.24735260009766 7.47055435180664 7.75231170654297 7.9117636680603 7.88795709609985 7.82218027114868 7.65200090408325 7.83707761764526 8.12246036529541 8.32045650482178 8.68914890289307 9.16373443603516 9.5713529586792 10.5988502502441 11.8251447677612 12.6741399765015 13.3596687316895 14.0481338500977 15.0146179199219 16.3453464508057 17.3686122894287 17.9649486541748 18.3461456298828 17.8377780914307 17.388542175293
-9999 -9999 -9999 -9999 -9999 -9999 -9999 -9999 -9999 -9999 -9999 -9999 -9999 -9999 -9999 -9999 -9999 -9999 -9999 -9999 -9999 -9999 -9999 -9999 8.75960826873779 8.40301322937012 8.00661754608154 7.69452905654907 7.4621148109436 7.30278205871582 7.21877717971802 7.1693000793457 7.17125225067139 7.30477285385132 7.58081245422363 7.83961009979248 8.01818561553955 8.21423435211182 8.24277496337891 8.09856128692627 7.9461145401001 7.84763717651367 7.81152582168579 7.85963249206543 7.92484092712402 8.02028560638428 8.18766784667969 8.32165241241455 8.64144992828369 8.8741397857666 8.78075504302979 8.49517250061035 8.70345687866211 8.93220329284668 9.17943382263184 9.68525505065918 10.2398862838745 10.7063484191895 11.6324682235718 12.830225944519 14.2035007476807 15.3380002975464 15.6799783706665 15.9078435897827 16.6961116790771 17.6721668243408 18.6004409790039 19.2623615264893 19.2136611938477 18.9365711212158
-9999 -9999 -9999 -9999 -9999 -9999 -9999 -9999 -9999 -9999 -9999 -9999 -9999 -9999 -9999 -9999 -9999 -9999 -9999 -9999 -9999 -9999 -9999 9.18524765968323 9.00505924224854 8.55411338806152 8.03358936309814 7.57743644714355 7.32721519470215 7.22778797149658 7.2004508972168 7.33960008621216 7.82660484313965 8.52386665344238 9.29290390014648 9.79368209838867 9.9806957244873 10.1955995559692 10.1368074417114 9.96847343444824 9.94272232055664 10.1353321075439 10.6029748916626 10.8313980102539 10.4472017288208 9.84294700622559 9.38478183746338 9.36775016784668 9.92320346832275 10.2679786682129 10.0097513198853 9.46922588348389 9.48802280426025 9.85073661804199 10.3706817626953 10.8801803588867 11.2020673751831 11.3227806091309 11.7894268035889 13.2872037887573 15.2747783660889 16.5973320007324 16.9736289978027 17.0951709747314 17.5310153961182 18.4791145324707 19.5525245666504 20.2019271850586 20.1275424957275 19.8319778442383
-9999 -9999 -9999 -9999 -9999 -9999 -9999 -9999 -9999 -9999 -9999 -9999 -9999 -9999 -9999 -9999 -9999 -9999 -9999 -9999 -9999 -9999 -9999 9.74274921417236 9.23357391357422 8.68721294403076 8.14242744445801 7.73615837097168 7.72575092315674 7.91206216812134 8.06296539306641 8.70036220550537 10.0811071395874 11.3099918365479 12.184063911438 12.3591156005859 11.7766189575195 11.5625944137573 11.7645292282104 12.1973638534546 12.753210067749 13.2983083724976 13.8718099594116 14.0460834503174 13.5625743865967 12.7437057495117 11.9606351852417 11.8268098831177 12.2303695678711 12.2502174377441 11.5626821517944 10.5646438598633 10.2680988311768 10.6932220458984 11.2466487884521 11.6682586669922 11.9216775894165 11.9601755142212 12.2516460418701 13.80837059021 15.702751159668 16.9864158630371 17.7040634155273 18.178373336792 18.6935501098633 19.5469532012939 20.404899597168 20.9224128723145 20.8706798553467 20.5542869567871
-9999 -9999 -9999 -9999 -9999 -9999 -9999 -9999 -9999 -9999 -9999 -9999 -9999 -9999 -9999 -9999 -9999 -9999 -9999 -9999 -9999 -9999 10.0126657485962 9.65171432495117 9.0891809463501 8.59342575073242 8.2122049331665 8.2050952911377 8.72807788848877 9.3167028427124 9.96530818939209 11.340446472168 13.1342668533325 14.0469179153442 14.3177175521851 13.9800901412964 12.8457889556885 12.4539804458618 13.0664253234863 13.8476543426514 14.5782012939453 14.9903507232666 14.9917545318604 14.8002347946167 14.5588598251343 14.2745409011841 13.9084510803223 13.76868724823 13.7001581192017 13.3270254135132 12.6121482849121 11.6713771820068 11.2174119949341 11.4003791809082 11.7848281860352 12.3231744766235 12.6777992248535 12.6844530105591 12.961953163147 14.2216749191284 15.7552309036255 17.0144634246826 17.8274383544922 18.360466003418 18.9235248565674 19.6301155090332 20.3726539611816 21.0129337310791 21.3099899291992 21.270580291748
-9999 -9999 -9999 -9999 -9999 -9999 -9999 -9999 -9999 -9999 -9999 -9999 -9999 -9999 12.954803387324 -9999 -9999 -9999 -9999 11.6895904541016 -9999 10.2533054351807 9.75179958343506 9.19515609741211 8.72525882720947 8.52676963806152 8.70627498626709 9.40151023864746 10.3791427612305 11.2931108474731 12.3711109161377 13.6425218582153 14.6009130477905 14.7873640060425 14.5853490829468 14.2063760757446 13.4650936126709 13.2061557769775 13.6875400543213 14.2965507507324 14.8439311981201 15.1888275146484 15.2299880981445 15.1081666946411 14.941309928894 14.7933359146118 14.7291498184204 14.6547718048096 14.2390995025635 13.597861289978 13.071436882019 12.5616893768311 12.1986541748047 12.0956125259399 12.207893371582 12.6921443939209 13.0178632736206 12.986496925354 13.291223526001 14.2067737579346 15.4139060974121 16.5156841278076 17.3137664794922 17.8009128570557 18.1401176452637 18.7481536865234 19.722282409668 20.7363548278809 21.4746513366699 21.7799797058105
-9999 -9999 -9999 -9999 -9999 -9999 -9999 -9999 -9999 -9999 -9999 -9999 -9999 -9999 12.9579246044159 -9999 -9999 -9999 -9999 11.4145183563232 10.4085294723511 9.70811939239502 9.03690814971924 8.71395111083984 8.69760608673096 9.08388710021973 9.89317607879639 10.8747396469116 11.6972780227661 12.4955940246582 13.4628496170044 14.3349704742432 14.8583641052246 14.9580812454224 14.8127565383911 14.6367292404175 14.2302169799805 13.9483594894409 14.0868740081787 14.3663787841797 14.6858263015747 15.0272932052612 15.263952255249 15.3242750167847 15.3116436004639 15.1790323257446 14.9457292556763 14.5988702774048 14.0718212127686 13.5566072463989 13.1481904983521 12.8172340393066 12.6080675125122 12.4655990600586 12.3917016983032 12.6155138015747 12.9704513549805 13.1909103393555 13.6680335998535 14.3978118896484 15.212119102478 15.9979639053345 16.5891876220703 16.8839721679688 17.1692218780518 17.8385448455811 18.8163642883301 19.9580307006836 20.9752559661865 21.5205841064453
-9999 -9999 -9999 -9999 -9999 -9999 -9999 -9999 -9999 -9999 -9999 -9999 -9999 -9999 12.9438791275024 -9999 -9999 -9999 -9999 -9999 9.53807234764099 9.2521858215332 8.81854057312012 8.93567943572998 9.29808139801025 9.88533020019531 10.6714067459106 11.3681564331055 11.9991321563721 12.8068027496338 13.743556022644 14.6608018875122 15.4782514572144 16.0306720733643 16.4227848052979 16.7061710357666 16.6372985839844 16.520622253418 16.392520904541 16.0886325836182 15.7183952331543 15.4770174026489 15.4163103103638 15.294563293457 15.2417459487915 15.1752128601074 14.9732532501221 14.8737516403198 15.0069484710693 15.2341976165771 15.1899518966675 14.87939453125 14.4901142120361 14.0053968429565 13.5907955169678 13.401575088501 13.3473463058472 13.3480567932129 13.5084247589111 13.9293985366821 14.5999431610107 15.2778244018555 15.7775344848633 16.1736907958984 16.7006435394287 17.5158271789551 18.3929100036621 19.3233203887939 20.2607822418213 20.9148082733154
-9999 -9999 -9999 -9999 -9999 -9999 -9999 -9999 -9999 -9999 -9999 -9999 -9999 -9999 12.9786610603333 -9999 13.0000610351562 -9999 -9999 -9999 9.9424467086792 9.24953746795654 8.87739753723145 9.09492492675781 9.75035285949707 10.9455051422119 12.1274738311768 12.7650671005249 13.4304170608521 14.6344194412231 15.922553062439 16.8313007354736 17.4870319366455 18.0296287536621 18.5866146087646 18.9898300170898 19.0728034973145 19.0948524475098 18.9305419921875 18.4613418579102 17.7889862060547 17.0547065734863 16.3869724273682 15.7123956680298 15.3947334289551 15.5388135910034 15.7706985473633 16.2407360076904 17.0445899963379 17.830940246582 18.2345809936523 18.2075023651123 17.8825721740723 17.3125076293945 16.7344207763672 16.207010269165 15.6194181442261 15.0377349853516 14.4996061325073 14.3095455169678 14.6031513214111 15.1548719406128 15.8144664764404 16.5427322387695 17.3118267059326 18.144926071167 18.8552703857422 19.4532299041748 20.0043926239014 20.4820442199707
-9999 -9999 -9999 -9999 -9999 -9999 -9999 -9999 -9999 -9999 -9999 -9999 -9999 -9999 12.9786610603333 13.0134429931641 13.0759372711182 -9999 -9999 9.67326021194458 9.73829746246338 8.93426418304443 8.81644725799561 9.96896266937256 12.2124652862549 14.374041557312 15.8350925445557 16.7176761627197 17.3249435424805 18.208703994751 18.9903945922852 19.3264408111572 19.4873733520508 19.7302207946777 20.1037654876709 20.4266166687012 20.5729274749756 20.6068439483643 20.4685039520264 20.1134510040283 19.5925579071045 18.9535751342773 18.1581592559814 17.1221370697021 16.6366405487061 16.9188251495361 17.2424831390381 17.8534984588623 18.7698097229004 19.5406169891357 19.9574222564697 20.0622787475586 19.9764652252197 19.7448329925537 19.4568710327148 19.0839214324951 18.5436992645264 17.9076614379883 17.2155818939209 16.6944618225098 16.538106918335 16.8373050689697 17.4614849090576 18.1550922393799 18.7606353759766 19.3045387268066 19.7230014801025 20.0643615722656 20.3227882385254 20.5227432250977
-9999 -9999 -9999 -9999 -9999 -9999 -9999 -9999 -9999 -9999 -9999 -9999 -9999 -9999 -9999 13.1427341461182 13.2316074371338 -9999 10.7655565738678 9.8259449005127 9.18635177612305 8.78964424133301 9.95400619506836 12.9407024383545 15.9148826599121 17.5495281219482 18.6500511169434 19.6262035369873 20.4286880493164 21.1326656341553 21.524435043335 21.6013889312744 21.5719451904297 21.6840057373047 21.9535655975342 22.1702919006348 22.217658996582 22.1484794616699 21.9847011566162 21.6084289550781 21.0231342315674 20.4730815887451 19.9900531768799 19.147045135498 18.4590110778809 18.3902626037598 18.5954990386963 19.2388877868652 19.970422744751 20.4232997894287 20.6251945495605 20.7136459350586 20.789493560791 20.8375301361084 20.807596206665 20.6723880767822 20.4101295471191 20.0521564483643 19.6312446594238 19.2175559997559 18.9220943450928 18.924388885498 19.2298812866211 19.6174659729004 19.8923721313477 20.1089324951172 20.3093929290771 20.5097274780273 20.6456432342529 20.7028160095215
-9999 -9999 -9999 -9999 -9999 -9999 -9999 -9999 -9999 -9999 -9999 -9999 -9999 -9999 -9999 13.4309272766113 12.9617557525635 -9999 10.4418354034424 9.6417236328125 8.91462516784668 9.44057464599609 12.3348894119263 15.8780565261841 17.6479454040527 18.6081466674805 19.7618312835693 21.0009670257568 22.0256729125977 22.724048614502 23.0857410430908 23.225793838501 23.2404098510742 23.2383499145508 23.2362213134766 23.1799030303955 23.0515918731689 22.8843078613281 22.7126064300537 22.4262046813965 21.8766803741455 21.2986278533936 20.9734935760498 20.5187587738037 19.9583129882812 19.7273750305176 19.8402690887451 20.2686138153076 20.6728687286377 20.885181427002 21.0010623931885 21.0951061248779 21.2165184020996 21.3163776397705 21.3202877044678 21.2464771270752 21.1346225738525 20.9806289672852 20.7843208312988 20.5482330322266 20.2856578826904 20.1022434234619 20.0965328216553 20.178466796875 20.2635917663574 20.4163475036621 20.600399017334 20.7640342712402 20.8529014587402 20.8396415710449
-9999 -9999 -9999 -9999 -9999 -9999 -9999 -9999 -9999 -9999 -9999 -9999 -9999 -9999 -9999 13.426718711853 -9999 11.4190767833165 10.1849594116211 9.12257289886475 8.85969638824463 10.5978412628174 14.2481737136841 17.1437873840332 18.4745635986328 19.7599620819092 21.1262111663818 22.3162708282471 23.096960067749 23.537670135498 23.7180309295654 23.6781520843506 23.5023403167725 23.2452659606934 22.9575328826904 22.7755260467529 22.7210807800293 22.7392730712891 22.7754344940186 22.7496967315674 22.449836730957 21.8151664733887 21.2840270996094 20.9674472808838 20.7540950775146 20.7460384368896 20.9808578491211 21.2771892547607 21.4334850311279 21.4245777130127 21.3523960113525 21.3133068084717 21.3051528930664 21.254732131958 21.1491985321045 21.0145931243896 20.8946437835693 20.821403503418 20.7693176269531 20.6712741851807 20.5386505126953 20.3703880310059 20.2821807861328 20.3159828186035 20.4559783935547 20.6898231506348 20.8945846557617 21.0031356811523 21.0092430114746 20.9292793273926
-9999 -9999 -9999 -9999 -9999 -9999 -9999 -9999 -9999 -9999 -9999 -9999 -9999 -9999 13.426718711853 12.9729537963867 12.6201429367065 11.0589027404785 9.79394149780273 8.69808197021484 8.81692886352539 11.1698427200317 15.047474861145 18.0374889373779 19.8604049682617 21.3229675292969 22.4168186187744 23.2571640014648 23.7466220855713 23.9008350372314 23.747278213501 23.3544502258301 22.8477954864502 22.3337707519531 21.9941310882568 21.8734245300293 21.935676574707 22.2066230773926 22.5729923248291 22.8629550933838 22.8898544311523 22.4515075683594 21.7750759124756 21.3059692382812 21.1624603271484 21.3375053405762 21.7129936218262 21.9271354675293 21.8446502685547 21.5514488220215 21.2539310455322 21.0578746795654 20.8989067077637 20.6822338104248 20.5241146087646 20.4611129760742 20.4277992248535 20.4234600067139 20.4494590759277 20.4447479248047 20.4153575897217 20.3738384246826 20.4049530029297 20.5231018066406 20.7156925201416 20.8956432342529 20.9672603607178 20.9846534729004 21.0169219970703 21.0125274658203
-9999 -9999 -9999 -9999 -9999 -9999 -9999 -9999 -9999 -9999 -9999 -9999 -9999 -9999 -9999 -9999 11.1541993618011 10.7102661132812 9.26473903656006 8.41089630126953 8.76745414733887 11.3566398620605 15.5092926025391 18.595724105835 20.7974243164062 22.2590389251709 23.2702217102051 23.8732395172119 24.091136932373 23.880407333374 23.3127365112305 22.6319198608398 22.0339412689209 21.6134204864502 21.3432865142822 21.1417789459229 21.1457614898682 21.5794734954834 22.2672519683838 22.7987785339355 23.0532627105713 22.9206981658936 22.4051952362061 21.8662910461426 21.5766429901123 21.6095867156982 21.7709331512451 21.7474746704102 21.3913402557373 20.9235229492188 20.5693817138672 20.3237152099609 20.1707134246826 20.0383186340332 20.013578414917 20.0878410339355 20.1662349700928 20.2430038452148 20.3199291229248 20.3854427337646 20.439847946167 20.4752731323242 20.5305633544922 20.5937690734863 20.695686340332 20.7592163085938 20.7345142364502 20.7167644500732 20.8104228973389 20.8943004608154
-9999 -9999 -9999 -9999 -9999 -9999 -9999 -9999 -9999 -9999 -9999 -9999 -9999 -9999 -9999 -9999 10.4688758850098 10.2274856567383 9.18623924255371 9.09975719451904 9.98394966125488 12.4443168640137 16.5202560424805 19.6457576751709 21.9552879333496 23.1860427856445 23.8421077728271 24.0527172088623 23.8423824310303 23.2117671966553 22.4598712921143 21.8491516113281 21.4748687744141 21.2259731292725 20.9653396606445 20.7622718811035 20.8079814910889 21.2543773651123 21.9731674194336 22.5444068908691 22.778450012207 22.7182884216309 22.369161605835 21.8896579742432 21.4962825775146 21.304931640625 21.2381439208984 21.0738849639893 20.6074237823486 20.2067565917969 19.8783550262451 19.6314735412598 19.5824527740479 19.6334686279297 19.7262439727783 19.8944530487061 20.0843753814697 20.2324314117432 20.3120975494385 20.3551731109619 20.3547554016113 20.3116397857666 20.3370246887207 20.3811168670654 20.4165058135986 20.4539737701416 20.4839153289795 20.5366554260254 20.6044979095459 20.6132888793945
-9999 -9999 -9999 -9999 -9999 -9999 -9999 -9999 -9999 -9999 -9999 -9999 -9999 -9999 -9999 -9999 -9999 10.0063850879669 9.96451568603516 10.9539575576782 12.7926225662231 15.6418790817261 19.10915184021 21.4387397766113 23.1395778656006 23.8029022216797 24.0034770965576 23.8317356109619 23.1943111419678 22.3693466186523 21.7465667724609 21.2208137512207 20.9132690429688 20.8411712646484 20.7972297668457 20.7779140472412 20.8528804779053 21.1099834442139 21.5374584197998 21.7975082397461 21.8114128112793 21.7353019714355 21.5755977630615 21.324686050415 21.0572605133057 20.8555469512939 20.658275604248 20.3110942840576 19.9505596160889 19.6880416870117 19.4750747680664 19.3649139404297 19.4175968170166 19.54709815979 19.665355682373 19.8273830413818 20.0238075256348 20.1094036102295 20.1114654541016 20.0995445251465 20.093599319458 20.1054153442383 20.170166015625 20.2420806884766 20.2500038146973 20.2947807312012 20.3488464355469 20.4498271942139 20.4889850616455 20.377405166626
-9999 -9999 -9999 -9999 -9999 -9999 -9999 -9999 -9999 -9999 -9999 -9999 -9999 -9999 10.2878332138062 10.2274856567383 10.2967695593834 10.3059077262878 10.6472997665405 12.2282686233521 14.7589349746704 18.3449287414551 21.3466396331787 22.8594417572021 23.7332038879395 24.0069885253906 23.9273109436035 23.4211845397949 22.5700016021729 21.8846759796143 21.3819141387939 20.8236541748047 20.5336894989014 20.5578289031982 20.5666542053223 20.5160160064697 20.4524822235107 20.4707813262939 20.5938873291016 20.6580142974854 20.6788692474365 20.7294139862061 20.7559566497803 20.6745758056641 20.4654712677002 20.2172985076904 19.9810199737549 19.7375869750977 19.5888786315918 19.5111103057861 19.4498863220215 19.4481925964355 19.5377311706543 19.6523532867432 19.7307376861572 19.8056602478027 19.8761539459229 19.8674278259277 19.8371105194092 19.8462696075439 19.8673896789551 19.8932647705078 19.9493083953857 20.0304737091064 20.0778770446777 20.2090530395508 20.2809028625488 20.3255023956299 20.325174331665 20.2242012023926
-9999 -9999 -9999 -9999 -9999 -9999 -9999 -9999 -9999 -9999 -9999 -9999 -9999 -9999 -9999 -9999 -9999 -9999 12.5718219280243 13.1292181015015 15.8656644821167 19.7681789398193 22.5036067962646 23.6047992706299 24.037540435791 24.0629730224609 23.6863117218018 22.9510402679443 22.14794921875 21.6058368682861 21.1551628112793 20.6472320556641 20.3607292175293 20.3447093963623 20.2547264099121 20.1088066101074 19.944055557251 19.8552532196045 19.8748950958252 19.9198017120361 19.993968963623 20.1045398712158 20.1965351104736 20.1152782440186 19.8817596435547 19.7207164764404 19.6579551696777 19.6066761016846 19.5701637268066 19.5646800994873 19.5543384552002 19.5636100769043 19.6363773345947 19.728889465332 19.7603511810303 19.7614097595215 19.7610988616943 19.7414684295654 19.7542610168457 19.7979965209961 19.8261451721191 19.8059368133545 19.8083229064941 19.8671913146973 19.9682159423828 20.1415939331055 20.220386505127 20.1953029632568 20.1363220214844 20.0800075531006
-9999 -9999 -9999 -9999 -9999 -9999 -9999 -9999 -9999 -9999 -9999 -9999 -9999 -9999 -9999 -9999 -9999 14.6461563110352 14.8716428279877 14.2825012207031 17.5764598846436 21.6724166870117 23.4331073760986 24.1749496459961 24.3117828369141 24.0085849761963 23.4259052276611 22.6656608581543 21.9216232299805 21.4505672454834 21.2275943756104 20.9232769012451 20.5152931213379 20.2049465179443 19.9820384979248 19.8555755615234 19.7090873718262 19.5870723724365 19.5311069488525 19.5045261383057 19.5165252685547 19.5781860351562 19.6808414459229 19.689769744873 19.6443634033203 19.6545066833496 19.7091083526611 19.7223377227783 19.6821842193604 19.6442089080811 19.6227073669434 19.6374168395996 19.6880493164062 19.7554130554199 19.7783851623535 19.7893085479736 19.8232269287109 19.8551845550537 19.9065952301025 19.9447822570801 19.9304790496826 19.8833446502686 19.8640727996826 19.8841152191162 19.9466419219971 20.0585269927979 20.0880489349365 20.0392646789551 19.9795379638672 19.9561195373535
-9999 -9999 -9999 -9999 -9999 -9999 -9999 -9999 -9999 -9999 -9999 -9999 -9999 19.077600479126 18.9520312415229 -9999 18.1077699661255 17.3286604881287 14.6461563110352 17.4286956787109 21.6906814575195 23.9358730316162 24.6469497680664 24.6450386047363 24.2048892974854 23.6511688232422 23.0759220123291 22.4174938201904 21.7125301361084 21.3783302307129 21.475564956665 21.5377750396729 21.3672103881836 20.9205532073975 20.3115348815918 19.852560043335 19.6456661224365 19.5573997497559 19.493350982666 19.4422397613525 19.3982582092285 19.3521823883057 19.3814659118652 19.5493202209473 19.7146530151367 19.783483505249 19.8316516876221 19.833517074585 19.7943649291992 19.7546501159668 19.7097072601318 19.6981563568115 19.752311706543 19.8212642669678 19.8574771881104 19.866849899292 19.8794994354248 19.9022426605225 19.9415092468262 19.943042755127 19.9068202972412 19.879566192627 19.9129543304443 19.9283046722412 19.9285488128662 19.9723205566406 19.963659286499 19.9188938140869 19.9004898071289 19.9158420562744
-9999 -9999 -9999 -9999 -9999 -9999 -9999 -9999 -9999 -9999 -9999 -9999 -9999 -9999 19.077600479126 19.3543027242025 18.4241905212402 17.7913494110107 18.4529457092285 22.4471569061279 24.4617691040039 24.827522277832 24.6979961395264 24.1651077270508 23.5860404968262 23.1943073272705 22.7475051879883 22.1610374450684 21.4028778076172 21.133451461792 21.3732738494873 21.6308250427246 21.7628002166748 21.5127029418945 21.0267562866211 20.5376796722412 20.1158218383789 19.8614692687988 19.7475624084473 19.6736583709717 19.5948886871338 19.5057563781738 19.4879493713379 19.636323928833 19.8180885314941 19.8606071472168 19.8483810424805 19.8269062042236 19.8042449951172 19.7922763824463 19.7714004516602 19.7433547973633 19.7690773010254 19.843677520752 19.9047622680664 19.9270172119141 19.9118137359619 19.8880710601807 19.8739376068115 19.8372421264648 19.7913684844971 19.8242282867432 19.9116878509521 19.9481010437012 19.9292335510254 19.9334449768066 19.8996353149414 19.847526550293 19.8584976196289 19.909553527832
-9999 -9999 -9999 -9999 -9999 -9999 -9999 -9999 -9999 -9999 -9999 -9999 -9999 -9999 19.4896311759949 19.077600479126 20.5611171722412 21.3353004455566 22.9736938476562 24.6459369659424 24.8775959014893 24.6740016937256 24.1591796875 23.5054626464844 23.1731719970703 22.9624881744385 22.5905704498291 22.0067405700684 21.2962207794189 21.0683002471924 21.2018013000488 21.442684173584 21.7904491424561 21.72873878479 21.3131542205811 20.8967418670654 20.5744552612305 20.3551616668701 20.2090625762939 20.0832614898682 19.9477233886719 19.791877746582 19.6832027435303 19.7241516113281 19.8457775115967 19.8463153839111 19.7827339172363 19.7663516998291 19.7695426940918 19.7803020477295 19.7912921905518 19.7654113769531 19.7313690185547 19.7628860473633 19.8465213775635 19.9112377166748 19.9148578643799 19.8866500854492 19.8445167541504 19.7863521575928 19.7611045837402 19.8297996520996 19.9382953643799 19.9881553649902 19.9729824066162 19.952033996582 19.8983516693115 19.8715362548828 19.9126663208008 19.9625816345215
-9999 -9999 -9999 -9999 -9999 -9999 -9999 -9999 -9999 -9999 -9999 18.4030418395996 18.5537223815918 19.1306419372559 19.0356597900391 20.7146224975586 23.0094470977783 23.9642524719238 24.6277561187744 24.8614673614502 24.7156276702881 24.2715454101562 23.6140689849854 23.0824432373047 22.9707546234131 22.8115787506104 22.5116310119629 22.0277652740479 21.3873043060303 21.1407661437988 21.1938037872314 21.5021495819092 21.9206104278564 21.8485813140869 21.3146324157715 20.8258666992188 20.6488399505615 20.6080741882324 20.5427169799805 20.4208602905273 20.270320892334 20.0666942596436 19.8483715057373 19.7653617858887 19.8167705535889 19.7853450775146 19.6983337402344 19.7084674835205 19.75905418396 19.8140258789062 19.878791809082 19.8693962097168 19.7741451263428 19.6972808837891 19.706470489502 19.7750205993652 19.8209247589111 19.8272552490234 19.805685043335 19.7699546813965 19.7878952026367 19.8772430419922 19.9824638366699 20.0161018371582 19.9802055358887 19.9449996948242 19.9011344909668 19.9133186340332 19.9676761627197 20.0281467437744
-9999 -9999 -9999 -9999 -9999 -9999 -9999 -9999 -9999 18.2425231933594 18.7289295196533 19.3963279724121 19.9425849914551 20.6756858825684 20.5996074676514 21.9808521270752 23.8107681274414 24.620885848999 24.8981761932373 24.8295593261719 24.486270904541 23.8635406494141 23.2083206176758 22.874927520752 22.8557796478271 22.8632736206055 22.7193164825439 22.3874549865723 21.8803005218506 21.6486396789551 21.6935482025146 21.9872531890869 22.2107524871826 21.9341640472412 21.1619567871094 20.5693550109863 20.5114898681641 20.6318836212158 20.6664390563965 20.5786743164062 20.4464282989502 20.2623634338379 20.0162982940674 19.8497982025146 19.8205280303955 19.7575244903564 19.6758594512939 19.7137222290039 19.7866172790527 19.8691806793213 19.9917278289795 20.0541687011719 19.9565773010254 19.7757377624512 19.6642150878906 19.6607322692871 19.7004566192627 19.7354202270508 19.7535400390625 19.755521774292 19.8001899719238 19.8972454071045 19.9693431854248 19.9691791534424 19.9302234649658 19.920768737793 19.9279270172119 19.9724369049072 20.0247192382812 20.0767288208008
-9999 -9999 -9999 -9999 -9999 -9999 -9999 -9999 -9999 18.9709148406982 19.7743282318115 20.7712211608887 21.7043781280518 22.3933696746826 22.2995014190674 23.615026473999 24.7014789581299 24.9755229949951 24.9008922576904 24.596715927124 24.0372714996338 23.3784580230713 22.9783267974854 22.8570747375488 22.8228778839111 22.9070796966553 22.9667930603027 22.8471031188965 22.5782814025879 22.4422626495361 22.4147567749023 22.4478359222412 22.2744007110596 21.6938991546631 20.8431034088135 20.3661479949951 20.3824348449707 20.5555973052979 20.6698150634766 20.6283836364746 20.5199527740479 20.362621307373 20.1316890716553 19.9311332702637 19.8387775421143 19.7546901702881 19.7190227508545 19.7795104980469 19.8547058105469 19.9549446105957 20.1003189086914 20.1785106658936 20.108455657959 19.8574523925781 19.6354637145996 19.5505981445312 19.5697326660156 19.6251029968262 19.671178817749 19.6974582672119 19.7678737640381 19.8584537506104 19.9139289855957 19.9088344573975 19.9040050506592 19.9370651245117 19.9855079650879 20.032247543335 20.0579681396484 20.1003665924072
-9999 -9999 -9999 -9999 -9999 19.4575810432434 19.2072372436523 19.51438331604 19.3989677429199 19.5837211608887 20.4301147460938 21.7319049835205 22.8550243377686 23.511116027832 24.0366840362549 24.8043079376221 25.0582237243652 24.961088180542 24.687572479248 24.2350654602051 23.6135559082031 23.0806865692139 22.7880229949951 22.6506767272949 22.5348052978516 22.5217514038086 22.5745830535889 22.6236438751221 22.5877876281738 22.5279102325439 22.4324245452881 22.2516956329346 21.826774597168 21.0953140258789 20.4862289428711 20.294412612915 20.3091907501221 20.4790325164795 20.6391696929932 20.6302185058594 20.517297744751 20.3567771911621 20.1423778533936 19.946662902832 19.8247013092041 19.7439804077148 19.7575550079346 19.8202114105225 19.8967323303223 20.0241279602051 20.1774158477783 20.2311744689941 20.1238384246826 19.8598690032959 19.6148872375488 19.4877471923828 19.5048065185547 19.5918388366699 19.6711959838867 19.744327545166 19.8428783416748 19.9316062927246 19.9799480438232 19.9660015106201 19.9520053863525 19.9840660095215 20.0181884765625 20.029333114624 20.0304317474365 20.0676727294922
-9999 -9999 -9999 -9999 19.1734638214111 19.2190265655518 20.2305965423584 20.8074512481689 20.7170181274414 20.9011001586914 21.206169128418 22.4696197509766 23.4745693206787 24.3164710998535 24.941614151001 25.1397285461426 25.0494327545166 24.7034549713135 24.2945995330811 23.8104629516602 23.2656478881836 22.8133392333984 22.393705368042 22.0571479797363 21.9530067443848 21.9775276184082 21.9822216033936 21.9833183288574 21.9787368774414 21.9873104095459 21.934175491333 21.721492767334 21.2367610931396 20.6804370880127 20.4159812927246 20.3605308532715 20.3423881530762 20.4435920715332 20.5737895965576 20.5655784606934 20.4380283355713 20.2699909210205 20.0736751556396 19.8877105712891 19.7648544311523 19.7336139678955 19.7882194519043 19.8514728546143 19.9426918029785 20.0947647094727 20.2262687683105 20.2144317626953 20.0617256164551 19.8762092590332 19.7152309417725 19.6247158050537 19.6618709564209 19.7608737945557 19.84010887146 19.8999099731445 19.9567489624023 19.9959125518799 20.0034980773926 19.9688339233398 19.9360618591309 19.9394092559814 19.9428405761719 19.9317359924316 19.9358100891113 19.9524192810059
-9999 -9999 -9999 19.732316493988 19.6581516265869 20.2125492095947 21.3866748809814 21.8209896087646 22.0341663360596 22.2871074676514 22.5334129333496 23.6647567749023 24.5896072387695 25.0962047576904 25.2431011199951 25.151346206665 24.7196197509766 24.193775177002 23.8290195465088 23.4162216186523 23.013484954834 22.590913772583 22.037841796875 21.6176586151123 21.628381729126 21.7154216766357 21.7565879821777 21.7511596679688 21.7322826385498 21.6942615509033 21.5087814331055 21.1752681732178 20.7877330780029 20.5749835968018 20.5188045501709 20.4702091217041 20.4115085601807 20.4125823974609 20.4372730255127 20.3813209533691 20.2566623687744 20.1071262359619 19.9343643188477 19.7846755981445 19.7273921966553 19.7686862945557 19.8311347961426 19.9024105072021 20.0191802978516 20.1710586547852 20.257999420166 20.1893749237061 20.0576782226562 19.9576625823975 19.8549499511719 19.7905254364014 19.8007259368896 19.8440246582031 19.8809356689453 19.9234867095947 19.972728729248 19.9832038879395 19.9479942321777 19.9033908843994 19.8845195770264 19.8824195861816 19.868278503418 19.8588905334473 19.8257827758789 19.76416015625
-9999 -9999 -9999 19.9231204986572 20.1745300292969 21.2838077545166 22.3550281524658 22.6555557250977 23.063850402832 23.5724239349365 24.3747463226318 25.0338878631592 25.1871852874756 25.2153091430664 25.1177864074707 24.673303604126 24.1023387908936 23.739673614502 23.5595512390137 23.2902450561523 22.953893661499 22.4803218841553 21.8299007415771 21.3736934661865 21.4017448425293 21.458890914917 21.4452362060547 21.4076728820801 21.3309688568115 21.2033519744873 20.9847202301025 20.7394599914551 20.5925521850586 20.5833911895752 20.5647068023682 20.4733467102051 20.3533134460449 20.2685203552246 20.2173099517822 20.1551074981689 20.0732040405273 19.9637184143066 19.8337936401367 19.7564582824707 19.7769145965576 19.832971572876 19.8962326049805 19.9833488464355 20.1153717041016 20.2687473297119 20.3169918060303 20.2246570587158 20.115535736084 20.0294723510742 19.9460868835449 19.8881950378418 19.8783130645752 19.9047222137451 19.9419898986816 19.967414855957 19.9727420806885 19.9325046539307 19.8672618865967 19.8341293334961 19.8411960601807 19.8331871032715 19.8039627075195 19.7745380401611 19.7325801849365 19.6271152496338
