NCOLS 70 
NROWS 52 
XLLCORNER -80 
YLLCORNER 33 
CELLSIZE 0.25 
NODATA_value -9999 
-9999.000000000000000 -9999 -9999 -9999 -9999 -9999 -9999 -9999 -9999 -9999 -9999 -9999 -9999 -9999 -9999 -9999 -9999 -9999 -9999 -9999 -9999 -9999 -9999 -9999 -9999 -9999 -9999 -9999 -9999 -9999 -9999 -9999 -9999 -9999 -9999 -9999 -9999 -9999 -9999 -9999 -9999 -9999 -9999 -9999 -9999 -9999 -9999 -9999 -9999 -9999 -9999 -9999 -9999 -9999 -9999 -9999 -9999 -9999 -9999 -9999 -9999 -9999 -9999 -9999 -9999 -9999 -9999 -9999 -9999 -9999
-9999 -9999 -9999 -9999 -9999 -9999 -9999 -9999 -9999 -9999 -9999 -9999 -9999 -9999 -9999 -9999 -9999 -9999 -9999 -9999 -9999 -9999 -9999 -9999 -9999 -9999 -9999 -9999 -9999 -9999 -9999 -9999 -9999 -9999 -9999 -9999 -9999 -9999 -9999 -9999 -9999 -9999 -9999 -9999 -9999 -9999 -9999 -9999 -9999 -9999 -9999 -9999 -9999 -9999 -9999 -9999 -9999 -9999 -9999 -9999 -9999 -9999 -9999 -9999 -9999 -9999 -9999 -9999 -9999 -9999
-9999 -9999 -9999 -9999 -9999 -9999 -9999 -9999 -9999 -9999 -9999 -9999 -9999 -9999 -9999 -9999 -9999 -9999 -9999 -9999 -9999 -9999 -9999 -9999 -9999 -9999 -9999 -9999 -9999 -9999 -9999 -9999 -9999 -9999 -9999 -9999 -9999 -9999 -9999 -9999 -9999 -9999 -9999 -9999 -9999 -9999 -9999 -9999 -9999 -9999 -9999 -9999 -9999 -9999 -9999 -9999 -9999 -9999 -9999 8.48741340637207 -9999 -9999 -9999 -9999 -9999 -9999 -9999 -9999 -9999 -9999
-9999 -9999 -9999 -9999 -9999 -9999 -9999 -9999 -9999 -9999 -9999 -9999 -9999 -9999 -9999 -9999 -9999 -9999 -9999 -9999 -9999 -9999 -9999 -9999 -9999 -9999 -9999 -9999 -9999 -9999 -9999 -9999 -9999 -9999 -9999 -9999 -9999 -9999 -9999 -9999 -9999 -9999 -9999 -9999 -9999 -9999 -9999 -9999 -9999 -9999 -9999 -9999 -9999 -9999 -9999 8.42585754394531 8.48172569274902 8.4462947845459 8.28533935546875 8.09563541412354 -9999 -9999 -9999 -9999 -9999 -9999 -9999 -9999 -9999 -9999
-9999 -9999 -9999 -9999 -9999 -9999 -9999 -9999 -9999 -9999 -9999 -9999 -9999 -9999 -9999 -9999 -9999 -9999 -9999 -9999 -9999 -9999 -9999 -9999 -9999 -9999 -9999 -9999 -9999 -9999 -9999 -9999 -9999 -9999 -9999 -9999 -9999 -9999 -9999 -9999 -9999 -9999 -9999 -9999 -9999 -9999 -9999 -9999 -9999 -9999 -9999 -9999 8.24719524383545 8.29359149932861 8.36816787719727 8.47275161743164 8.48738574981689 8.41657829284668 -9999 -9999 -9999 -9999 -9999 -9999 -9999 -9999 -9999 -9999 -9999 -9999
-9999 -9999 -9999 -9999 -9999 -9999 -9999 -9999 -9999 -9999 -9999 -9999 -9999 -9999 -9999 -9999 -9999 -9999 -9999 -9999 -9999 -9999 -9999 -9999 -9999 -9999 -9999 -9999 -9999 -9999 -9999 -9999 -9999 -9999 -9999 -9999 -9999 -9999 -9999 -9999 -9999 -9999 -9999 -9999 -9999 -9999 -9999 -9999 -9999 -9999 8.12859735488892 8.29253005981445 8.35168743133545 8.36869049072266 8.35608100891113 8.16007995605469 -9999 -9999 -9999 -9999 -9999 -9999 -9999 -9999 -9999 -9999 -9999 8.11022186279297 7.98871171474457 7.91767120361328
-9999 -9999 -9999 -9999 -9999 -9999 -9999 -9999 -9999 -9999 -9999 -9999 -9999 -9999 -9999 -9999 -9999 -9999 -9999 -9999 -9999 -9999 -9999 -9999 -9999 -9999 -9999 -9999 -9999 -9999 -9999 -9999 -9999 -9999 -9999 -9999 -9999 -9999 -9999 -9999 -9999 -9999 -9999 -9999 7.5769739151001 -9999 -9999 8.07159554958344 7.98219537734985 7.97636365890503 8.03772449493408 8.18591785430908 8.33145523071289 8.37510299682617 8.22135543823242 -9999 -9999 -9999 -9999 -9999 -9999 -9999 -9999 8.07092189788818 8.15669059753418 8.18667984008789 8.17802715301514 8.13101959228516 8.02161884307861 7.88453722000122
-9999 -9999 -9999 -9999 -9999 -9999 -9999 -9999 -9999 -9999 -9999 -9999 -9999 -9999 -9999 -9999 -9999 -9999 -9999 -9999 -9999 -9999 -9999 -9999 -9999 -9999 -9999 -9999 -9999 -9999 -9999 -9999 -9999 -9999 -9999 -9999 -9999 -9999 -9999 -9999 -9999 -9999 -9999 -9999 7.53689765930176 7.69884586334229 7.9562406539917 8.15302467346191 8.19492149353027 8.14754772186279 8.09510707855225 8.15221405029297 8.25020980834961 8.28229713439941 8.25904107093811 -9999 -9999 -9999 -9999 -9999 -9999 -9999 8.21295738220215 8.22162628173828 8.22655868530273 8.22346973419189 8.19616508483887 8.12030696868896 7.99400472640991 7.87557744979858
-9999 -9999 -9999 -9999 -9999 -9999 -9999 -9999 -9999 -9999 -9999 -9999 -9999 -9999 -9999 -9999 -9999 -9999 -9999 -9999 -9999 -9999 -9999 -9999 -9999 -9999 -9999 -9999 -9999 -9999 -9999 -9999 -9999 -9999 -9999 -9999 -9999 -9999 -9999 -9999 9.26939582824707 9.22596041361491 8.68993663787842 8.47755336761475 8.35018730163574 8.34944248199463 8.33259773254395 8.31877613067627 8.29368209838867 8.1818208694458 8.0586404800415 8.03892612457275 8.09535026550293 8.15740871429443 8.15181665420532 -9999 -9999 -9999 -9999 -9999 8.38718922932943 8.33784580230713 8.30285930633545 8.29620838165283 8.27109432220459 8.22416877746582 8.19361782073975 8.17436695098877 8.15715026855469 8.17398071289062
-9999 -9999 -9999 -9999 -9999 -9999 -9999 -9999 -9999 -9999 -9999 -9999 -9999 -9999 -9999 -9999 -9999 -9999 -9999 -9999 -9999 -9999 -9999 -9999 -9999 -9999 -9999 -9999 -9999 -9999 -9999 -9999 -9999 -9999 -9999 -9999 -9999 -9999 -9999 9.32493591308594 9.27507019042969 9.20818138122559 9.19462966918945 9.07414054870605 8.91849994659424 8.79620742797852 8.63218688964844 8.51201629638672 8.41898155212402 8.26725006103516 8.09681129455566 8.03006172180176 8.08853626251221 8.17603492736816 8.17389869689941 7.96944379806519 -9999 -9999 -9999 8.34800601005554 8.39108371734619 8.43263816833496 8.45852375030518 8.45127582550049 8.39168357849121 8.34640216827393 8.4121732711792 8.55610084533691 8.60994529724121 8.55949687957764
-9999 -9999 -9999 -9999 -9999 -9999 -9999 -9999 -9999 -9999 -9999 -9999 -9999 -9999 -9999 -9999 -9999 -9999 -9999 -9999 -9999 -9999 -9999 -9999 -9999 -9999 -9999 -9999 -9999 -9999 -9999 -9999 -9999 -9999 -9999 -9999 -9999 -9999 9.49595985412598 9.47056484222412 9.50850296020508 9.46537590026855 9.28440380096436 9.06137084960938 8.85441303253174 8.70767498016357 8.5859317779541 8.51058864593506 8.46633529663086 8.35662841796875 8.19152069091797 8.12464904785156 8.20583534240723 8.29036521911621 8.31815910339355 8.17797660827637 8.1573657989502 8.28032223383586 8.24830055236816 8.3127269744873 8.43991279602051 8.55600738525391 8.6045970916748 8.60535526275635 8.56051254272461 8.56948947906494 8.73692417144775 8.97074222564697 9.00642967224121 8.85406684875488
-9999 -9999 -9999 -9999 -9999 -9999 -9999 -9999 -9999 -9999 -9999 -9999 -9999 -9999 -9999 -9999 -9999 -9999 -9999 -9999 -9999 -9999 -9999 -9999 -9999 -9999 -9999 -9999 -9999 -9999 -9999 -9999 -9999 -9999 -9999 -9999 -9999 9.44888019561768 9.58649730682373 9.64892101287842 9.50500774383545 9.27678775787354 9.02520084381104 8.81738376617432 8.70556259155273 8.67654991149902 8.63043022155762 8.55806636810303 8.49214363098145 8.38500785827637 8.25195407867432 8.25212097167969 8.38138866424561 8.46914577484131 8.54031276702881 8.55551338195801 8.52381038665771 8.52041530609131 8.43142318725586 8.43743324279785 8.56666374206543 8.65434646606445 8.69496154785156 8.71619129180908 8.73599529266357 8.83920955657959 9.06488418579102 9.31715488433838 9.37722587585449 9.35224056243896
-9999 -9999 -9999 -9999 -9999 -9999 -9999 -9999 -9999 -9999 -9999 -9999 -9999 -9999 -9999 -9999 -9999 -9999 -9999 -9999 -9999 -9999 -9999 -9999 -9999 -9999 -9999 -9999 -9999 -9999 -9999 -9999 -9999 -9999 -9999 -9999 -9999 9.69245052337646 9.7513599395752 9.70288944244385 9.49481582641602 9.23792839050293 8.99248218536377 8.85840225219727 8.88302707672119 8.98167514801025 8.96383380889893 8.80235576629639 8.6135892868042 8.45240688323975 8.33978939056396 8.39904594421387 8.54666519165039 8.62266254425049 8.67239284515381 8.71352577209473 8.71879005432129 8.68274593353271 8.65032577514648 8.71061229705811 8.84321403503418 8.92722415924072 8.96001815795898 8.96551990509033 8.98291206359863 9.10349082946777 9.30886745452881 9.58491325378418 9.86063003540039 10.1298933029175
-9999 -9999 -9999 -9999 -9999 -9999 -9999 -9999 -9999 -9999 -9999 -9999 -9999 -9999 -9999 -9999 -9999 -9999 -9999 -9999 -9999 -9999 -9999 -9999 -9999 -9999 -9999 -9999 -9999 -9999 -9999 -9999 -9999 -9999 -9999 -9999 -9999 9.75489616394043 9.83676815032959 9.77764892578125 9.5863790512085 9.33550262451172 9.087477684021 8.99316692352295 9.11200428009033 9.31740951538086 9.368727684021 9.18429470062256 8.88742733001709 8.65118312835693 8.51918983459473 8.55787658691406 8.70134162902832 8.80065536499023 8.8443489074707 8.88115882873535 8.934739112854 8.96187591552734 9.0050630569458 9.11118316650391 9.25419044494629 9.37368583679199 9.44246673583984 9.44671535491943 9.37824630737305 9.37728786468506 9.48635959625244 9.76407909393311 10.1876335144043 10.5412006378174
-9999 -9999 -9999 -9999 -9999 -9999 -9999 -9999 -9999 -9999 -9999 -9999 -9999 -9999 -9999 -9999 -9999 -9999 -9999 -9999 -9999 -9999 -9999 -9999 -9999 -9999 -9999 -9999 -9999 -9999 -9999 -9999 -9999 -9999 -9999 -9999 9.52781772613525 9.75126361846924 9.91742134094238 9.89831924438477 9.7691593170166 9.57889175415039 9.34468173980713 9.21667098999023 9.31044483184814 9.52698230743408 9.64796733856201 9.550461769104 9.25319194793701 8.93762683868408 8.74827575683594 8.7067928314209 8.79887580871582 8.93365001678467 9.01411724090576 9.02676296234131 9.06395149230957 9.14310169219971 9.32830429077148 9.53430461883545 9.68997859954834 9.82631492614746 10.0906772613525 10.2847938537598 10.3491048812866 10.3395004272461 10.4460582733154 10.6136894226074 10.6918706893921 10.8461084365845
-9999 -9999 -9999 -9999 -9999 -9999 -9999 -9999 -9999 -9999 -9999 -9999 -9999 -9999 -9999 -9999 -9999 -9999 -9999 -9999 -9999 -9999 -9999 -9999 -9999 -9999 -9999 -9999 -9999 -9999 -9999 -9999 -9999 -9999 -9999 -9999 -9999 9.87629985809326 9.93434715270996 10.0054836273193 9.95091819763184 9.8216495513916 9.63831901550293 9.49014663696289 9.50778007507324 9.66817474365234 9.82720184326172 9.88665580749512 9.75214195251465 9.4488697052002 9.19485759735107 9.0495719909668 8.99723815917969 9.03468418121338 9.14068794250488 9.16006469726562 9.1030330657959 9.14522647857666 9.57454299926758 9.94217491149902 10.1509065628052 10.3872289657593 10.8302745819092 11.1952743530273 11.3391246795654 11.3951597213745 11.5203886032104 11.5910224914551 11.3402700424194 11.2655210494995
-9999 -9999 -9999 -9999 -9999 -9999 -9999 -9999 -9999 -9999 -9999 -9999 -9999 -9999 -9999 -9999 -9999 -9999 -9999 -9999 -9999 -9999 -9999 -9999 -9999 -9999 -9999 -9999 -9999 -9999 -9999 -9999 -9999 -9999 -9999 -9999 -9999 -9999 9.80189037322998 -9999 10.0423593521118 9.9612283706665 9.8245210647583 9.7165699005127 9.73936557769775 9.9093074798584 10.1128406524658 10.2585048675537 10.2635679244995 10.0603818893433 9.81919288635254 9.6238956451416 9.46835041046143 9.32739067077637 9.2971363067627 9.28806018829346 9.26948165893555 9.49814414978027 10.1822748184204 10.4764356613159 10.6488647460938 11.0430545806885 11.4996576309204 12.061261177063 12.1362791061401 12.0736846923828 12.1643905639648 12.2583875656128 12.2377042770386 12.3304643630981
-9999 -9999 -9999 -9999 -9999 -9999 -9999 -9999 -9999 -9999 -9999 -9999 -9999 -9999 -9999 -9999 -9999 -9999 -9999 -9999 -9999 -9999 -9999 -9999 -9999 -9999 -9999 -9999 -9999 -9999 -9999 -9999 -9999 -9999 -9999 -9999 -9999 -9999 -9999 -9999 10.0451755523682 10.0463180541992 9.96149444580078 9.93911743164062 10.0748729705811 10.3435850143433 10.5735597610474 10.6945419311523 10.6749696731567 10.5038213729858 10.2944746017456 10.0679168701172 9.8539457321167 9.62046909332275 9.47467136383057 9.48202037811279 9.64138221740723 10.2720441818237 10.9592504501343 11.1471424102783 11.3199672698975 11.7557373046875 12.36217212677 13.1156854629517 13.1186542510986 13.0785293579102 13.6892738342285 14.3249044418335 14.5730056762695 14.572361946106
-9999 -9999 -9999 -9999 -9999 -9999 -9999 -9999 -9999 -9999 -9999 -9999 -9999 -9999 -9999 -9999 -9999 -9999 -9999 -9999 -9999 -9999 -9999 -9999 -9999 -9999 -9999 -9999 -9999 -9999 -9999 -9999 -9999 -9999 11.2464604377747 11.0053596496582 10.9533653259277 -9999 10.3784065246582 10.0468797683716 10.0288200378418 10.1043539047241 10.0965242385864 10.165997505188 10.4176816940308 10.6954326629639 10.8661689758301 10.9513788223267 10.9227876663208 10.7351818084717 10.4302644729614 10.0726337432861 9.79297542572021 9.60112571716309 9.52747821807861 9.66648960113525 10.0373783111572 10.8055830001831 11.3676176071167 11.717981338501 11.9489736557007 12.3777322769165 13.1781167984009 13.9780559539795 14.2577848434448 14.6589231491089 15.8476829528809 16.8636436462402 17.2806987762451 17.3541984558105
-9999 -9999 -9999 -9999 -9999 -9999 -9999 -9999 -9999 -9999 -9999 -9999 -9999 -9999 -9999 -9999 -9999 -9999 -9999 -9999 -9999 -9999 -9999 -9999 -9999 -9999 -9999 10.5870561599731 10.5870561599731 10.3699922561646 10.226300239563 10.4970350265503 10.9818954467773 11.1721220016479 11.3398408889771 11.4685192108154 11.4497699737549 11.2369184494019 10.7809543609619 10.3562355041504 10.2300643920898 10.2482595443726 10.2526874542236 10.3723249435425 10.6178588867188 10.7730379104614 10.8622827529907 10.9259405136108 10.8435087203979 10.5893115997314 10.1930027008057 9.79864406585693 9.54509925842285 9.52363681793213 9.67798900604248 10.0448064804077 10.7287006378174 11.4079141616821 11.8546075820923 12.1759614944458 12.4999732971191 13.4143476486206 14.386739730835 15.1705589294434 16.0077934265137 16.8229961395264 17.5984973907471 18.1847476959229 18.5786209106445 19.1218013763428
-9999 -9999 -9999 -9999 -9999 -9999 -9999 -9999 -9999 -9999 -9999 -9999 -9999 -9999 -9999 -9999 -9999 -9999 -9999 -9999 -9999 -9999 -9999 -9999 -9999 -9999 -9999 -9999 -9999 -9999 10.921178817749 11.2014436721802 11.7552814483643 11.9884176254272 12.0324563980103 11.9774370193481 11.8020305633545 11.5193099975586 11.0978212356567 10.7193012237549 10.5465269088745 10.483115196228 10.4584522247314 10.5671062469482 10.6894788742065 10.6678142547607 10.6436634063721 10.606595993042 10.4309120178223 10.18874168396 9.93657398223877 9.77853202819824 9.81770515441895 10.210319519043 10.8900966644287 11.7749738693237 13.005184173584 13.7562408447266 13.9934921264648 14.1186237335205 14.761625289917 15.9884815216064 16.8875045776367 17.3827419281006 18.0138740539551 18.6651859283447 19.0698585510254 19.0583305358887 19.3679370880127 19.7096157073975
-9999 -9999 -9999 -9999 -9999 -9999 -9999 -9999 -9999 -9999 -9999 -9999 -9999 -9999 -9999 -9999 -9999 -9999 -9999 -9999 -9999 -9999 -9999 -9999 -9999 12.0800733566284 12.2181876500448 12.2869885762533 12.2679562568665 12.2659606933594 12.1600885391235 12.0599889755249 12.0100994110107 11.9396934509277 11.7800331115723 11.6089191436768 11.4251928329468 11.2249555587769 10.9966382980347 10.8046169281006 10.6926956176758 10.6281471252441 10.598069190979 10.6417236328125 10.6268606185913 10.5045289993286 10.4269924163818 10.4349775314331 10.4249048233032 10.4801511764526 10.6733884811401 11.0111322402954 11.5447769165039 12.2898435592651 13.2608842849731 14.3128910064697 15.367696762085 15.9254579544067 16.083028793335 16.478630065918 17.5008144378662 18.3243255615234 18.7887191772461 19.0109157562256 19.3493747711182 19.764045715332 19.9923038482666 19.7260341644287 19.9603004455566 19.9553527832031
-9999 -9999 -9999 -9999 -9999 -9999 -9999 -9999 -9999 -9999 -9999 -9999 -9999 -9999 -9999 -9999 -9999 -9999 -9999 -9999 -9999 -9999 -9999 -9999 11.9143056869507 12.0862131118774 12.2397012710571 12.3286485671997 12.2926158905029 12.1845998764038 12.065896987915 11.8915824890137 11.6622867584229 11.4287166595459 11.2588739395142 11.1699304580688 11.1359710693359 11.0794496536255 10.9567775726318 10.8665933609009 10.8017864227295 10.750075340271 10.7381143569946 10.797022819519 10.8933792114258 11.0255746841431 11.2389392852783 11.6283340454102 11.9881086349487 12.3742580413818 12.859787940979 13.3762855529785 13.8812818527222 14.3464756011963 14.8475894927979 15.4699935913086 16.2604713439941 16.772144317627 17.0749931335449 17.839319229126 18.6814193725586 19.1224365234375 19.4841156005859 19.8400115966797 20.1883335113525 20.430871963501 20.4294586181641 20.1120319366455 20.4064636230469 20.4397373199463
-9999 -9999 -9999 -9999 -9999 -9999 -9999 -9999 -9999 -9999 -9999 -9999 -9999 -9999 -9999 -9999 -9999 -9999 -9999 -9999 -9999 -9999 -9999 -9999 12.2435598373413 12.3175992965698 12.2824373245239 12.184700012207 12.0804424285889 11.9766502380371 11.8256397247314 11.5495634078979 11.2518939971924 11.1333494186401 11.2364025115967 11.4346647262573 11.6593751907349 11.7954149246216 11.6618051528931 11.3940362930298 11.1761198043823 11.1168355941772 11.221492767334 11.4567451477051 11.858570098877 12.3961362838745 12.9941568374634 13.6071767807007 14.0624408721924 14.4640245437622 14.8336458206177 15.1356134414673 15.3884134292603 15.7640285491943 16.2771606445312 16.8378009796143 17.5664196014404 17.9917316436768 18.0741806030273 18.5400638580322 19.1145820617676 19.4838275909424 19.8913135528564 20.285400390625 20.5672340393066 20.7066802978516 20.5900955200195 20.3731594085693 20.6991806030273 20.8020095825195
-9999 -9999 -9999 -9999 -9999 -9999 -9999 -9999 -9999 -9999 -9999 -9999 -9999 -9999 -9999 -9999 -9999 -9999 -9999 -9999 -9999 -9999 -9999 12.3682997226715 12.3391180038452 12.3442783355713 12.234016418457 12.0962038040161 11.9813652038574 11.8304061889648 11.5879201889038 11.3392400741577 11.3600177764893 11.7763977050781 12.3393926620483 12.7932796478271 13.1915616989136 13.5821514129639 13.6318740844727 13.1834468841553 12.4467430114746 12.0126800537109 12.0915937423706 12.3876810073853 12.8212776184082 13.5004005432129 14.2222290039062 14.8197059631348 15.1369428634644 15.3412714004517 15.7178497314453 16.2237510681152 16.8208789825439 17.5567607879639 18.2288970947266 18.7279891967773 19.1238880157471 19.2388534545898 19.029354095459 19.137228012085 19.5094738006592 19.7683277130127 20.0657730102539 20.3860855102539 20.6054763793945 20.7046337127686 20.5536975860596 20.4429512023926 20.7230415344238 20.8938140869141
-9999 -9999 -9999 -9999 -9999 -9999 -9999 -9999 -9999 -9999 -9999 -9999 -9999 -9999 -9999 -9999 -9999 -9999 -9999 -9999 -9999 -9999 -9999 12.4484357833862 12.4420852661133 12.4094552993774 12.2952089309692 12.1597156524658 11.9733619689941 11.668701171875 11.4334096908569 11.7982950210571 12.8139629364014 13.7760810852051 14.3416509628296 14.6204404830933 14.8396577835083 15.1641283035278 15.3205986022949 14.8727102279663 13.8843107223511 13.1831722259521 13.1051321029663 13.2511520385742 13.5343828201294 14.1795482635498 14.9050989151001 15.6519746780396 16.1425876617432 16.3373641967773 16.8139095306396 17.5850734710693 18.4464569091797 19.2208003997803 19.7630748748779 19.9883575439453 20.0094108581543 19.9237442016602 19.782470703125 19.8598213195801 20.0936737060547 20.1519870758057 20.1757373809814 20.3480987548828 20.5133247375488 20.549690246582 20.3751049041748 20.3924198150635 20.6756687164307 20.8851337432861
-9999 -9999 -9999 -9999 -9999 -9999 -9999 -9999 -9999 -9999 -9999 -9999 -9999 -9999 -9999 -9999 -9999 -9999 -9999 -9999 -9999 -9999 12.8744306564331 12.7343130111694 12.668797492981 12.5866832733154 12.4270868301392 12.2034406661987 11.9179372787476 11.6858034133911 12.0298633575439 13.2769050598145 14.6080007553101 15.2292680740356 15.4387788772583 15.5618152618408 15.5794200897217 15.5402297973633 15.4435920715332 15.0962219238281 14.4721708297729 13.9939308166504 13.8635673522949 13.870228767395 14.0895376205444 14.5634126663208 15.1356916427612 16.0641784667969 17.0356597900391 17.6521816253662 18.289363861084 18.9745502471924 19.5542583465576 20.0218391418457 20.4024524688721 20.557918548584 20.5660591125488 20.535623550415 20.5471076965332 20.6641979217529 20.7718887329102 20.6853942871094 20.4308929443359 20.3012886047363 20.3624935150146 20.3946228027344 20.2918033599854 20.4186725616455 20.6822090148926 20.9018611907959
-9999 -9999 -9999 -9999 -9999 -9999 -9999 -9999 -9999 -9999 -9999 -9999 -9999 -9999 12.6540279653337 -9999 -9999 -9999 -9999 12.6148262023926 -9999 13.0289163589478 13.0674324035645 12.9973649978638 12.8863906860352 12.7233905792236 12.4698648452759 12.1733827590942 12.0000915527344 12.2943086624146 13.3451128005981 14.5685043334961 15.1305046081543 15.2296543121338 15.3403959274292 15.5699367523193 15.8371982574463 15.947548866272 15.9045734405518 15.7372579574585 15.3602952957153 14.9697160720825 14.8092012405396 14.7887058258057 14.9281396865845 15.1799926757812 15.6797590255737 16.7617378234863 17.9154453277588 18.6454448699951 19.185417175293 19.6056690216064 19.8847579956055 20.1386299133301 20.3944530487061 20.5923080444336 20.8012981414795 21.0211048126221 21.2066326141357 21.3481025695801 21.3825149536133 21.2989311218262 21.0154190063477 20.5710277557373 20.3042697906494 20.2990570068359 20.3977546691895 20.5877323150635 20.7174835205078 20.8953800201416
-9999 -9999 -9999 -9999 -9999 -9999 -9999 -9999 -9999 -9999 -9999 -9999 -9999 -9999 12.6533238887787 -9999 -9999 -9999 -9999 12.699375629425 12.9764354705811 13.1670227050781 13.2066764831543 13.0453701019287 12.8277568817139 12.6124906539917 12.401403427124 12.2818279266357 12.4750604629517 13.2001485824585 14.2184476852417 14.9007015228271 15.1553401947021 15.3664350509644 15.619044303894 15.8782997131348 16.2261028289795 16.5536251068115 16.7260055541992 16.7344760894775 16.5380916595459 16.2367782592773 16.0909824371338 16.1086330413818 16.2078685760498 16.3764400482178 16.8224296569824 17.6892223358154 18.5573272705078 19.1262321472168 19.5086841583252 19.8112754821777 20.0374908447266 20.1968631744385 20.4124736785889 20.6889343261719 21.0117588043213 21.3673782348633 21.6749668121338 21.8689212799072 21.9830379486084 21.9968299865723 21.8821296691895 21.5053234100342 20.9634838104248 20.6093235015869 20.6098098754883 20.829647064209 20.8798408508301 20.9381084442139
-9999 -9999 -9999 -9999 -9999 -9999 -9999 -9999 -9999 -9999 -9999 -9999 -9999 -9999 12.6564922332764 -9999 -9999 -9999 -9999 -9999 13.2936179637909 13.2874870300293 13.1652975082397 12.8804349899292 12.6153993606567 12.4964218139648 12.5546779632568 12.8062219619751 13.3281440734863 14.0607662200928 14.7117528915405 15.1718730926514 15.5936813354492 16.0730266571045 16.4981842041016 16.770959854126 17.0015735626221 17.2503719329834 17.4166145324707 17.4482021331787 17.3683643341064 17.2036075592041 17.0812454223633 17.1188583374023 17.317232131958 17.5632152557373 17.8176803588867 18.2180461883545 18.7136745452881 19.2138786315918 19.6608142852783 20.0070648193359 20.2262363433838 20.3508892059326 20.565242767334 20.8468170166016 21.1618728637695 21.5051155090332 21.805362701416 22.0146560668945 22.1862335205078 22.277587890625 22.3104591369629 22.243579864502 21.891149520874 21.4143447875977 21.2009296417236 21.2659378051758 21.2121391296387 21.1411609649658
-9999 -9999 -9999 -9999 -9999 -9999 -9999 -9999 -9999 -9999 -9999 -9999 -9999 -9999 12.6578922271729 -9999 12.6438188552856 -9999 -9999 -9999 13.3955011367798 13.3244609832764 13.1292943954468 12.8408498764038 12.6812734603882 12.8176603317261 13.2431945800781 13.8499116897583 14.5349788665771 15.1438426971436 15.5656824111938 15.9294919967651 16.3748836517334 16.8282432556152 17.185604095459 17.4680461883545 17.7967433929443 18.1385231018066 18.3702716827393 18.4446640014648 18.3994140625 18.2874946594238 18.1452770233154 18.051176071167 18.1698341369629 18.4682598114014 18.6796016693115 18.7822608947754 18.9160766601562 19.2153091430664 19.6815433502197 20.0776710510254 20.2652034759521 20.393835067749 20.6415214538574 20.9236278533936 21.2264938354492 21.5619926452637 21.8515701293945 22.0561275482178 22.1968746185303 22.2793846130371 22.3253192901611 22.3616466522217 22.2289867401123 21.8989334106445 21.7616901397705 21.835168838501 21.7593631744385 21.5985412597656
-9999 -9999 -9999 -9999 -9999 -9999 -9999 -9999 -9999 -9999 -9999 -9999 -9999 -9999 12.6578922271729 12.6592922210693 12.6414642333984 -9999 -9999 13.5159313678741 13.4436416625977 13.3959693908691 13.2181692123413 13.0649423599243 13.1786260604858 13.6321725845337 14.3140468597412 15.0300445556641 15.6458425521851 16.0466804504395 16.2291603088379 16.3932971954346 16.706823348999 17.0842437744141 17.4222812652588 17.8057327270508 18.3824844360352 19.0232467651367 19.5288314819336 19.8428020477295 19.961254119873 19.9577560424805 19.8733043670654 19.6726150512695 19.4560527801514 19.4788417816162 19.6291351318359 19.6376037597656 19.5266933441162 19.4496479034424 19.5665340423584 19.8908157348633 20.1774272918701 20.3969535827637 20.6860218048096 21.0237216949463 21.3732452392578 21.691930770874 21.9466552734375 22.1256294250488 22.2201366424561 22.2699890136719 22.3074607849121 22.3557624816895 22.322998046875 22.0378112792969 21.8849639892578 22.0092067718506 22.0978755950928 22.0868358612061
-9999 -9999 -9999 -9999 -9999 -9999 -9999 -9999 -9999 -9999 -9999 -9999 -9999 -9999 -9999 12.7706624984741 12.6569299697876 -9999 13.4869198799133 13.6254873275757 13.5990953445435 13.4794244766235 13.3241996765137 13.4160737991333 13.8314266204834 14.4412040710449 15.1538991928101 15.7507028579712 16.0661487579346 16.2097358703613 16.3110198974609 16.4510192871094 16.7086219787598 17.082447052002 17.5434379577637 18.1021823883057 18.9294548034668 19.8710155487061 20.5872077941895 21.017032623291 21.2237224578857 21.3093128204346 21.2968711853027 21.1676826477051 20.850191116333 20.5793399810791 20.5299854278564 20.5168895721436 20.3751182556152 20.131763458252 19.9114971160889 19.9312324523926 20.1857032775879 20.5121898651123 20.8436164855957 21.2133102416992 21.5573177337646 21.8026485443115 21.9824047088623 22.1278171539307 22.2044544219971 22.252405166626 22.3167915344238 22.3982200622559 22.49072265625 22.2854022979736 22.0120868682861 22.0070304870605 22.1444969177246 22.3141422271729
-9999 -9999 -9999 -9999 -9999 -9999 -9999 -9999 -9999 -9999 -9999 -9999 -9999 -9999 -9999 12.8924245834351 13.0032014846802 -9999 13.8876495361328 13.809928894043 13.7333326339722 13.56494140625 13.5531988143921 13.9031467437744 14.444149017334 14.968976020813 15.5086479187012 15.8483257293701 15.9373292922974 15.9982709884644 16.1443977355957 16.4075202941895 16.7126178741455 17.099781036377 17.6480178833008 18.3420715332031 19.3856029510498 20.5195159912109 21.2629890441895 21.6392116546631 21.8112945556641 21.882209777832 21.8699264526367 21.8093395233154 21.6182479858398 21.3317089080811 21.1764392852783 21.1302146911621 21.0436172485352 20.8700866699219 20.6193771362305 20.3907337188721 20.3627281188965 20.5856132507324 20.9245796203613 21.2989654541016 21.6295738220215 21.8240661621094 21.9569511413574 22.0767459869385 22.1580696105957 22.2527332305908 22.3696174621582 22.4890289306641 22.685905456543 22.6348476409912 22.309289932251 22.1525859832764 22.2286796569824 22.435022354126
-9999 -9999 -9999 -9999 -9999 -9999 -9999 -9999 -9999 -9999 -9999 -9999 -9999 -9999 -9999 13.1011600494385 -9999 13.6547317504883 14.0010662078857 13.9346170425415 13.8020124435425 13.7844524383545 13.9946365356445 14.4060430526733 14.7859287261963 15.0790214538574 15.4245758056641 15.6844472885132 15.8932409286499 16.0068874359131 16.1123638153076 16.3569240570068 16.6643733978271 17.0469264984131 17.5946273803711 18.5084171295166 19.8406562805176 21.0370864868164 21.6732540130615 21.9363784790039 22.0448837280273 22.0770721435547 22.0515117645264 22.0062999725342 21.9208869934082 21.7353115081787 21.5840091705322 21.5192680358887 21.4858417510986 21.4330959320068 21.3199024200439 21.1300830841064 20.9693984985352 20.953483581543 21.0948066711426 21.3002147674561 21.5195198059082 21.6997718811035 21.8814125061035 22.0629558563232 22.2058620452881 22.3595275878906 22.5084228515625 22.612232208252 22.8064632415771 22.8954601287842 22.650053024292 22.3588809967041 22.3176918029785 22.4669246673584
-9999 -9999 -9999 -9999 -9999 -9999 -9999 -9999 -9999 -9999 -9999 -9999 -9999 -9999 13.1011600494385 13.2649634679159 13.421778678894 13.88609790802 14.1113767623901 14.0199222564697 13.8648023605347 13.9977474212646 14.3958673477173 14.768217086792 14.9443826675415 15.1093273162842 15.4454536437988 15.8169002532959 16.1844463348389 16.3116092681885 16.2817478179932 16.3973846435547 16.6057243347168 16.9470062255859 17.6405792236328 18.9155731201172 20.4583721160889 21.5303287506104 21.9574413299561 22.0842628479004 22.1333980560303 22.1531867980957 22.1446704864502 22.1113452911377 22.0726737976074 21.9699153900146 21.8501892089844 21.7870483398438 21.7839984893799 21.812837600708 21.8304843902588 21.7870903015137 21.7191867828369 21.6817283630371 21.7024784088135 21.7535724639893 21.8325290679932 21.9609260559082 22.119592666626 22.2381420135498 22.3353672027588 22.498291015625 22.6461219787598 22.7349739074707 22.8764991760254 23.0737380981445 23.0056419372559 22.706033706665 22.5549659729004 22.5943622589111
-9999 -9999 -9999 -9999 -9999 -9999 -9999 -9999 -9999 -9999 -9999 -9999 -9999 -9999 -9999 -9999 13.9822993278503 14.0839405059814 14.4159774780273 14.3099718093872 14.1049098968506 14.1772432327271 14.6015157699585 15.0768451690674 15.4955711364746 16.1342849731445 16.991231918335 17.7050113677979 18.1256694793701 18.2551784515381 18.1116313934326 17.8623218536377 17.7055702209473 17.8934383392334 18.6297073364258 20.0052146911621 21.3439598083496 21.9804553985596 22.1046562194824 22.1209754943848 22.1959056854248 22.2988510131836 22.3438930511475 22.3361530303955 22.3186283111572 22.2523651123047 22.1664447784424 22.1238994598389 22.1509952545166 22.2276172637939 22.2964267730713 22.3025779724121 22.2732048034668 22.2381477355957 22.1970386505127 22.1760272979736 22.207706451416 22.2829303741455 22.3536548614502 22.3804950714111 22.4079742431641 22.5304183959961 22.6741161346436 22.7612361907959 22.8882656097412 23.1294498443604 23.2398147583008 23.1196594238281 22.9707069396973 22.9143447875977
-9999 -9999 -9999 -9999 -9999 -9999 -9999 -9999 -9999 -9999 -9999 -9999 -9999 -9999 -9999 -9999 14.3106603622437 14.5373802185059 14.8859071731567 14.7320051193237 14.4734544754028 14.4708499908447 15.1085977554321 16.2982177734375 17.5468807220459 18.9687309265137 20.1100654602051 20.6640586853027 20.832332611084 20.7893486022949 20.6058864593506 20.3456134796143 20.1318378448486 20.1784858703613 20.7013969421387 21.55055809021 22.1063289642334 22.1840324401855 22.1240425109863 22.1124897003174 22.2164573669434 22.381778717041 22.470874786377 22.5052947998047 22.5113410949707 22.4702415466309 22.425609588623 22.38720703125 22.3818225860596 22.433235168457 22.5079822540283 22.525276184082 22.4846515655518 22.4307537078857 22.3719043731689 22.3600311279297 22.3945465087891 22.4437370300293 22.4792346954346 22.4856700897217 22.4956207275391 22.5557518005371 22.60009765625 22.6380176544189 22.7609272003174 22.9921894073486 23.1801948547363 23.2115573883057 23.1499919891357 23.0714836120605
-9999 -9999 -9999 -9999 -9999 -9999 -9999 -9999 -9999 -9999 -9999 -9999 -9999 -9999 -9999 -9999 -9999 15.1281361579895 15.3030204772949 15.2284927368164 15.0328006744385 15.3814382553101 16.9495086669922 19.0231266021729 20.5910911560059 21.7676200866699 22.3535289764404 22.4833354949951 22.4256763458252 22.3154067993164 22.195032119751 22.0935974121094 22.0087070465088 21.9832038879395 22.1159420013428 22.2953910827637 22.2995471954346 22.2279090881348 22.1938762664795 22.1469478607178 22.185920715332 22.3468017578125 22.4582195281982 22.4939079284668 22.5027923583984 22.4981746673584 22.5050144195557 22.4909973144531 22.432107925415 22.3558502197266 22.3412456512451 22.3642024993896 22.3739185333252 22.3721179962158 22.375072479248 22.412239074707 22.4757766723633 22.5401954650879 22.5709323883057 22.5652103424072 22.5464649200439 22.5304336547852 22.5134735107422 22.5354175567627 22.6234340667725 22.7558746337891 22.8795185089111 22.9206809997559 22.9064712524414 22.8549385070801
-9999 -9999 -9999 -9999 -9999 -9999 -9999 -9999 -9999 -9999 -9999 -9999 -9999 -9999 14.4807002544403 14.5373802185059 15.2490954399109 15.5446286201477 15.7862367630005 15.7702884674072 16.0909671783447 17.845308303833 20.457010269165 22.0115909576416 22.8378124237061 23.1953392028809 23.1938495635986 22.999927520752 22.8041667938232 22.6777286529541 22.6253356933594 22.6269569396973 22.6340770721436 22.6037368774414 22.5631370544434 22.5023727416992 22.4165134429932 22.3670845031738 22.3122406005859 22.2434749603271 22.2454223632812 22.3540687561035 22.4570426940918 22.4779491424561 22.4675464630127 22.4957504272461 22.5427131652832 22.5335559844971 22.4423656463623 22.3234443664551 22.2335090637207 22.2161426544189 22.2228164672852 22.2361297607422 22.2660427093506 22.3348140716553 22.4466381072998 22.5547218322754 22.595552444458 22.592414855957 22.5969295501709 22.5947723388672 22.5731449127197 22.5648994445801 22.5703315734863 22.5565700531006 22.5260562896729 22.4871978759766 22.4953765869141 22.5295524597168
-9999 -9999 -9999 -9999 -9999 -9999 -9999 -9999 -9999 -9999 -9999 -9999 -9999 -9999 -9999 -9999 -9999 -9999 16.2557570934296 16.4075145721436 17.3501663208008 19.8833332061768 22.3425788879395 23.3262996673584 23.6550712585449 23.5625457763672 23.2459163665771 22.9156188964844 22.7222366333008 22.6484508514404 22.6373710632324 22.6637420654297 22.7160015106201 22.7196216583252 22.6550712585449 22.5413761138916 22.4392185211182 22.4038333892822 22.3803558349609 22.3857841491699 22.4254627227783 22.4909324645996 22.550910949707 22.5482273101807 22.5261745452881 22.5550136566162 22.5924682617188 22.5556907653809 22.4498596191406 22.3112106323242 22.2033557891846 22.1590900421143 22.1315536499023 22.1310958862305 22.1735782623291 22.2583522796631 22.3743343353271 22.5105800628662 22.6027774810791 22.6448364257812 22.6848278045654 22.7091274261475 22.7068634033203 22.6802921295166 22.6136112213135 22.4905128479004 22.3555793762207 22.3071975708008 22.3805236816406 22.4645366668701
-9999 -9999 -9999 -9999 -9999 -9999 -9999 -9999 -9999 -9999 -9999 -9999 -9999 -9999 -9999 -9999 -9999 17.4501857757568 17.4243807792664 17.058988571167 18.7190647125244 21.8200588226318 23.527624130249 23.9745979309082 23.8532867431641 23.5034484863281 23.1478538513184 22.8860759735107 22.7781162261963 22.7510166168213 22.7246856689453 22.6824588775635 22.6692295074463 22.6543769836426 22.5864772796631 22.4945602416992 22.4419250488281 22.4323978424072 22.4403705596924 22.4823570251465 22.5400447845459 22.6004238128662 22.6366100311279 22.6230735778809 22.6020565032959 22.6040153503418 22.6054191589355 22.5728054046631 22.4984531402588 22.3560085296631 22.2378044128418 22.1630878448486 22.088508605957 22.0584449768066 22.1060047149658 22.2066745758057 22.3249359130859 22.4602508544922 22.5933094024658 22.6977596282959 22.791166305542 22.843111038208 22.8445873260498 22.8030605316162 22.6948432922363 22.5052890777588 22.3362731933594 22.3379821777344 22.4164447784424 22.4659538269043
-9999 -9999 -9999 -9999 -9999 -9999 -9999 -9999 -9999 -9999 -9999 -9999 -9999 19.9954452514648 19.7469692230225 -9999 19.2518501281738 18.9757552146912 17.4501857757568 18.780834197998 21.7628765106201 23.8079929351807 24.2410869598389 24.0492420196533 23.6976089477539 23.460865020752 23.21217918396 22.9509754180908 22.8383197784424 22.8148250579834 22.7954578399658 22.7480449676514 22.6938877105713 22.628791809082 22.5505657196045 22.5057582855225 22.4947299957275 22.486349105835 22.4891109466553 22.5268039703369 22.5967464447021 22.6680641174316 22.6997890472412 22.6844692230225 22.6500225067139 22.6408252716064 22.6613502502441 22.6494121551514 22.5727977752686 22.4360218048096 22.33815574646 22.2726974487305 22.1610221862793 22.0787334442139 22.1006088256836 22.1983165740967 22.3228073120117 22.4647750854492 22.6155490875244 22.7476940155029 22.857307434082 22.9133071899414 22.9008808135986 22.817554473877 22.6435489654541 22.4515609741211 22.3638916015625 22.3732147216797 22.4028072357178 22.4378986358643
-9999 -9999 -9999 -9999 -9999 -9999 -9999 -9999 -9999 -9999 -9999 -9999 -9999 -9999 19.9954452514648 19.9768600463867 19.2686023712158 19.2350978851318 19.9491348266602 22.636812210083 24.3584728240967 24.6874351501465 24.4025344848633 23.9866485595703 23.761926651001 23.5367317199707 23.2383766174316 22.9673519134521 22.8564376831055 22.8077182769775 22.8016014099121 22.7754650115967 22.7082500457764 22.6435470581055 22.6110610961914 22.616662979126 22.6276893615723 22.630241394043 22.6257438659668 22.6327953338623 22.6627521514893 22.7018241882324 22.7217597961426 22.7056064605713 22.6767406463623 22.7038516998291 22.786153793335 22.8004283905029 22.6923828125 22.5398750305176 22.4541397094727 22.4365425109863 22.3365993499756 22.1922416687012 22.1610431671143 22.2258777618408 22.3442211151123 22.4977149963379 22.6485023498535 22.7767467498779 22.8749694824219 22.9232196807861 22.8955173492432 22.7780380249023 22.5921020507812 22.467472076416 22.4498386383057 22.4583797454834 22.4607467651367 22.4896774291992
-9999 -9999 -9999 -9999 -9999 -9999 -9999 -9999 -9999 -9999 -9999 -9999 -9999 -9999 20.8685369491577 19.9954452514648 20.6665325164795 21.4476337432861 23.1125049591064 24.6573543548584 24.9491062164307 24.6678485870361 24.179443359375 23.9301109313965 23.783166885376 23.5480995178223 23.2832908630371 23.039924621582 22.9018688201904 22.8114318847656 22.805850982666 22.8155536651611 22.7789974212646 22.7500953674316 22.7591571807861 22.7914943695068 22.8361072540283 22.8684883117676 22.8659019470215 22.8402366638184 22.8010845184326 22.7721118927002 22.7586364746094 22.7417850494385 22.7408885955811 22.7952861785889 22.8771076202393 22.8734607696533 22.751220703125 22.6091289520264 22.5586338043213 22.6081829071045 22.5590591430664 22.3718585968018 22.2776966094971 22.2899589538574 22.3628215789795 22.4701728820801 22.5875225067139 22.6877136230469 22.7750682830811 22.8243141174316 22.8164882659912 22.7227916717529 22.593074798584 22.5628337860107 22.6191787719727 22.605432510376 22.5784111022949 22.5829734802246
-9999 -9999 -9999 -9999 -9999 -9999 -9999 -9999 -9999 -9999 -9999 20.2534446716309 20.5853481292725 21.086088180542 20.9135112762451 21.4791030883789 22.9511451721191 24.1521148681641 24.9444694519043 25.1471347808838 24.985767364502 24.5302276611328 24.1242332458496 24.0139007568359 23.8995456695557 23.6546268463135 23.3559627532959 23.139720916748 23.0153675079346 22.8674163818359 22.7757568359375 22.7709102630615 22.7889347076416 22.8217868804932 22.8648281097412 22.9150543212891 22.9807224273682 23.0250015258789 23.0246810913086 23.0060253143311 22.96555519104 22.917760848999 22.8910427093506 22.87034034729 22.8689384460449 22.9058628082275 22.9573612213135 22.9425086975098 22.84250831604 22.7473602294922 22.7364654541016 22.7967376708984 22.7752933502197 22.5564098358154 22.4034957885742 22.3868999481201 22.4155979156494 22.4644107818604 22.5381698608398 22.6218910217285 22.7103424072266 22.7593803405762 22.7754955291748 22.7138519287109 22.6393547058105 22.7112884521484 22.8083095550537 22.7409420013428 22.6966342926025 22.6771564483643
-9999 -9999 -9999 -9999 -9999 -9999 -9999 -9999 -9999 20.0545406341553 20.5594348907471 21.2580547332764 21.8406429290771 22.3372898101807 22.4791316986084 23.1736450195312 24.6151390075684 25.0987167358398 25.3174209594727 25.237922668457 24.9125156402588 24.5374908447266 24.2626361846924 24.1674022674561 24.0654430389404 23.8778305053711 23.568265914917 23.31982421875 23.2209453582764 23.0988330841064 22.9444332122803 22.7983150482178 22.7235279083252 22.7371673583984 22.7890911102295 22.8658847808838 22.9473667144775 22.9930610656738 23.003360748291 22.9985275268555 22.9753093719482 22.9287586212158 22.8957748413086 22.8886489868164 22.9017753601074 22.9459686279297 23.0014514923096 22.9988689422607 22.9617595672607 22.9698276519775 23.0199508666992 23.0984401702881 23.1143970489502 22.8761005401611 22.5882778167725 22.4638233184814 22.4625663757324 22.5060482025146 22.5698757171631 22.6329364776611 22.7121753692627 22.7697792053223 22.8018169403076 22.7707710266113 22.7010231018066 22.7876644134521 22.9294338226318 22.9129180908203 22.8691635131836 22.8429851531982
-9999 -9999 -9999 -9999 -9999 -9999 -9999 -9999 -9999 20.5930118560791 21.517520904541 22.3418197631836 22.7847900390625 23.1334648132324 23.3632659912109 24.3596382141113 25.1731986999512 25.4640674591064 25.4547576904297 25.1801261901855 24.8318290710449 24.5850467681885 24.3856945037842 24.2836971282959 24.2222347259521 24.1352424621582 23.9312286376953 23.6509456634521 23.421630859375 23.2875423431396 23.2370300292969 23.0982818603516 22.8928489685059 22.8055362701416 22.8056507110596 22.8351001739502 22.8918190002441 22.9366245269775 22.9556198120117 22.9593448638916 22.9464740753174 22.9051303863525 22.8516063690186 22.8207225799561 22.8221454620361 22.8747177124023 22.947904586792 22.9542236328125 22.9543914794922 23.0114650726318 23.0977115631104 23.207498550415 23.3109588623047 23.1879386901855 22.8859691619873 22.6720314025879 22.5625591278076 22.5513820648193 22.6178112030029 22.6733417510986 22.7266960144043 22.747257232666 22.7947769165039 22.8516750335693 22.8065052032471 22.8254222869873 22.9436931610107 23.0011119842529 22.9915409088135 23.0029964447021
-9999 -9999 -9999 -9999 -9999 20.5982189178467 20.3825302124023 20.6319103240967 20.736364364624 21.0383605957031 21.9533309936523 22.819995880127 23.4115695953369 23.9438209533691 24.5196933746338 25.2354526519775 25.5864295959473 25.6400871276855 25.3881225585938 25.0262985229492 24.9374027252197 24.8202457427979 24.6305198669434 24.4971008300781 24.4112033843994 24.3494930267334 24.1978721618652 23.8973751068115 23.5908699035645 23.4447364807129 23.4287090301514 23.3414764404297 23.1085166931152 22.9506378173828 22.9398765563965 22.9553604125977 22.9800128936768 23.011209487915 23.0126819610596 22.983247756958 22.949535369873 22.9048557281494 22.8388366699219 22.7823123931885 22.7489700317383 22.7802429199219 22.8706703186035 22.9155540466309 22.9671459197998 23.0268802642822 23.0741233825684 23.156192779541 23.2988033294678 23.3255653381348 23.097728729248 22.8655796051025 22.7354793548584 22.6735019683838 22.6887722015381 22.7375831604004 22.7876052856445 22.7697086334229 22.755859375 22.8474731445312 22.8704242706299 22.8916206359863 22.994047164917 23.0989379882812 23.143346786499 23.1238174438477
-9999 -9999 -9999 -9999 20.290225982666 20.4768142700195 21.2433052062988 21.6624889373779 21.7771968841553 22.0474967956543 22.4946918487549 23.3902835845947 24.1396198272705 24.8961734771729 25.4275150299072 25.7041473388672 25.7792358398438 25.6007652282715 25.1979084014893 25.0105381011963 25.1155166625977 25.0470523834229 24.8595294952393 24.7138328552246 24.6081886291504 24.5348091125488 24.401668548584 24.1528873443604 23.8833560943604 23.7234535217285 23.6421737670898 23.5038280487061 23.234468460083 23.0682239532471 23.0852813720703 23.1084499359131 23.1247634887695 23.1167545318604 23.0270843505859 22.9027557373047 22.8394107818604 22.8261585235596 22.7961387634277 22.7483081817627 22.7018032073975 22.7311058044434 22.8541069030762 22.9580993652344 23.0439777374268 23.1042861938477 23.1360340118408 23.1563549041748 23.2383041381836 23.3267574310303 23.220645904541 23.0178890228271 22.8930339813232 22.8297958374023 22.8185443878174 22.8430728912354 22.8690948486328 22.8250885009766 22.7760047912598 22.8316841125488 22.8776550292969 22.9320602416992 23.0313053131104 23.1008033752441 23.1688137054443 23.1817188262939
-9999 -9999 -9999 20.6424751281738 20.5420780181885 21.3288288116455 22.2313594818115 22.6466026306152 22.9314956665039 23.3622570037842 23.5076656341553 24.2934417724609 25.0810031890869 25.5607376098633 25.7950458526611 25.8452854156494 25.7649707794189 25.4057273864746 25.0045032501221 25.1077098846436 25.2598762512207 25.1814403533936 25.0159435272217 24.8597450256348 24.7270793914795 24.6475830078125 24.5332012176514 24.291862487793 24.0312061309814 23.8846492767334 23.7569026947021 23.554723739624 23.2634029388428 23.140064239502 23.190938949585 23.1990814208984 23.1905727386475 23.1270179748535 22.972354888916 22.8092079162598 22.7383136749268 22.7427425384521 22.7324981689453 22.7002696990967 22.6717014312744 22.7481346130371 22.8980731964111 23.0322799682617 23.1643199920654 23.2200412750244 23.1992149353027 23.1404457092285 23.131383895874 23.2148723602295 23.20849609375 23.0881290435791 23.00221824646 22.9547443389893 22.9427032470703 22.9380226135254 22.9074840545654 22.8299884796143 22.7667922973633 22.7971134185791 22.8592281341553 22.9539222717285 23.0290870666504 23.0745792388916 23.1609230041504 23.2530002593994
-9999 -9999 -9999 20.5493316650391 21.1882648468018 22.3589305877686 23.1564598083496 23.5790901184082 24.1941070556641 24.7188358306885 24.9916477203369 25.5623931884766 25.8592548370361 25.9325103759766 25.9488143920898 25.8469085693359 25.6401977539062 25.2723121643066 24.9270401000977 25.1722469329834 25.3298435211182 25.2204666137695 25.033353805542 24.8647689819336 24.717191696167 24.5837345123291 24.3854103088379 24.0901298522949 23.8450908660889 23.7462711334229 23.6649131774902 23.4726905822754 23.2540378570557 23.2111186981201 23.2524967193604 23.2370567321777 23.2109260559082 23.1252956390381 22.9652519226074 22.8011779785156 22.7062854766846 22.6833038330078 22.6715850830078 22.6471061706543 22.6502914428711 22.7758464813232 22.9586486816406 23.1589088439941 23.3921737670898 23.4796772003174 23.4203681945801 23.2767925262451 23.1801433563232 23.1921463012695 23.19801902771 23.1499042510986 23.0994052886963 23.0678997039795 23.0443935394287 23.0136756896973 22.9421997070312 22.8369274139404 22.7639808654785 22.7943210601807 22.9074192047119 23.021671295166 23.04368019104 23.0646514892578 23.1249752044678 23.2324657440186
