NCOLS 70 
NROWS 52 
XLLCORNER -80 
YLLCORNER 33 
CELLSIZE 0.25 
NODATA_value -9999 
-9999.000000000000000 -9999 -9999 -9999 -9999 -9999 -9999 -9999 -9999 -9999 -9999 -9999 -9999 -9999 -9999 -9999 -9999 -9999 -9999 -9999 -9999 -9999 -9999 -9999 -9999 -9999 -9999 -9999 -9999 -9999 -9999 -9999 -9999 -9999 -9999 -9999 -9999 -9999 -9999 -9999 -9999 -9999 -9999 -9999 -9999 -9999 -9999 -9999 -9999 -9999 -9999 -9999 -9999 -9999 -9999 -9999 -9999 -9999 -9999 -9999 -9999 -9999 -9999 -9999 -9999 -9999 -9999 -9999 -9999 -9999
-9999 -9999 -9999 -9999 -9999 -9999 -9999 -9999 -9999 -9999 -9999 -9999 -9999 -9999 -9999 -9999 -9999 -9999 -9999 -9999 -9999 -9999 -9999 -9999 -9999 -9999 -9999 -9999 -9999 -9999 -9999 -9999 -9999 -9999 -9999 -9999 -9999 -9999 -9999 -9999 -9999 -9999 -9999 -9999 -9999 -9999 -9999 -9999 -9999 -9999 -9999 -9999 -9999 -9999 -9999 -9999 -9999 -9999 -9999 -9999 -9999 -9999 -9999 -9999 -9999 -9999 -9999 -9999 -9999 -9999
-9999 -9999 -9999 -9999 -9999 -9999 -9999 -9999 -9999 -9999 -9999 -9999 -9999 -9999 -9999 -9999 -9999 -9999 -9999 -9999 -9999 -9999 -9999 -9999 -9999 -9999 -9999 -9999 -9999 -9999 -9999 -9999 -9999 -9999 -9999 -9999 -9999 -9999 -9999 -9999 -9999 -9999 -9999 -9999 -9999 -9999 -9999 -9999 -9999 -9999 -9999 -9999 -9999 -9999 -9999 -9999 -9999 -9999 -9999 16.7900791168213 -9999 -9999 -9999 -9999 -9999 -9999 -9999 -9999 -9999 -9999
-9999 -9999 -9999 -9999 -9999 -9999 -9999 -9999 -9999 -9999 -9999 -9999 -9999 -9999 -9999 -9999 -9999 -9999 -9999 -9999 -9999 -9999 -9999 -9999 -9999 -9999 -9999 -9999 -9999 -9999 -9999 -9999 -9999 -9999 -9999 -9999 -9999 -9999 -9999 -9999 -9999 -9999 -9999 -9999 -9999 -9999 -9999 -9999 -9999 -9999 -9999 -9999 -9999 -9999 -9999 14.3232345581055 14.5668926239014 14.9283475875854 15.3180170059204 15.8909425735474 -9999 -9999 -9999 -9999 -9999 -9999 -9999 -9999 -9999 -9999
-9999 -9999 -9999 -9999 -9999 -9999 -9999 -9999 -9999 -9999 -9999 -9999 -9999 -9999 -9999 -9999 -9999 -9999 -9999 -9999 -9999 -9999 -9999 -9999 -9999 -9999 -9999 -9999 -9999 -9999 -9999 -9999 -9999 -9999 -9999 -9999 -9999 -9999 -9999 -9999 -9999 -9999 -9999 -9999 -9999 -9999 -9999 -9999 -9999 -9999 -9999 -9999 14.4598588943481 14.213191986084 14.1551065444946 14.1728572845459 14.4152345657349 14.8253164291382 -9999 -9999 -9999 -9999 -9999 -9999 -9999 -9999 -9999 -9999 -9999 -9999
-9999 -9999 -9999 -9999 -9999 -9999 -9999 -9999 -9999 -9999 -9999 -9999 -9999 -9999 -9999 -9999 -9999 -9999 -9999 -9999 -9999 -9999 -9999 -9999 -9999 -9999 -9999 -9999 -9999 -9999 -9999 -9999 -9999 -9999 -9999 -9999 -9999 -9999 -9999 -9999 -9999 -9999 -9999 -9999 -9999 -9999 -9999 -9999 -9999 -9999 13.3396572113037 13.4798173904419 13.584210395813 13.6307907104492 13.8378553390503 14.0477924346924 -9999 -9999 -9999 -9999 -9999 -9999 -9999 -9999 -9999 -9999 -9999 18.7027905782064 18.700288772583 18.6949672698975
-9999 -9999 -9999 -9999 -9999 -9999 -9999 -9999 -9999 -9999 -9999 -9999 -9999 -9999 -9999 -9999 -9999 -9999 -9999 -9999 -9999 -9999 -9999 -9999 -9999 -9999 -9999 -9999 -9999 -9999 -9999 -9999 -9999 -9999 -9999 -9999 -9999 -9999 -9999 -9999 -9999 -9999 -9999 -9999 16.6142972310384 -9999 -9999 13.9738512039185 13.133505821228 12.9941711425781 12.8477230072021 12.6754989624023 12.8144912719727 13.2491683959961 13.6458292007446 -9999 -9999 -9999 -9999 -9999 -9999 -9999 -9999 18.9032592773438 18.7066040039062 18.6076221466064 18.6785068511963 18.7145748138428 18.7152900695801 18.6763229370117
-9999 -9999 -9999 -9999 -9999 -9999 -9999 -9999 -9999 -9999 -9999 -9999 -9999 -9999 -9999 -9999 -9999 -9999 -9999 -9999 -9999 -9999 -9999 -9999 -9999 -9999 -9999 -9999 -9999 -9999 -9999 -9999 -9999 -9999 -9999 -9999 -9999 -9999 -9999 -9999 -9999 -9999 -9999 -9999 16.7567043304443 16.1915245056152 15.0336532592773 14.0452318191528 13.6830139160156 13.5243921279907 13.2494297027588 12.9605588912964 12.9523420333862 13.3967428207397 13.5340116024017 -9999 -9999 -9999 -9999 -9999 -9999 -9999 18.710111618042 18.5104694366455 18.3737754821777 18.2746353149414 18.2498168945312 18.2945613861084 18.4209823608398 18.563684463501
-9999 -9999 -9999 -9999 -9999 -9999 -9999 -9999 -9999 -9999 -9999 -9999 -9999 -9999 -9999 -9999 -9999 -9999 -9999 -9999 -9999 -9999 -9999 -9999 -9999 -9999 -9999 -9999 -9999 -9999 -9999 -9999 -9999 -9999 -9999 -9999 -9999 -9999 -9999 -9999 16.5628121693929 16.2678197224935 16.036651802063 15.3965167999268 15.3319997787476 15.3072738647461 15.1352891921997 14.859977722168 14.7065887451172 14.497034072876 14.1041469573975 13.6894664764404 13.5266933441162 13.8443059921265 14.3162284851074 -9999 -9999 -9999 -9999 -9999 18.4873129526774 18.7198734283447 18.6527423858643 18.4470252990723 18.2644729614258 18.1170520782471 18.0079345703125 18.0161190032959 18.2001609802246 18.5242748260498
-9999 -9999 -9999 -9999 -9999 -9999 -9999 -9999 -9999 -9999 -9999 -9999 -9999 -9999 -9999 -9999 -9999 -9999 -9999 -9999 -9999 -9999 -9999 -9999 -9999 -9999 -9999 -9999 -9999 -9999 -9999 -9999 -9999 -9999 -9999 -9999 -9999 -9999 -9999 16.7960262298584 16.6336841583252 16.2587261199951 15.9110488891602 15.7223043441772 15.7921628952026 16.0652637481689 16.2319526672363 16.1524353027344 16.0147705078125 15.8272123336792 15.4555130004883 14.8983020782471 14.4040632247925 14.2990045547485 14.6209449768066 15.4201440811157 -9999 -9999 -9999 17.6310620307922 18.2975540161133 18.4445114135742 18.4113674163818 18.3734073638916 18.3075008392334 18.1376838684082 17.9771041870117 18.0528240203857 18.4428634643555 18.9518699645996
-9999 -9999 -9999 -9999 -9999 -9999 -9999 -9999 -9999 -9999 -9999 -9999 -9999 -9999 -9999 -9999 -9999 -9999 -9999 -9999 -9999 -9999 -9999 -9999 -9999 -9999 -9999 -9999 -9999 -9999 -9999 -9999 -9999 -9999 -9999 -9999 -9999 -9999 17.3117256164551 17.2613983154297 17.2550468444824 17.1608028411865 16.9662342071533 16.8249187469482 16.8648815155029 17.0427875518799 17.1380367279053 17.0703372955322 16.9713878631592 16.8426418304443 16.5816669464111 16.0582103729248 15.3010053634644 14.6780462265015 14.6029825210571 15.2318286895752 15.9896478652954 16.3259954452515 17.0674247741699 17.3899154663086 17.7693538665771 17.9417724609375 18.0696620941162 18.239351272583 18.288948059082 18.1674480438232 18.0721588134766 18.2588920593262 18.7369651794434 19.2224159240723
-9999 -9999 -9999 -9999 -9999 -9999 -9999 -9999 -9999 -9999 -9999 -9999 -9999 -9999 -9999 -9999 -9999 -9999 -9999 -9999 -9999 -9999 -9999 -9999 -9999 -9999 -9999 -9999 -9999 -9999 -9999 -9999 -9999 -9999 -9999 -9999 -9999 17.3516960144043 17.4340896606445 17.7154178619385 17.9264602661133 17.9540519714355 17.9322414398193 17.8842010498047 17.8405723571777 17.8144607543945 17.7325382232666 17.5725231170654 17.3987827301025 17.1785011291504 16.9093246459961 16.5090637207031 15.809157371521 15.1294088363647 14.9765310287476 15.4035205841064 15.9074621200562 16.2500190734863 16.5592975616455 16.904764175415 17.1962013244629 17.420108795166 17.759370803833 18.0879745483398 18.2078819274902 18.168773651123 18.177942276001 18.4046382904053 18.8389072418213 19.2726135253906
-9999 -9999 -9999 -9999 -9999 -9999 -9999 -9999 -9999 -9999 -9999 -9999 -9999 -9999 -9999 -9999 -9999 -9999 -9999 -9999 -9999 -9999 -9999 -9999 -9999 -9999 -9999 -9999 -9999 -9999 -9999 -9999 -9999 -9999 -9999 -9999 -9999 17.2067985534668 17.4610843658447 17.9266662597656 18.2642097473145 18.5141105651855 18.6792697906494 18.6770725250244 18.5412826538086 18.3609199523926 18.1323471069336 17.8218593597412 17.4751377105713 17.1130847930908 16.8096199035645 16.5220413208008 16.030216217041 15.5604867935181 15.5529546737671 15.9876718521118 16.4144039154053 16.7054080963135 16.923059463501 17.0297946929932 17.127326965332 17.3802318572998 17.8335514068604 18.1718921661377 18.2898921966553 18.3638439178467 18.5533103942871 18.8404521942139 19.2700634002686 19.6245784759521
-9999 -9999 -9999 -9999 -9999 -9999 -9999 -9999 -9999 -9999 -9999 -9999 -9999 -9999 -9999 -9999 -9999 -9999 -9999 -9999 -9999 -9999 -9999 -9999 -9999 -9999 -9999 -9999 -9999 -9999 -9999 -9999 -9999 -9999 -9999 -9999 -9999 17.7547950744629 17.7699298858643 18.131031036377 18.4790191650391 18.8229579925537 19.0674915313721 19.1165714263916 18.9800872802734 18.7410106658936 18.4342765808105 18.0137519836426 17.4926338195801 16.9808979034424 16.6322574615479 16.3954162597656 16.0999794006348 15.9509201049805 16.2630710601807 16.7745704650879 17.2325801849365 17.4630374908447 17.5703716278076 17.4487476348877 17.4367961883545 17.7536563873291 18.3258037567139 18.8154335021973 19.1018829345703 19.3955230712891 19.8138847351074 19.9951820373535 20.1477508544922 20.2302722930908
-9999 -9999 -9999 -9999 -9999 -9999 -9999 -9999 -9999 -9999 -9999 -9999 -9999 -9999 -9999 -9999 -9999 -9999 -9999 -9999 -9999 -9999 -9999 -9999 -9999 -9999 -9999 -9999 -9999 -9999 -9999 -9999 -9999 -9999 -9999 -9999 18.4774341583252 18.1423206329346 17.9617748260498 18.1731605529785 18.5441093444824 18.9310493469238 19.1923637390137 19.2896976470947 19.2220439910889 19.0465507507324 18.8283233642578 18.4872760772705 17.9499549865723 17.3113193511963 16.830587387085 16.5329513549805 16.3689441680908 16.4882144927979 16.9567260742188 17.473970413208 17.9570083618164 18.0292072296143 17.9497909545898 17.7067203521729 17.8791408538818 18.5879516601562 19.6398983001709 20.6440505981445 21.286376953125 21.5896873474121 21.8253059387207 21.6003971099854 21.3272247314453 21.203275680542
-9999 -9999 -9999 -9999 -9999 -9999 -9999 -9999 -9999 -9999 -9999 -9999 -9999 -9999 -9999 -9999 -9999 -9999 -9999 -9999 -9999 -9999 -9999 -9999 -9999 -9999 -9999 -9999 -9999 -9999 -9999 -9999 -9999 -9999 -9999 -9999 -9999 18.2464408874512 18.1686172485352 18.2199516296387 18.568244934082 18.9675941467285 19.2138023376465 19.3593826293945 19.4057807922363 19.3265419006348 19.2115955352783 19.024393081665 18.6681518554688 18.0684013366699 17.4854793548584 17.0771236419678 16.8584175109863 16.8740386962891 17.1665534973145 17.6737766265869 18.438627243042 18.5114364624023 18.4189300537109 18.5277423858643 19.0905437469482 20.0949878692627 21.2597160339355 22.3855590820312 23.1680850982666 23.3046455383301 23.2440013885498 22.8711242675781 22.4379138946533 22.3061141967773
-9999 -9999 -9999 -9999 -9999 -9999 -9999 -9999 -9999 -9999 -9999 -9999 -9999 -9999 -9999 -9999 -9999 -9999 -9999 -9999 -9999 -9999 -9999 -9999 -9999 -9999 -9999 -9999 -9999 -9999 -9999 -9999 -9999 -9999 -9999 -9999 -9999 -9999 18.6183223724365 -9999 18.8901996612549 19.2856502532959 19.4169120788574 19.4618606567383 19.486795425415 19.4174785614014 19.3281688690186 19.2096748352051 19.0323848724365 18.6714267730713 18.2672748565674 17.9642219543457 17.7021141052246 17.4153747558594 17.3674964904785 17.7415332794189 18.8392791748047 19.0925235748291 19.285436630249 19.6929607391357 20.2539348602295 20.7249526977539 21.2007007598877 22.2963562011719 23.358434677124 23.6479969024658 23.5380516052246 23.2369918823242 22.9037265777588 22.755615234375
-9999 -9999 -9999 -9999 -9999 -9999 -9999 -9999 -9999 -9999 -9999 -9999 -9999 -9999 -9999 -9999 -9999 -9999 -9999 -9999 -9999 -9999 -9999 -9999 -9999 -9999 -9999 -9999 -9999 -9999 -9999 -9999 -9999 -9999 -9999 -9999 -9999 -9999 -9999 -9999 20.1024265289307 19.8069381713867 19.7525081634521 19.6697254180908 19.5994815826416 19.5055675506592 19.4221229553223 19.344367980957 19.2691135406494 19.0576553344727 18.8667621612549 18.6883506774902 18.4439678192139 18.0338306427002 17.7186164855957 18.2236824035645 19.3671779632568 19.8024482727051 20.1306762695312 20.334342956543 20.3583583831787 20.4196529388428 20.8626651763916 22.0769214630127 23.2382926940918 23.6498756408691 23.7933712005615 23.9345111846924 24.008861541748 24.081600189209
-9999 -9999 -9999 -9999 -9999 -9999 -9999 -9999 -9999 -9999 -9999 -9999 -9999 -9999 -9999 -9999 -9999 -9999 -9999 -9999 -9999 -9999 -9999 -9999 -9999 -9999 -9999 -9999 -9999 -9999 -9999 -9999 -9999 -9999 22.5399684906006 22.6501922607422 22.5101871490479 -9999 21.8071765899658 21.4053535461426 20.5701694488525 19.950834274292 19.821985244751 19.7927017211914 19.7132472991943 19.5912418365479 19.4917297363281 19.4245052337646 19.3632354736328 19.2241382598877 19.0027961730957 18.7298603057861 18.4305896759033 18.0999488830566 17.9840431213379 18.9788360595703 20.1295413970947 20.6202754974365 20.7764911651611 20.947416305542 21.1394729614258 21.5217247009277 22.1960639953613 23.1942615509033 23.9468059539795 24.349925994873 24.8290767669678 25.2980804443359 25.5859146118164 25.7556800842285
-9999 -9999 -9999 -9999 -9999 -9999 -9999 -9999 -9999 -9999 -9999 -9999 -9999 -9999 -9999 -9999 -9999 -9999 -9999 -9999 -9999 -9999 -9999 -9999 -9999 -9999 -9999 24.9889240264893 24.9889240264893 24.8712024688721 24.6032047271729 23.6169548034668 22.703483581543 22.664400100708 22.5744323730469 22.2708492279053 21.9076633453369 21.517520904541 21.1686897277832 20.8158664703369 20.2113189697266 19.7438774108887 19.7397441864014 19.8377227783203 19.7501411437988 19.5407772064209 19.3777770996094 19.2848892211914 19.194299697876 19.0338916778564 18.8083038330078 18.5744552612305 18.359411239624 18.3594493865967 18.7616291046143 20.0377445220947 21.192590713501 21.7686424255371 22.0462894439697 22.5453968048096 23.1445446014404 23.7428684234619 24.2851409912109 24.6274375915527 24.8604431152344 25.2608222961426 25.7315158843994 26.0730533599854 26.2795486450195 26.4096431732178
-9999 -9999 -9999 -9999 -9999 -9999 -9999 -9999 -9999 -9999 -9999 -9999 -9999 -9999 -9999 -9999 -9999 -9999 -9999 -9999 -9999 -9999 -9999 -9999 -9999 -9999 -9999 -9999 -9999 -9999 23.7779197692871 22.9988574981689 22.2771453857422 22.1913776397705 22.1229400634766 21.9097785949707 21.5324192047119 21.059061050415 20.6520309448242 20.3481903076172 20.0934200286865 19.944995880127 20.0021457672119 20.0412635803223 19.8434104919434 19.5278701782227 19.2874011993408 19.1379871368408 19.0322818756104 19.0224227905273 19.1236534118652 19.1617984771729 19.1813411712646 19.4621124267578 20.1613788604736 21.4072856903076 22.4913082122803 23.071418762207 23.404239654541 23.7487239837646 24.1856250762939 24.5922260284424 24.8539218902588 25.0352916717529 25.2442760467529 25.5356788635254 25.8621158599854 26.133602142334 26.3418369293213 26.4668426513672
-9999 -9999 -9999 -9999 -9999 -9999 -9999 -9999 -9999 -9999 -9999 -9999 -9999 -9999 -9999 -9999 -9999 -9999 -9999 -9999 -9999 -9999 -9999 -9999 -9999 22.6407515207926 22.5072848002116 22.4616546630859 22.5167746543884 22.5260829925537 22.5358943939209 22.5974102020264 22.6858367919922 22.5568065643311 22.3339366912842 22.0357913970947 21.6091976165771 21.1279163360596 20.7801570892334 20.6758613586426 20.6921806335449 20.6824741363525 20.5907459259033 20.4413261413574 20.1866245269775 19.8787975311279 19.6820888519287 19.6584148406982 19.7798919677734 19.991771697998 20.207347869873 20.2283172607422 20.2978610992432 20.6949634552002 21.5228977203369 22.6133518218994 23.3550262451172 23.6182765960693 23.7439517974854 23.8617401123047 24.1561317443848 24.6001129150391 24.9295310974121 25.1419639587402 25.3813877105713 25.665376663208 26.0205478668213 26.3515377044678 26.5951843261719 26.6761207580566
-9999 -9999 -9999 -9999 -9999 -9999 -9999 -9999 -9999 -9999 -9999 -9999 -9999 -9999 -9999 -9999 -9999 -9999 -9999 -9999 -9999 -9999 -9999 -9999 22.8251609802246 22.6246337890625 22.4724597930908 22.4247608184814 22.4877433776855 22.628511428833 22.7597312927246 22.8104667663574 22.7726001739502 22.7083740234375 22.6485481262207 22.4965381622314 22.1875457763672 21.7326316833496 21.3219776153564 21.1522808074951 21.1184234619141 21.0631351470947 20.9637241363525 20.8971672058105 20.8607921600342 20.8342399597168 20.9113082885742 21.1585712432861 21.4049873352051 21.419225692749 21.3021545410156 21.1940746307373 21.3810787200928 21.9305076599121 22.6517219543457 23.2828273773193 23.6171035766602 23.8139934539795 24.0803279876709 24.2963008880615 24.4705753326416 24.7799968719482 25.1530818939209 25.3959712982178 25.6171779632568 25.910680770874 26.2545051574707 26.5750694274902 26.7620277404785 26.8079223632812
-9999 -9999 -9999 -9999 -9999 -9999 -9999 -9999 -9999 -9999 -9999 -9999 -9999 -9999 -9999 -9999 -9999 -9999 -9999 -9999 -9999 -9999 -9999 -9999 22.4380187988281 22.3877487182617 22.4315891265869 22.5256099700928 22.6545314788818 22.8288879394531 23.0065517425537 23.1074848175049 23.1582012176514 23.2363109588623 23.2838611602783 23.2346897125244 23.0627746582031 22.6491146087646 22.086597442627 21.6293468475342 21.4123687744141 21.3852653503418 21.3880672454834 21.4825668334961 21.7309494018555 22.0037002563477 22.2691688537598 22.5134601593018 22.5723781585693 22.3913402557373 22.2196655273438 22.2803192138672 22.6342639923096 23.0975074768066 23.4556159973145 23.7037677764893 23.9429321289062 24.3045330047607 24.7291412353516 25.0572471618652 25.1097011566162 25.1674613952637 25.4213161468506 25.6905879974365 25.885684967041 26.1290435791016 26.4048557281494 26.6830444335938 26.8299255371094 26.9031810760498
-9999 -9999 -9999 -9999 -9999 -9999 -9999 -9999 -9999 -9999 -9999 -9999 -9999 -9999 -9999 -9999 -9999 -9999 -9999 -9999 -9999 -9999 -9999 22.6522603034973 22.4373188018799 22.3682327270508 22.45876121521 22.5669288635254 22.7437171936035 23.0473575592041 23.3999042510986 23.6242923736572 23.7078285217285 23.7354011535645 23.6907844543457 23.5958557128906 23.5174102783203 23.3160438537598 22.844596862793 22.3405284881592 22.1567840576172 22.1941032409668 22.1815967559814 22.2538375854492 22.5109329223633 22.7507781982422 22.9018878936768 23.0003604888916 23.0309238433838 22.9816646575928 22.9878273010254 23.1610794067383 23.4809799194336 23.8004741668701 24.04714012146 24.2328796386719 24.4590702056885 24.7508888244629 25.0341739654541 25.2850666046143 25.3382568359375 25.3419799804688 25.5068950653076 25.7697639465332 25.996654510498 26.2193565368652 26.4432621002197 26.6635341644287 26.788610458374 26.8921184539795
-9999 -9999 -9999 -9999 -9999 -9999 -9999 -9999 -9999 -9999 -9999 -9999 -9999 -9999 -9999 -9999 -9999 -9999 -9999 -9999 -9999 -9999 -9999 23.0637302398682 22.6699733734131 22.5320320129395 22.5822048187256 22.6826496124268 22.9119262695312 23.3132839202881 23.7298393249512 23.924295425415 23.9003200531006 23.8147373199463 23.730583190918 23.6636848449707 23.6575336456299 23.6465969085693 23.3702754974365 22.9696273803711 22.8437690734863 22.8515586853027 22.7403812408447 22.6809215545654 22.7839622497559 22.8382377624512 22.8145198822021 22.8586368560791 23.0359344482422 23.2637805938721 23.4420204162598 23.557336807251 23.7171821594238 23.9660568237305 24.233907699585 24.4759311676025 24.6949062347412 24.8487567901611 24.9917049407959 25.1527118682861 25.2649974822998 25.333309173584 25.4908447265625 25.7525367736816 26.0222969055176 26.2308254241943 26.3915233612061 26.5681533813477 26.699499130249 26.8185520172119
-9999 -9999 -9999 -9999 -9999 -9999 -9999 -9999 -9999 -9999 -9999 -9999 -9999 -9999 -9999 -9999 -9999 -9999 -9999 -9999 -9999 -9999 23.5858497619629 23.1450710296631 22.7997055053711 22.7336692810059 22.8835582733154 23.1351757049561 23.424072265625 23.7360687255859 23.9858493804932 24.0510597229004 23.9813060760498 23.9429187774658 23.9996967315674 24.0347728729248 23.9993534088135 23.9480876922607 23.7390193939209 23.3720607757568 23.1421813964844 23.0822639465332 23.0142879486084 22.8537673950195 22.6547832489014 22.510311126709 22.4887676239014 22.5637817382812 22.8284435272217 23.2873592376709 23.6703243255615 23.7987384796143 23.7838954925537 23.8798732757568 24.1411991119385 24.4698810577393 24.7642154693604 24.9619274139404 25.108039855957 25.1789855957031 25.1932277679443 25.2104110717773 25.3634071350098 25.7008571624756 26.0541152954102 26.2217311859131 26.2746353149414 26.3828392028809 26.519458770752 26.6651134490967
-9999 -9999 -9999 -9999 -9999 -9999 -9999 -9999 -9999 -9999 -9999 -9999 -9999 -9999 25.7890130678813 -9999 -9999 -9999 -9999 24.9062061309814 -9999 24.091667175293 23.610034942627 23.1007423400879 22.8386402130127 22.8832988739014 23.1986923217773 23.6220550537109 23.9862098693848 24.2347679138184 24.3769302368164 24.4241905212402 24.4142742156982 24.4472274780273 24.5419883728027 24.4921970367432 24.3206272125244 24.2148284912109 24.1442089080811 24.0585556030273 24.0244808197021 24.1046657562256 24.1661605834961 23.9966983795166 23.5468578338623 23.1018104553223 22.9335556030273 23.0357990264893 23.3863334655762 23.8563842773438 24.1891231536865 24.2126693725586 24.0439834594727 24.0608520507812 24.292724609375 24.5913581848145 24.9453067779541 25.2697982788086 25.51318359375 25.5859622955322 25.5033073425293 25.3605117797852 25.2751979827881 25.367733001709 25.7571907043457 26.122615814209 26.1890678405762 26.1950416564941 26.2299327850342 26.3312339782715
-9999 -9999 -9999 -9999 -9999 -9999 -9999 -9999 -9999 -9999 -9999 -9999 -9999 -9999 25.7941956520081 -9999 -9999 -9999 -9999 24.777681350708 24.3042625427246 23.9978122711182 23.52516746521 23.1687526702881 23.0309429168701 23.2002849578857 23.6610202789307 24.2072353363037 24.6387481689453 24.9168548583984 25.113353729248 25.30029296875 25.4543304443359 25.517765045166 25.4786319732666 25.2391033172607 24.8927822113037 24.7084712982178 24.7259941101074 24.8727855682373 25.1064491271973 25.3560962677002 25.4682197570801 25.3922500610352 25.0710773468018 24.5415077209473 24.0234298706055 23.9154624938965 24.2621116638184 24.6696128845215 24.8939781188965 24.8261165618896 24.6909313201904 24.7571506500244 24.8631496429443 25.0342998504639 25.4415493011475 25.892599105835 26.2021617889404 26.3148441314697 26.284366607666 26.1437320709229 25.9070453643799 25.6618251800537 25.6398181915283 25.7593307495117 25.7993812561035 25.8860664367676 25.9780921936035 26.0403270721436
-9999 -9999 -9999 -9999 -9999 -9999 -9999 -9999 -9999 -9999 -9999 -9999 -9999 -9999 25.7708740234375 -9999 -9999 -9999 -9999 -9999 23.922577381134 23.8764705657959 23.6008911132812 23.4886054992676 23.5931968688965 23.9813957214355 24.6002616882324 25.2000522613525 25.6071891784668 25.8679389953613 26.1310005187988 26.4661617279053 26.7558536529541 26.8689041137695 26.7882919311523 26.4798679351807 25.959358215332 25.5411434173584 25.3418674468994 25.3247318267822 25.5750026702881 25.9446334838867 26.1938133239746 26.2944450378418 26.2171840667725 25.950023651123 25.4672222137451 24.861686706543 24.608455657959 24.8561820983887 25.1734523773193 25.2223567962646 25.2352313995361 25.3304481506348 25.420129776001 25.7038860321045 26.2306728363037 26.7199993133545 27.0062465667725 27.1269512176514 27.1463508605957 27.0935287475586 26.9728164672852 26.7823905944824 26.5250282287598 26.2730255126953 26.1016120910645 26.0274410247803 26.0257377624512 26.0495548248291
-9999 -9999 -9999 -9999 -9999 -9999 -9999 -9999 -9999 -9999 -9999 -9999 -9999 -9999 25.7878227233887 -9999 25.8641605377197 -9999 -9999 -9999 23.9400691986084 23.8759574890137 23.7673625946045 23.8985595703125 24.289192199707 24.8742065429688 25.5115776062012 26.0142707824707 26.3622245788574 26.6480293273926 26.9456310272217 27.2597064971924 27.5195827484131 27.6567268371582 27.6475067138672 27.4926204681396 27.099588394165 26.5818786621094 26.15283203125 25.94189453125 26.0951251983643 26.51247215271 26.9208202362061 27.1640090942383 27.2385959625244 27.1838417053223 26.9567756652832 26.4073848724365 25.7102870941162 25.3481693267822 25.3865280151367 25.4730987548828 25.578010559082 25.7266654968262 25.9535789489746 26.4334754943848 27.0159492492676 27.424165725708 27.6128273010254 27.6849269866943 27.702787399292 27.6847915649414 27.6437435150146 27.5819034576416 27.4736614227295 27.319034576416 27.1512107849121 26.9520778656006 26.7729358673096 26.6616859436035
-9999 -9999 -9999 -9999 -9999 -9999 -9999 -9999 -9999 -9999 -9999 -9999 -9999 -9999 25.7878227233887 25.8047714233398 25.899585723877 -9999 -9999 23.8709225654602 23.8512744903564 23.8150177001953 23.8816356658936 24.266206741333 24.8683471679688 25.4677581787109 25.9662666320801 26.3286933898926 26.6506423950195 26.9842224121094 27.3211879730225 27.6434993743896 27.9156055450439 28.0812664031982 28.1300277709961 28.0995502471924 27.9500160217285 27.6418800354004 27.2846965789795 27.0437107086182 27.0536994934082 27.2943058013916 27.5867538452148 27.7856197357178 27.888729095459 27.9108619689941 27.8502902984619 27.6733570098877 27.2760353088379 26.7288131713867 26.2643890380859 26.0044574737549 26.0089111328125 26.1990547180176 26.5357322692871 27.0462322235107 27.5370292663574 27.7914218902588 27.8491191864014 27.8430614471436 27.8187637329102 27.7713851928711 27.7385368347168 27.7183208465576 27.6892585754395 27.6437282562256 27.6136131286621 27.559045791626 27.4568729400635 27.3121929168701
-9999 -9999 -9999 -9999 -9999 -9999 -9999 -9999 -9999 -9999 -9999 -9999 -9999 -9999 -9999 25.7252979278564 25.8888092041016 -9999 24.4653191566467 23.9032859802246 23.7890605926514 23.831413269043 24.1474590301514 24.7479648590088 25.364372253418 25.8679790496826 26.2629623413086 26.5995254516602 26.9666309356689 27.3400001525879 27.701078414917 28.0441284179688 28.3179588317871 28.4642505645752 28.5001754760742 28.4755268096924 28.4097595214844 28.2864646911621 28.1148719787598 27.9530067443848 27.8614597320557 27.8592185974121 27.9154109954834 27.9904613494873 28.0507888793945 28.0908966064453 28.1104049682617 28.0938739776611 28.0194511413574 27.8111343383789 27.4382286071777 27.040563583374 26.8094501495361 26.8215751647949 27.0596961975098 27.4562664031982 27.8040904998779 27.927131652832 27.8866100311279 27.8011531829834 27.7008590698242 27.6141738891602 27.5703125 27.5519008636475 27.5093116760254 27.460729598999 27.4611206054688 27.4903793334961 27.5134220123291 27.4807643890381
-9999 -9999 -9999 -9999 -9999 -9999 -9999 -9999 -9999 -9999 -9999 -9999 -9999 -9999 -9999 25.6219253540039 25.41139793396 -9999 24.0104084014893 23.9381103515625 23.8923816680908 24.0525932312012 24.5194702148438 25.1174850463867 25.6215724945068 26.1329746246338 26.6836128234863 27.1755809783936 27.5889434814453 27.9166240692139 28.17431640625 28.3886489868164 28.5374927520752 28.5776748657227 28.5343589782715 28.4614963531494 28.395679473877 28.3424987792969 28.2802791595459 28.2004337310791 28.1172828674316 28.0507278442383 28.0233898162842 28.030590057373 28.0493240356445 28.0639419555664 28.0781478881836 28.099084854126 28.1053924560547 28.0705642700195 27.9605808258057 27.763843536377 27.5724258422852 27.4960384368896 27.5719242095947 27.8025169372559 27.9949035644531 27.9695072174072 27.8032245635986 27.6309204101562 27.4834747314453 27.4074821472168 27.4142894744873 27.4442138671875 27.3953056335449 27.299129486084 27.240930557251 27.2486515045166 27.3129768371582 27.3774089813232
-9999 -9999 -9999 -9999 -9999 -9999 -9999 -9999 -9999 -9999 -9999 -9999 -9999 -9999 -9999 25.4898414611816 -9999 24.5353990282331 24.0296058654785 23.9939079284668 24.0512561798096 24.3080215454102 24.8594589233398 25.524435043335 26.1595153808594 26.8745269775391 27.5383834838867 27.9866313934326 28.2311897277832 28.3650932312012 28.43674659729 28.469783782959 28.4363384246826 28.3362464904785 28.2148361206055 28.0999526977539 28.0451145172119 28.052396774292 28.0693702697754 28.0831413269043 28.0733489990234 28.0123176574707 27.9358348846436 27.8923816680908 27.8630847930908 27.8003730773926 27.752986907959 27.7598552703857 27.7832813262939 27.8300247192383 27.861213684082 27.8592319488525 27.8462409973145 27.8609809875488 27.9288940429688 28.0580177307129 28.0731010437012 27.8857746124268 27.6602230072021 27.473840713501 27.3347969055176 27.3017425537109 27.3252964019775 27.390604019165 27.3562164306641 27.2300281524658 27.1039505004883 27.050365447998 27.0852241516113 27.1490917205811
-9999 -9999 -9999 -9999 -9999 -9999 -9999 -9999 -9999 -9999 -9999 -9999 -9999 -9999 25.4898414611816 25.1477661132812 24.8514595031738 24.2931385040283 24.0497856140137 24.0456485748291 24.1892566680908 24.5988922119141 25.3995723724365 26.3918743133545 27.2834987640381 27.9885864257812 28.3827896118164 28.5483150482178 28.6029682159424 28.6006698608398 28.5173225402832 28.3512706756592 28.1292343139648 27.9246768951416 27.7853775024414 27.7093105316162 27.6785888671875 27.6576099395752 27.6284866333008 27.6381549835205 27.6978244781494 27.7024383544922 27.6407890319824 27.5763740539551 27.4758949279785 27.3319244384766 27.2362270355225 27.2354946136475 27.316276550293 27.4632053375244 27.60032081604 27.733455657959 27.8590354919434 27.9592475891113 28.0568523406982 28.0920085906982 27.9565372467041 27.7125511169434 27.5170936584473 27.3657150268555 27.3480243682861 27.3593597412109 27.2721672058105 27.24365234375 27.2164478302002 27.1218280792236 27.0032691955566 26.9396858215332 26.9603881835938 27.0101146697998
-9999 -9999 -9999 -9999 -9999 -9999 -9999 -9999 -9999 -9999 -9999 -9999 -9999 -9999 -9999 -9999 24.5008192062378 24.3543663024902 24.074743270874 24.0911693572998 24.3569145202637 25.0732975006104 26.220630645752 27.3476543426514 28.1359634399414 28.5844898223877 28.7455043792725 28.7722587585449 28.7510280609131 28.6476497650146 28.4367542266846 28.1408309936523 27.8359699249268 27.6843814849854 27.6316032409668 27.5768413543701 27.5233135223389 27.471170425415 27.4364070892334 27.4226493835449 27.4201545715332 27.3904571533203 27.3671646118164 27.3349761962891 27.2418518066406 27.1369876861572 27.0378837585449 26.9851684570312 27.0376014709473 27.1778945922852 27.3578395843506 27.5781002044678 27.7943935394287 27.9417095184326 28.0286197662354 28.0034770965576 27.8181896209717 27.5832805633545 27.4165210723877 27.3493328094482 27.4499416351318 27.4523048400879 27.2671909332275 27.1457366943359 27.1213798522949 27.0535068511963 26.9657001495361 26.8715782165527 26.8647556304932 26.9275379180908
-9999 -9999 -9999 -9999 -9999 -9999 -9999 -9999 -9999 -9999 -9999 -9999 -9999 -9999 -9999 -9999 24.4293394088745 24.5043125152588 24.1601409912109 24.2063598632812 24.6757049560547 25.678503036499 26.9996471405029 28.0247230529785 28.5653171539307 28.8076267242432 28.849365234375 28.8087139129639 28.7249965667725 28.5426979064941 28.2626438140869 27.9262561798096 27.691162109375 27.660795211792 27.6313152313232 27.5385494232178 27.451847076416 27.413158416748 27.4042129516602 27.374397277832 27.3221321105957 27.2793865203857 27.2820720672607 27.2720355987549 27.2321662902832 27.1643619537354 27.070894241333 27.0030174255371 26.9901714324951 27.0305862426758 27.1586799621582 27.3950672149658 27.673397064209 27.8741912841797 27.9399719238281 27.9075889587402 27.776195526123 27.5991821289062 27.4719257354736 27.4837608337402 27.6030368804932 27.5847759246826 27.3548355102539 27.139476776123 27.0922660827637 27.0791053771973 27.0565395355225 26.9595737457275 26.8400115966797 26.8180046081543
-9999 -9999 -9999 -9999 -9999 -9999 -9999 -9999 -9999 -9999 -9999 -9999 -9999 -9999 -9999 -9999 -9999 24.5092692375183 24.4367427825928 24.5569095611572 25.3681907653809 26.6492805480957 27.7536773681641 28.411340713501 28.7514038085938 28.8888244628906 28.8565101623535 28.7358131408691 28.5793857574463 28.3912830352783 28.135721206665 27.8365612030029 27.7087993621826 27.7494373321533 27.7172622680664 27.6028861999512 27.4501991271973 27.3439884185791 27.3013305664062 27.2849006652832 27.2829666137695 27.2866268157959 27.3125133514404 27.3356590270996 27.3098812103271 27.2483386993408 27.220401763916 27.2518539428711 27.2990436553955 27.3447780609131 27.4510402679443 27.5943965911865 27.7642574310303 27.8905239105225 27.9062557220459 27.8897190093994 27.8383522033691 27.7564125061035 27.6675891876221 27.6727809906006 27.703950881958 27.6491737365723 27.4469547271729 27.1861438751221 27.07373046875 27.0933780670166 27.1365909576416 27.11057472229 26.9768371582031 26.8811702728271
-9999 -9999 -9999 -9999 -9999 -9999 -9999 -9999 -9999 -9999 -9999 -9999 -9999 -9999 24.4855692386627 24.5043125152588 24.6589435338974 24.6863117218018 24.9358806610107 25.0661659240723 26.098352432251 27.4037685394287 28.0739650726318 28.5449981689453 28.8497848510742 28.9237117767334 28.8206787109375 28.6233787536621 28.4404029846191 28.3125438690186 28.1419620513916 27.9334545135498 27.8989334106445 27.9477462768555 27.8894233703613 27.7902526855469 27.6639041900635 27.5367965698242 27.4515018463135 27.3775215148926 27.3356971740723 27.3216743469238 27.3346633911133 27.3349323272705 27.2761173248291 27.218578338623 27.197395324707 27.2744255065918 27.4176464080811 27.5590152740479 27.7150802612305 27.8376407623291 27.8833713531494 27.894775390625 27.861946105957 27.8289279937744 27.7902526855469 27.7354068756104 27.6610412597656 27.6279335021973 27.6208839416504 27.5908794403076 27.4415817260742 27.2051448822021 27.0564861297607 27.0561122894287 27.1292266845703 27.2031993865967 27.1696510314941 27.0770244598389
-9999 -9999 -9999 -9999 -9999 -9999 -9999 -9999 -9999 -9999 -9999 -9999 -9999 -9999 -9999 -9999 -9999 -9999 25.3791851997375 25.5672988891602 26.628604888916 27.7399501800537 28.2867259979248 28.6980056762695 28.9300346374512 28.921968460083 28.7530250549316 28.5501899719238 28.4293956756592 28.375940322876 28.2771453857422 28.1598625183105 28.1352462768555 28.0863971710205 27.9497089385986 27.7984828948975 27.7101936340332 27.6672248840332 27.6282482147217 27.5319004058838 27.4435787200928 27.4147720336914 27.4248924255371 27.4163608551025 27.3761463165283 27.3446292877197 27.2917499542236 27.2840251922607 27.3540897369385 27.4322204589844 27.5435752868652 27.6822624206543 27.8094520568848 27.912561416626 27.9308891296387 27.8582859039307 27.7564067840576 27.6365413665771 27.5357570648193 27.4802150726318 27.4819622039795 27.4942989349365 27.3856716156006 27.1962604522705 27.0412425994873 26.9952487945557 27.0468444824219 27.1888961791992 27.2941646575928 27.2971096038818
-9999 -9999 -9999 -9999 -9999 -9999 -9999 -9999 -9999 -9999 -9999 -9999 -9999 -9999 -9999 -9999 -9999 25.7993907928467 25.969482421875 25.947395324707 26.9759826660156 28.0312328338623 28.6138286590576 28.9244823455811 28.9954261779785 28.8650531768799 28.6383113861084 28.4771862030029 28.4457321166992 28.4597778320312 28.4085159301758 28.3062858581543 28.2077045440674 28.1186714172363 28.0050411224365 27.8352451324463 27.7395439147949 27.7133026123047 27.7001152038574 27.6440143585205 27.6078357696533 27.616153717041 27.6347312927246 27.6293468475342 27.5949325561523 27.5681762695312 27.5226516723633 27.4523258209229 27.4320869445801 27.4870185852051 27.5802822113037 27.6952323913574 27.8391170501709 28.0421695709229 28.0883369445801 27.9283428192139 27.7083969116211 27.5141124725342 27.400821685791 27.336368560791 27.3335647583008 27.3503704071045 27.2937545776367 27.1718158721924 27.0658130645752 27.018159866333 26.9958953857422 27.0764865875244 27.2651958465576 27.366189956665
-9999 -9999 -9999 -9999 -9999 -9999 -9999 -9999 -9999 -9999 -9999 -9999 -9999 26.8857917785645 26.839363945855 -9999 26.6700439453125 26.5192546844482 25.7993907928467 26.5638446807861 27.8870220184326 28.6505699157715 28.9750881195068 29.0428142547607 28.9438495635986 28.7424125671387 28.5364093780518 28.4253063201904 28.450813293457 28.5049629211426 28.4660930633545 28.3137092590332 28.161283493042 28.1004772186279 28.0402736663818 27.9532928466797 27.9316120147705 27.8937149047852 27.806583404541 27.7104187011719 27.6887836456299 27.721549987793 27.73171043396 27.7117385864258 27.6759510040283 27.6446075439453 27.5981197357178 27.5365676879883 27.5279350280762 27.5716495513916 27.6371974945068 27.7398471832275 27.8759078979492 27.9590854644775 27.8498420715332 27.6725063323975 27.527063369751 27.3986988067627 27.3115158081055 27.276819229126 27.2834072113037 27.2839794158936 27.2541809082031 27.1817417144775 27.1323471069336 27.1232166290283 27.060525894165 27.0355644226074 27.1487693786621 27.2818126678467
-9999 -9999 -9999 -9999 -9999 -9999 -9999 -9999 -9999 -9999 -9999 -9999 -9999 -9999 26.8857917785645 26.9401423136393 26.6921577453613 26.6479301452637 26.9375400543213 28.0405216217041 28.8000392913818 29.0436687469482 29.0786876678467 28.9934177398682 28.8086185455322 28.5859184265137 28.4154529571533 28.362735748291 28.4084777832031 28.5025005340576 28.495153427124 28.3461475372314 28.2157459259033 28.1840190887451 28.113790512085 28.0180110931396 28.0073699951172 27.969409942627 27.9314785003662 27.8664588928223 27.7937641143799 27.7662334442139 27.7427768707275 27.7192916870117 27.6922760009766 27.6706924438477 27.625940322876 27.5806274414062 27.5891704559326 27.6098327636719 27.62060546875 27.665060043335 27.7369937896729 27.7311458587646 27.6050148010254 27.4902076721191 27.4254760742188 27.351978302002 27.2907791137695 27.2763729095459 27.284969329834 27.2831802368164 27.2804183959961 27.251220703125 27.2494812011719 27.2492561340332 27.1548347473145 27.072452545166 27.1072826385498 27.1635684967041
-9999 -9999 -9999 -9999 -9999 -9999 -9999 -9999 -9999 -9999 -9999 -9999 -9999 -9999 27.1453204154968 26.8857917785645 27.2424774169922 27.592643737793 28.2602825164795 28.9109535217285 29.1025524139404 29.1103477478027 29.018762588501 28.8226852416992 28.5805625915527 28.3731479644775 28.2796573638916 28.2866992950439 28.3232536315918 28.4558067321777 28.5201683044434 28.4055118560791 28.2926464080811 28.2609539031982 28.1768379211426 28.0549278259277 28.0204334259033 27.9889602661133 27.9680690765381 27.9305248260498 27.8625602722168 27.8036041259766 27.756872177124 27.7164306640625 27.6937522888184 27.6911468505859 27.6566104888916 27.6336936950684 27.649377822876 27.6476535797119 27.6145763397217 27.6261024475098 27.6571846008301 27.6132011413574 27.513858795166 27.4546146392822 27.4089527130127 27.3450775146484 27.2804412841797 27.2498207092285 27.2538223266602 27.2847023010254 27.3284244537354 27.3527069091797 27.3773822784424 27.3549175262451 27.233907699585 27.1223926544189 27.0995311737061 27.106294631958
-9999 -9999 -9999 -9999 -9999 -9999 -9999 -9999 -9999 -9999 -9999 27.2480030059814 27.2372188568115 27.2033176422119 27.1466178894043 27.3455543518066 28.1247749328613 28.6777610778809 29.0339241027832 29.1678276062012 29.1631526947021 29.0642719268799 28.8455257415771 28.5623950958252 28.353214263916 28.2234954833984 28.1954402923584 28.2230186462402 28.2357540130615 28.348876953125 28.4839916229248 28.4403495788574 28.3390254974365 28.2962036132812 28.2074661254883 28.0433712005615 27.9457874298096 27.9102401733398 27.8892669677734 27.8389949798584 27.7496967315674 27.7026405334473 27.6959972381592 27.685131072998 27.6959075927734 27.7264747619629 27.717981338501 27.6980113983154 27.6934146881104 27.6766624450684 27.6559467315674 27.6702747344971 27.6527423858643 27.5861282348633 27.5387954711914 27.5183906555176 27.4640121459961 27.406421661377 27.3550548553467 27.3269271850586 27.3362693786621 27.3830299377441 27.4384574890137 27.4665241241455 27.47021484375 27.421745300293 27.3093299865723 27.1873340606689 27.1258792877197 27.1073036193848
-9999 -9999 -9999 -9999 -9999 -9999 -9999 -9999 -9999 27.4223194122314 27.315544128418 27.3174209594727 27.4254474639893 27.49387550354 27.5279598236084 27.9436683654785 28.8425369262695 29.1075687408447 29.2079124450684 29.2262763977051 29.1244735717773 28.9130020141602 28.6102142333984 28.315896987915 28.1710147857666 28.0950946807861 28.1203460693359 28.1686401367188 28.1648578643799 28.2284507751465 28.3775329589844 28.4008979797363 28.3243923187256 28.2741298675537 28.1457386016846 27.9260082244873 27.8190746307373 27.8061351776123 27.7507095336914 27.6575012207031 27.5897979736328 27.6175975799561 27.6520824432373 27.6660118103027 27.720495223999 27.7757167816162 27.7698822021484 27.74635887146 27.7423133850098 27.7468357086182 27.7575607299805 27.7412033081055 27.6795272827148 27.6330261230469 27.6236896514893 27.6006088256836 27.5452499389648 27.5046615600586 27.4777126312256 27.4623889923096 27.4674110412598 27.4864883422852 27.5078372955322 27.515811920166 27.5010623931885 27.4511985778809 27.3544845581055 27.2162494659424 27.1287593841553 27.0920886993408
-9999 -9999 -9999 -9999 -9999 -9999 -9999 -9999 -9999 27.3667659759521 27.3581581115723 27.5251979827881 27.7880897521973 27.9716548919678 28.175745010376 28.8177375793457 29.1767349243164 29.2685012817383 29.2589588165283 29.1304607391357 28.9342250823975 28.6704750061035 28.3362979888916 28.1338977813721 27.9978675842285 27.9383811950684 27.9720191955566 28.0222358703613 28.0204105377197 28.0515937805176 28.1759033203125 28.2380695343018 28.2157573699951 28.1817817687988 28.0335025787354 27.7550525665283 27.6247386932373 27.6615409851074 27.6721153259277 27.6711826324463 27.674108505249 27.692907333374 27.7155933380127 27.7455635070801 27.782190322876 27.8073425292969 27.8126888275146 27.8246726989746 27.8530616760254 27.8870162963867 27.9170169830322 27.8979778289795 27.8290672302246 27.7797927856445 27.7527313232422 27.7009201049805 27.6312294006348 27.5842247009277 27.56809425354 27.5491104125977 27.5293426513672 27.5060253143311 27.488826751709 27.4790019989014 27.464262008667 27.4289588928223 27.3310050964355 27.1743240356445 27.0857353210449 27.0637111663818
-9999 -9999 -9999 -9999 -9999 27.4165153503418 27.3821716308594 27.3936347961426 27.3819122314453 27.4133529663086 27.4727954864502 27.7810192108154 28.2007293701172 28.5733013153076 28.924934387207 29.2050743103027 29.2922286987305 29.2731533050537 29.1856994628906 29.0152626037598 28.7944755554199 28.474401473999 28.1020164489746 27.9160575866699 27.7741146087646 27.75830078125 27.8065547943115 27.842342376709 27.8376140594482 27.8810977935791 27.9878177642822 28.0525608062744 28.0614013671875 28.0151386260986 27.8129253387451 27.5452919006348 27.5200347900391 27.6654281616211 27.7776489257812 27.8458862304688 27.8460483551025 27.8339157104492 27.8453330993652 27.8596668243408 27.8779773712158 27.9145641326904 27.9598560333252 28.0059242248535 28.0417785644531 28.0606479644775 28.0695858001709 28.051399230957 27.9897994995117 27.9160709381104 27.8492965698242 27.7869911193848 27.7222328186035 27.6821231842041 27.6846199035645 27.6721878051758 27.6296081542969 27.5547142028809 27.4757232666016 27.4181022644043 27.3935947418213 27.3782424926758 27.3022422790527 27.1520805358887 27.0777587890625 27.0775108337402
-9999 -9999 -9999 -9999 27.5344944000244 27.3942527770996 27.3551425933838 27.405143737793 27.4708194732666 27.5550117492676 27.6187725067139 28.1328544616699 28.6510982513428 28.9959259033203 29.1948394775391 29.2830581665039 29.28076171875 29.2496547698975 29.1049194335938 28.8359603881836 28.5255260467529 28.20849609375 27.9364013671875 27.7793731689453 27.6906185150146 27.6983108520508 27.7237377166748 27.7539844512939 27.7712230682373 27.8136539459229 27.8613204956055 27.8719635009766 27.860013961792 27.790210723877 27.6174278259277 27.4885692596436 27.5873031616211 27.7657260894775 27.8715343475342 27.9300765991211 27.9494247436523 27.960412979126 27.9720439910889 27.9804019927979 28.0089893341064 28.0568656921387 28.0912761688232 28.0849342346191 28.048397064209 28.0177669525146 28.0020694732666 27.9766368865967 27.9501171112061 27.9005146026611 27.83957862854 27.7903270721436 27.7523593902588 27.7322559356689 27.7416610717773 27.7324619293213 27.6778793334961 27.5680465698242 27.4452991485596 27.3714294433594 27.3394966125488 27.3286972045898 27.2764987945557 27.1660976409912 27.1220684051514 27.1619644165039
-9999 -9999 -9999 27.428512096405 27.3810138702393 27.2861671447754 27.3910312652588 27.6021404266357 27.8105583190918 27.9656734466553 28.1612224578857 28.7232189178467 28.9629020690918 29.1581535339355 29.2810745239258 29.2928829193115 29.2835674285889 29.1904754638672 28.9525375366211 28.6185970306396 28.3211441040039 28.0717697143555 27.902925491333 27.8118495941162 27.8006248474121 27.8127593994141 27.810209274292 27.800573348999 27.7871322631836 27.7831382751465 27.7833423614502 27.7754306793213 27.761510848999 27.7015228271484 27.5781555175781 27.5659713745117 27.6981029510498 27.8060054779053 27.8650188446045 27.9196834564209 27.9721908569336 27.9997329711914 28.0101528167725 28.0306968688965 28.078971862793 28.1332263946533 28.1535263061523 28.1058559417725 28.0343132019043 27.9811191558838 27.9380435943604 27.8853626251221 27.8600845336914 27.8456764221191 27.8054523468018 27.7705783843994 27.7447452545166 27.7245254516602 27.7126750946045 27.6963558197021 27.6533069610596 27.5455131530762 27.4315032958984 27.3759155273438 27.3518924713135 27.3238334655762 27.2743301391602 27.2000160217285 27.2030696868896 27.2666664123535
-9999 -9999 -9999 27.4706630706787 27.3278770446777 27.4215717315674 27.7066497802734 28.020378112793 28.3345069885254 28.5827751159668 28.8214950561523 28.9750747680664 29.1507015228271 29.306526184082 29.3229179382324 29.3002853393555 29.2475566864014 29.1090717315674 28.8126449584961 28.4501190185547 28.2032299041748 28.073558807373 28.009593963623 27.9627838134766 27.9780349731445 27.9898433685303 27.9748725891113 27.935583114624 27.9173107147217 27.902551651001 27.8740386962891 27.8376941680908 27.7931518554688 27.7126026153564 27.6501388549805 27.7141304016113 27.8049221038818 27.8397521972656 27.8681583404541 27.9111156463623 27.949728012085 27.9697074890137 27.9917621612549 28.0331516265869 28.0871620178223 28.1368846893311 28.1654987335205 28.149866104126 28.0969829559326 28.0307502746582 27.9473743438721 27.8391551971436 27.7820949554443 27.7693939208984 27.748929977417 27.7270069122314 27.70094871521 27.6658344268799 27.6586475372314 27.6733226776123 27.6584434509277 27.5564670562744 27.4460182189941 27.4079875946045 27.3982009887695 27.3606834411621 27.3030052185059 27.2495346069336 27.2838954925537 27.3402328491211
