NCOLS 70 
NROWS 52 
XLLCORNER -80 
YLLCORNER 33 
CELLSIZE 0.25 
NODATA_value -9999 
-9999.000000000000000 -9999 -9999 -9999 -9999 -9999 -9999 -9999 -9999 -9999 -9999 -9999 -9999 -9999 -9999 -9999 -9999 -9999 -9999 -9999 -9999 -9999 -9999 -9999 -9999 -9999 -9999 -9999 -9999 -9999 -9999 -9999 -9999 -9999 -9999 -9999 -9999 -9999 -9999 -9999 -9999 -9999 -9999 -9999 -9999 -9999 -9999 -9999 -9999 -9999 -9999 -9999 -9999 -9999 -9999 -9999 -9999 -9999 -9999 -9999 -9999 -9999 -9999 -9999 -9999 -9999 -9999 -9999 -9999 -9999
-9999 -9999 -9999 -9999 -9999 -9999 -9999 -9999 -9999 -9999 -9999 -9999 -9999 -9999 -9999 -9999 -9999 -9999 -9999 -9999 -9999 -9999 -9999 -9999 -9999 -9999 -9999 -9999 -9999 -9999 -9999 -9999 -9999 -9999 -9999 -9999 -9999 -9999 -9999 -9999 -9999 -9999 -9999 -9999 -9999 -9999 -9999 -9999 -9999 -9999 -9999 -9999 -9999 -9999 -9999 -9999 -9999 -9999 -9999 -9999 -9999 -9999 -9999 -9999 -9999 -9999 -9999 -9999 -9999 -9999
-9999 -9999 -9999 -9999 -9999 -9999 -9999 -9999 -9999 -9999 -9999 -9999 -9999 -9999 -9999 -9999 -9999 -9999 -9999 -9999 -9999 -9999 -9999 -9999 -9999 -9999 -9999 -9999 -9999 -9999 -9999 -9999 -9999 -9999 -9999 -9999 -9999 -9999 -9999 -9999 -9999 -9999 -9999 -9999 -9999 -9999 -9999 -9999 -9999 -9999 -9999 -9999 -9999 -9999 -9999 -9999 -9999 -9999 -9999 17.1895713806152 -9999 -9999 -9999 -9999 -9999 -9999 -9999 -9999 -9999 -9999
-9999 -9999 -9999 -9999 -9999 -9999 -9999 -9999 -9999 -9999 -9999 -9999 -9999 -9999 -9999 -9999 -9999 -9999 -9999 -9999 -9999 -9999 -9999 -9999 -9999 -9999 -9999 -9999 -9999 -9999 -9999 -9999 -9999 -9999 -9999 -9999 -9999 -9999 -9999 -9999 -9999 -9999 -9999 -9999 -9999 -9999 -9999 -9999 -9999 -9999 -9999 -9999 -9999 -9999 -9999 15.4414844512939 15.6046485900879 15.967734336853 16.422779083252 16.8119449615479 -9999 -9999 -9999 -9999 -9999 -9999 -9999 -9999 -9999 -9999
-9999 -9999 -9999 -9999 -9999 -9999 -9999 -9999 -9999 -9999 -9999 -9999 -9999 -9999 -9999 -9999 -9999 -9999 -9999 -9999 -9999 -9999 -9999 -9999 -9999 -9999 -9999 -9999 -9999 -9999 -9999 -9999 -9999 -9999 -9999 -9999 -9999 -9999 -9999 -9999 -9999 -9999 -9999 -9999 -9999 -9999 -9999 -9999 -9999 -9999 -9999 -9999 15.2825260162354 15.2368831634521 15.2891492843628 15.358190536499 15.5046873092651 15.8344287872314 -9999 -9999 -9999 -9999 -9999 -9999 -9999 -9999 -9999 -9999 -9999 -9999
-9999 -9999 -9999 -9999 -9999 -9999 -9999 -9999 -9999 -9999 -9999 -9999 -9999 -9999 -9999 -9999 -9999 -9999 -9999 -9999 -9999 -9999 -9999 -9999 -9999 -9999 -9999 -9999 -9999 -9999 -9999 -9999 -9999 -9999 -9999 -9999 -9999 -9999 -9999 -9999 -9999 -9999 -9999 -9999 -9999 -9999 -9999 -9999 -9999 -9999 14.1482765197754 14.2571926116943 14.5583829879761 14.7764387130737 14.9671258926392 15.175537109375 -9999 -9999 -9999 -9999 -9999 -9999 -9999 -9999 -9999 -9999 -9999 18.1546815236409 18.2093935012817 17.7909965515137
-9999 -9999 -9999 -9999 -9999 -9999 -9999 -9999 -9999 -9999 -9999 -9999 -9999 -9999 -9999 -9999 -9999 -9999 -9999 -9999 -9999 -9999 -9999 -9999 -9999 -9999 -9999 -9999 -9999 -9999 -9999 -9999 -9999 -9999 -9999 -9999 -9999 -9999 -9999 -9999 -9999 -9999 -9999 -9999 15.1242033640544 -9999 -9999 14.153576374054 13.8549375534058 13.7822713851929 13.6833543777466 13.6554765701294 14.03196144104 14.483437538147 14.9054365158081 -9999 -9999 -9999 -9999 -9999 -9999 -9999 -9999 16.9465847015381 16.9935932159424 17.3111896514893 17.7736339569092 18.2621288299561 18.4282817840576 18.3561668395996
-9999 -9999 -9999 -9999 -9999 -9999 -9999 -9999 -9999 -9999 -9999 -9999 -9999 -9999 -9999 -9999 -9999 -9999 -9999 -9999 -9999 -9999 -9999 -9999 -9999 -9999 -9999 -9999 -9999 -9999 -9999 -9999 -9999 -9999 -9999 -9999 -9999 -9999 -9999 -9999 -9999 -9999 -9999 -9999 15.2157354354858 14.7537460327148 14.3487939834595 14.2153367996216 14.195237159729 14.1279344558716 13.9690389633179 13.9248867034912 14.1793556213379 14.5237216949463 14.6294219493866 -9999 -9999 -9999 -9999 -9999 -9999 -9999 17.0469913482666 17.2610244750977 17.3627834320068 17.570219039917 18.0970840454102 18.5128650665283 18.6057109832764 18.5759105682373
-9999 -9999 -9999 -9999 -9999 -9999 -9999 -9999 -9999 -9999 -9999 -9999 -9999 -9999 -9999 -9999 -9999 -9999 -9999 -9999 -9999 -9999 -9999 -9999 -9999 -9999 -9999 -9999 -9999 -9999 -9999 -9999 -9999 -9999 -9999 -9999 -9999 -9999 -9999 -9999 16.900634765625 16.6542466481527 15.9472269058228 15.4039468765259 15.2126293182373 15.0546674728394 15.0237016677856 15.051609992981 15.0127248764038 14.8363494873047 14.500470161438 14.2915983200073 14.4110536575317 14.605092048645 14.8091081619263 -9999 -9999 -9999 -9999 -9999 16.72922706604 16.8078956604004 17.4375171661377 17.7745704650879 17.7178611755371 17.7400913238525 18.0376434326172 18.298376083374 18.4556121826172 18.5777606964111
-9999 -9999 -9999 -9999 -9999 -9999 -9999 -9999 -9999 -9999 -9999 -9999 -9999 -9999 -9999 -9999 -9999 -9999 -9999 -9999 -9999 -9999 -9999 -9999 -9999 -9999 -9999 -9999 -9999 -9999 -9999 -9999 -9999 -9999 -9999 -9999 -9999 -9999 -9999 17.0304431915283 16.9675331115723 16.7039279937744 16.2912788391113 15.9338521957397 15.7557210922241 15.8676013946533 16.1541557312012 16.3074398040771 16.2478656768799 16.0030975341797 15.4960651397705 14.9565458297729 14.7312383651733 14.7104568481445 14.8638429641724 15.3424272537231 -9999 -9999 -9999 16.3987097740173 16.2380695343018 17.141716003418 17.971700668335 18.1998252868652 18.0135173797607 17.8409976959229 17.9119281768799 18.1311779022217 18.4311618804932 18.7019443511963
-9999 -9999 -9999 -9999 -9999 -9999 -9999 -9999 -9999 -9999 -9999 -9999 -9999 -9999 -9999 -9999 -9999 -9999 -9999 -9999 -9999 -9999 -9999 -9999 -9999 -9999 -9999 -9999 -9999 -9999 -9999 -9999 -9999 -9999 -9999 -9999 -9999 -9999 17.47102394104 17.2108116149902 16.9773082733154 16.6564121246338 16.3383712768555 16.2085208892822 16.4579887390137 17.0161476135254 17.4873104095459 17.6072940826416 17.4601135253906 17.1098670959473 16.4401187896729 15.6303129196167 15.1052885055542 14.8720293045044 14.9857749938965 15.4824934005737 15.9105129241943 16.3919377326965 16.1868267059326 16.2931156158447 16.8768272399902 17.6535606384277 18.1471862792969 18.2670764923096 18.1535186767578 18.0269546508789 18.1092262268066 18.420238494873 18.8162479400635 19.0939273834229
-9999 -9999 -9999 -9999 -9999 -9999 -9999 -9999 -9999 -9999 -9999 -9999 -9999 -9999 -9999 -9999 -9999 -9999 -9999 -9999 -9999 -9999 -9999 -9999 -9999 -9999 -9999 -9999 -9999 -9999 -9999 -9999 -9999 -9999 -9999 -9999 -9999 17.7630958557129 17.7332954406738 17.6174736022949 17.3598670959473 17.0982475280762 17.0154094696045 17.218391418457 17.6991786956787 18.2068862915039 18.4620838165283 18.4295845031738 18.2274837493896 17.8765487670898 17.2024345397949 16.2675304412842 15.5698852539062 15.3163051605225 15.5650196075439 16.1312503814697 16.5747451782227 16.8383731842041 17.0618457794189 17.2148323059082 17.5050067901611 17.9643230438232 18.3191394805908 18.4891624450684 18.5462017059326 18.599536895752 18.7910919189453 19.064416885376 19.3070793151855 19.4801483154297
-9999 -9999 -9999 -9999 -9999 -9999 -9999 -9999 -9999 -9999 -9999 -9999 -9999 -9999 -9999 -9999 -9999 -9999 -9999 -9999 -9999 -9999 -9999 -9999 -9999 -9999 -9999 -9999 -9999 -9999 -9999 -9999 -9999 -9999 -9999 -9999 -9999 17.9162521362305 17.9958820343018 18.1337909698486 18.1499099731445 18.0961494445801 18.1039524078369 18.2795028686523 18.614013671875 18.8909435272217 18.900089263916 18.6817378997803 18.3983955383301 18.0767364501953 17.5442848205566 16.749927520752 16.0879230499268 15.8216638565063 16.0549964904785 16.6491298675537 17.2649536132812 17.6960029602051 17.8839797973633 17.8186855316162 17.8264198303223 18.1232223510742 18.5504703521729 18.9566230773926 19.2660160064697 19.4830722808838 19.6518173217773 19.7289276123047 19.6995983123779 19.7059459686279
-9999 -9999 -9999 -9999 -9999 -9999 -9999 -9999 -9999 -9999 -9999 -9999 -9999 -9999 -9999 -9999 -9999 -9999 -9999 -9999 -9999 -9999 -9999 -9999 -9999 -9999 -9999 -9999 -9999 -9999 -9999 -9999 -9999 -9999 -9999 -9999 -9999 18.5077342987061 18.4964122772217 18.6962013244629 18.8600044250488 18.9211025238037 18.9691066741943 19.0948715209961 19.2699680328369 19.3208255767822 19.0951156616211 18.6996173858643 18.3275947570801 17.9698123931885 17.5186901092529 16.9734363555908 16.5801734924316 16.4987602233887 16.7809257507324 17.3310489654541 17.9568958282471 18.3560352325439 18.4733352661133 18.2632713317871 18.1587715148926 18.3596458435059 18.7473182678223 19.1864051818848 19.5300064086914 19.8606281280518 20.1690216064453 20.3430595397949 20.3112812042236 20.1374340057373
-9999 -9999 -9999 -9999 -9999 -9999 -9999 -9999 -9999 -9999 -9999 -9999 -9999 -9999 -9999 -9999 -9999 -9999 -9999 -9999 -9999 -9999 -9999 -9999 -9999 -9999 -9999 -9999 -9999 -9999 -9999 -9999 -9999 -9999 -9999 -9999 18.9001903533936 18.8451442718506 18.8354778289795 18.9619731903076 19.1017322540283 19.2075958251953 19.3308544158936 19.4531993865967 19.5219116210938 19.4798145294189 19.2285499572754 18.8402500152588 18.4950561523438 18.167537689209 17.8123092651367 17.4690341949463 17.2982425689697 17.3977928161621 17.80690574646 18.4354934692383 19.239839553833 19.654727935791 19.6960792541504 19.3802013397217 19.2189617156982 19.2997665405273 19.3996238708496 19.5662422180176 19.6143589019775 19.6911125183105 20.0295391082764 20.3254508972168 20.5330829620361 20.4906024932861
-9999 -9999 -9999 -9999 -9999 -9999 -9999 -9999 -9999 -9999 -9999 -9999 -9999 -9999 -9999 -9999 -9999 -9999 -9999 -9999 -9999 -9999 -9999 -9999 -9999 -9999 -9999 -9999 -9999 -9999 -9999 -9999 -9999 -9999 -9999 -9999 -9999 19.1328964233398 19.0416088104248 19.0013332366943 19.1713447570801 19.3543758392334 19.4611473083496 19.5200157165527 19.5390625 19.5051879882812 19.3431949615479 19.0749225616455 18.8423385620117 18.6285724639893 18.4094734191895 18.2035980224609 18.0672454833984 18.064281463623 18.355432510376 19.0162105560303 20.3014240264893 21.0771598815918 21.2536697387695 20.9924011230469 20.6250286102295 20.5160598754883 20.2048988342285 20.1851787567139 20.2941913604736 20.3079853057861 20.4241142272949 20.4639053344727 20.521463394165 20.3887042999268
-9999 -9999 -9999 -9999 -9999 -9999 -9999 -9999 -9999 -9999 -9999 -9999 -9999 -9999 -9999 -9999 -9999 -9999 -9999 -9999 -9999 -9999 -9999 -9999 -9999 -9999 -9999 -9999 -9999 -9999 -9999 -9999 -9999 -9999 -9999 -9999 -9999 -9999 19.3444709777832 -9999 19.384693145752 19.5601329803467 19.4722270965576 19.3933696746826 19.3997974395752 19.3957958221436 19.288761138916 19.092212677002 18.9227085113525 18.7548503875732 18.6622676849365 18.6109714508057 18.5600280761719 18.4663257598877 18.6638679504395 19.2524852752686 20.6774597167969 21.5616016387939 21.9414501190186 21.6772937774658 21.1366844177246 20.7276134490967 20.2535343170166 20.4828147888184 21.2334117889404 21.5424365997314 21.5444488525391 21.2513027191162 20.8882484436035 20.4548072814941
-9999 -9999 -9999 -9999 -9999 -9999 -9999 -9999 -9999 -9999 -9999 -9999 -9999 -9999 -9999 -9999 -9999 -9999 -9999 -9999 -9999 -9999 -9999 -9999 -9999 -9999 -9999 -9999 -9999 -9999 -9999 -9999 -9999 -9999 -9999 -9999 -9999 -9999 -9999 -9999 20.1251735687256 19.749849319458 19.4737281799316 19.3489513397217 19.4105339050293 19.4775352478027 19.3810558319092 19.1819114685059 19.0636672973633 18.9084320068359 18.8642807006836 18.8674697875977 18.8757629394531 18.8509559631348 19.0604057312012 19.7277736663818 20.9199314117432 21.995719909668 22.6631755828857 22.679666519165 22.2597064971924 21.4065704345703 20.5527400970459 21.3149662017822 22.6120510101318 23.0306587219238 22.8644142150879 22.3297462463379 21.743537902832 21.3536586761475
-9999 -9999 -9999 -9999 -9999 -9999 -9999 -9999 -9999 -9999 -9999 -9999 -9999 -9999 -9999 -9999 -9999 -9999 -9999 -9999 -9999 -9999 -9999 -9999 -9999 -9999 -9999 -9999 -9999 -9999 -9999 -9999 -9999 -9999 21.1550288200378 21.3075904846191 21.30885887146 -9999 21.1762180328369 20.9520416259766 20.3029842376709 19.7314434051514 19.5161361694336 19.4744434356689 19.610107421875 19.77610206604 19.6874084472656 19.4169464111328 19.2395782470703 19.1262550354004 19.119291305542 19.2625885009766 19.5025005340576 19.7761497497559 20.4328060150146 21.5519237518311 22.7294139862061 23.671989440918 24.1195850372314 24.1776123046875 23.9499092102051 23.0310974121094 21.7910499572754 22.4164390563965 23.5417957305908 24.0675258636475 24.0468654632568 23.8474521636963 23.4736576080322 23.2376441955566
-9999 -9999 -9999 -9999 -9999 -9999 -9999 -9999 -9999 -9999 -9999 -9999 -9999 -9999 -9999 -9999 -9999 -9999 -9999 -9999 -9999 -9999 -9999 -9999 -9999 -9999 -9999 22.8862380981445 22.8862380981445 22.4897270202637 22.0764045715332 21.4731426239014 21.0885734558105 21.1100254058838 21.126708984375 21.0757904052734 20.976245880127 20.8915462493896 20.8248329162598 20.5804634094238 19.9491748809814 19.4398899078369 19.4379978179932 19.6199188232422 19.8635940551758 20.0918159484863 20.0678386688232 19.8295440673828 19.6725597381592 19.6854362487793 19.8658313751221 20.3079566955566 20.9948196411133 22.0123043060303 23.3362464904785 24.5253391265869 25.2487564086914 25.6690635681152 25.6782646179199 25.6559371948242 25.24534034729 24.6974658966064 24.3317260742188 24.2059593200684 24.5318202972412 24.8707256317139 24.8762226104736 24.951488494873 24.8112773895264 24.5583076477051
-9999 -9999 -9999 -9999 -9999 -9999 -9999 -9999 -9999 -9999 -9999 -9999 -9999 -9999 -9999 -9999 -9999 -9999 -9999 -9999 -9999 -9999 -9999 -9999 -9999 -9999 -9999 -9999 -9999 -9999 21.9108695983887 21.4281368255615 21.1406936645508 21.1675567626953 21.1549892425537 21.0890045166016 20.9594707489014 20.7882976531982 20.5961647033691 20.3111839294434 19.8689022064209 19.5050811767578 19.6382541656494 20.0011291503906 20.3289432525635 20.5832271575928 20.6891536712646 20.675708770752 20.7350978851318 21.0557289123535 21.5494709014893 22.2492656707764 23.1646137237549 24.2645492553711 25.1178398132324 25.5670680999756 25.8428001403809 26.0337734222412 25.9681816101074 25.9175682067871 25.5903644561768 25.5492153167725 25.8687553405762 25.5076274871826 25.3235454559326 25.4024085998535 25.3668956756592 25.4022789001465 25.2438659667969 24.9436435699463
-9999 -9999 -9999 -9999 -9999 -9999 -9999 -9999 -9999 -9999 -9999 -9999 -9999 -9999 -9999 -9999 -9999 -9999 -9999 -9999 -9999 -9999 -9999 -9999 -9999 22.5273977915446 22.2951431274414 22.0899232228597 21.8945059776306 21.6875972747803 21.6373062133789 21.5625171661377 21.5831146240234 21.5919361114502 21.4978675842285 21.3842697143555 21.2305793762207 21.0393714904785 20.8447418212891 20.6627082824707 20.4797687530518 20.3703842163086 20.4730529785156 20.7534561157227 21.1014442443848 21.4050064086914 21.6796722412109 21.9211654663086 22.2962398529053 22.9406700134277 23.6814060211182 24.4017543792725 25.0566825866699 25.4567031860352 25.617639541626 25.728832244873 25.8761672973633 26.0235004425049 26.0202159881592 26.0099506378174 26.0512294769287 26.4529552459717 26.5304355621338 26.0307769775391 25.6214447021484 25.532262802124 25.4365921020508 25.4210376739502 25.324764251709 25.2577667236328
-9999 -9999 -9999 -9999 -9999 -9999 -9999 -9999 -9999 -9999 -9999 -9999 -9999 -9999 -9999 -9999 -9999 -9999 -9999 -9999 -9999 -9999 -9999 -9999 22.7590427398682 22.5315799713135 22.2915706634521 22.0622787475586 21.9159202575684 21.9122276306152 21.9734592437744 21.9511737823486 21.87180519104 21.8057250976562 21.7700462341309 21.7744197845459 21.7633647918701 21.6951427459717 21.6024017333984 21.5358257293701 21.4914169311523 21.4928455352783 21.6051692962646 21.8705730438232 22.2543029785156 22.6886005401611 23.1489105224609 23.540283203125 24.0009918212891 24.5426845550537 25.0091609954834 25.3077049255371 25.4738483428955 25.6217632293701 25.7320098876953 25.8281593322754 25.9350090026855 26.0924034118652 26.2076759338379 26.3489551544189 26.5689163208008 26.6608562469482 26.5302829742432 26.0079078674316 25.5821685791016 25.4446048736572 25.3619518280029 25.4094371795654 25.4905662536621 25.7114887237549
-9999 -9999 -9999 -9999 -9999 -9999 -9999 -9999 -9999 -9999 -9999 -9999 -9999 -9999 -9999 -9999 -9999 -9999 -9999 -9999 -9999 -9999 -9999 -9999 22.7128448486328 22.5266666412354 22.3479137420654 22.1900196075439 22.1320571899414 22.2178115844727 22.3559341430664 22.3693370819092 22.296838760376 22.3012027740479 22.4065380096436 22.5724334716797 22.7271156311035 22.7989978790283 22.8264293670654 22.867208480835 22.8934574127197 22.9075584411621 22.9731712341309 23.1484088897705 23.4857006072998 23.9767837524414 24.4535827636719 24.7864360809326 25.0359573364258 25.2290325164795 25.3693790435791 25.4862270355225 25.5989627838135 25.7071800231934 25.8095817565918 25.9314422607422 26.083833694458 26.2460346221924 26.3896293640137 26.4577732086182 26.4805927276611 26.4392185211182 26.3130474090576 25.8595333099365 25.4899311065674 25.3729515075684 25.3499355316162 25.5578098297119 25.8414649963379 26.0589294433594
-9999 -9999 -9999 -9999 -9999 -9999 -9999 -9999 -9999 -9999 -9999 -9999 -9999 -9999 -9999 -9999 -9999 -9999 -9999 -9999 -9999 -9999 -9999 23.0314426422119 22.8734436035156 22.6466388702393 22.4589004516602 22.327507019043 22.3641147613525 22.5591297149658 22.7483367919922 22.842794418335 22.9384326934814 23.0663375854492 23.1860904693604 23.3552322387695 23.5210838317871 23.6000995635986 23.6506404876709 23.7413558959961 23.8312129974365 23.8697834014893 23.8801174163818 23.9543800354004 24.234806060791 24.6567516326904 24.9913272857666 25.1643600463867 25.2548141479492 25.3286190032959 25.4157943725586 25.5261878967285 25.6429386138916 25.7614078521729 25.8760967254639 26.009744644165 26.1693382263184 26.3181324005127 26.4516677856445 26.511173248291 26.4554824829102 26.3054599761963 26.1812038421631 25.8499927520752 25.5334911346436 25.34787940979 25.3333988189697 25.7120475769043 26.0701293945312 26.1475200653076
-9999 -9999 -9999 -9999 -9999 -9999 -9999 -9999 -9999 -9999 -9999 -9999 -9999 -9999 -9999 -9999 -9999 -9999 -9999 -9999 -9999 -9999 -9999 23.4298248291016 23.1096572875977 22.8185997009277 22.5981616973877 22.5034942626953 22.6172428131104 22.8238410949707 22.9900150299072 23.1720275878906 23.4170017242432 23.5796985626221 23.6239967346191 23.7537536621094 23.9497966766357 24.0684337615967 24.1107196807861 24.1205615997314 24.1380939483643 24.1700859069824 24.213472366333 24.3473873138428 24.6417083740234 24.956672668457 25.169116973877 25.2839851379395 25.3362789154053 25.3740158081055 25.4421424865723 25.5338973999023 25.615385055542 25.6922836303711 25.7676773071289 25.8716278076172 26.0218658447266 26.1762714385986 26.3276443481445 26.474515914917 26.5563774108887 26.4720726013184 26.2957706451416 25.9933471679688 25.717809677124 25.48388671875 25.3488941192627 25.6479339599609 25.9739780426025 26.0080318450928
-9999 -9999 -9999 -9999 -9999 -9999 -9999 -9999 -9999 -9999 -9999 -9999 -9999 -9999 -9999 -9999 -9999 -9999 -9999 -9999 -9999 -9999 23.9016876220703 23.5787124633789 23.2417964935303 22.9684982299805 22.7673320770264 22.7175388336182 22.8704109191895 23.0607891082764 23.1799716949463 23.3473682403564 23.5878124237061 23.7348804473877 23.7913646697998 23.9867324829102 24.2767238616943 24.4760417938232 24.546028137207 24.496618270874 24.4060573577881 24.3704471588135 24.4467506408691 24.6652030944824 24.9687843322754 25.1955032348633 25.3006839752197 25.3608016967773 25.4192543029785 25.4667205810547 25.4877777099609 25.4948291778564 25.5106296539307 25.540599822998 25.5772647857666 25.6491451263428 25.7758903503418 25.9288673400879 26.0835590362549 26.2455444335938 26.4141674041748 26.4975929260254 26.4060573577881 26.1462249755859 25.9004230499268 25.7097282409668 25.5013275146484 25.5403022766113 25.700309753418 25.7232818603516
-9999 -9999 -9999 -9999 -9999 -9999 -9999 -9999 -9999 -9999 -9999 -9999 -9999 -9999 26.0203035672506 -9999 -9999 -9999 -9999 25.0145606994629 -9999 24.2551879882812 23.9370346069336 23.6089515686035 23.3593521118164 23.1623191833496 22.9978580474854 22.9828205108643 23.194372177124 23.4078731536865 23.5059680938721 23.6351547241211 23.8135433197021 23.9202308654785 24.0421581268311 24.3284015655518 24.6228790283203 24.8020896911621 24.8848457336426 24.8733978271484 24.7869472503662 24.6832275390625 24.6812858581543 24.847146987915 25.095085144043 25.2902526855469 25.3902263641357 25.4430847167969 25.4830417633057 25.4848670959473 25.4475402832031 25.4200401306152 25.4355487823486 25.4841117858887 25.5638313293457 25.6848735809326 25.8457565307617 26.0113487243652 26.1518230438232 26.2612609863281 26.3612194061279 26.4506702423096 26.4818096160889 26.3634910583496 26.1202030181885 25.9080791473389 25.728006362915 25.6527309417725 25.6818904876709 25.6753311157227
-9999 -9999 -9999 -9999 -9999 -9999 -9999 -9999 -9999 -9999 -9999 -9999 -9999 -9999 26.022449016571 -9999 -9999 -9999 -9999 24.8754987716675 24.4318542480469 24.1482238769531 23.8627872467041 23.693244934082 23.5928421020508 23.4907569885254 23.3885345458984 23.4472026824951 23.6797847747803 23.8548984527588 23.9717140197754 24.1219081878662 24.2520236968994 24.3446445465088 24.5097770690918 24.757345199585 24.9552536010742 25.0991096496582 25.2182331085205 25.2880458831787 25.2834224700928 25.1852436065674 25.0590515136719 25.0281772613525 25.1064834594727 25.2335243225098 25.3674430847168 25.4640007019043 25.4861183166504 25.4590129852295 25.4482135772705 25.4845867156982 25.5660705566406 25.6989459991455 25.8812255859375 26.1034755706787 26.3410568237305 26.5437526702881 26.6799602508545 26.7434368133545 26.7553634643555 26.7514190673828 26.7355499267578 26.6819171905518 26.5137386322021 26.2844696044922 26.0752372741699 25.9694976806641 25.9769458770752 25.9865570068359
-9999 -9999 -9999 -9999 -9999 -9999 -9999 -9999 -9999 -9999 -9999 -9999 -9999 -9999 26.0127944946289 -9999 -9999 -9999 -9999 -9999 24.0609021186829 24.004861831665 23.8947219848633 23.9083843231201 23.9493846893311 23.9940166473389 24.0714588165283 24.2239627838135 24.3779163360596 24.4730815887451 24.5974559783936 24.7291069030762 24.8018207550049 24.8392887115479 24.8888969421387 24.9796333312988 25.0635242462158 25.1086864471436 25.2492694854736 25.4991416931152 25.6771717071533 25.731803894043 25.6539134979248 25.4832382202148 25.3751068115234 25.3692188262939 25.4369258880615 25.5394344329834 25.5965747833252 25.6153411865234 25.6656322479248 25.7637882232666 25.9152641296387 26.1392211914062 26.4106750488281 26.69993019104 26.9625129699707 27.1503925323486 27.2618637084961 27.308536529541 27.3034572601318 27.2561168670654 27.1735916137695 27.0759315490723 26.9454479217529 26.7330093383789 26.465612411499 26.3251953125 26.3393039703369 26.3797626495361
-9999 -9999 -9999 -9999 -9999 -9999 -9999 -9999 -9999 -9999 -9999 -9999 -9999 -9999 26.0298433303833 -9999 26.0514125823975 -9999 -9999 -9999 24.0753383636475 24.0151844024658 24.0098056793213 24.1071586608887 24.2773590087891 24.5446701049805 24.8417186737061 25.0769004821777 25.2316188812256 25.3520565032959 25.493070602417 25.6334590911865 25.7254333496094 25.7631988525391 25.7558135986328 25.7581272125244 25.776683807373 25.7887153625488 25.8865489959717 26.0980949401855 26.3044033050537 26.4546642303467 26.5035724639893 26.3839797973633 26.1564464569092 25.9553203582764 25.8491668701172 25.8266353607178 25.8331184387207 25.8604145050049 25.9480419158936 26.1001605987549 26.3203620910645 26.599552154541 26.9090633392334 27.2023792266846 27.4242038726807 27.5565490722656 27.6269283294678 27.6530685424805 27.6440048217773 27.6071586608887 27.5404605865479 27.4407043457031 27.3166961669922 27.1510410308838 26.8675594329834 26.599157333374 26.5579700469971 26.6367988586426
-9999 -9999 -9999 -9999 -9999 -9999 -9999 -9999 -9999 -9999 -9999 -9999 -9999 -9999 26.0298433303833 26.0468921661377 26.1024436950684 -9999 -9999 24.1282248497009 24.0817031860352 24.0783576965332 24.1303882598877 24.3261623382568 24.7280025482178 25.2575759887695 25.7153224945068 26.0263938903809 26.277172088623 26.4921855926514 26.682409286499 26.8622646331787 27.0079479217529 27.1023998260498 27.1415119171143 27.1445732116699 27.1323356628418 27.1309947967529 27.1553249359131 27.2154712677002 27.3104553222656 27.4075698852539 27.4637050628662 27.4310436248779 27.2655506134033 26.9955062866211 26.7185611724854 26.5177745819092 26.395637512207 26.3444862365723 26.37744140625 26.4985103607178 26.7165031433105 26.9973049163818 27.2906856536865 27.5200023651123 27.6542930603027 27.7092056274414 27.718957901001 27.7145118713379 27.7049026489258 27.6900100708008 27.6621036529541 27.6054248809814 27.5215320587158 27.428243637085 27.2545547485352 26.9754810333252 26.8042392730713 26.816011428833
-9999 -9999 -9999 -9999 -9999 -9999 -9999 -9999 -9999 -9999 -9999 -9999 -9999 -9999 -9999 25.991495513916 26.1052951812744 -9999 24.7800602912903 24.1755447387695 24.1803131103516 24.247241973877 24.3895034790039 24.7841491699219 25.3985939025879 26.0244541168213 26.4871864318848 26.8126411437988 27.1348876953125 27.4371643066406 27.6996212005615 27.8961162567139 28.0178966522217 28.0756683349609 28.0797290802002 28.0454654693604 27.9865798950195 27.9218845367432 27.8700866699219 27.8422584533691 27.8396854400635 27.8540019989014 27.861780166626 27.8564395904541 27.8171844482422 27.6954593658447 27.4871768951416 27.2625179290771 27.0903606414795 26.9798641204834 26.9465789794922 27.0209980010986 27.1970272064209 27.4142971038818 27.5837574005127 27.6731815338135 27.6912670135498 27.6582889556885 27.613597869873 27.5843334197998 27.5748653411865 27.5789985656738 27.5798816680908 27.5620460510254 27.5171146392822 27.4614448547363 27.4000968933105 27.2683925628662 27.1163635253906 27.0518360137939
-9999 -9999 -9999 -9999 -9999 -9999 -9999 -9999 -9999 -9999 -9999 -9999 -9999 -9999 -9999 25.9440593719482 25.7587871551514 -9999 24.4348239898682 24.3222942352295 24.3754920959473 24.4925765991211 24.7690105438232 25.3426475524902 26.0327796936035 26.6334056854248 27.091194152832 27.4921913146973 27.8574542999268 28.1339435577393 28.297830581665 28.3588886260986 28.3406314849854 28.2536640167236 28.1229438781738 27.9789695739746 27.8391742706299 27.7159633636475 27.6175556182861 27.5460357666016 27.5023784637451 27.494930267334 27.5160713195801 27.5598335266113 27.6111793518066 27.6483554840088 27.6396675109863 27.5700206756592 27.4832878112793 27.4224395751953 27.4100437164307 27.4706592559814 27.5676574707031 27.6428928375244 27.6643257141113 27.6417369842529 27.5856304168701 27.5013446807861 27.4242515563965 27.3825149536133 27.3783149719238 27.4052104949951 27.4394664764404 27.4478378295898 27.4238204956055 27.3775825500488 27.3416595458984 27.2959022521973 27.2312660217285 27.1801528930664
-9999 -9999 -9999 -9999 -9999 -9999 -9999 -9999 -9999 -9999 -9999 -9999 -9999 -9999 -9999 25.8584251403809 -9999 25.0449526650565 24.5363578796387 24.4834156036377 24.5950717926025 24.832010269165 25.315731048584 26.0507507324219 26.7480392456055 27.2848300933838 27.7006549835205 28.0461845397949 28.3081645965576 28.4263591766357 28.3939628601074 28.2479953765869 28.0623321533203 27.8899021148682 27.7376823425293 27.6046581268311 27.4901180267334 27.3884048461914 27.2918090820312 27.1933765411377 27.0974750518799 27.0307884216309 27.0316066741943 27.0869121551514 27.159688949585 27.2516841888428 27.3592987060547 27.449764251709 27.5030765533447 27.53391456604 27.5642509460449 27.5905799865723 27.5957984924316 27.5925693511963 27.5662040710449 27.5023651123047 27.4257392883301 27.3371257781982 27.2665100097656 27.2540645599365 27.2931289672852 27.3725318908691 27.456335067749 27.4726390838623 27.4371204376221 27.3793182373047 27.3280143737793 27.2721538543701 27.2094268798828 27.1723365783691
-9999 -9999 -9999 -9999 -9999 -9999 -9999 -9999 -9999 -9999 -9999 -9999 -9999 -9999 25.8584251403809 25.6150856018066 25.4112377166748 24.9436931610107 24.6541748046875 24.6220531463623 24.7955913543701 25.1838092803955 25.8736190795898 26.6552238464355 27.2672157287598 27.7344913482666 28.0735282897949 28.3200759887695 28.4501438140869 28.3880920410156 28.1474552154541 27.8920459747314 27.7434196472168 27.65500831604 27.5733242034912 27.482702255249 27.3892135620117 27.3018398284912 27.2101936340332 27.1047172546387 26.9828548431396 26.8476867675781 26.7625846862793 26.7506542205811 26.8130760192871 26.9418430328369 27.0675201416016 27.1811618804932 27.2881698608398 27.3774547576904 27.4275760650635 27.4461402893066 27.4564399719238 27.4659671783447 27.4443511962891 27.4135551452637 27.3647575378418 27.261962890625 27.1908130645752 27.2113037109375 27.2795581817627 27.3839282989502 27.4997673034668 27.5030040740967 27.4278030395508 27.3748378753662 27.3271331787109 27.2600402832031 27.1836681365967 27.1411838531494
-9999 -9999 -9999 -9999 -9999 -9999 -9999 -9999 -9999 -9999 -9999 -9999 -9999 -9999 -9999 -9999 25.1273055076599 24.9842300415039 24.7931671142578 24.8344192504883 25.0222015380859 25.4207935333252 26.1941509246826 27.0124568939209 27.5909194946289 27.9831390380859 28.2629356384277 28.437915802002 28.4346408843994 28.2168998718262 27.9269161224365 27.7610759735107 27.7100811004639 27.6645603179932 27.5936698913574 27.5028800964355 27.3920383453369 27.2718601226807 27.1385288238525 27.0063247680664 26.8961315155029 26.7674865722656 26.6575679779053 26.6713218688965 26.8369941711426 27.0302276611328 27.1388416290283 27.1692371368408 27.1910953521729 27.2470378875732 27.289493560791 27.3279113769531 27.3909378051758 27.4395771026611 27.4584407806396 27.4496955871582 27.3884677886963 27.2540416717529 27.1886749267578 27.2373332977295 27.3185081481934 27.4312000274658 27.576057434082 27.579776763916 27.4080619812012 27.3457412719727 27.3063316345215 27.2253513336182 27.1315288543701 27.095703125
-9999 -9999 -9999 -9999 -9999 -9999 -9999 -9999 -9999 -9999 -9999 -9999 -9999 -9999 -9999 -9999 25.0771455764771 25.1700611114502 25.1070499420166 25.2276916503906 25.3643436431885 25.6650161743164 26.4481792449951 27.3224506378174 27.8180980682373 28.1767902374268 28.4042682647705 28.4794673919678 28.3872756958008 28.1482734680176 27.9246940612793 27.8319034576416 27.7714805603027 27.6840896606445 27.5984115600586 27.516056060791 27.4003620147705 27.2376461029053 27.0442237854004 26.880558013916 26.7940902709961 26.7278022766113 26.7150573730469 26.8728580474854 27.0986022949219 27.2603969573975 27.3350696563721 27.3255939483643 27.3124103546143 27.3463840484619 27.3644142150879 27.3997802734375 27.4591464996338 27.4967555999756 27.5226383209229 27.5122547149658 27.4580669403076 27.3263416290283 27.2426052093506 27.274974822998 27.362512588501 27.4814338684082 27.6267070770264 27.6405067443848 27.4208450317383 27.295726776123 27.2429084777832 27.1679172515869 27.1158199310303 27.1393222808838
-9999 -9999 -9999 -9999 -9999 -9999 -9999 -9999 -9999 -9999 -9999 -9999 -9999 -9999 -9999 -9999 -9999 25.383460521698 25.4614238739014 25.6147651672363 25.7224044799805 26.0997447967529 26.8982524871826 27.6325378417969 28.0442886352539 28.3672714233398 28.5055446624756 28.4813365936279 28.3563861846924 28.1636695861816 28.0089168548584 27.9073696136475 27.7696399688721 27.6440029144287 27.5879344940186 27.5467414855957 27.4505519866943 27.2934722900391 27.0874366760254 26.8877010345459 26.8022937774658 26.8328876495361 26.9358310699463 27.0840339660645 27.1977462768555 27.2760372161865 27.3473567962646 27.3942108154297 27.4367294311523 27.4766578674316 27.4846153259277 27.4949340820312 27.5150241851807 27.5496635437012 27.5800170898438 27.5801258087158 27.5632820129395 27.4893951416016 27.3962440490723 27.3864879608154 27.4564208984375 27.5448379516602 27.6161289215088 27.6026515960693 27.4100208282471 27.2502727508545 27.1805057525635 27.1321678161621 27.1287994384766 27.1728096008301
-9999 -9999 -9999 -9999 -9999 -9999 -9999 -9999 -9999 -9999 -9999 -9999 -9999 -9999 25.1468322277069 25.1700611114502 25.4942985773087 25.6283655166626 25.7953071594238 25.8989028930664 26.0918617248535 26.6810836791992 27.3328723907471 27.8655967712402 28.3499336242676 28.5793056488037 28.5758495330811 28.4738311767578 28.3074417114258 28.1487903594971 28.0178718566895 27.8464756011963 27.6677017211914 27.5821590423584 27.5793190002441 27.5647888183594 27.4659328460693 27.3091564178467 27.1229419708252 26.931188583374 26.8627948760986 26.9353790283203 27.0587387084961 27.1823272705078 27.278528213501 27.3310527801514 27.3798427581787 27.4367847442627 27.492919921875 27.5391311645508 27.5467510223389 27.5311336517334 27.5337715148926 27.5730400085449 27.6149406433105 27.6172142028809 27.6212406158447 27.6207809448242 27.5793228149414 27.5302696228027 27.5297660827637 27.5492630004883 27.5709056854248 27.554630279541 27.4189033508301 27.280345916748 27.202844619751 27.1736507415771 27.199369430542 27.2559108734131
-9999 -9999 -9999 -9999 -9999 -9999 -9999 -9999 -9999 -9999 -9999 -9999 -9999 -9999 -9999 -9999 -9999 -9999 26.0862064361572 26.1109657287598 26.3288497924805 27.0456562042236 27.772554397583 28.339204788208 28.6269035339355 28.6487903594971 28.5559043884277 28.4051513671875 28.242000579834 28.1046199798584 27.9154014587402 27.6849670410156 27.5532035827637 27.5276794433594 27.5256996154785 27.4521579742432 27.2881565093994 27.123218536377 27.0009918212891 26.9219799041748 26.9401187896729 27.0541038513184 27.2033786773682 27.3453388214111 27.4527912139893 27.5114078521729 27.532829284668 27.5366497039795 27.5523738861084 27.5837135314941 27.5796718597412 27.5456085205078 27.5418529510498 27.5785884857178 27.6367835998535 27.6394672393799 27.6213264465332 27.6368980407715 27.6717929840088 27.6524810791016 27.5920600891113 27.5400886535645 27.530065536499 27.5188255310059 27.4415493011475 27.3501243591309 27.2751140594482 27.2631397247314 27.3392963409424 27.3817405700684
-9999 -9999 -9999 -9999 -9999 -9999 -9999 -9999 -9999 -9999 -9999 -9999 -9999 -9999 -9999 -9999 -9999 26.7078075408936 26.6359868049622 26.5396499633789 26.9309501647949 27.7710304260254 28.4281940460205 28.6889934539795 28.7014579772949 28.6070728302002 28.4759674072266 28.330924987793 28.1988582611084 28.0156650543213 27.735179901123 27.539306640625 27.4806232452393 27.4592628479004 27.3890724182129 27.2332859039307 27.0489082336426 26.9304180145264 26.9153709411621 26.9780254364014 27.08083152771 27.2058792114258 27.3241729736328 27.4122295379639 27.4895725250244 27.5826168060303 27.6581935882568 27.6678676605225 27.6342277526855 27.625638961792 27.6190052032471 27.5673274993896 27.5371589660645 27.572135925293 27.6463088989258 27.6652393341064 27.6322746276855 27.6043262481689 27.6626663208008 27.7254390716553 27.6766967773438 27.5797119140625 27.5248928070068 27.5077152252197 27.462215423584 27.398063659668 27.3475532531738 27.3616905212402 27.391716003418 27.328462600708
-9999 -9999 -9999 -9999 -9999 -9999 -9999 -9999 -9999 -9999 -9999 -9999 -9999 27.4333343505859 27.3499563005235 -9999 27.2105484008789 27.1017355918884 26.7078075408936 27.1855239868164 27.9926662445068 28.5694122314453 28.7725734710693 28.7707176208496 28.6521224975586 28.4991970062256 28.3574867248535 28.2411365509033 28.11376953125 27.8573608398438 27.5856037139893 27.4717864990234 27.4071369171143 27.3218154907227 27.1968002319336 27.0525035858154 26.9534473419189 26.9344444274902 26.9972991943359 27.1031856536865 27.2058277130127 27.3063316345215 27.3839511871338 27.4281024932861 27.4746837615967 27.5646591186523 27.6751098632812 27.7442398071289 27.7470264434814 27.725248336792 27.6968193054199 27.6445598602295 27.5793647766113 27.5842552185059 27.6532096862793 27.67506980896 27.6350250244141 27.5893077850342 27.6323089599609 27.7409210205078 27.7277240753174 27.6286792755127 27.5415210723877 27.4978523254395 27.4353122711182 27.3671188354492 27.3171501159668 27.2945613861084 27.2736206054688 27.285961151123
-9999 -9999 -9999 -9999 -9999 -9999 -9999 -9999 -9999 -9999 -9999 -9999 -9999 -9999 27.4333343505859 27.3676827748617 27.248851776123 27.1722450256348 27.2780380249023 28.1323223114014 28.7011032104492 28.8468246459961 28.8301887512207 28.7036285400391 28.5165481567383 28.3357906341553 28.2016925811768 28.1275444030762 27.9967365264893 27.7134990692139 27.4952163696289 27.3975009918213 27.3012542724609 27.1961517333984 27.1039752960205 27.0475120544434 27.0402069091797 27.0708847045898 27.1356658935547 27.2188816070557 27.318754196167 27.4320487976074 27.5308494567871 27.6024398803711 27.6659851074219 27.7695121765137 27.8729858398438 27.9324474334717 27.9344158172607 27.8951015472412 27.8358955383301 27.7673778533936 27.6913471221924 27.6561164855957 27.6800422668457 27.6866989135742 27.6573371887207 27.6318435668945 27.6642036437988 27.7417469024658 27.7291889190674 27.638162612915 27.5486831665039 27.5007019042969 27.4366359710693 27.338794708252 27.2742748260498 27.2351818084717 27.1950511932373 27.2369689941406
-9999 -9999 -9999 -9999 -9999 -9999 -9999 -9999 -9999 -9999 -9999 -9999 -9999 -9999 27.4833059310913 27.4333343505859 27.420862197876 27.5950965881348 28.1180305480957 28.6884956359863 28.8847999572754 28.8530006408691 28.6894512176514 28.4726943969727 28.2923622131348 28.1534595489502 28.0792102813721 28.0551776885986 27.9090347290039 27.6276779174805 27.4367351531982 27.3407764434814 27.2557907104492 27.1851615905762 27.1444644927979 27.1445465087891 27.1753921508789 27.2238140106201 27.2956829071045 27.3996391296387 27.5368099212646 27.6644172668457 27.7540321350098 27.8074340820312 27.8630104064941 27.9600772857666 28.042142868042 28.0923862457275 28.1044807434082 28.0775852203369 28.0356140136719 27.9521751403809 27.8414154052734 27.760913848877 27.737340927124 27.7245121002197 27.7153949737549 27.7121257781982 27.7236995697021 27.7474842071533 27.7128620147705 27.6353778839111 27.567663192749 27.529016494751 27.4731483459473 27.3713798522949 27.2884960174561 27.2385559082031 27.2025947570801 27.2484397888184
-9999 -9999 -9999 -9999 -9999 -9999 -9999 -9999 -9999 -9999 -9999 27.4832916259766 27.4875259399414 27.4865989685059 27.5147476196289 27.4985427856445 27.8167209625244 28.3529644012451 28.7343292236328 28.8968715667725 28.8804492950439 28.7045249938965 28.4743747711182 28.2889976501465 28.1611404418945 28.0709629058838 28.0501842498779 28.0503101348877 27.8959884643555 27.6237773895264 27.4463176727295 27.3799648284912 27.3365345001221 27.2950992584229 27.2764320373535 27.2942562103271 27.3423099517822 27.4201622009277 27.5167617797852 27.6144924163818 27.7235240936279 27.8171253204346 27.8636341094971 27.8726444244385 27.9143867492676 28.0047435760498 28.0711345672607 28.1068954467773 28.1030158996582 28.0735683441162 28.0832443237305 28.0748519897461 27.9756813049316 27.873067855835 27.8154582977295 27.7826118469238 27.7876491546631 27.7909355163574 27.7820281982422 27.7489929199219 27.663122177124 27.592700958252 27.5647602081299 27.5381011962891 27.5148468017578 27.4833068847656 27.4405899047852 27.4093494415283 27.4193248748779 27.4660167694092
-9999 -9999 -9999 -9999 -9999 -9999 -9999 -9999 -9999 27.5279102325439 27.5249252319336 27.5369892120361 27.5552425384521 27.5785751342773 27.5818138122559 27.7225322723389 28.3497543334961 28.6543197631836 28.8343200683594 28.91233253479 28.7916736602783 28.5786190032959 28.3915328979492 28.2269725799561 28.1089458465576 28.067066192627 28.0993671417236 28.1171245574951 27.9938163757324 27.7285900115967 27.5274028778076 27.4659805297852 27.4382266998291 27.4214382171631 27.4129066467285 27.4186840057373 27.4564170837402 27.5232391357422 27.5683288574219 27.5799560546875 27.6089000701904 27.6668128967285 27.7357120513916 27.7877655029297 27.865161895752 27.9850883483887 28.0470218658447 28.0456371307373 28.0179786682129 28.0019683837891 28.0190467834473 28.0510311126709 28.0071926116943 27.9426536560059 27.883939743042 27.8486881256104 27.873197555542 27.894832611084 27.8937969207764 27.8771667480469 27.8518962860107 27.8531932830811 27.8679866790771 27.8629970550537 27.8626480102539 27.8796253204346 27.8773059844971 27.8490352630615 27.8162231445312 27.7591819763184
-9999 -9999 -9999 -9999 -9999 -9999 -9999 -9999 -9999 27.5305805206299 27.5731620788574 27.605224609375 27.6388931274414 27.6697521209717 27.7366256713867 28.253267288208 28.7287425994873 28.9252986907959 28.9571552276611 28.8274688720703 28.5965061187744 28.3868083953857 28.2384967803955 28.1303768157959 28.0675983428955 28.052303314209 28.0838756561279 28.1249046325684 28.12034034729 27.975399017334 27.7134132385254 27.5342636108398 27.4714965820312 27.4609527587891 27.4654006958008 27.4946250915527 27.5527877807617 27.6088733673096 27.5900478363037 27.5317440032959 27.5200462341309 27.5445709228516 27.605993270874 27.6790714263916 27.785099029541 27.9282608032227 27.9799976348877 27.954460144043 27.9123363494873 27.8957176208496 27.9564723968506 28.0181179046631 27.9923267364502 27.9584426879883 27.9155387878418 27.8827457427979 27.9213333129883 27.9769191741943 28.0080509185791 28.0201168060303 28.0243015289307 28.0321464538574 28.0278244018555 28.0073394775391 28.0106582641602 28.0738773345947 28.1043434143066 28.0697441101074 28.0073070526123 27.897834777832
-9999 -9999 -9999 -9999 -9999 27.6863932609558 27.6015319824219 27.5742835998535 27.5818653106689 27.5885848999023 27.5933589935303 27.620698928833 27.7089786529541 27.983943939209 28.3459243774414 28.7203826904297 28.9074420928955 28.9404048919678 28.8322429656982 28.6486682891846 28.4832572937012 28.329158782959 28.1627521514893 28.0576782226562 28.0454082489014 28.0760879516602 28.1063899993896 28.1242847442627 28.1503772735596 28.1436042785645 27.9954490661621 27.746452331543 27.5457859039307 27.4607028961182 27.4530181884766 27.4960613250732 27.5885200500488 27.6421375274658 27.5860843658447 27.5400257110596 27.5455722808838 27.5588226318359 27.5825939178467 27.6117725372314 27.7152900695801 27.8700122833252 27.9346904754639 27.927152633667 27.9035606384277 27.8993549346924 27.973804473877 28.0209846496582 27.9762153625488 27.9515533447266 27.9284896850586 27.9095573425293 27.9597568511963 28.0280475616455 28.0600566864014 28.070779800415 28.0772933959961 28.0816135406494 28.0768871307373 28.0488758087158 28.0440979003906 28.1404113769531 28.203296661377 28.1667633056641 28.101375579834 28.0066986083984
-9999 -9999 -9999 -9999 27.8339138031006 27.6978378295898 27.6122894287109 27.5698318481445 27.5544281005859 27.5541858673096 27.5535106658936 27.6678504943848 28.0084705352783 28.5348834991455 28.8084735870361 28.9397163391113 28.976390838623 28.8663845062256 28.6654605865479 28.5051097869873 28.4013500213623 28.2681770324707 28.1217594146729 28.0391864776611 28.0752143859863 28.1570892333984 28.2051811218262 28.2046604156494 28.2013759613037 28.2085475921631 28.1665477752686 27.9900093078613 27.7375049591064 27.5606861114502 27.4787330627441 27.4802322387695 27.5601482391357 27.6165866851807 27.6204700469971 27.6516418457031 27.6956310272217 27.6909885406494 27.6672210693359 27.6611995697021 27.7593669891357 27.897289276123 27.9474658966064 27.9292392730713 27.9144439697266 27.9270133972168 27.9696311950684 27.9838733673096 27.9453620910645 27.942102432251 27.9341583251953 27.9269561767578 27.9747257232666 28.0219135284424 28.0427360534668 28.0534381866455 28.0623168945312 28.0635757446289 28.0546741485596 28.015625 28.0056667327881 28.144287109375 28.2631645202637 28.213996887207 28.1382369995117 28.0841770172119
-9999 -9999 -9999 27.8359794616699 27.8100357055664 27.6582279205322 27.601692199707 27.5945568084717 27.6117076873779 27.6994647979736 27.7491683959961 28.0764179229736 28.5704479217529 28.7530078887939 28.8954277038574 28.9690818786621 28.9199886322021 28.7373237609863 28.554931640625 28.4579849243164 28.3707122802734 28.25950050354 28.1478385925293 28.0939254760742 28.1326694488525 28.183629989624 28.196849822998 28.1743774414062 28.1703624725342 28.19846534729 28.2248497009277 28.1399936676025 27.9201908111572 27.7113971710205 27.5784282684326 27.5446376800537 27.6213130950928 27.6926136016846 27.7561168670654 27.8444976806641 27.951099395752 27.9886646270752 27.9374771118164 27.9131107330322 27.9678897857666 28.028772354126 28.0206089019775 27.9783172607422 27.953161239624 27.9500732421875 27.971960067749 27.9893283843994 27.967077255249 27.9707679748535 27.9712524414062 27.9633960723877 27.9935493469238 28.0246086120605 28.0214061737061 28.0192184448242 28.0331249237061 28.0374069213867 28.0252647399902 27.96653175354 27.9735107421875 28.1564235687256 28.3143863677979 28.2903327941895 28.195779800415 28.1424694061279
-9999 -9999 -9999 27.9164867401123 27.7834815979004 27.6212005615234 27.6948719024658 27.8025455474854 27.9916725158691 28.1831569671631 28.3834018707275 28.6967277526855 28.8373622894287 28.977933883667 29.0693778991699 29.0476055145264 28.8896160125732 28.6399612426758 28.4857616424561 28.4271335601807 28.3677349090576 28.2863807678223 28.2388782501221 28.2503051757812 28.280445098877 28.2723579406738 28.2345523834229 28.1812400817871 28.1492156982422 28.1608753204346 28.202465057373 28.18625831604 28.0337352752686 27.8399848937988 27.6954097747803 27.6690940856934 27.7749004364014 27.8658237457275 27.9495811462402 28.0770950317383 28.2249202728271 28.2959575653076 28.2403182983398 28.1834449768066 28.1673164367676 28.1402359008789 28.0946712493896 28.0463066101074 28.026725769043 28.0016860961914 27.9885349273682 27.9778423309326 27.9511737823486 27.9528408050537 27.9600849151611 27.953893661499 27.9609317779541 27.9858512878418 28.0046634674072 28.027172088623 28.0316162109375 28.0131988525391 27.9677848815918 27.9171962738037 27.9727039337158 28.1849250793457 28.3414421081543 28.3556423187256 28.2851142883301 28.1892471313477
