NCOLS 70 
NROWS 52 
XLLCORNER -80 
YLLCORNER 33 
CELLSIZE 0.25 
NODATA_value -9999 
-9999.000000000000000 -9999 -9999 -9999 -9999 -9999 -9999 -9999 -9999 -9999 -9999 -9999 -9999 -9999 -9999 -9999 -9999 -9999 -9999 -9999 -9999 -9999 -9999 -9999 -9999 -9999 -9999 -9999 -9999 -9999 -9999 -9999 -9999 -9999 -9999 -9999 -9999 -9999 -9999 -9999 -9999 -9999 -9999 -9999 -9999 -9999 -9999 -9999 -9999 -9999 -9999 -9999 -9999 -9999 -9999 -9999 -9999 -9999 -9999 -9999 -9999 -9999 -9999 -9999 -9999 -9999 -9999 -9999 -9999 -9999
-9999 -9999 -9999 -9999 -9999 -9999 -9999 -9999 -9999 -9999 -9999 -9999 -9999 -9999 -9999 -9999 -9999 -9999 -9999 -9999 -9999 -9999 -9999 -9999 -9999 -9999 -9999 -9999 -9999 -9999 -9999 -9999 -9999 -9999 -9999 -9999 -9999 -9999 -9999 -9999 -9999 -9999 -9999 -9999 -9999 -9999 -9999 -9999 -9999 -9999 -9999 -9999 -9999 -9999 -9999 -9999 -9999 -9999 -9999 -9999 -9999 -9999 -9999 -9999 -9999 -9999 -9999 -9999 -9999 -9999
-9999 -9999 -9999 -9999 -9999 -9999 -9999 -9999 -9999 -9999 -9999 -9999 -9999 -9999 -9999 -9999 -9999 -9999 -9999 -9999 -9999 -9999 -9999 -9999 -9999 -9999 -9999 -9999 -9999 -9999 -9999 -9999 -9999 -9999 -9999 -9999 -9999 -9999 -9999 -9999 -9999 -9999 -9999 -9999 -9999 -9999 -9999 -9999 -9999 -9999 -9999 -9999 -9999 -9999 -9999 -9999 -9999 -9999 -9999 17.1213798522949 -9999 -9999 -9999 -9999 -9999 -9999 -9999 -9999 -9999 -9999
-9999 -9999 -9999 -9999 -9999 -9999 -9999 -9999 -9999 -9999 -9999 -9999 -9999 -9999 -9999 -9999 -9999 -9999 -9999 -9999 -9999 -9999 -9999 -9999 -9999 -9999 -9999 -9999 -9999 -9999 -9999 -9999 -9999 -9999 -9999 -9999 -9999 -9999 -9999 -9999 -9999 -9999 -9999 -9999 -9999 -9999 -9999 -9999 -9999 -9999 -9999 -9999 -9999 -9999 -9999 15.1968412399292 15.4667797088623 15.9590368270874 16.4418601989746 16.7586936950684 -9999 -9999 -9999 -9999 -9999 -9999 -9999 -9999 -9999 -9999
-9999 -9999 -9999 -9999 -9999 -9999 -9999 -9999 -9999 -9999 -9999 -9999 -9999 -9999 -9999 -9999 -9999 -9999 -9999 -9999 -9999 -9999 -9999 -9999 -9999 -9999 -9999 -9999 -9999 -9999 -9999 -9999 -9999 -9999 -9999 -9999 -9999 -9999 -9999 -9999 -9999 -9999 -9999 -9999 -9999 -9999 -9999 -9999 -9999 -9999 -9999 -9999 14.9504814147949 14.7976751327515 14.7498235702515 15.0393571853638 15.594614982605 16.2049350738525 -9999 -9999 -9999 -9999 -9999 -9999 -9999 -9999 -9999 -9999 -9999 -9999
-9999 -9999 -9999 -9999 -9999 -9999 -9999 -9999 -9999 -9999 -9999 -9999 -9999 -9999 -9999 -9999 -9999 -9999 -9999 -9999 -9999 -9999 -9999 -9999 -9999 -9999 -9999 -9999 -9999 -9999 -9999 -9999 -9999 -9999 -9999 -9999 -9999 -9999 -9999 -9999 -9999 -9999 -9999 -9999 -9999 -9999 -9999 -9999 -9999 -9999 14.4901453018188 13.7033987045288 14.0057907104492 14.2087421417236 14.3779182434082 14.8144416809082 -9999 -9999 -9999 -9999 -9999 -9999 -9999 -9999 -9999 -9999 -9999 16.9605038960775 17.3499445915222 17.1856098175049
-9999 -9999 -9999 -9999 -9999 -9999 -9999 -9999 -9999 -9999 -9999 -9999 -9999 -9999 -9999 -9999 -9999 -9999 -9999 -9999 -9999 -9999 -9999 -9999 -9999 -9999 -9999 -9999 -9999 -9999 -9999 -9999 -9999 -9999 -9999 -9999 -9999 -9999 -9999 -9999 -9999 -9999 -9999 -9999 17.043404897054 -9999 -9999 16.3512482643127 15.6993408203125 15.3814458847046 14.5957155227661 13.7915821075439 13.6828184127808 13.9184608459473 14.2523307800293 -9999 -9999 -9999 -9999 -9999 -9999 -9999 -9999 16.150089263916 16.2819156646729 16.2795257568359 16.4302787780762 17.0249996185303 17.426233291626 17.7629356384277
-9999 -9999 -9999 -9999 -9999 -9999 -9999 -9999 -9999 -9999 -9999 -9999 -9999 -9999 -9999 -9999 -9999 -9999 -9999 -9999 -9999 -9999 -9999 -9999 -9999 -9999 -9999 -9999 -9999 -9999 -9999 -9999 -9999 -9999 -9999 -9999 -9999 -9999 -9999 -9999 -9999 -9999 -9999 -9999 17.0578594207764 16.9496631622314 16.7701377868652 16.5443363189697 16.3911781311035 16.2666034698486 15.9145774841309 15.2106075286865 14.5427141189575 14.2677783966064 14.2865178585052 -9999 -9999 -9999 -9999 -9999 -9999 -9999 15.940281867981 16.2579288482666 16.8637733459473 17.1874847412109 17.3325023651123 17.5950736999512 17.8567085266113 18.0488109588623
-9999 -9999 -9999 -9999 -9999 -9999 -9999 -9999 -9999 -9999 -9999 -9999 -9999 -9999 -9999 -9999 -9999 -9999 -9999 -9999 -9999 -9999 -9999 -9999 -9999 -9999 -9999 -9999 -9999 -9999 -9999 -9999 -9999 -9999 -9999 -9999 -9999 -9999 -9999 -9999 16.8941294352214 16.7540391286214 16.7198543548584 16.5451965332031 16.4561729431152 16.4410514831543 16.5179195404053 16.6420097351074 16.7792510986328 16.7684535980225 16.4870662689209 15.8855504989624 15.1907835006714 14.707501411438 14.6395704269409 -9999 -9999 -9999 -9999 -9999 16.1082324981689 16.0211315155029 16.2623424530029 16.7333526611328 17.3066635131836 17.7894382476807 18.1127758026123 18.2946453094482 18.3745079040527 18.4036388397217
-9999 -9999 -9999 -9999 -9999 -9999 -9999 -9999 -9999 -9999 -9999 -9999 -9999 -9999 -9999 -9999 -9999 -9999 -9999 -9999 -9999 -9999 -9999 -9999 -9999 -9999 -9999 -9999 -9999 -9999 -9999 -9999 -9999 -9999 -9999 -9999 -9999 -9999 -9999 17.0055160522461 16.9407272338867 16.7361450195312 16.5852451324463 16.609992980957 16.7352962493896 16.8716583251953 16.9550113677979 17.0351448059082 17.1172618865967 17.0907192230225 16.8454246520996 16.3058547973633 15.6160068511963 15.0092067718506 14.611647605896 14.6017179489136 -9999 -9999 -9999 16.0877966880798 15.972505569458 16.3310604095459 16.6528282165527 17.0005931854248 17.5369243621826 18.0773487091064 18.4267234802246 18.6123523712158 18.6875495910645 18.6928482055664
-9999 -9999 -9999 -9999 -9999 -9999 -9999 -9999 -9999 -9999 -9999 -9999 -9999 -9999 -9999 -9999 -9999 -9999 -9999 -9999 -9999 -9999 -9999 -9999 -9999 -9999 -9999 -9999 -9999 -9999 -9999 -9999 -9999 -9999 -9999 -9999 -9999 -9999 17.2248336791992 17.0393104553223 16.958646774292 16.7864074707031 16.6982612609863 16.8693675994873 17.1595783233643 17.358528137207 17.4535274505615 17.4844989776611 17.4325847625732 17.2445259094238 16.9347629547119 16.4761962890625 15.8461942672729 15.1538505554199 14.6327590942383 14.6067657470703 14.8695678710938 15.3962806065877 15.6697273254395 16.0042572021484 16.7046966552734 17.3139305114746 17.4991321563721 17.6449012756348 18.0500717163086 18.4495220184326 18.6620578765869 18.7968444824219 18.8654117584229 18.8845996856689
-9999 -9999 -9999 -9999 -9999 -9999 -9999 -9999 -9999 -9999 -9999 -9999 -9999 -9999 -9999 -9999 -9999 -9999 -9999 -9999 -9999 -9999 -9999 -9999 -9999 -9999 -9999 -9999 -9999 -9999 -9999 -9999 -9999 -9999 -9999 -9999 -9999 17.3289661407471 17.3430614471436 17.4073143005371 17.3011245727539 16.9420700073242 16.6987056732178 16.8519725799561 17.217456817627 17.5163192749023 17.7034511566162 17.7514820098877 17.6370716094971 17.3407287597656 16.9282035827637 16.4661064147949 15.8976163864136 15.2917490005493 14.9171113967896 15.00559425354 15.3119258880615 15.6478633880615 16.0876159667969 16.7045402526855 17.4441356658936 17.9883651733398 18.1692523956299 18.2365322113037 18.4635887145996 18.7070083618164 18.8426399230957 18.9522266387939 19.0005378723145 19.0175609588623
-9999 -9999 -9999 -9999 -9999 -9999 -9999 -9999 -9999 -9999 -9999 -9999 -9999 -9999 -9999 -9999 -9999 -9999 -9999 -9999 -9999 -9999 -9999 -9999 -9999 -9999 -9999 -9999 -9999 -9999 -9999 -9999 -9999 -9999 -9999 -9999 -9999 17.4123344421387 17.6133365631104 17.8998279571533 17.9034061431885 17.5958766937256 17.3350296020508 17.3886051177979 17.5934448242188 17.8121948242188 17.9861145019531 17.9949626922607 17.7812938690186 17.3955383300781 16.9485168457031 16.5270462036133 16.0987281799316 15.6992282867432 15.5220308303833 15.6980571746826 16.0604591369629 16.4322242736816 16.7787227630615 17.1385135650635 17.6158580780029 18.1414451599121 18.5322074890137 18.7096538543701 18.8114471435547 18.9492683410645 19.0531711578369 19.1607704162598 19.2446632385254 19.3133811950684
-9999 -9999 -9999 -9999 -9999 -9999 -9999 -9999 -9999 -9999 -9999 -9999 -9999 -9999 -9999 -9999 -9999 -9999 -9999 -9999 -9999 -9999 -9999 -9999 -9999 -9999 -9999 -9999 -9999 -9999 -9999 -9999 -9999 -9999 -9999 -9999 -9999 17.8936309814453 18.013162612915 18.3227996826172 18.4602565765381 18.3677749633789 18.2566394805908 18.2387752532959 18.22385597229 18.2715969085693 18.3647155761719 18.3333072662354 18.0690021514893 17.6432266235352 17.216028213501 16.9010581970215 16.6905994415283 16.5542087554932 16.5378589630127 16.6904487609863 16.9468822479248 17.2064628601074 17.5136871337891 17.7338886260986 18.0073490142822 18.4388198852539 18.9393138885498 19.2828693389893 19.3815841674805 19.4523277282715 19.4632053375244 19.4817676544189 19.5427169799805 19.7584533691406
-9999 -9999 -9999 -9999 -9999 -9999 -9999 -9999 -9999 -9999 -9999 -9999 -9999 -9999 -9999 -9999 -9999 -9999 -9999 -9999 -9999 -9999 -9999 -9999 -9999 -9999 -9999 -9999 -9999 -9999 -9999 -9999 -9999 -9999 -9999 -9999 18.2257862091064 18.2666015625 18.466329574585 18.7268657684326 18.8471755981445 18.8475666046143 18.8079833984375 18.7240619659424 18.6175632476807 18.6227931976318 18.706714630127 18.7178764343262 18.5769443511963 18.2827777862549 17.9133720397949 17.6108646392822 17.4699001312256 17.4817943572998 17.6391448974609 17.8036975860596 17.9953498840332 18.2603969573975 18.6430187225342 18.8388652801514 19.0439624786377 19.3927440643311 19.838077545166 19.9941730499268 19.9833469390869 20.0438041687012 20.0728969573975 20.0172100067139 19.9492073059082 20.2147922515869
-9999 -9999 -9999 -9999 -9999 -9999 -9999 -9999 -9999 -9999 -9999 -9999 -9999 -9999 -9999 -9999 -9999 -9999 -9999 -9999 -9999 -9999 -9999 -9999 -9999 -9999 -9999 -9999 -9999 -9999 -9999 -9999 -9999 -9999 -9999 -9999 -9999 18.5075626373291 18.6495971679688 18.8797225952148 18.9879989624023 19.0223293304443 19.0395889282227 18.9818878173828 18.8798694610596 18.8435955047607 18.8677520751953 18.8804340362549 18.8176231384277 18.7059803009033 18.5387649536133 18.3212928771973 18.1806316375732 18.2004203796387 18.4090881347656 18.5957221984863 19.0847778320312 19.790376663208 20.1833820343018 20.1811923980713 20.1159000396729 20.3646869659424 20.8681602478027 20.9429302215576 20.6960906982422 20.5083427429199 20.5385913848877 20.5171165466309 20.4120788574219 20.6477813720703
-9999 -9999 -9999 -9999 -9999 -9999 -9999 -9999 -9999 -9999 -9999 -9999 -9999 -9999 -9999 -9999 -9999 -9999 -9999 -9999 -9999 -9999 -9999 -9999 -9999 -9999 -9999 -9999 -9999 -9999 -9999 -9999 -9999 -9999 -9999 -9999 -9999 -9999 18.7233562469482 -9999 19.0412292480469 19.0871963500977 19.0977649688721 19.0480461120605 18.9823150634766 18.9309749603271 18.9370594024658 18.9560832977295 18.8639793395996 18.7531261444092 18.6930294036865 18.5915584564209 18.4941272735596 18.4464359283447 18.6483592987061 19.0912895202637 20.2129383087158 21.2697772979736 21.7581596374512 21.5911273956299 21.4494152069092 21.7571430206299 22.2538928985596 22.3234100341797 21.9471530914307 21.2516250610352 20.928804397583 20.8086910247803 20.761682510376 20.9025115966797
-9999 -9999 -9999 -9999 -9999 -9999 -9999 -9999 -9999 -9999 -9999 -9999 -9999 -9999 -9999 -9999 -9999 -9999 -9999 -9999 -9999 -9999 -9999 -9999 -9999 -9999 -9999 -9999 -9999 -9999 -9999 -9999 -9999 -9999 -9999 -9999 -9999 -9999 -9999 -9999 19.4112110137939 19.0835227966309 19.0312652587891 19.002950668335 19.0014705657959 19.0237865447998 19.1185054779053 19.2169399261475 19.1279964447021 18.9689502716064 18.8861217498779 18.7774028778076 18.6455402374268 18.5614395141602 18.7944622039795 19.7312450408936 21.201623916626 22.4810886383057 23.3552150726318 23.4840564727783 23.393590927124 23.5955410003662 23.7607555389404 23.5579853057861 23.043384552002 22.2626476287842 21.4167747497559 20.9785995483398 20.957914352417 21.0750827789307
-9999 -9999 -9999 -9999 -9999 -9999 -9999 -9999 -9999 -9999 -9999 -9999 -9999 -9999 -9999 -9999 -9999 -9999 -9999 -9999 -9999 -9999 -9999 -9999 -9999 -9999 -9999 -9999 -9999 -9999 -9999 -9999 -9999 -9999 21.5656952857971 21.5754852294922 21.4904537200928 -9999 21.0419788360596 20.6408138275146 19.6789531707764 18.945219039917 18.8574619293213 18.874885559082 18.948860168457 19.1464900970459 19.4264507293701 19.6175193786621 19.4940013885498 19.2425785064697 19.0964241027832 18.9724025726318 18.892972946167 18.9333362579346 19.4766731262207 20.8041496276855 22.3316822052002 23.7825183868408 24.6682949066162 24.7918968200684 24.6851387023926 24.6476345062256 24.5850009918213 24.3478622436523 23.7503128051758 23.0647888183594 22.0897407531738 21.3049468994141 21.1216812133789 21.2565402984619
-9999 -9999 -9999 -9999 -9999 -9999 -9999 -9999 -9999 -9999 -9999 -9999 -9999 -9999 -9999 -9999 -9999 -9999 -9999 -9999 -9999 -9999 -9999 -9999 -9999 -9999 -9999 23.2326793670654 23.2326793670654 22.8139305114746 22.3930225372314 21.7693004608154 21.4243431091309 21.591194152832 21.6246452331543 21.47145652771 21.2429866790771 20.9751777648926 20.7257328033447 20.3339252471924 19.391918182373 18.6194686889648 18.6135559082031 18.8002033233643 19.0502014160156 19.4419898986816 19.850378036499 20.1214370727539 20.0701332092285 19.8706817626953 19.8592720031738 19.9964752197266 20.2549896240234 20.6589603424072 21.4535350799561 22.5895824432373 23.8694000244141 24.8928699493408 25.3180274963379 25.3548316955566 25.2768821716309 25.2322082519531 25.1148948669434 24.8051567077637 24.1933574676514 23.5783920288086 22.6476440429688 21.7232799530029 21.4743804931641 21.8235321044922
-9999 -9999 -9999 -9999 -9999 -9999 -9999 -9999 -9999 -9999 -9999 -9999 -9999 -9999 -9999 -9999 -9999 -9999 -9999 -9999 -9999 -9999 -9999 -9999 -9999 -9999 -9999 -9999 -9999 -9999 21.9970626831055 21.6449737548828 21.4815559387207 21.6573715209961 21.6839828491211 21.5144691467285 21.2299995422363 20.8702087402344 20.4881362915039 20.0265197753906 19.3379497528076 18.7999362945557 18.9166011810303 19.3047275543213 19.7711563110352 20.244197845459 20.5690307617188 20.8664989471436 21.0855293273926 21.2684421539307 21.7023086547852 22.3227863311768 22.9368934631348 23.5166168212891 24.0452671051025 24.6074333190918 25.2297649383545 25.6963558197021 25.9027709960938 25.9093532562256 25.8690338134766 25.8500709533691 25.7566776275635 25.5462837219238 24.7914600372314 23.8577499389648 22.8014736175537 22.1672058105469 22.4150829315186 23.1633834838867
-9999 -9999 -9999 -9999 -9999 -9999 -9999 -9999 -9999 -9999 -9999 -9999 -9999 -9999 -9999 -9999 -9999 -9999 -9999 -9999 -9999 -9999 -9999 -9999 -9999 22.419230779012 22.3768164316813 22.2824853261312 22.0594983100891 21.6179180145264 21.6775016784668 21.903959274292 22.1377201080322 22.1589298248291 22.0208320617676 21.8092365264893 21.5253505706787 21.1995811462402 20.8838233947754 20.5617141723633 20.2125816345215 20.0659313201904 20.270975112915 20.7274703979492 21.2956237792969 21.7204608917236 21.8535537719727 22.0474414825439 22.4512462615967 22.9999542236328 23.684606552124 24.3534660339355 24.8339862823486 25.196475982666 25.4557838439941 25.7056217193604 25.938684463501 26.1129627227783 26.2686176300049 26.3363876342773 26.3564147949219 26.3812770843506 26.2975902557373 26.3770942687988 25.6924419403076 24.218225479126 22.9838790893555 22.9146385192871 23.6010932922363 24.2835597991943
-9999 -9999 -9999 -9999 -9999 -9999 -9999 -9999 -9999 -9999 -9999 -9999 -9999 -9999 -9999 -9999 -9999 -9999 -9999 -9999 -9999 -9999 -9999 -9999 22.3938579559326 22.4535865783691 22.4102478027344 22.2666149139404 22.1705932617188 22.1828670501709 22.2740669250488 22.4250526428223 22.5355834960938 22.558084487915 22.5359630584717 22.4288883209229 22.2277679443359 22.0191249847412 21.8942089080811 21.8523349761963 21.8466739654541 21.9280586242676 22.1650886535645 22.6124095916748 23.1551265716553 23.5756874084473 23.7032661437988 23.7489852905273 24.0089950561523 24.4848670959473 24.9647006988525 25.2846069335938 25.4780197143555 25.6635799407959 25.8574256896973 26.0694808959961 26.2132968902588 26.292797088623 26.3615837097168 26.4013080596924 26.4569606781006 26.4824295043945 26.4436817169189 26.5763149261475 26.1134586334229 24.6942920684814 23.9822978973389 24.0281009674072 24.2513580322266 24.5910472869873
-9999 -9999 -9999 -9999 -9999 -9999 -9999 -9999 -9999 -9999 -9999 -9999 -9999 -9999 -9999 -9999 -9999 -9999 -9999 -9999 -9999 -9999 -9999 -9999 22.5481662750244 22.6756687164307 22.7230567932129 22.6552448272705 22.5942134857178 22.6112022399902 22.6896820068359 22.8055591583252 22.9156360626221 23.0495090484619 23.2018852233887 23.2421321868896 23.1543407440186 23.0423603057861 23.0197582244873 23.1214828491211 23.2849292755127 23.4426555633545 23.648567199707 24.0006580352783 24.4130096435547 24.7474994659424 24.9314308166504 24.990348815918 25.0648384094238 25.1921882629395 25.3271160125732 25.4424934387207 25.5999126434326 25.8126564025879 26.0270576477051 26.2201805114746 26.3360538482666 26.3855171203613 26.4255485534668 26.4344158172607 26.4603004455566 26.4830760955811 26.4202518463135 26.4052791595459 25.9362735748291 25.0761260986328 24.9846801757812 24.8757781982422 24.691162109375 24.7762222290039
-9999 -9999 -9999 -9999 -9999 -9999 -9999 -9999 -9999 -9999 -9999 -9999 -9999 -9999 -9999 -9999 -9999 -9999 -9999 -9999 -9999 -9999 -9999 23.024564743042 22.953763961792 22.9140529632568 22.8637504577637 22.8010940551758 22.7895088195801 22.837287902832 22.900146484375 22.9635906219482 23.0391464233398 23.2288455963135 23.5509624481201 23.8175468444824 23.9284381866455 23.9099655151367 23.8374938964844 23.8510684967041 23.9699039459229 24.088472366333 24.2618808746338 24.582763671875 24.8990745544434 25.1115798950195 25.255931854248 25.3659744262695 25.451322555542 25.4778957366943 25.5247383117676 25.6441593170166 25.8413848876953 26.0693302154541 26.2793865203857 26.462776184082 26.5481185913086 26.5238571166992 26.4922218322754 26.4631156921387 26.4623985290527 26.475191116333 26.3736476898193 26.2067260742188 25.8195781707764 25.5065650939941 25.442943572998 25.3476848602295 25.1886100769043 25.0671634674072
-9999 -9999 -9999 -9999 -9999 -9999 -9999 -9999 -9999 -9999 -9999 -9999 -9999 -9999 -9999 -9999 -9999 -9999 -9999 -9999 -9999 -9999 -9999 23.3892459869385 23.2070827484131 23.0413589477539 22.9273166656494 22.8866596221924 22.923246383667 23.0086669921875 23.0592765808105 23.0364456176758 23.016134262085 23.1780548095703 23.5911884307861 24.0585517883301 24.3999633789062 24.5418167114258 24.4764633178711 24.3714427947998 24.3547382354736 24.4041767120361 24.5920181274414 24.9296436309814 25.2506980895996 25.474479675293 25.6177024841309 25.7126750946045 25.8136825561523 25.8680953979492 25.9037227630615 25.9669303894043 26.0766143798828 26.2481651306152 26.4684066772461 26.6441898345947 26.6666660308838 26.5633754730225 26.4943943023682 26.4790172576904 26.4723854064941 26.4393768310547 26.3363342285156 26.2216396331787 26.0057067871094 25.8415393829346 25.7367153167725 25.7044734954834 25.6055278778076 25.3756427764893
-9999 -9999 -9999 -9999 -9999 -9999 -9999 -9999 -9999 -9999 -9999 -9999 -9999 -9999 -9999 -9999 -9999 -9999 -9999 -9999 -9999 -9999 23.7974853515625 23.4892482757568 23.3208789825439 23.1950149536133 23.1259479522705 23.1472759246826 23.2847900390625 23.5160331726074 23.6657066345215 23.6355838775635 23.5511150360107 23.5961666107178 23.852201461792 24.2284736633301 24.588264465332 24.8179721832275 24.8025932312012 24.64084815979 24.5792903900146 24.6742324829102 24.9231262207031 25.2858104705811 25.626049041748 25.8547039031982 25.9849166870117 26.0970325469971 26.2138156890869 26.2757472991943 26.2955322265625 26.2933959960938 26.300012588501 26.3821201324463 26.5496616363525 26.6541500091553 26.6341457366943 26.55517578125 26.4980201721191 26.4908752441406 26.4854488372803 26.4509315490723 26.4098167419434 26.4109573364258 26.2976417541504 26.1207809448242 25.9673957824707 25.9595603942871 25.8709297180176 25.6231498718262
-9999 -9999 -9999 -9999 -9999 -9999 -9999 -9999 -9999 -9999 -9999 -9999 -9999 -9999 25.4757286177741 -9999 -9999 -9999 -9999 24.956449508667 -9999 24.240478515625 23.9029064178467 23.6309795379639 23.5345821380615 23.4843425750732 23.4814910888672 23.5700778961182 23.8085079193115 24.1287288665771 24.3683490753174 24.4636497497559 24.459192276001 24.4176445007324 24.4185085296631 24.5396404266357 24.7548847198486 24.92626953125 24.89089012146 24.7592277526855 24.8088817596436 25.0237712860107 25.3150615692139 25.6748371124268 26.0061931610107 26.2126560211182 26.3352088928223 26.4451751708984 26.5425395965576 26.5971183776855 26.6228618621826 26.6228713989258 26.6225032806396 26.6759071350098 26.7467784881592 26.7199878692627 26.6550045013428 26.6104888916016 26.5520992279053 26.5087242126465 26.5 26.5048427581787 26.505744934082 26.5248756408691 26.4477596282959 26.3003196716309 26.1977481842041 26.1940727233887 26.1328620910645 25.9653663635254
-9999 -9999 -9999 -9999 -9999 -9999 -9999 -9999 -9999 -9999 -9999 -9999 -9999 -9999 25.4783339500427 -9999 -9999 -9999 -9999 24.831075668335 24.3846111297607 24.0924167633057 23.8875999450684 23.8116397857666 23.787260055542 23.7608699798584 23.7703056335449 23.8799152374268 24.1096725463867 24.3707313537598 24.5905952453613 24.7489547729492 24.8150196075439 24.784631729126 24.7421607971191 24.7921161651611 24.9305076599121 25.0375022888184 25.0307350158691 25.0159091949463 25.1411724090576 25.3662052154541 25.6487979888916 26.0100898742676 26.3422012329102 26.5469551086426 26.6625385284424 26.7406425476074 26.8142490386963 26.8776378631592 26.926664352417 26.9404010772705 26.9388828277588 26.9795532226562 26.9858627319336 26.8802604675293 26.7677154541016 26.6928558349609 26.6197452545166 26.5588073730469 26.5381870269775 26.5476131439209 26.5571632385254 26.5977592468262 26.5871601104736 26.536096572876 26.544921875 26.5683536529541 26.5298404693604 26.4193267822266
-9999 -9999 -9999 -9999 -9999 -9999 -9999 -9999 -9999 -9999 -9999 -9999 -9999 -9999 25.466609954834 -9999 -9999 -9999 -9999 -9999 23.9929981231689 23.9280090332031 23.9099502563477 23.9281921386719 23.9063663482666 23.8730773925781 23.9114265441895 24.0585193634033 24.2832508087158 24.5155849456787 24.7031517028809 24.8234024047852 24.8565578460693 24.8307571411133 24.8489303588867 24.9429016113281 25.066743850708 25.1947040557861 25.2986965179443 25.4130592346191 25.588565826416 25.7842140197754 25.9972343444824 26.2776489257812 26.5779075622559 26.781270980835 26.8636379241943 26.9019451141357 26.9582786560059 27.0111598968506 27.0694427490234 27.1235485076904 27.1430625915527 27.1525936126709 27.1197185516357 27.0077781677246 26.8802299499512 26.7736530303955 26.6773681640625 26.5916976928711 26.5504016876221 26.5630149841309 26.6258583068848 26.7242622375488 26.7840213775635 26.8206367492676 26.8856525421143 26.9015731811523 26.870418548584 26.8209190368652
-9999 -9999 -9999 -9999 -9999 -9999 -9999 -9999 -9999 -9999 -9999 -9999 -9999 -9999 25.4635992050171 -9999 25.5135059356689 -9999 -9999 -9999 23.9990043640137 23.9525623321533 23.97194480896 23.9647312164307 23.9047012329102 23.8798828125 23.9674015045166 24.1249828338623 24.3347969055176 24.5863456726074 24.7767105102539 24.8697414398193 24.9478816986084 25.041166305542 25.1230297088623 25.181116104126 25.2581119537354 25.4267978668213 25.6340713500977 25.8460826873779 26.0691452026367 26.258903503418 26.4111709594727 26.5827255249023 26.7909736633301 26.9575481414795 27.0192489624023 27.0164546966553 27.0233459472656 27.0362014770508 27.0903778076172 27.1817531585693 27.2370281219482 27.2408752441406 27.1914672851562 27.0932426452637 26.9806728363037 26.8709354400635 26.782133102417 26.686897277832 26.5751514434814 26.5393886566162 26.6385593414307 26.7955627441406 26.9283428192139 27.0465354919434 27.1185550689697 27.103343963623 27.1057472229004 27.1251087188721
-9999 -9999 -9999 -9999 -9999 -9999 -9999 -9999 -9999 -9999 -9999 -9999 -9999 -9999 25.4635992050171 25.4605884552002 25.5256271362305 -9999 -9999 24.0276489257812 24.003345489502 23.9867248535156 24.0230655670166 23.9915161132812 23.9194869995117 23.9412498474121 24.0752067565918 24.2089519500732 24.401876449585 24.718770980835 25.0161151885986 25.1990623474121 25.3649444580078 25.505033493042 25.537654876709 25.5020275115967 25.5315341949463 25.7126808166504 25.9670791625977 26.2167778015137 26.4385299682617 26.6179637908936 26.7675819396973 26.9030342102051 27.03928565979 27.1523571014404 27.1751937866211 27.119270324707 27.0698986053467 27.0524234771729 27.109037399292 27.2070789337158 27.2652626037598 27.2815723419189 27.2529220581055 27.1729431152344 27.0886077880859 27.0054817199707 26.9330444335938 26.8686828613281 26.7433128356934 26.6306629180908 26.6646137237549 26.7827053070068 26.9026775360107 27.0114631652832 27.0981426239014 27.1190528869629 27.1630611419678 27.212797164917
-9999 -9999 -9999 -9999 -9999 -9999 -9999 -9999 -9999 -9999 -9999 -9999 -9999 -9999 -9999 25.3915657043457 25.488597869873 -9999 24.5274181365967 24.0626277923584 24.045618057251 24.0802364349365 24.1111125946045 24.0620555877686 24.0272235870361 24.1250286102295 24.2775821685791 24.4237861633301 24.7059497833252 25.098072052002 25.4899444580078 25.8197288513184 26.0641994476318 26.2006511688232 26.2177467346191 26.1310234069824 26.0706195831299 26.172176361084 26.367805480957 26.5505924224854 26.7248916625977 26.9069271087646 27.0766143798828 27.2043170928955 27.2959384918213 27.3634605407715 27.3493633270264 27.2129077911377 27.090030670166 27.0627384185791 27.1211051940918 27.2168979644775 27.2694263458252 27.3005695343018 27.3016681671143 27.2411575317383 27.1723651885986 27.1164455413818 27.0662593841553 27.0312232971191 26.9723663330078 26.8655586242676 26.802188873291 26.8177814483643 26.8794651031494 26.9499263763428 27.0356140136719 27.0947570800781 27.1592330932617 27.2100467681885
-9999 -9999 -9999 -9999 -9999 -9999 -9999 -9999 -9999 -9999 -9999 -9999 -9999 -9999 -9999 25.2927131652832 25.1903018951416 -9999 24.2769336700439 24.1313724517822 24.143196105957 24.1935386657715 24.2294960021973 24.2149848937988 24.2011909484863 24.288143157959 24.4572677612305 24.7017307281494 25.0794849395752 25.5194435119629 25.9496536254883 26.2953052520752 26.5412273406982 26.7007465362549 26.7836837768555 26.776876449585 26.7310848236084 26.7480163574219 26.8339443206787 26.9378032684326 27.0896034240723 27.2802085876465 27.4352550506592 27.5209922790527 27.5571098327637 27.5682220458984 27.5364055633545 27.3680191040039 27.17649269104 27.100902557373 27.1321716308594 27.2294998168945 27.3076076507568 27.3623790740967 27.3856716156006 27.3506870269775 27.2883319854736 27.2353343963623 27.1931858062744 27.1645011901855 27.1473979949951 27.1015453338623 27.0421581268311 27.0072441101074 27.0214176177979 27.0636119842529 27.1181259155273 27.1693229675293 27.2206745147705 27.2539710998535
-9999 -9999 -9999 -9999 -9999 -9999 -9999 -9999 -9999 -9999 -9999 -9999 -9999 -9999 -9999 25.2173252105713 -9999 24.6778659820557 24.373420715332 24.2250003814697 24.2342319488525 24.3037796020508 24.4234237670898 24.5189456939697 24.5222187042236 24.5200443267822 24.6354007720947 24.8641510009766 25.2523555755615 25.7272891998291 26.1853771209717 26.5698280334473 26.8662738800049 27.0745868682861 27.2098007202148 27.2726516723633 27.2826957702637 27.2849960327148 27.3167171478271 27.3902378082275 27.5015239715576 27.6002082824707 27.644136428833 27.647439956665 27.6369705200195 27.6301250457764 27.6186389923096 27.4998607635498 27.2906150817871 27.1441841125488 27.1004428863525 27.1745052337646 27.2911567687988 27.3997211456299 27.4642143249512 27.4662456512451 27.4222774505615 27.3748550415039 27.332670211792 27.3031387329102 27.2821197509766 27.2646179199219 27.2467975616455 27.2285556793213 27.2210235595703 27.2344951629639 27.2569637298584 27.2843189239502 27.3090209960938 27.3148670196533
-9999 -9999 -9999 -9999 -9999 -9999 -9999 -9999 -9999 -9999 -9999 -9999 -9999 -9999 25.2173252105713 25.0328197479248 24.8413124084473 24.5994472503662 24.4238243103027 24.300838470459 24.3571453094482 24.5810775756836 24.8899230957031 25.1303901672363 25.2479457855225 25.3169364929199 25.4407653808594 25.6911964416504 26.0915679931641 26.5041961669922 26.8848667144775 27.2070922851562 27.4362449645996 27.579418182373 27.6418018341064 27.6365718841553 27.5966758728027 27.5529346466064 27.5232963562012 27.5125522613525 27.5044460296631 27.4864768981934 27.4733028411865 27.4715709686279 27.4823837280273 27.5151672363281 27.564962387085 27.5245151519775 27.3576850891113 27.1835060119629 27.0905418395996 27.156774520874 27.2853145599365 27.410343170166 27.4846267700195 27.4939002990723 27.4581661224365 27.4192943572998 27.3883628845215 27.3637104034424 27.3395729064941 27.3227767944336 27.3144798278809 27.3117256164551 27.3072719573975 27.3115272521973 27.3215637207031 27.3303356170654 27.3269195556641 27.2703876495361
-9999 -9999 -9999 -9999 -9999 -9999 -9999 -9999 -9999 -9999 -9999 -9999 -9999 -9999 -9999 -9999 24.5909962654114 24.5116710662842 24.4078712463379 24.3608818054199 24.6263885498047 25.1973743438721 25.7487316131592 26.1373825073242 26.4414253234863 26.7257556915283 26.9665966033936 27.1863403320312 27.3791198730469 27.51682472229 27.6081695556641 27.6590957641602 27.6832599639893 27.6704864501953 27.6166286468506 27.5432434082031 27.4774398803711 27.4209613800049 27.3742332458496 27.3439712524414 27.3287620544434 27.3226261138916 27.329704284668 27.3359603881836 27.3484115600586 27.3921298980713 27.4867992401123 27.5275650024414 27.4122886657715 27.2482776641846 27.1813449859619 27.2769317626953 27.3943901062012 27.4765090942383 27.5020523071289 27.4695129394531 27.4143962860107 27.3822288513184 27.3636856079102 27.3490772247314 27.3296813964844 27.3125667572021 27.3037433624268 27.3025512695312 27.303279876709 27.309871673584 27.3127765655518 27.2986755371094 27.24192237854 27.0836601257324
-9999 -9999 -9999 -9999 -9999 -9999 -9999 -9999 -9999 -9999 -9999 -9999 -9999 -9999 -9999 -9999 24.461612701416 24.4115543365479 24.3427238464355 24.4700870513916 25.0347461700439 25.9002666473389 26.5937213897705 27.0761852264404 27.3953475952148 27.6089553833008 27.7444763183594 27.8123416900635 27.8139095306396 27.7719917297363 27.7170867919922 27.664270401001 27.6082324981689 27.5456943511963 27.4792995452881 27.4306507110596 27.4080009460449 27.3877334594727 27.3615245819092 27.3335742950439 27.3095703125 27.2918834686279 27.2831192016602 27.2786178588867 27.2885246276855 27.3145408630371 27.3812618255615 27.4603538513184 27.4139919281006 27.295841217041 27.2907943725586 27.4199066162109 27.5145320892334 27.5428066253662 27.5136775970459 27.4364185333252 27.3698463439941 27.3538570404053 27.3484230041504 27.3482818603516 27.3437538146973 27.3216438293457 27.2958583831787 27.2939109802246 27.2943019866943 27.2821254730225 27.2672100067139 27.2045230865479 27.0065059661865 26.8263359069824
-9999 -9999 -9999 -9999 -9999 -9999 -9999 -9999 -9999 -9999 -9999 -9999 -9999 -9999 -9999 -9999 -9999 24.5635542869568 24.4741611480713 24.9015102386475 25.7072906494141 26.6507530212402 27.2549152374268 27.6450881958008 27.8339385986328 27.8969593048096 27.9158496856689 27.8848571777344 27.8072338104248 27.7137565612793 27.6134128570557 27.5196838378906 27.448371887207 27.4037818908691 27.380126953125 27.3961963653564 27.4273681640625 27.4324016571045 27.4082813262939 27.3695068359375 27.3217391967773 27.2916526794434 27.2892570495605 27.2778224945068 27.2802715301514 27.3110790252686 27.3582420349121 27.4415435791016 27.4198398590088 27.345588684082 27.4052276611328 27.5423679351807 27.5901393890381 27.5635433197021 27.4917449951172 27.4135513305664 27.3619174957275 27.360631942749 27.3614978790283 27.3570156097412 27.3438777923584 27.313102722168 27.2819690704346 27.2708072662354 27.2695636749268 27.2443943023682 27.1464672088623 26.9908847808838 26.8736038208008 26.8320960998535
-9999 -9999 -9999 -9999 -9999 -9999 -9999 -9999 -9999 -9999 -9999 -9999 -9999 -9999 24.4240689277649 24.4115543365479 24.6877139806747 24.7499694824219 25.0257778167725 25.5959758758545 26.3646335601807 27.2827568054199 27.6984806060791 27.9229736328125 27.9904899597168 27.9676513671875 27.8874549865723 27.7511177062988 27.6344318389893 27.5323143005371 27.4095268249512 27.3195896148682 27.293249130249 27.3082180023193 27.364330291748 27.4331970214844 27.4381923675537 27.387300491333 27.349235534668 27.3496379852295 27.3504676818848 27.3367137908936 27.3186931610107 27.2878017425537 27.2848796844482 27.3120632171631 27.368782043457 27.4366836547852 27.4482460021973 27.4544582366943 27.566743850708 27.618631362915 27.5444240570068 27.4703502655029 27.4310855865479 27.4009017944336 27.3615436553955 27.350076675415 27.3347930908203 27.328821182251 27.3217353820801 27.2885227203369 27.2572975158691 27.2474517822266 27.2187633514404 27.1176738739014 26.9909133911133 26.9112014770508 26.8936767578125 26.8921737670898
-9999 -9999 -9999 -9999 -9999 -9999 -9999 -9999 -9999 -9999 -9999 -9999 -9999 -9999 -9999 -9999 -9999 -9999 25.841212272644 26.1656970977783 26.7736568450928 27.6436252593994 27.9780864715576 28.0696411132812 28.0240116119385 27.9053573608398 27.7404365539551 27.5785312652588 27.477294921875 27.3832988739014 27.2955532073975 27.2767086029053 27.3042850494385 27.342113494873 27.4144878387451 27.4566478729248 27.4127750396729 27.3492603302002 27.3246669769287 27.3298168182373 27.3303718566895 27.3092555999756 27.2848701477051 27.2750835418701 27.2889347076416 27.3188705444336 27.3953437805176 27.4920101165771 27.5547122955322 27.5814151763916 27.5825309753418 27.4744834899902 27.3706207275391 27.3496131896973 27.375186920166 27.3831214904785 27.3503894805908 27.3397006988525 27.3220329284668 27.3031806945801 27.2798404693604 27.2501239776611 27.222864151001 27.1825828552246 27.0949249267578 26.9902687072754 26.9183712005615 26.8859596252441 26.8840446472168 26.8862743377686
-9999 -9999 -9999 -9999 -9999 -9999 -9999 -9999 -9999 -9999 -9999 -9999 -9999 -9999 -9999 -9999 -9999 26.4167442321777 26.5369868278503 26.5773983001709 27.0879974365234 27.8722553253174 28.1500034332275 28.1388816833496 27.9924163818359 27.7961654663086 27.6181793212891 27.5104141235352 27.4594020843506 27.405590057373 27.3717784881592 27.3905162811279 27.401725769043 27.398458480835 27.4323558807373 27.4478244781494 27.4197578430176 27.3957386016846 27.385160446167 27.3700828552246 27.3412609100342 27.3051204681396 27.2801513671875 27.2760734558105 27.2959518432617 27.3527355194092 27.4558391571045 27.5403118133545 27.5457592010498 27.4828186035156 27.3795642852783 27.2811183929443 27.2648677825928 27.2846431732178 27.3114681243896 27.3264598846436 27.3054504394531 27.3015518188477 27.2903423309326 27.2741050720215 27.2515201568604 27.2102661132812 27.1503410339355 27.0774917602539 26.9991416931152 26.9369049072266 26.8865547180176 26.8565692901611 26.8690567016602 26.8985080718994
-9999 -9999 -9999 -9999 -9999 -9999 -9999 -9999 -9999 -9999 -9999 -9999 -9999 26.6741409301758 26.6691678365072 -9999 26.6024770736694 26.6297001838684 26.4167442321777 26.9881076812744 27.732328414917 28.1503295898438 28.2408123016357 28.1487998962402 27.9448413848877 27.7510471343994 27.6345329284668 27.5997619628906 27.5871295928955 27.5484943389893 27.5130748748779 27.5163536071777 27.4995994567871 27.4658184051514 27.4747982025146 27.4877681732178 27.4743824005127 27.4622192382812 27.4383926391602 27.3908138275146 27.3325500488281 27.2750396728516 27.2455425262451 27.278190612793 27.3847064971924 27.5045528411865 27.5673313140869 27.5500144958496 27.4560089111328 27.3229084014893 27.2696685791016 27.2467288970947 27.2618198394775 27.2732315063477 27.2836017608643 27.2948207855225 27.2747344970703 27.2650012969971 27.2508678436279 27.2296161651611 27.1925163269043 27.1369781494141 27.0730724334717 27.0170383453369 26.9712085723877 26.9300289154053 26.8967361450195 26.8730773925781 26.9032459259033 26.9430236816406
-9999 -9999 -9999 -9999 -9999 -9999 -9999 -9999 -9999 -9999 -9999 -9999 -9999 -9999 26.6741409301758 26.7112674713135 26.6220951080322 26.5828590393066 26.897102355957 27.699125289917 28.1656398773193 28.2457542419434 28.2384166717529 28.1421546936035 27.9258975982666 27.7841320037842 27.77880859375 27.7795467376709 27.7452030181885 27.6634769439697 27.5862808227539 27.5805263519287 27.598123550415 27.6036930084229 27.6173076629639 27.615909576416 27.5775051116943 27.533561706543 27.4810523986816 27.4222278594971 27.3644313812256 27.3185596466064 27.3195819854736 27.4081649780273 27.5589866638184 27.6652927398682 27.6760692596436 27.6046714782715 27.434534072876 27.2388477325439 27.2633094787598 27.2923984527588 27.2865428924561 27.2774124145508 27.2785720825195 27.2702579498291 27.2348384857178 27.2047004699707 27.1698703765869 27.1339359283447 27.1006355285645 27.0599212646484 27.0211334228516 26.9993991851807 26.9742584228516 26.9438896179199 26.9150733947754 26.8995914459229 26.9378108978271 26.9716377258301
-9999 -9999 -9999 -9999 -9999 -9999 -9999 -9999 -9999 -9999 -9999 -9999 -9999 -9999 26.6968579292297 26.6741409301758 26.8375663757324 27.1254749298096 27.6887378692627 28.1053791046143 28.239164352417 28.2665023803711 28.2493953704834 28.1418075561523 27.9235725402832 27.8278064727783 27.8449096679688 27.8379344940186 27.7923679351807 27.7050380706787 27.6702575683594 27.7322025299072 27.8152694702148 27.8403377532959 27.7971534729004 27.706750869751 27.6278114318848 27.5972557067871 27.5699768066406 27.5359992980957 27.475040435791 27.3973350524902 27.357738494873 27.4350032806396 27.5907249450684 27.6889839172363 27.6997413635254 27.6149616241455 27.3787612915039 27.2235069274902 27.341438293457 27.4051284790039 27.3667526245117 27.3326282501221 27.3236808776855 27.3058223724365 27.2700748443604 27.2296581268311 27.1782989501953 27.1394233703613 27.1120433807373 27.0679378509521 27.0367259979248 27.0286197662354 27.0227909088135 26.981990814209 26.9838695526123 26.9956092834473 27.0191211700439 27.0514717102051
-9999 -9999 -9999 -9999 -9999 -9999 -9999 -9999 -9999 -9999 -9999 26.5907688140869 26.6106071472168 26.6041984558105 26.6367797851562 26.8723125457764 27.4040603637695 27.8163375854492 28.0703048706055 28.2275581359863 28.2856616973877 28.266637802124 28.2179183959961 28.1027488708496 27.8958358764648 27.8166656494141 27.8424949645996 27.8574180603027 27.8192443847656 27.7370700836182 27.736213684082 27.8302783966064 27.9369716644287 27.9858360290527 27.9315757751465 27.7884712219238 27.6692428588867 27.6215648651123 27.5716876983643 27.5349617004395 27.5236568450928 27.4895191192627 27.4674587249756 27.5562038421631 27.6909370422363 27.7146587371826 27.6519660949707 27.5485820770264 27.3166618347168 27.2512512207031 27.4086990356445 27.5107116699219 27.4542484283447 27.4014701843262 27.3895816802979 27.3862133026123 27.3837871551514 27.3682079315186 27.3159217834473 27.2491703033447 27.2228336334229 27.1580905914307 27.1109294891357 27.1441516876221 27.1756572723389 27.1472434997559 27.1657543182373 27.1851005554199 27.2068538665771 27.1786308288574
-9999 -9999 -9999 -9999 -9999 -9999 -9999 -9999 -9999 26.6221046447754 26.685489654541 26.7076587677002 26.7494773864746 26.7984962463379 26.8726940155029 27.1435298919678 27.7347850799561 27.988790512085 28.1582889556885 28.2684478759766 28.3021354675293 28.2749099731445 28.215295791626 28.0811023712158 27.8675346374512 27.8140239715576 27.8793296813965 27.8749027252197 27.8211917877197 27.7430896759033 27.7249240875244 27.8013782501221 27.9035263061523 27.9820232391357 27.9816207885742 27.8802471160889 27.7678375244141 27.665491104126 27.5361843109131 27.4492683410645 27.4590759277344 27.4856624603271 27.5471687316895 27.6871566772461 27.7771492004395 27.7043266296387 27.5698738098145 27.4639739990234 27.2976875305176 27.2874870300293 27.4189014434814 27.5491962432861 27.5351734161377 27.4669990539551 27.4296360015869 27.4009246826172 27.3899040222168 27.3679752349854 27.296329498291 27.2093925476074 27.1923789978027 27.1799411773682 27.1243190765381 27.1504745483398 27.2106761932373 27.229549407959 27.2599067687988 27.2696475982666 27.2487869262695 27.153657913208
-9999 -9999 -9999 -9999 -9999 -9999 -9999 -9999 -9999 26.7086029052734 26.8227291107178 26.8555297851562 27.0121994018555 27.1671199798584 27.310827255249 27.7063388824463 28.0335273742676 28.2053203582764 28.2941417694092 28.3283138275146 28.3180904388428 28.276309967041 28.2246742248535 28.0971145629883 27.8981971740723 27.872896194458 27.9440860748291 27.9414501190186 27.8803730010986 27.8247756958008 27.8226013183594 27.8457927703857 27.8845291137695 27.9296627044678 27.9183158874512 27.8415489196777 27.7626342773438 27.6774635314941 27.5404510498047 27.4360313415527 27.4408512115479 27.5073890686035 27.587739944458 27.6553840637207 27.6586112976074 27.5424327850342 27.4109878540039 27.3220386505127 27.278148651123 27.310640335083 27.4099502563477 27.5247364044189 27.578462600708 27.5472660064697 27.4965286254883 27.4520473480225 27.4314441680908 27.4205913543701 27.3763198852539 27.3030071258545 27.2722663879395 27.2734527587891 27.2261333465576 27.2564601898193 27.2922058105469 27.2910041809082 27.2950305938721 27.2632274627686 27.1905345916748 27.0843887329102
-9999 -9999 -9999 -9999 -9999 26.7198367118835 26.6691837310791 26.6990489959717 26.7121658325195 26.7808094024658 26.8694763183594 26.9723682403564 27.2710723876953 27.5651836395264 27.8487396240234 28.1053829193115 28.2442951202393 28.3069744110107 28.340841293335 28.3324069976807 28.298999786377 28.2450714111328 28.2253971099854 28.1514263153076 27.973970413208 27.9575862884521 27.9985542297363 27.9905395507812 27.9484062194824 27.9249668121338 27.9223518371582 27.872730255127 27.8562431335449 27.8861560821533 27.8757915496826 27.8342342376709 27.7873249053955 27.7054100036621 27.5850830078125 27.5388774871826 27.5764064788818 27.6276893615723 27.6783237457275 27.6821594238281 27.6034049987793 27.5130062103271 27.4436912536621 27.3893852233887 27.360034942627 27.3592052459717 27.4121112823486 27.4901008605957 27.5644092559814 27.5764999389648 27.5473136901855 27.4923515319824 27.4455814361572 27.432596206665 27.4174365997314 27.4007701873779 27.3770084381104 27.3503456115723 27.2995929718018 27.3442668914795 27.3636054992676 27.3553142547607 27.3245506286621 27.2545261383057 27.1566162109375 27.0421257019043
-9999 -9999 -9999 -9999 26.7132549285889 26.7417469024658 26.7551612854004 26.8108787536621 26.8017654418945 26.8599796295166 26.9002952575684 27.1507339477539 27.6336803436279 27.9933166503906 28.2037467956543 28.3270797729492 28.366943359375 28.3624000549316 28.3194885253906 28.2447052001953 28.1815147399902 28.14377784729 28.1826858520508 28.1805229187012 28.0665111541748 28.0562152862549 28.0541915893555 27.9822750091553 27.8939590454102 27.8485984802246 27.8242130279541 27.789176940918 27.8069038391113 27.856201171875 27.8622665405273 27.8199920654297 27.7573852539062 27.711633682251 27.68430519104 27.6894397735596 27.7466163635254 27.8272686004639 27.8883399963379 27.8434562683105 27.7045421600342 27.6068305969238 27.5745582580566 27.5584106445312 27.4814720153809 27.392786026001 27.4118804931641 27.4451427459717 27.4840469360352 27.5427646636963 27.5352897644043 27.4856929779053 27.4283103942871 27.3874053955078 27.3682918548584 27.3839778900146 27.3719577789307 27.3545742034912 27.3565998077393 27.3937397003174 27.3497524261475 27.3085670471191 27.2797794342041 27.2008876800537 27.1578273773193 27.1126499176025
-9999 -9999 -9999 26.7562675476074 26.7120304107666 26.784725189209 26.847188949585 26.9260559082031 26.97243309021 27.1132678985596 27.2101402282715 27.7381763458252 28.0928859710693 28.2385921478271 28.3498077392578 28.3762245178223 28.3366050720215 28.2792510986328 28.1986198425293 28.1210250854492 28.0809555053711 28.0649147033691 28.0993480682373 28.1329250335693 28.1007862091064 28.0986995697021 28.0929718017578 28.0105495452881 27.8744735717773 27.7513256072998 27.6915225982666 27.6902561187744 27.731725692749 27.8027229309082 27.810152053833 27.7531471252441 27.708044052124 27.7485370635986 27.7885608673096 27.8160705566406 27.9131164550781 28.0209121704102 28.073823928833 28.0433902740479 27.9766025543213 27.9369258880615 27.8494243621826 27.7553100585938 27.6521587371826 27.4990043640137 27.446216583252 27.4218635559082 27.3983173370361 27.415620803833 27.4166603088379 27.4076042175293 27.3869037628174 27.3834609985352 27.3949737548828 27.3775806427002 27.3559246063232 27.3618278503418 27.3898067474365 27.3670120239258 27.2808113098145 27.2710361480713 27.2590827941895 27.2090721130371 27.171781539917 27.2009601593018
-9999 -9999 -9999 26.7975234985352 26.8022613525391 26.8999786376953 27.0231590270996 27.1776943206787 27.3743534088135 27.7045001983643 27.9679851531982 28.162088394165 28.2460289001465 28.3335208892822 28.3830165863037 28.3591632843018 28.2810497283936 28.1919841766357 28.1044025421143 28.0300121307373 28.0364646911621 28.0382328033447 28.0371131896973 28.0579700469971 28.0539512634277 28.0782108306885 28.1213760375977 28.0548419952393 27.86545753479 27.7063636779785 27.6568126678467 27.6438446044922 27.6584796905518 27.7291698455811 27.7898483276367 27.7971096038818 27.7856502532959 27.8172264099121 27.8763008117676 27.9339447021484 28.0351829528809 28.1361541748047 28.1704578399658 28.1279792785645 28.0874843597412 28.0815505981445 28.0063343048096 27.8783359527588 27.7763652801514 27.6200141906738 27.5230388641357 27.4746170043945 27.443489074707 27.4158248901367 27.412410736084 27.4249362945557 27.4338302612305 27.449197769165 27.4238300323486 27.3671207427979 27.3397655487061 27.3924198150635 27.4172477722168 27.3088302612305 27.213020324707 27.2411193847656 27.2609443664551 27.2464466094971 27.194974899292 27.2115154266357
