NCOLS 70 
NROWS 52 
XLLCORNER -80 
YLLCORNER 33 
CELLSIZE 0.25 
NODATA_value -9999 
-9999.000000000000000 -9999 -9999 -9999 -9999 -9999 -9999 -9999 -9999 -9999 -9999 -9999 -9999 -9999 -9999 -9999 -9999 -9999 -9999 -9999 -9999 -9999 -9999 -9999 -9999 -9999 -9999 -9999 -9999 -9999 -9999 -9999 -9999 -9999 -9999 -9999 -9999 -9999 -9999 -9999 -9999 -9999 -9999 -9999 -9999 -9999 -9999 -9999 -9999 -9999 -9999 -9999 -9999 -9999 -9999 -9999 -9999 -9999 -9999 -9999 -9999 -9999 -9999 -9999 -9999 -9999 -9999 -9999 -9999 -9999
-9999 -9999 -9999 -9999 -9999 -9999 -9999 -9999 -9999 -9999 -9999 -9999 -9999 -9999 -9999 -9999 -9999 -9999 -9999 -9999 -9999 -9999 -9999 -9999 -9999 -9999 -9999 -9999 -9999 -9999 -9999 -9999 -9999 -9999 -9999 -9999 -9999 -9999 -9999 -9999 -9999 -9999 -9999 -9999 -9999 -9999 -9999 -9999 -9999 -9999 -9999 -9999 -9999 -9999 -9999 -9999 -9999 -9999 -9999 -9999 -9999 -9999 -9999 -9999 -9999 -9999 -9999 -9999 -9999 -9999
-9999 -9999 -9999 -9999 -9999 -9999 -9999 -9999 -9999 -9999 -9999 -9999 -9999 -9999 -9999 -9999 -9999 -9999 -9999 -9999 -9999 -9999 -9999 -9999 -9999 -9999 -9999 -9999 -9999 -9999 -9999 -9999 -9999 -9999 -9999 -9999 -9999 -9999 -9999 -9999 -9999 -9999 -9999 -9999 -9999 -9999 -9999 -9999 -9999 -9999 -9999 -9999 -9999 -9999 -9999 -9999 -9999 -9999 -9999 4.0684289932251 -9999 -9999 -9999 -9999 -9999 -9999 -9999 -9999 -9999 -9999
-9999 -9999 -9999 -9999 -9999 -9999 -9999 -9999 -9999 -9999 -9999 -9999 -9999 -9999 -9999 -9999 -9999 -9999 -9999 -9999 -9999 -9999 -9999 -9999 -9999 -9999 -9999 -9999 -9999 -9999 -9999 -9999 -9999 -9999 -9999 -9999 -9999 -9999 -9999 -9999 -9999 -9999 -9999 -9999 -9999 -9999 -9999 -9999 -9999 -9999 -9999 -9999 -9999 -9999 -9999 4.22064447402954 4.20573329925537 4.14588212966919 3.98041582107544 3.8703351020813 -9999 -9999 -9999 -9999 -9999 -9999 -9999 -9999 -9999 -9999
-9999 -9999 -9999 -9999 -9999 -9999 -9999 -9999 -9999 -9999 -9999 -9999 -9999 -9999 -9999 -9999 -9999 -9999 -9999 -9999 -9999 -9999 -9999 -9999 -9999 -9999 -9999 -9999 -9999 -9999 -9999 -9999 -9999 -9999 -9999 -9999 -9999 -9999 -9999 -9999 -9999 -9999 -9999 -9999 -9999 -9999 -9999 -9999 -9999 -9999 -9999 -9999 4.4268798828125 4.34843587875366 4.26468706130981 4.2025899887085 4.22217178344727 4.25043344497681 -9999 -9999 -9999 -9999 -9999 -9999 -9999 -9999 -9999 -9999 -9999 -9999
-9999 -9999 -9999 -9999 -9999 -9999 -9999 -9999 -9999 -9999 -9999 -9999 -9999 -9999 -9999 -9999 -9999 -9999 -9999 -9999 -9999 -9999 -9999 -9999 -9999 -9999 -9999 -9999 -9999 -9999 -9999 -9999 -9999 -9999 -9999 -9999 -9999 -9999 -9999 -9999 -9999 -9999 -9999 -9999 -9999 -9999 -9999 -9999 -9999 -9999 4.38582201004028 4.07914781570435 4.01683855056763 3.98351168632507 4.00716018676758 4.12182140350342 -9999 -9999 -9999 -9999 -9999 -9999 -9999 -9999 -9999 -9999 -9999 3.21510680516561 3.10298705101013 3.0703272819519
-9999 -9999 -9999 -9999 -9999 -9999 -9999 -9999 -9999 -9999 -9999 -9999 -9999 -9999 -9999 -9999 -9999 -9999 -9999 -9999 -9999 -9999 -9999 -9999 -9999 -9999 -9999 -9999 -9999 -9999 -9999 -9999 -9999 -9999 -9999 -9999 -9999 -9999 -9999 -9999 -9999 -9999 -9999 -9999 4.20868110656738 -9999 -9999 4.82403242588043 4.94256448745728 4.8023509979248 4.47192764282227 4.10257720947266 3.951340675354 3.99791932106018 4.10386228561401 -9999 -9999 -9999 -9999 -9999 -9999 -9999 -9999 3.30957126617432 3.27103972434998 3.29562616348267 3.28510332107544 3.21837472915649 3.14184236526489 2.98140382766724
-9999 -9999 -9999 -9999 -9999 -9999 -9999 -9999 -9999 -9999 -9999 -9999 -9999 -9999 -9999 -9999 -9999 -9999 -9999 -9999 -9999 -9999 -9999 -9999 -9999 -9999 -9999 -9999 -9999 -9999 -9999 -9999 -9999 -9999 -9999 -9999 -9999 -9999 -9999 -9999 -9999 -9999 -9999 -9999 4.16046380996704 4.24217891693115 4.58619356155396 4.87911891937256 4.88825273513794 4.76873731613159 4.65192079544067 4.5228099822998 4.42711353302002 4.37430858612061 4.25491183996201 -9999 -9999 -9999 -9999 -9999 -9999 -9999 3.26716041564941 3.21942710876465 3.40519952774048 3.56567144393921 3.55004000663757 3.42804026603699 3.24416923522949 3.07402205467224
-9999 -9999 -9999 -9999 -9999 -9999 -9999 -9999 -9999 -9999 -9999 -9999 -9999 -9999 -9999 -9999 -9999 -9999 -9999 -9999 -9999 -9999 -9999 -9999 -9999 -9999 -9999 -9999 -9999 -9999 -9999 -9999 -9999 -9999 -9999 -9999 -9999 -9999 -9999 -9999 5.54155286153158 5.52767451604207 5.14256248474121 4.94080591201782 4.85140609741211 4.96142959594727 5.16998672485352 5.32453727722168 5.32398414611816 5.19750213623047 5.0260443687439 4.83718919754028 4.66510534286499 4.54355716705322 4.51356296539307 -9999 -9999 -9999 -9999 -9999 3.27941552797953 3.32059288024902 3.36726379394531 3.59452486038208 4.00086355209351 4.18047332763672 4.06829977035522 3.83546161651611 3.56583046913147 3.3912205696106
-9999 -9999 -9999 -9999 -9999 -9999 -9999 -9999 -9999 -9999 -9999 -9999 -9999 -9999 -9999 -9999 -9999 -9999 -9999 -9999 -9999 -9999 -9999 -9999 -9999 -9999 -9999 -9999 -9999 -9999 -9999 -9999 -9999 -9999 -9999 -9999 -9999 -9999 -9999 5.57731485366821 5.54553079605103 5.50181293487549 5.53567981719971 5.51111316680908 5.50158643722534 5.6812891960144 5.76511812210083 5.74363136291504 5.68235874176025 5.47535562515259 5.0370831489563 4.62142944335938 4.47643947601318 4.45325565338135 4.53693294525146 4.65976047515869 -9999 -9999 -9999 3.4126296043396 3.2485933303833 3.26906037330627 3.41093325614929 3.78573083877563 4.31818771362305 4.58653926849365 4.49217510223389 4.24398374557495 3.95376110076904 3.80472922325134
-9999 -9999 -9999 -9999 -9999 -9999 -9999 -9999 -9999 -9999 -9999 -9999 -9999 -9999 -9999 -9999 -9999 -9999 -9999 -9999 -9999 -9999 -9999 -9999 -9999 -9999 -9999 -9999 -9999 -9999 -9999 -9999 -9999 -9999 -9999 -9999 -9999 -9999 5.89641056060791 5.70966196060181 5.81301736831665 6.14473342895508 6.44790029525757 6.47995042800903 6.31739950180054 6.10690021514893 5.88230562210083 5.75660848617554 5.66703319549561 5.3514986038208 4.83027935028076 4.50786972045898 4.43823099136353 4.38880920410156 4.37358570098877 4.44760847091675 4.3597936630249 4.04931306838989 3.66228318214417 3.43541789054871 3.30422401428223 3.26197648048401 3.36659026145935 3.7791850566864 4.36255693435669 4.6443042755127 4.57772874832153 4.45012378692627 4.33277606964111 4.33088779449463
-9999 -9999 -9999 -9999 -9999 -9999 -9999 -9999 -9999 -9999 -9999 -9999 -9999 -9999 -9999 -9999 -9999 -9999 -9999 -9999 -9999 -9999 -9999 -9999 -9999 -9999 -9999 -9999 -9999 -9999 -9999 -9999 -9999 -9999 -9999 -9999 -9999 6.2110743522644 6.04355001449585 5.94045162200928 6.14665412902832 6.48083591461182 6.66774225234985 6.57337522506714 6.31526756286621 6.03217315673828 5.84049940109253 5.69242858886719 5.52016973495483 5.24158334732056 4.8699369430542 4.68097305297852 4.6346607208252 4.45611238479614 4.22118711471558 4.16259527206421 4.08768653869629 3.88210868835449 3.6648313999176 3.54982900619507 3.49140691757202 3.43792200088501 3.53359270095825 4.01175022125244 4.5411696434021 4.76157426834106 4.83489656448364 4.84039211273193 4.79420042037964 4.75850009918213
-9999 -9999 -9999 -9999 -9999 -9999 -9999 -9999 -9999 -9999 -9999 -9999 -9999 -9999 -9999 -9999 -9999 -9999 -9999 -9999 -9999 -9999 -9999 -9999 -9999 -9999 -9999 -9999 -9999 -9999 -9999 -9999 -9999 -9999 -9999 -9999 -9999 6.24698495864868 6.1316704750061 6.07961988449097 6.26030778884888 6.60044717788696 6.75949239730835 6.58474397659302 6.35128974914551 6.24421644210815 6.2150559425354 6.00297117233276 5.63090705871582 5.29189014434814 5.01772022247314 4.95775985717773 4.96928024291992 4.65368747711182 4.20671939849854 4.01957273483276 3.92802143096924 3.81022143363953 3.71502900123596 3.74393820762634 3.92460870742798 3.99897170066833 3.98446202278137 4.27019357681274 4.62832546234131 4.84733915328979 4.98093938827515 4.9607834815979 4.83670139312744 4.70335865020752
-9999 -9999 -9999 -9999 -9999 -9999 -9999 -9999 -9999 -9999 -9999 -9999 -9999 -9999 -9999 -9999 -9999 -9999 -9999 -9999 -9999 -9999 -9999 -9999 -9999 -9999 -9999 -9999 -9999 -9999 -9999 -9999 -9999 -9999 -9999 -9999 -9999 6.42414236068726 6.26814985275269 6.20881271362305 6.40796756744385 6.77918529510498 6.90888452529907 6.74551391601562 6.63636064529419 6.6938419342041 6.77169847488403 6.61762094497681 6.2299165725708 5.81492137908936 5.46981143951416 5.31992530822754 5.15870571136475 4.76411581039429 4.32627439498901 4.08475399017334 4.07112216949463 4.01127958297729 3.87930226325989 3.99397039413452 4.45026063919067 4.76944828033447 4.66546535491943 4.50638341903687 4.69655609130859 4.89586353302002 5.00264167785645 4.96144676208496 4.76982307434082 4.58064842224121
-9999 -9999 -9999 -9999 -9999 -9999 -9999 -9999 -9999 -9999 -9999 -9999 -9999 -9999 -9999 -9999 -9999 -9999 -9999 -9999 -9999 -9999 -9999 -9999 -9999 -9999 -9999 -9999 -9999 -9999 -9999 -9999 -9999 -9999 -9999 -9999 6.63838386535645 6.49498271942139 6.33430290222168 6.311927318573 6.51294565200806 6.85717105865479 7.03153419494629 6.97470140457153 6.93478107452393 6.97903823852539 6.97586822509766 6.82570505142212 6.56865978240967 6.24592733383179 5.8553318977356 5.44665765762329 5.04973077774048 4.7740364074707 4.51371717453003 4.29925107955933 4.42339754104614 4.50434017181396 4.27562236785889 4.32680940628052 4.73529958724976 5.37282657623291 5.60288906097412 5.13196516036987 4.98739004135132 5.06422662734985 5.10255861282349 5.13920211791992 4.93033218383789 4.68176937103271
-9999 -9999 -9999 -9999 -9999 -9999 -9999 -9999 -9999 -9999 -9999 -9999 -9999 -9999 -9999 -9999 -9999 -9999 -9999 -9999 -9999 -9999 -9999 -9999 -9999 -9999 -9999 -9999 -9999 -9999 -9999 -9999 -9999 -9999 -9999 -9999 -9999 6.58727502822876 6.43523550033569 6.30656766891479 6.41210842132568 6.6801290512085 6.93483018875122 7.03779554367065 7.0551323890686 7.04157495498657 6.96219825744629 6.73876571655273 6.47584295272827 6.17826890945435 5.79802274703979 5.39309978485107 5.17256021499634 5.14965438842773 4.98436450958252 4.758056640625 5.05194807052612 5.4252758026123 5.47707414627075 5.68464136123657 5.76282548904419 6.0811562538147 6.27213335037231 5.7355055809021 5.38223171234131 5.35889720916748 5.39996433258057 5.50580406188965 5.424964427948 5.33819818496704
-9999 -9999 -9999 -9999 -9999 -9999 -9999 -9999 -9999 -9999 -9999 -9999 -9999 -9999 -9999 -9999 -9999 -9999 -9999 -9999 -9999 -9999 -9999 -9999 -9999 -9999 -9999 -9999 -9999 -9999 -9999 -9999 -9999 -9999 -9999 -9999 -9999 -9999 6.63598680496216 -9999 6.36764240264893 6.5261607170105 6.73073625564575 6.89123678207397 6.96083211898804 6.93938493728638 6.83498239517212 6.59365320205688 6.40394878387451 6.22624921798706 6.03172063827515 5.80754709243774 5.72255229949951 5.73313426971436 5.56249713897705 5.30529069900513 5.59013271331787 6.05105972290039 6.24313020706177 6.71210384368896 6.77778720855713 6.60144853591919 6.50770950317383 5.92802667617798 5.77690458297729 5.95314407348633 6.14863395690918 6.21792840957642 6.18466806411743 6.2523136138916
-9999 -9999 -9999 -9999 -9999 -9999 -9999 -9999 -9999 -9999 -9999 -9999 -9999 -9999 -9999 -9999 -9999 -9999 -9999 -9999 -9999 -9999 -9999 -9999 -9999 -9999 -9999 -9999 -9999 -9999 -9999 -9999 -9999 -9999 -9999 -9999 -9999 -9999 -9999 -9999 6.69072198867798 6.64676380157471 6.75529146194458 6.84578084945679 6.8569917678833 6.79604434967041 6.68507623672485 6.54452753067017 6.4808669090271 6.36353254318237 6.26624393463135 6.14856863021851 6.08166933059692 6.0775990486145 5.96313524246216 5.9408974647522 6.13117980957031 6.33017873764038 6.66066980361938 7.55766916275024 7.54716444015503 7.1117582321167 6.67198610305786 6.10054588317871 6.21144151687622 6.75923919677734 7.46895599365234 7.6330451965332 7.35615301132202 7.04452753067017
-9999 -9999 -9999 -9999 -9999 -9999 -9999 -9999 -9999 -9999 -9999 -9999 -9999 -9999 -9999 -9999 -9999 -9999 -9999 -9999 -9999 -9999 -9999 -9999 -9999 -9999 -9999 -9999 -9999 -9999 -9999 -9999 -9999 -9999 7.37282860279083 7.51279735565186 7.4739875793457 -9999 7.17364501953125 7.07300233840942 6.85832071304321 6.74615049362183 6.81330108642578 6.83117532730103 6.76754379272461 6.71497583389282 6.63837623596191 6.54880857467651 6.47784328460693 6.35832071304321 6.25573968887329 6.24846124649048 6.27207899093628 6.36376333236694 6.4206018447876 6.6645302772522 6.9454927444458 7.1756010055542 8.05416107177734 9.21287536621094 8.29488468170166 7.49890327453613 6.89344787597656 6.47093725204468 6.76259422302246 7.69018840789795 8.93900966644287 9.72965621948242 9.67579650878906 9.23671245574951
-9999 -9999 -9999 -9999 -9999 -9999 -9999 -9999 -9999 -9999 -9999 -9999 -9999 -9999 -9999 -9999 -9999 -9999 -9999 -9999 -9999 -9999 -9999 -9999 -9999 -9999 -9999 7.6003737449646 7.6003737449646 7.66191053390503 7.7521595954895 7.76640748977661 7.63201284408569 7.4604058265686 7.31428003311157 7.2038311958313 7.08966302871704 7.03049945831299 7.01351594924927 7.00757789611816 6.85778760910034 6.73339700698853 6.79503393173218 6.80866527557373 6.74122190475464 6.6864185333252 6.60629940032959 6.52256965637207 6.45778656005859 6.36282253265381 6.36627912521362 6.53899097442627 6.76333045959473 7.05783796310425 7.2883996963501 7.57214879989624 7.97883892059326 8.62064838409424 9.36871242523193 10.1411466598511 8.80914115905762 7.76508188247681 7.45307064056396 7.48766326904297 7.81473350524902 8.60575580596924 10.1501150131226 11.4964866638184 11.8484506607056 12.0559940338135
-9999 -9999 -9999 -9999 -9999 -9999 -9999 -9999 -9999 -9999 -9999 -9999 -9999 -9999 -9999 -9999 -9999 -9999 -9999 -9999 -9999 -9999 -9999 -9999 -9999 -9999 -9999 -9999 -9999 -9999 7.50580263137817 7.48450708389282 7.28655338287354 7.04259634017944 6.94699239730835 6.93778562545776 6.93265438079834 6.94021844863892 6.94445514678955 6.91826295852661 6.79280567169189 6.6886510848999 6.75578117370605 6.78995990753174 6.76997184753418 6.7388334274292 6.6785249710083 6.65935468673706 6.66803026199341 6.66279220581055 6.80906295776367 7.15048551559448 7.53873825073242 7.8573842048645 8.05619239807129 8.36541748046875 8.74823665618896 9.371413230896 9.79314041137695 9.95624828338623 9.08411502838135 8.38832378387451 8.54886341094971 9.18772411346436 9.69352912902832 10.5191440582275 11.7473983764648 12.6628513336182 12.9414482116699 13.760950088501
-9999 -9999 -9999 -9999 -9999 -9999 -9999 -9999 -9999 -9999 -9999 -9999 -9999 -9999 -9999 -9999 -9999 -9999 -9999 -9999 -9999 -9999 -9999 -9999 -9999 8.12948846817017 7.85837856928508 7.57954788208008 7.29872524738312 7.24775886535645 7.11766958236694 7.15265274047852 7.12272071838379 7.01289367675781 7.06534814834595 7.18681573867798 7.2482705116272 7.21231269836426 7.11753797531128 7.04556083679199 6.95715475082397 6.87309885025024 6.86225938796997 6.90480041503906 7.01282691955566 7.06214761734009 7.09789609909058 7.26540994644165 7.42116403579712 7.50026321411133 7.67679357528687 8.03174114227295 8.46304416656494 8.70858764648438 8.7306022644043 8.89831352233887 9.02616596221924 9.55491065979004 9.89698791503906 9.8345775604248 9.64586734771729 9.49283790588379 10.1198501586914 11.0570344924927 11.8530826568604 12.5418081283569 12.7777242660522 13.0237998962402 13.4952697753906 14.3575477600098
-9999 -9999 -9999 -9999 -9999 -9999 -9999 -9999 -9999 -9999 -9999 -9999 -9999 -9999 -9999 -9999 -9999 -9999 -9999 -9999 -9999 -9999 -9999 -9999 8.38817119598389 8.14684867858887 7.85344552993774 7.57484149932861 7.31035661697388 7.06194400787354 6.94128370285034 6.99012422561646 7.0610818862915 7.12513399124146 7.32555866241455 7.59267711639404 7.77076482772827 7.76934242248535 7.63934755325317 7.52438831329346 7.46443653106689 7.36573457717896 7.28959465026855 7.44533109664917 7.76193046569824 7.94355726242065 8.16171550750732 8.6134557723999 9.01674652099609 9.26956653594971 9.43870830535889 9.51703262329102 9.85448265075684 10.1987905502319 10.2083692550659 10.031289100647 9.9555606842041 10.4520483016968 10.8188934326172 10.7059230804443 11.0751113891602 11.5395421981812 12.2341680526733 12.7417812347412 13.1431264877319 13.3747844696045 13.4021978378296 13.6508531570435 14.2148008346558 15.0516939163208
-9999 -9999 -9999 -9999 -9999 -9999 -9999 -9999 -9999 -9999 -9999 -9999 -9999 -9999 -9999 -9999 -9999 -9999 -9999 -9999 -9999 -9999 -9999 -9999 8.33459949493408 8.06132507324219 7.76606750488281 7.51537942886353 7.31353807449341 7.1712212562561 7.12916231155396 7.19812202453613 7.33115386962891 7.50692367553711 7.84300088882446 8.25062656402588 8.52597045898438 8.77362442016602 8.97864246368408 9.0232982635498 9.03528213500977 8.91891574859619 8.71735382080078 8.90459728240967 9.31317806243896 9.68717956542969 10.3055095672607 11.074257850647 11.6788110733032 11.9823389053345 12.0830173492432 11.7477140426636 11.4730634689331 11.5641937255859 11.5921945571899 11.2663078308105 10.982982635498 11.4454298019409 11.945538520813 11.9115800857544 12.362021446228 13.0017700195312 13.351019859314 13.3449401855469 13.3583459854126 13.5534019470215 13.8489351272583 14.3375186920166 15.1065320968628 15.8728446960449
-9999 -9999 -9999 -9999 -9999 -9999 -9999 -9999 -9999 -9999 -9999 -9999 -9999 -9999 -9999 -9999 -9999 -9999 -9999 -9999 -9999 -9999 -9999 8.63665437698364 8.50306987762451 8.17339324951172 7.91441249847412 7.73370695114136 7.64520835876465 7.67123317718506 7.78025817871094 7.90669679641724 8.10082912445068 8.60031700134277 9.50684070587158 10.1401805877686 10.1268920898438 10.3162574768066 10.9479675292969 11.383318901062 11.4965267181396 11.3158931732178 11.0954427719116 11.31822681427 11.6581087112427 12.0913276672363 12.8437194824219 13.5470714569092 13.9590702056885 14.0671949386597 14.0657911300659 13.8040008544922 13.136025428772 12.5952882766724 12.3262271881104 12.0764627456665 11.8210306167603 12.2477579116821 12.7943553924561 12.8616313934326 12.9903335571289 13.1005201339722 13.135555267334 13.166597366333 13.4237070083618 13.8214502334595 14.2380609512329 14.8052244186401 15.5286731719971 16.1351852416992
-9999 -9999 -9999 -9999 -9999 -9999 -9999 -9999 -9999 -9999 -9999 -9999 -9999 -9999 -9999 -9999 -9999 -9999 -9999 -9999 -9999 -9999 -9999 9.06505489349365 8.64389324188232 8.32333850860596 8.08649349212646 7.94400787353516 8.02612018585205 8.40260696411133 8.84873008728027 9.11194038391113 9.55062103271484 10.5521230697632 11.7478790283203 12.3572683334351 12.2804298400879 12.3173055648804 12.6905479431152 12.9665422439575 13.0047063827515 12.8455104827881 12.8052978515625 13.0437622070312 13.2784051895142 13.6214742660522 14.1369647979736 14.5706777572632 14.7519083023071 14.7385158538818 14.7013654708862 14.7099676132202 14.3240308761597 13.551531791687 12.9033861160278 12.5614652633667 12.2731981277466 12.7535648345947 13.5257120132446 13.8023176193237 13.6098403930664 13.3942670822144 13.355863571167 13.3855762481689 13.6465730667114 13.9718399047852 14.2493629455566 14.6552600860596 15.2507123947144 15.9829263687134
-9999 -9999 -9999 -9999 -9999 -9999 -9999 -9999 -9999 -9999 -9999 -9999 -9999 -9999 -9999 -9999 -9999 -9999 -9999 -9999 -9999 -9999 9.31153583526611 9.00110340118408 8.69102573394775 8.46976852416992 8.27207851409912 8.2477445602417 8.67239952087402 9.66304874420166 10.6964254379272 11.2931175231934 11.9407453536987 12.7744941711426 13.2952928543091 13.5039386749268 13.6060190200806 13.6302289962769 13.5418853759766 13.4697036743164 13.5329122543335 13.5581293106079 13.5366878509521 13.6115636825562 13.7388668060303 14.0566558837891 14.6258573532104 15.1283407211304 15.2846822738647 15.1427049636841 14.9134922027588 14.8438577651978 14.6850547790527 14.0932397842407 13.3324918746948 12.7846460342407 12.5118370056152 13.140326499939 14.122371673584 14.5758609771729 14.3462200164795 14.0759477615356 14.1107330322266 14.2344989776611 14.4208183288574 14.558403968811 14.57981300354 14.5582485198975 14.9678649902344 15.804443359375
-9999 -9999 -9999 -9999 -9999 -9999 -9999 -9999 -9999 -9999 -9999 -9999 -9999 -9999 12.4206236468421 -9999 -9999 -9999 -9999 10.3977317810059 -9999 9.53575801849365 9.23906993865967 8.93971538543701 8.76713848114014 8.63282489776611 8.56630611419678 8.86933422088623 9.91437149047852 11.5454053878784 12.8647413253784 13.5399122238159 13.9450912475586 14.1412725448608 14.1347875595093 14.1126508712769 14.0449619293213 13.8147850036621 13.6122007369995 13.7413778305054 14.1285848617554 14.4126243591309 14.4915380477905 14.5554170608521 14.6175146102905 14.7362146377563 15.1141386032104 15.5886945724487 15.8259620666504 15.7375354766846 15.3180170059204 14.8311538696289 14.4898471832275 14.0599784851074 13.4107398986816 12.9548149108887 12.9301815032959 13.5761394500732 14.570330619812 15.1514616012573 15.1422510147095 15.0577869415283 15.1513166427612 15.3219614028931 15.4640207290649 15.5283107757568 15.3439645767212 15.0323247909546 15.3750915527344 16.0629119873047
-9999 -9999 -9999 -9999 -9999 -9999 -9999 -9999 -9999 -9999 -9999 -9999 -9999 -9999 12.4288818836212 -9999 -9999 -9999 -9999 10.2250428199768 9.64985275268555 9.27989959716797 8.97489070892334 8.8521614074707 8.80347442626953 8.79018402099609 9.06296157836914 10.0485544204712 11.7231197357178 13.3413305282593 14.2518739700317 14.6185693740845 14.7160730361938 14.6179647445679 14.5442695617676 14.5843114852905 14.5720453262329 14.3305158615112 14.0286264419556 14.1066331863403 14.673656463623 15.3608207702637 15.7993507385254 16.0611553192139 16.1558971405029 16.0025577545166 15.9268493652344 16.0766830444336 16.2198829650879 16.3139533996582 16.1048221588135 15.4538583755493 14.8058824539185 14.3847274780273 13.9540138244629 13.6481266021729 13.7191600799561 14.1587924957275 14.8796987533569 15.4577655792236 15.6272983551025 15.7201051712036 15.961727142334 16.2501754760742 16.411642074585 16.4021263122559 16.1424465179443 16.0768432617188 16.4224739074707 16.7135143280029
-9999 -9999 -9999 -9999 -9999 -9999 -9999 -9999 -9999 -9999 -9999 -9999 -9999 -9999 12.3917198181152 -9999 -9999 -9999 -9999 -9999 9.15437126159668 8.9835205078125 8.88318634033203 9.00092029571533 9.18533992767334 9.506422996521 10.4026470184326 11.930567741394 13.3950958251953 14.3219079971313 14.7489051818848 14.864447593689 14.8485860824585 14.7913770675659 14.7917346954346 14.9258317947388 15.1663074493408 15.2751846313477 15.1014499664307 14.9576730728149 15.2651462554932 15.9009990692139 16.4336891174316 16.9199352264404 17.3466854095459 17.3978157043457 17.1361560821533 16.8359985351562 16.6174011230469 16.7505588531494 17.0095176696777 16.7733211517334 16.2164993286133 15.8886184692383 15.7733240127563 15.77210521698 15.9787530899048 16.2756309509277 16.5778903961182 16.8153018951416 16.8892707824707 16.9578552246094 17.1488609313965 17.3319396972656 17.4191112518311 17.4346199035645 17.3406753540039 17.4505729675293 17.6530265808105 17.5513877868652
-9999 -9999 -9999 -9999 -9999 -9999 -9999 -9999 -9999 -9999 -9999 -9999 -9999 -9999 12.3430304527283 -9999 12.5403680801392 -9999 -9999 -9999 9.34182834625244 9.01223659515381 9.10380935668945 9.52172470092773 10.0219554901123 10.6812200546265 11.9149694442749 13.3078107833862 14.1628656387329 14.6397848129272 14.9228610992432 15.0988006591797 15.31858253479 15.530125617981 15.6345291137695 15.703652381897 15.8761787414551 16.0258197784424 15.9076156616211 15.687933921814 15.7876825332642 16.244026184082 16.8737297058105 17.6534271240234 18.3269805908203 18.6125373840332 18.4202194213867 17.8820190429688 17.4157867431641 17.5120792388916 17.9600944519043 18.0785999298096 17.7887916564941 17.6321315765381 17.7714157104492 18.1002712249756 18.4785823822021 18.6248054504395 18.6441116333008 18.5915298461914 18.5235557556152 18.4873447418213 18.4718780517578 18.4264659881592 18.3533554077148 18.2780647277832 18.2475032806396 18.2759838104248 18.3011112213135 18.1624336242676
-9999 -9999 -9999 -9999 -9999 -9999 -9999 -9999 -9999 -9999 -9999 -9999 -9999 -9999 12.3430304527283 12.2943410873413 12.4835691452026 -9999 -9999 9.55990767478943 9.46524143218994 9.26167774200439 9.61634540557861 10.3047475814819 10.9668292999268 11.7064895629883 12.8209667205811 13.8475770950317 14.4159078598022 14.8675098419189 15.3834209442139 15.8985910415649 16.3058414459229 16.5442714691162 16.6881103515625 16.8200588226318 16.8837718963623 16.8207874298096 16.6387100219727 16.552339553833 16.8214874267578 17.3727149963379 18.0894393920898 18.8152942657471 19.2582778930664 19.4090003967285 19.2831287384033 18.8277130126953 18.3757801055908 18.3883666992188 18.6726589202881 18.8205337524414 18.728946685791 18.688304901123 18.8538646697998 19.1494674682617 19.3964443206787 19.391092300415 19.3546810150146 19.3495235443115 19.3800678253174 19.3498611450195 19.2764549255371 19.1969127655029 19.1107883453369 18.9791851043701 18.8611183166504 18.7917995452881 18.7097053527832 18.6189403533936
-9999 -9999 -9999 -9999 -9999 -9999 -9999 -9999 -9999 -9999 -9999 -9999 -9999 -9999 -9999 12.3706727981567 12.4766540527344 -9999 10.7037200927734 9.85484600067139 9.57771492004395 9.70522975921631 10.3692045211792 11.1608610153198 11.8167352676392 12.6258659362793 13.6454858779907 14.5079984664917 15.0655517578125 15.6849718093872 16.4784812927246 17.0348300933838 17.2532978057861 17.3644599914551 17.5141048431396 17.6908855438232 17.8148040771484 17.7941017150879 17.5763244628906 17.5162925720215 17.9555625915527 18.5838584899902 19.1690540313721 19.6585750579834 19.9174537658691 20.0180397033691 19.9288349151611 19.5515270233154 19.1272010803223 18.9585704803467 19.0156936645508 19.1101455688477 19.0912170410156 19.0323448181152 19.1107788085938 19.2813301086426 19.4060897827148 19.4100170135498 19.4543781280518 19.5900211334229 19.7113037109375 19.6774940490723 19.602165222168 19.5536689758301 19.5186767578125 19.4788818359375 19.4285278320312 19.3553218841553 19.2594680786133 19.1790733337402
-9999 -9999 -9999 -9999 -9999 -9999 -9999 -9999 -9999 -9999 -9999 -9999 -9999 -9999 -9999 12.3813762664795 12.2174234390259 -9999 10.4283294677734 9.93116188049316 9.79695415496826 10.2377653121948 11.1288757324219 12.05504322052 13.1387138366699 14.3888168334961 15.3009176254272 15.9440288543701 16.4782409667969 17.1358947753906 17.8758487701416 18.3054676055908 18.4183788299561 18.4957656860352 18.6625595092773 18.8445892333984 18.9759998321533 19.0009326934814 18.8141345977783 18.5049457550049 18.5306053161621 18.9925632476807 19.5278034210205 19.9292011260986 20.1959056854248 20.3782176971436 20.4430122375488 20.2237148284912 19.8119201660156 19.4924488067627 19.3274993896484 19.293025970459 19.2237663269043 19.1105690002441 19.1301822662354 19.2428073883057 19.3580570220947 19.462890625 19.6019325256348 19.7434577941895 19.7785034179688 19.6679649353027 19.603157043457 19.6005096435547 19.6056938171387 19.6324825286865 19.6797561645508 19.6535396575928 19.5957584381104 19.5422286987305
-9999 -9999 -9999 -9999 -9999 -9999 -9999 -9999 -9999 -9999 -9999 -9999 -9999 -9999 -9999 12.3590688705444 -9999 11.3623417445592 10.5486907958984 10.1148729324341 10.1566114425659 10.8200645446777 11.9867734909058 13.4371118545532 15.075101852417 16.3589477539062 16.871654510498 17.15797996521 17.70387840271 18.4482192993164 19.0661392211914 19.4508895874023 19.7077560424805 19.9344940185547 20.1758689880371 20.3852386474609 20.5106906890869 20.5361671447754 20.4297542572021 20.1339130401611 19.7364616394043 19.5254516601562 19.6847763061523 20.0177421569824 20.3278045654297 20.5466899871826 20.7148323059082 20.7168312072754 20.4746532440186 20.2047367095947 19.9992275238037 19.8385391235352 19.6853008270264 19.5177402496338 19.462345123291 19.5196228027344 19.6501598358154 19.8017406463623 19.8837947845459 19.8288822174072 19.6416893005371 19.4455184936523 19.3827381134033 19.3955345153809 19.4384803771973 19.5224838256836 19.6272106170654 19.6518592834473 19.6445350646973 19.6278896331787
-9999 -9999 -9999 -9999 -9999 -9999 -9999 -9999 -9999 -9999 -9999 -9999 -9999 -9999 12.3590688705444 12.1880569458008 12.0054693222046 11.3307619094849 10.8060846328735 10.4080562591553 10.4579772949219 11.2734708786011 12.9519271850586 15.0843439102173 16.7748069763184 17.6294288635254 17.869836807251 18.0873870849609 18.7675151824951 19.6153259277344 20.2274379730225 20.6967010498047 21.0932750701904 21.4173469543457 21.6304798126221 21.7137355804443 21.7140083312988 21.674243927002 21.6019954681396 21.4713153839111 21.1982021331787 20.7411670684814 20.2997226715088 20.205602645874 20.4051837921143 20.5842933654785 20.7423324584961 20.838659286499 20.7579002380371 20.6377124786377 20.5908489227295 20.5447635650635 20.4463787078857 20.2962875366211 20.1814670562744 20.1252937316895 20.1183319091797 20.0540809631348 19.8713035583496 19.5773124694824 19.2543277740479 19.0414924621582 18.9999732971191 19.0935916900635 19.2297134399414 19.3395881652832 19.3945255279541 19.4341259002686 19.4337635040283 19.4437294006348
-9999 -9999 -9999 -9999 -9999 -9999 -9999 -9999 -9999 -9999 -9999 -9999 -9999 -9999 -9999 -9999 11.3450207710266 11.1836843490601 10.7468566894531 10.4355001449585 10.5515298843384 11.8821802139282 14.4880285263062 16.8869571685791 18.1214504241943 18.6785335540771 18.9023361206055 19.3140163421631 20.1620178222656 21.0353622436523 21.6381492614746 22.0398120880127 22.2486763000488 22.2748966217041 22.1729354858398 21.9910430908203 21.8073139190674 21.689001083374 21.638484954834 21.6365528106689 21.6222095489502 21.4515571594238 21.0390377044678 20.6164951324463 20.4516334533691 20.4633636474609 20.5647850036621 20.6765060424805 20.6347370147705 20.515287399292 20.5220489501953 20.5969142913818 20.6113395690918 20.5434226989746 20.4271335601807 20.2917060852051 20.1137447357178 19.8251075744629 19.4968891143799 19.1395606994629 18.8317852020264 18.6829433441162 18.7368316650391 18.8818378448486 19.0181846618652 19.1181259155273 19.1403045654297 19.1687393188477 19.1852970123291 19.2439556121826
-9999 -9999 -9999 -9999 -9999 -9999 -9999 -9999 -9999 -9999 -9999 -9999 -9999 -9999 -9999 -9999 11.0219259262085 10.8601675033569 10.6143522262573 10.5548477172852 11.1092252731323 13.3368234634399 16.4668006896973 18.232349395752 18.8423614501953 19.4275436401367 19.9282913208008 20.5437545776367 21.4496154785156 22.1972064971924 22.590124130249 22.6509113311768 22.4411373138428 22.1082916259766 21.7500610351562 21.4758281707764 21.3552742004395 21.311990737915 21.3167324066162 21.3795776367188 21.4811668395996 21.5337162017822 21.3679866790771 20.9702911376953 20.5553169250488 20.2834854125977 20.2302570343018 20.2850894927979 20.226490020752 20.0710220336914 20.0241355895996 20.0871715545654 20.1488952636719 20.141321182251 20.0587196350098 19.9210834503174 19.702657699585 19.4142971038818 19.128101348877 18.7892723083496 18.5826587677002 18.5736656188965 18.7047386169434 18.8457775115967 18.9338397979736 18.9913635253906 19.0099048614502 19.0643196105957 19.1076183319092 19.1706981658936
-9999 -9999 -9999 -9999 -9999 -9999 -9999 -9999 -9999 -9999 -9999 -9999 -9999 -9999 -9999 -9999 -9999 10.7003154754639 10.6344623565674 10.8366661071777 11.7433309555054 14.2621660232544 17.309061050415 19.1004600524902 20.0021934509277 20.6258735656738 21.1978778839111 21.8529586791992 22.5297985076904 22.8777484893799 22.875316619873 22.5472431182861 21.9328212738037 21.3363456726074 21.0282287597656 21.0470008850098 21.1937294006348 21.2813262939453 21.3132057189941 21.2971019744873 21.2664756774902 21.238187789917 21.1140327453613 20.8537998199463 20.5313873291016 20.2308444976807 20.0618057250977 19.9376678466797 19.7470664978027 19.577974319458 19.6009845733643 19.6692867279053 19.6987247467041 19.7403411865234 19.7142486572266 19.5735244750977 19.3618392944336 19.1389942169189 18.8732128143311 18.6069278717041 18.5313549041748 18.5955295562744 18.7469367980957 18.8740787506104 18.9058799743652 18.9066295623779 18.9486694335938 19.0436935424805 19.0841598510742 19.1083335876465
-9999 -9999 -9999 -9999 -9999 -9999 -9999 -9999 -9999 -9999 -9999 -9999 -9999 -9999 10.9006071090698 10.8601675033569 10.7290334701538 10.6633710861206 10.6922798156738 11.0999402999878 12.522008895874 15.3190879821777 18.1728458404541 19.9237270355225 20.8684349060059 21.3852005004883 21.9773044586182 22.563325881958 22.8639335632324 22.8707885742188 22.6110763549805 21.9787883758545 21.1548404693604 20.6386013031006 20.6290969848633 20.8958702087402 21.0482997894287 21.059986114502 20.9971179962158 20.8669681549072 20.7502574920654 20.670726776123 20.5849723815918 20.4641456604004 20.3106956481934 20.1297931671143 19.9458904266357 19.7445659637451 19.5173606872559 19.4232349395752 19.503345489502 19.5343151092529 19.5198249816895 19.5802745819092 19.5301036834717 19.3200340270996 19.0696620941162 18.8443279266357 18.6382789611816 18.5706939697266 18.5924682617188 18.6458187103271 18.7702503204346 18.8853950500488 18.8906917572021 18.8559341430664 18.912618637085 18.99880027771 19.0058536529541 18.9829330444336
-9999 -9999 -9999 -9999 -9999 -9999 -9999 -9999 -9999 -9999 -9999 -9999 -9999 -9999 -9999 -9999 -9999 -9999 11.801685333252 12.1120433807373 14.0566253662109 16.5757865905762 18.8516483306885 20.5145473480225 21.4290294647217 22.115140914917 22.6806392669678 22.9488620758057 22.9489898681641 22.78147315979 22.2930908203125 21.3937664031982 20.5294570922852 20.1300792694092 20.1008186340332 20.2385807037354 20.286096572876 20.2112274169922 20.1135997772217 20.0327739715576 20.0083618164062 20.0144100189209 20.0350475311279 20.0117130279541 19.9458293914795 19.8157291412354 19.6202659606934 19.4211349487305 19.2677097320557 19.279468536377 19.4065113067627 19.4656372070312 19.4269428253174 19.3908138275146 19.2550182342529 19.0365676879883 18.8182640075684 18.6305732727051 18.602201461792 18.6475849151611 18.6792621612549 18.6915893554688 18.7686882019043 18.8719253540039 18.8816719055176 18.8412265777588 18.8686447143555 18.9102516174316 18.9103164672852 18.8927516937256
-9999 -9999 -9999 -9999 -9999 -9999 -9999 -9999 -9999 -9999 -9999 -9999 -9999 -9999 -9999 -9999 -9999 13.435489654541 13.6600806713104 13.3024778366089 15.5415296554565 18.0988235473633 20.348669052124 21.6996421813965 22.4679088592529 22.9498119354248 23.1037063598633 23.0103530883789 22.8085079193115 22.5339660644531 21.8772792816162 20.9005603790283 20.1540870666504 19.8555335998535 19.7500896453857 19.6613597869873 19.5900573730469 19.4980163574219 19.4387893676758 19.4442577362061 19.4977416992188 19.5511360168457 19.5972385406494 19.6059513092041 19.5401821136475 19.3763999938965 19.1775608062744 19.0550861358643 19.0126361846924 19.0619506835938 19.1641521453857 19.2274913787842 19.1850509643555 19.0774002075195 18.9377365112305 18.7994384765625 18.6714057922363 18.6014213562012 18.6438159942627 18.6821594238281 18.7086277008057 18.7286243438721 18.7961082458496 18.8867568969727 18.9178695678711 18.9046726226807 18.9100399017334 18.9146003723145 18.9197368621826 18.9263858795166
-9999 -9999 -9999 -9999 -9999 -9999 -9999 -9999 -9999 -9999 -9999 -9999 -9999 16.618143081665 16.6479483710395 -9999 16.1722440719604 15.8596305847168 13.435489654541 15.7903118133545 19.3304252624512 21.3666687011719 22.6275119781494 23.2396621704102 23.4308109283447 23.3475856781006 23.0913105010986 22.7292175292969 22.4025821685791 22.0180625915527 21.3975925445557 20.6345119476318 20.1071262359619 19.9692935943604 19.7937984466553 19.5192947387695 19.3296775817871 19.2782306671143 19.30006980896 19.3552799224854 19.3957023620605 19.4216289520264 19.4163227081299 19.3713607788086 19.2314319610596 19.0134887695312 18.8880195617676 18.8553771972656 18.8677711486816 18.9023494720459 18.9428424835205 18.9938430786133 18.9607181549072 18.8599166870117 18.7914047241211 18.7665729522705 18.7108383178711 18.6759433746338 18.6921234130859 18.7131996154785 18.7421379089355 18.7723541259766 18.8526782989502 18.9439525604248 18.9911403656006 18.9914665222168 18.9750156402588 18.9589080810547 18.9599723815918 18.9772930145264
-9999 -9999 -9999 -9999 -9999 -9999 -9999 -9999 -9999 -9999 -9999 -9999 -9999 -9999 16.618143081665 17.0177892049154 16.3079128265381 16.0365753173828 17.6585445404053 21.3201332092285 23.0035247802734 23.5162734985352 23.6975688934326 23.6687698364258 23.3919582366943 22.9502906799316 22.517915725708 22.1845474243164 21.9277267456055 21.529426574707 20.9890632629395 20.466121673584 20.259204864502 20.3427429199219 20.3103866577148 20.1454544067383 19.9012546539307 19.664831161499 19.5008430480957 19.5007801055908 19.5237674713135 19.4428939819336 19.3244075775146 19.1665439605713 18.9798851013184 18.8492488861084 18.8157234191895 18.8176383972168 18.826192855835 18.8085327148438 18.8025455474854 18.8516120910645 18.8791046142578 18.8510971069336 18.8238506317139 18.8275947570801 18.8139266967773 18.7895927429199 18.7813549041748 18.7848205566406 18.801664352417 18.8356494903564 18.9253883361816 19.0131988525391 19.0655746459961 19.0680980682373 19.051197052002 19.0405464172363 19.0436058044434 19.0554809570312
-9999 -9999 -9999 -9999 -9999 -9999 -9999 -9999 -9999 -9999 -9999 -9999 -9999 -9999 16.6305415630341 16.618143081665 18.127311706543 19.2470149993896 21.711669921875 23.3954124450684 23.8665180206299 23.8886394500732 23.7453327178955 23.3196277618408 22.7031497955322 22.2335891723633 21.9876575469971 21.8412094116211 21.608793258667 21.2298183441162 20.7795886993408 20.4448776245117 20.4461822509766 20.5932712554932 20.6673965454102 20.646484375 20.5308513641357 20.3276977539062 20.0924377441406 19.9526996612549 19.8575916290283 19.6440982818604 19.3787593841553 19.1839828491211 19.0060272216797 18.8958282470703 18.8841438293457 18.9126071929932 18.9108982086182 18.8435134887695 18.7741832733154 18.7803192138672 18.8436145782471 18.8842105865479 18.8967323303223 18.8999671936035 18.8963165283203 18.8767833709717 18.8585319519043 18.8451671600342 18.856014251709 18.897367477417 18.9778251647949 19.0443725585938 19.0811977386475 19.0834980010986 19.074743270874 19.0762615203857 19.0795707702637 19.0845642089844
-9999 -9999 -9999 -9999 -9999 -9999 -9999 -9999 -9999 -9999 -9999 14.7732601165771 15.0379829406738 15.4357957839966 16.1235008239746 18.3447265625 21.0254287719727 22.6426792144775 23.6372203826904 23.982084274292 23.9834136962891 23.800220489502 23.2478275299072 22.4246959686279 21.9521446228027 21.8256568908691 21.7547016143799 21.6401462554932 21.3945121765137 21.0362777709961 20.5970859527588 20.2796535491943 20.3236331939697 20.5576362609863 20.7620429992676 20.8340263366699 20.8354263305664 20.7408332824707 20.5231742858887 20.2478332519531 20.0151710510254 19.8119964599609 19.57106590271 19.3738040924072 19.1663703918457 18.9971141815186 18.9723663330078 19.006649017334 18.9868240356445 18.9344959259033 18.867244720459 18.8343753814697 18.8206901550293 18.8589363098145 18.9301280975342 18.948486328125 18.9279937744141 18.9048709869385 18.8833160400391 18.8731880187988 18.8872680664062 18.9325561523438 18.992790222168 19.025182723999 19.0328884124756 19.0370063781738 19.0378360748291 19.0441360473633 19.0487995147705 19.0481739044189
-9999 -9999 -9999 -9999 -9999 -9999 -9999 -9999 -9999 15.1403656005859 15.4376916885376 16.037618637085 16.8903007507324 17.44313621521 17.6855411529541 20.4575805664062 22.7190818786621 23.6229553222656 24.0757160186768 24.091438293457 23.8561954498291 23.2325267791748 22.2158813476562 21.6417961120605 21.7754421234131 21.8554649353027 21.7813205718994 21.575891494751 21.2823829650879 20.9236068725586 20.4878597259521 20.1842231750488 20.2942790985107 20.651611328125 20.891170501709 20.9248733520508 20.913402557373 20.8651294708252 20.7219676971436 20.4551582336426 20.1525363922119 19.9869079589844 19.8040523529053 19.5505313873291 19.2547855377197 19.0540885925293 19.0192584991455 19.0340976715088 19.0399532318115 19.0225086212158 18.9786682128906 18.9469108581543 18.9214096069336 18.9021148681641 18.9175777435303 18.9288864135742 18.9143199920654 18.882381439209 18.856876373291 18.8580417633057 18.9053001403809 18.9361553192139 18.9592456817627 18.9666042327881 18.9762020111084 19.0025119781494 19.0245304107666 19.0391273498535 19.0366287231445 19.0342407226562
-9999 -9999 -9999 -9999 -9999 -9999 -9999 -9999 -9999 16.3300819396973 17.2303848266602 18.5635185241699 19.8140201568604 20.3152332305908 20.1633052825928 22.5771732330322 23.8788547515869 24.3086948394775 24.2384815216064 23.9148921966553 23.2886199951172 22.2757129669189 21.5047245025635 21.5651950836182 21.7601890563965 21.7094020843506 21.5849666595459 21.420955657959 21.206413269043 20.9354000091553 20.5644283294678 20.3473110198975 20.5774536132812 20.942777633667 21.0473117828369 20.9183387756348 20.7745208740234 20.6752376556396 20.5402889251709 20.3292026519775 20.1335372924805 20.0216026306152 19.8535461425781 19.5964660644531 19.3110065460205 19.1352710723877 19.0901279449463 19.0888442993164 19.114128112793 19.1225242614746 19.1160621643066 19.0754699707031 18.9955997467041 18.9378833770752 18.9051475524902 18.8924903869629 18.8700695037842 18.8352603912354 18.8125896453857 18.8387775421143 18.9076442718506 18.9280376434326 18.9231052398682 18.9450149536133 18.9755229949951 19.0159358978271 19.0523090362549 19.069938659668 19.0437355041504 19.0041084289551
-9999 -9999 -9999 -9999 -9999 17.1751070022583 16.7163753509521 17.159818649292 17.3475532531738 17.712610244751 18.6234569549561 20.1077270507812 21.353630065918 22.1464519500732 23.1571598052979 24.1433448791504 24.3838882446289 24.3236846923828 23.9658813476562 23.3893089294434 22.5297794342041 21.6145420074463 21.2988891601562 21.4481887817383 21.5289897918701 21.4876403808594 21.4788379669189 21.4466991424561 21.3524208068848 21.2394638061523 21.0458106994629 20.9121799468994 21.0403423309326 21.1575889587402 21.0061740875244 20.7259292602539 20.4674320220947 20.288646697998 20.1800956726074 20.1063632965088 20.0398941040039 19.9536170959473 19.7940998077393 19.5616626739502 19.3159084320068 19.1807403564453 19.1454467773438 19.149772644043 19.1836738586426 19.2321510314941 19.2628993988037 19.1976013183594 19.0402488708496 18.9300498962402 18.8894100189209 18.8784999847412 18.85373878479 18.8229427337646 18.8031616210938 18.8392505645752 18.9014701843262 18.9402370452881 18.9682292938232 19.0223655700684 19.0658473968506 19.1047344207764 19.1543788909912 19.1844081878662 19.1499271392822 19.0577144622803
-9999 -9999 -9999 -9999 17.1946887969971 17.0581760406494 17.7311878204346 18.5163555145264 18.6900463104248 19.217809677124 19.6471271514893 21.0097694396973 22.331636428833 23.4733104705811 24.1433162689209 24.4126644134521 24.4525451660156 24.1805553436279 23.5648975372314 22.847038269043 22.005334854126 21.3390121459961 21.2482967376709 21.3694458007812 21.3754978179932 21.3778629302979 21.51686668396 21.5755615234375 21.5070209503174 21.4190044403076 21.283935546875 21.1028118133545 21.0270156860352 20.9289321899414 20.7122707366943 20.4735794067383 20.2364940643311 20.1029319763184 20.0730075836182 20.0672664642334 20.0140857696533 19.8853664398193 19.661413192749 19.4363136291504 19.2752895355225 19.2254676818848 19.22336769104 19.233325958252 19.2694053649902 19.3241653442383 19.3606700897217 19.3031349182129 19.1239433288574 18.9714336395264 18.9101982116699 18.8991661071777 18.8931541442871 18.8744258880615 18.8703289031982 18.8980693817139 18.9317722320557 18.9804668426514 19.0464000701904 19.1123600006104 19.145975112915 19.1963577270508 19.2967834472656 19.3609867095947 19.3411865234375 19.2344818115234
-9999 -9999 -9999 17.8271746635437 17.7111339569092 18.106273651123 19.1677417755127 19.8057098388672 20.2218036651611 20.8770561218262 21.0012836456299 22.354663848877 23.6064376831055 24.2000102996826 24.4624443054199 24.5448818206787 24.3326759338379 23.7637138366699 23.0459308624268 22.4565620422363 21.8317413330078 21.3756809234619 21.3416156768799 21.4513092041016 21.4243297576904 21.2920303344727 21.2925643920898 21.2878341674805 21.1941661834717 21.1065464019775 21.0136089324951 20.8922443389893 20.8188800811768 20.7030048370361 20.5282688140869 20.3351440429688 20.1677398681641 20.1630954742432 20.2071857452393 20.1735305786133 20.0368614196777 19.7820358276367 19.5359535217285 19.374605178833 19.3084869384766 19.3216171264648 19.3364295959473 19.354907989502 19.3859424591064 19.4108467102051 19.4159069061279 19.3817958831787 19.232515335083 19.081018447876 19.0124359130859 18.9577655792236 18.9535446166992 18.9482746124268 18.9480857849121 18.962869644165 18.9784450531006 19.0196018218994 19.0814781188965 19.1469917297363 19.1869640350342 19.2993068695068 19.4606685638428 19.5546131134033 19.5458106994629 19.4518699645996
-9999 -9999 -9999 18.1288223266602 18.2740535736084 19.2448711395264 20.4775619506836 21.0252571105957 21.8431930541992 22.383882522583 22.998462677002 23.9221382141113 24.3415126800537 24.5207614898682 24.5898590087891 24.467321395874 24.0325107574463 23.3675155639648 22.7156448364258 22.3106479644775 21.8239479064941 21.5078449249268 21.4433898925781 21.5418872833252 21.5672874450684 21.4396667480469 21.3334846496582 21.2039566040039 21.0517234802246 20.9060897827148 20.8246936798096 20.7811393737793 20.7284774780273 20.6239528656006 20.4870300292969 20.3237628936768 20.2479248046875 20.2888336181641 20.2908668518066 20.1395778656006 19.8240032196045 19.550422668457 19.3789024353027 19.2731761932373 19.2679309844971 19.3002815246582 19.340238571167 19.4073219299316 19.4804382324219 19.514591217041 19.5182876586914 19.5166511535645 19.3917808532715 19.2175731658936 19.1232242584229 19.0458984375 19.0084171295166 18.9863452911377 18.9860324859619 19.0025882720947 19.0301151275635 19.0700645446777 19.1330051422119 19.1994495391846 19.2975120544434 19.4818248748779 19.6623649597168 19.7380065917969 19.7095642089844 19.615364074707
