NCOLS 35 
NROWS 26 
XLLCORNER -80 
YLLCORNER 33 
CELLSIZE 0.5 
NODATA_value -9999 
-9999.000000000000000 -9999 -9999 -9999 -9999 -9999 -9999 -9999 -9999 -9999 -9999 -9999 -9999 -9999 -9999 -9999 -9999 -9999 -9999 -9999 -9999 -9999 -9999 -9999 -9999 -9999 -9999 -9999 -9999 -9999 -9999 -9999 -9999 -9999 -9999
-9999 -9999 -9999 -9999 -9999 -9999 -9999 -9999 -9999 -9999 -9999 -9999 -9999 -9999 -9999 -9999 -9999 -9999 -9999 -9999 -9999 -9999 -9999 -9999 -9999 -9999 -9999 -9999 -9999 30.6580908070245 -9999 -9999 -9999 -9999 -9999
-9999 -9999 -9999 -9999 -9999 -9999 -9999 -9999 -9999 -9999 -9999 -9999 -9999 -9999 -9999 -9999 -9999 -9999 -9999 -9999 -9999 -9999 -9999 -9999 -9999 -9999 30.6944255808882 30.8377263490315 30.7275646328939 30.3547528705395 -9999 -9999 -9999 -9999 -9999
-9999 -9999 -9999 -9999 -9999 -9999 -9999 -9999 -9999 -9999 -9999 -9999 -9999 -9999 -9999 -9999 -9999 -9999 -9999 -9999 -9999 -9999 -9999 31.4259447145082 31.4251716269151 31.3473779934255 31.1685523069419 31.2683694138693 -9999 -9999 -9999 30.1328234506063 29.9934266320165 29.9787913589146 30.1675133921965
-9999 -9999 -9999 -9999 -9999 -9999 -9999 -9999 -9999 -9999 -9999 -9999 -9999 -9999 -9999 -9999 -9999 -9999 -9999 -9999 31.6905277316242 31.6803476531971 31.5395838997312 31.5589424589234 31.7409768538418 31.6620549903545 31.169628371563 31.2011362682073 -9999 -9999 30.2492970178006 30.0621456169555 30.2437262483035 30.839222347584 31.1580562410766
-9999 -9999 -9999 -9999 -9999 -9999 -9999 -9999 -9999 -9999 -9999 -9999 -9999 -9999 -9999 -9999 -9999 -9999 -9999 31.8808281723743 31.810507703798 31.7370614618855 32.0012006153109 32.2626780798311 32.156728874132 31.5451074531227 30.7805195412438 30.7077462599648 30.6918063029671 30.2895265331227 30.1623241247606 30.250497165298 30.7770718913902 31.2888923307355 31.2038664729176
-9999 -9999 -9999 -9999 -9999 -9999 -9999 -9999 -9999 -9999 -9999 -9999 -9999 -9999 -9999 -9999 -9999 -9999 -9999 32.0887445519896 32.1982436385123 32.0476582326038 32.2176242348259 32.4302861200614 31.8382009652518 31.2672607253848 30.838991657165 30.6225772160079 30.4768004634002 30.3971750912576 30.5066517335964 30.835842495773 31.2911796856406 31.4434083999284 31.3967157431612
-9999 -9999 -9999 -9999 -9999 -9999 -9999 -9999 -9999 -9999 -9999 -9999 -9999 -9999 -9999 -9999 -9999 -9999 -9999 31.9838353667582 32.2241643088233 32.2383522722954 32.3611422609026 32.4562564017163 32.1308984584705 31.990692649822 31.7316681826029 31.3930569427835 30.881910040905 30.7585875076616 31.125222962383 31.4560778257695 31.6745883143753 31.8167271922416 31.9584500189821
-9999 -9999 -9999 -9999 -9999 -9999 -9999 -9999 -9999 -9999 -9999 -9999 -9999 -9999 -9999 -9999 -9999 -9999 -9999 31.7514732153617 32.1163823007241 32.3217477790212 32.4465512205879 32.4614595379411 32.3592517593042 32.2867905958518 32.1814117750577 31.7931454527957 31.2068314634893 31.2751312155551 31.6269427154738 31.8378342736229 31.956356871798 32.1064923034129 32.1497376564265
-9999 -9999 -9999 -9999 -9999 -9999 -9999 -9999 -9999 -9999 -9999 -9999 -9999 -9999 -9999 -9999 -9999 31.9763454704789 31.9729807251166 31.9347981455015 32.0867122643232 32.2939582829814 32.4458044293081 32.3962398090934 32.2644974216558 32.1466865084136 31.9242550178117 31.6507442700175 31.7828788598749 32.2216652999919 32.2916427088516 32.1583612012138 32.0158912733132 32.0009815997309 32.0525487573398
-9999 -9999 -9999 -9999 -9999 -9999 -9999 -9999 -9999 -9999 -9999 -9999 -9999 -9999 31.1282826910318 31.7359813363959 32.04605914588 32.2428628409181 32.1508187481296 32.0837607707376 32.171805494022 32.312015246601 32.368978830588 32.3145910664817 32.2014286306466 32.0380317382538 32.0473861483541 32.7576507418283 33.8165272049342 34.4706244899551 33.6908671591124 33.2587870319944 33.1582860026752 33.2369226073071 33.6449093129303
-9999 -9999 -9999 -9999 -9999 -9999 -9999 -9999 -9999 -9999 -9999 -9999 31.6025173061254 32.0941306610994 32.4531955857079 32.5793139551508 32.5142298170223 32.4226230122178 32.3723239422743 32.3063577092219 32.2839458093046 32.3297592848272 32.3848172662548 32.4447334201156 32.5698460202197 32.7827571175911 33.2015830909343 33.9400070580754 34.6189572086439 35.0189554160635 34.2690389710749 34.0211080625284 34.1689308578392 34.5784435935696 34.8240967628893
-9999 -9999 -9999 -9999 -9999 -9999 -9999 -9999 -9999 -9999 -9999 -9999 31.8555315409215 32.8946211189599 32.9890838606347 32.8422583927734 33.4346889232068 33.6885574056337 33.4307442415303 33.0431389823783 32.812573152659 32.9525845684633 33.2364964844025 33.4597219284485 33.6539663184792 33.7046154270065 33.8756222391822 34.3144747964762 34.968062588732 35.0823440638567 34.703266440884 34.6407167770986 34.7972020239365 34.9817263693187 35.2371884545279
-9999 -9999 -9999 -9999 -9999 -9999 -9999 -9999 -9999 29.6257604397413 30.0606213006859 30.8210034172043 32.130345328932 33.0492119524642 33.6413862213214 34.3827055069539 34.9685663252367 35.1294749784928 35.1435189419018 34.8728755334979 34.2625248898072 33.7014725088296 33.8618918947081 34.0555216245195 34.346420151546 34.6805560659198 34.6468122235636 34.8162519927798 35.1434881403416 35.4203602316446 35.5536179080156 35.7083320362981 35.8444378810695 35.9239520679103 36.0155733244028
-9999 -9999 -9999 -9999 -9999 -9999 -9999 -9999 -9999 -9999 30.8820521015482 31.8918263528456 32.8897760674736 33.9303110606708 35.3227507137167 35.5127517914132 35.4254328586497 35.5037331788199 35.8755270611558 36.0290885194219 35.8454546142667 34.8319659934164 33.9017328362241 33.9565773866236 34.3851168890813 34.9443133985845 35.0454284710456 35.3604279841329 35.8704230302691 36.1537188600031 36.2618016891493 36.2975762049533 36.3168201387109 36.3280148940778 36.3480711916542
-9999 -9999 -9999 -9999 -9999 -9999 -9999 12.9907052171363 14.5731433825073 -9999 31.5060574534441 32.9247463715899 34.2585685091452 35.1758664101936 35.3985766964343 35.530499666252 35.5191996776986 35.4249131653243 35.5043794562151 35.6045740957971 35.4927608718622 35.0469113352365 34.8083192596065 34.9283755530653 34.8385822748003 35.2992377676862 35.5719449222117 35.8801365017003 36.1873381814749 36.2957754961877 36.3363311825364 36.3605916871692 36.3889881366663 36.4186084830272 36.4409956260613
-9999 -9999 -9999 -9999 -9999 -9999 -9999 14.8529789498591 19.0388816329143 30.1636658190465 32.2032581824219 33.9584858679839 35.0666448462519 35.246521706917 35.243310297156 35.4583661173217 35.5055455436438 35.4715152109601 35.5128575652133 35.6314682565751 35.7605984702152 35.8079895246258 35.8416099085442 35.8825209805878 35.81676595306 35.8666133517466 36.0215177384536 36.1628049795393 36.2756858106913 36.3517523168246 36.4076903259663 36.4175174872293 36.4263926547794 36.443435900833 36.4369141892671
-9999 -9999 -9999 -9999 -9999 -9999 -9999 18.3548140010968 -9999 31.1732213773881 33.1179822731162 34.6639887972714 35.069537732653 35.1627882992546 35.2852092687773 35.3895948522728 35.4452359304031 35.5818153956117 35.7958941942038 36.0492953879458 36.1738380914411 36.2169393957486 36.2444620473321 36.2647476938545 36.2751999680941 36.2661633636657 36.2696357730854 36.2767747768406 36.3155407088917 36.3825658617824 36.4265171501759 36.43063857762 36.4448643548813 36.457871658854 36.4421898938122
-9999 -9999 -9999 -9999 -9999 -9999 -9999 -9999 28.4341446319243 31.6170856916816 33.3780159277472 34.6820024782665 35.1363394967618 35.4981831739119 35.670749131796 35.764319167496 35.7952902335726 35.8594397406724 36.0219882667956 36.2058331923521 36.2850510129415 36.3366769498703 36.3323897297852 36.3260599347045 36.3262177885086 36.3305129407232 36.3330523704674 36.344078674394 36.3888124412721 36.4012708319557 36.4546453989876 36.4800305408767 36.4875771485026 36.4708346325119 36.4470337178507
-9999 -9999 -9999 -9999 -9999 -9999 -9999 -9999 -9999 31.8485424150458 33.6394015617371 35.1263392546353 35.7029864208906 36.087519988713 36.1785364032265 36.1958886522065 36.2022820881052 36.2022119478509 36.2150992342638 36.2499108957898 36.3206673798173 36.3601955287456 36.3417597506062 36.3484140238453 36.3631408090554 36.4086946196849 36.4683786048235 36.4571436079512 36.441771975356 36.4328592277829 36.4704074578924 36.4990225191861 36.5034578003229 36.4672781771294 36.4399719239122
-9999 -9999 -9999 -9999 -9999 -9999 -9999 -9999 -9999 31.4932375035487 34.2663434703442 35.7352385091147 36.0594016292399 36.1978043211789 36.2444059362018 36.2572693028107 36.2692157914438 36.270638577769 36.2649435945142 36.2761823971452 36.3368670513425 36.3928343005699 36.4052910439248 36.425098043511 36.453438946638 36.4737475001524 36.5015766648885 36.4874911735017 36.4454848209956 36.4349851887367 36.426983188608 36.4323338291731 36.436016864601 36.4269845287395 36.4115807785991
-9999 -9999 -9999 -9999 -9999 -9999 -9999 32.7539049381269 32.3993764797538 33.4578144404781 35.5169207619999 36.05388020173 36.1616630842336 36.230012285675 36.2745837235952 36.2919808636257 36.3205774380809 36.3237379201631 36.2944772361129 36.2931818373998 36.350397005247 36.4199214791823 36.4270339056755 36.4276730464347 36.4420603504531 36.4503073907368 36.4636816452427 36.4804031390109 36.4556094860791 36.4221159665984 36.4040252448123 36.3963105412363 36.3944070836922 36.3982876161326 36.4009381963004
-9999 -9999 -9999 -9999 -9999 -9999 34.0734718382023 34.3294419250529 35.2479882842849 35.8256769795233 36.0680414528013 36.1102950266974 36.1782896017175 36.2405089412054 36.2939786844011 36.3082052531314 36.3270336978403 36.3387462657876 36.31513622797 36.3124388880798 36.373484532646 36.4271695352974 36.4164720129744 36.4092487915478 36.4147030796784 36.4392292496128 36.4501922293091 36.4660971215455 36.4650108772449 36.4239377660016 36.4036435810039 36.4076641967563 36.4099143901778 36.4019519567936 36.3976594177683
-9999 -9999 -9999 -9999 34.4595051840569 35.1489533668425 35.5625423412761 35.7883149409006 36.0088688693438 36.0500707700385 36.0961149695169 36.1609243967918 36.2363834289762 36.271872082262 36.2923293420765 36.3044419265235 36.3076058910695 36.3130820304528 36.3133662912523 36.3310824496463 36.3854798495528 36.4121572175715 36.4225905649693 36.4205177182953 36.4333916194912 36.4524154470513 36.4423976718733 36.4434408039166 36.4951673472917 36.4779673662225 36.45854097873 36.4440920098834 36.4372002717869 36.4417233630595 36.4280413894168
-9999 -9999 -9999 34.5205610764703 34.9342659835619 35.7078282219879 35.998702303353 36.0155561696468 36.0555076860944 36.129427976374 36.2078216912319 36.2807263523465 36.2962826105213 36.277438073503 36.2694138585824 36.2610051023938 36.2613639933576 36.2789441196878 36.2916825871169 36.3517894863569 36.3649903688997 36.3848791446764 36.4126812116591 36.4263797484682 36.4314690285185 36.4257392702606 36.4155300427472 36.418249417672 36.4732511511391 36.485948725107 36.4874738966716 36.4668544608271 36.4558961118954 36.4595354461593 36.4540904517532
-9999 -9999 34.701456010289 35.5899245485747 35.8432091689887 35.9316121628056 35.9910463945239 36.0462155303997 36.1572666608729 36.2617984655899 36.3099375018376 36.2826844554617 36.2578890344686 36.2436247750437 36.23213467764 36.2166821844095 36.2384931721929 36.2764372119429 36.3037022309648 36.3516676464061 36.3791307359202 36.4101894726195 36.420338205069 36.4200402431356 36.414308287545 36.4129573384374 36.4134266239048 36.4244992227333 36.4939519781715 36.5280808527747 36.500811030609 36.4523316552976 36.4374366393194 36.4380023351057 36.4331166779042
