NCOLS 35 
NROWS 26 
XLLCORNER -80 
YLLCORNER 33 
CELLSIZE 0.5 
NODATA_value -9999 
-9999.000000000000000 -9999 -9999 -9999 -9999 -9999 -9999 -9999 -9999 -9999 -9999 -9999 -9999 -9999 -9999 -9999 -9999 -9999 -9999 -9999 -9999 -9999 -9999 -9999 -9999 -9999 -9999 -9999 -9999 -9999 -9999 -9999 -9999 -9999 -9999
-9999 -9999 -9999 -9999 -9999 -9999 -9999 -9999 -9999 -9999 -9999 -9999 -9999 -9999 -9999 -9999 -9999 -9999 -9999 -9999 -9999 -9999 -9999 -9999 -9999 -9999 -9999 -9999 -9999 31.7076710242092 -9999 -9999 -9999 -9999 -9999
-9999 -9999 -9999 -9999 -9999 -9999 -9999 -9999 -9999 -9999 -9999 -9999 -9999 -9999 -9999 -9999 -9999 -9999 -9999 -9999 -9999 -9999 -9999 -9999 -9999 -9999 32.3810600285996 32.264081579129 32.0303200422602 31.6387417565029 -9999 -9999 -9999 -9999 -9999
-9999 -9999 -9999 -9999 -9999 -9999 -9999 -9999 -9999 -9999 -9999 -9999 -9999 -9999 -9999 -9999 -9999 -9999 -9999 -9999 -9999 -9999 -9999 32.7859288088427 32.8583562706488 32.8501253636213 32.5597154184398 32.4017775053164 -9999 -9999 -9999 30.9451597650597 30.6514795035475 30.3460727896469 30.2551670646865
-9999 -9999 -9999 -9999 -9999 -9999 -9999 -9999 -9999 -9999 -9999 -9999 -9999 -9999 -9999 -9999 -9999 -9999 -9999 -9999 32.6461327210877 32.8102234514928 32.9833540579669 33.0888855722986 33.0444350410961 33.1415337596642 32.6275719954755 32.3081007557419 -9999 -9999 31.1929655793956 30.619371749325 30.3378775536199 30.5926704718811 31.0971618100235
-9999 -9999 -9999 -9999 -9999 -9999 -9999 -9999 -9999 -9999 -9999 -9999 -9999 -9999 -9999 -9999 -9999 -9999 -9999 32.6905731887299 32.8074631723398 32.8908575052767 32.9834124416936 33.1885340711775 33.2273471077096 33.1152924937675 32.3503148947305 31.8879776159969 31.7583744794855 31.0775692784241 30.62416882402 30.4725177533472 30.5253396576731 31.2643591905077 31.7497246592677
-9999 -9999 -9999 -9999 -9999 -9999 -9999 -9999 -9999 -9999 -9999 -9999 -9999 -9999 -9999 -9999 -9999 -9999 -9999 32.5969724811842 32.8497777859377 33.0097365073248 33.0762631085036 33.1855423396842 33.2607016505934 32.9273890585309 32.2042774094173 31.6833813341467 31.3685360502037 31.059162909396 30.7991214393436 30.5637084587328 30.8465819418084 31.5844423320198 31.6150855313774
-9999 -9999 -9999 -9999 -9999 -9999 -9999 -9999 -9999 -9999 -9999 -9999 -9999 -9999 -9999 -9999 -9999 -9999 -9999 32.3430563354655 32.7639876719121 32.9751908893957 33.0379757938763 33.1307975921886 33.1580123690244 32.7608783458507 32.2389685516727 31.9386062536471 31.5311298496972 31.1884301692534 30.9871989722802 30.9723826450926 31.282829754382 31.6985962397751 31.5971707840119
-9999 -9999 -9999 -9999 -9999 -9999 -9999 -9999 -9999 -9999 -9999 -9999 -9999 -9999 -9999 -9999 -9999 -9999 -9999 32.0576421171009 32.5746450576358 32.8144691288085 32.9251964196645 32.961759535094 32.9539951004332 32.6284120191249 32.4869306655629 32.3816945050503 31.710682399888 31.3770692950813 31.9054085195599 32.4964509206216 32.4980324380742 32.6632585629718 32.6727801004787
-9999 -9999 -9999 -9999 -9999 -9999 -9999 -9999 -9999 -9999 -9999 -9999 -9999 -9999 -9999 -9999 -9999 32.0191059101702 32.1029221433193 32.1587613706415 32.3769535413766 32.6362165343143 32.7082512690061 32.5967276502989 32.5357107950836 32.3779613589007 32.4811209313711 32.1355460048954 31.7855076330586 32.2995822486587 33.3355032121324 33.9089775842669 34.0208035441459 34.3005707164997 34.5049739201492
-9999 -9999 -9999 -9999 -9999 -9999 -9999 -9999 -9999 -9999 -9999 -9999 -9999 -9999 31.6087366912136 32.1478616766963 32.2800109914786 32.5264825706356 32.3951994217038 32.2560505984896 32.3095779002648 32.5126447017392 32.5378403927705 32.5159794237175 32.6684788941967 32.842687916312 32.7424641667671 32.5441976062168 32.9300691537864 33.6407706623151 33.8941512416424 34.3920751092354 34.9469431765314 35.2244732951912 35.4095008257327
-9999 -9999 -9999 -9999 -9999 -9999 -9999 -9999 -9999 -9999 -9999 -9999 32.1458150428648 32.6339652368605 32.9715742837079 33.0472824770523 33.1516659007764 33.0884813446767 32.8705577397516 32.6991681583937 32.6667086288181 32.8867350878256 33.224292051986 33.6996839189306 34.2547510943481 34.5849455358487 34.2061256044624 33.8112419544676 34.5631977133311 35.3960713669323 35.1840655062344 35.1164095256925 35.6081412386945 35.7526893134289 35.6923009651167
-9999 -9999 -9999 -9999 -9999 -9999 -9999 -9999 -9999 -9999 -9999 -9999 32.4925959958739 33.1226733570454 33.5885864486161 33.8065285417212 33.7360974829321 33.6799659757087 33.6747208567467 33.6481994470309 33.7182756459826 34.1134528961115 34.5463920595749 34.9428009227199 35.4075324985815 35.6598923337075 35.2504537036254 35.0313193361981 35.51281915616 35.6737378771705 35.5137537134076 35.4487335192699 35.7506552930062 35.9001365016816 35.9209210621136
-9999 -9999 -9999 -9999 -9999 -9999 -9999 -9999 -9999 30.6898922181331 31.3903875793116 32.1082175342034 32.8484744296072 33.3935997531909 34.1049797934903 34.3666997225375 34.2368493002454 34.3187851435548 34.4263539739283 34.5493583621071 34.6778304115603 34.8610808620407 35.0301396851364 35.1377295860255 35.2371927526072 35.3860146581852 35.364737612182 35.3862508419359 35.5899552012314 35.7226290108943 35.7698553726718 35.7932189510559 35.9396300821938 36.0686470755175 36.1642610129299
-9999 -9999 -9999 -9999 -9999 -9999 -9999 -9999 -9999 -9999 32.0289852672919 32.800904320754 33.3180141060828 33.991798577034 34.5927272527055 34.6961684902253 34.6042944331567 34.6339982446226 34.6461238400157 34.9475047573494 35.1775269725979 35.1446757382889 35.3058434635071 35.4336649254125 35.4099855669806 35.4694149378717 35.3438640879475 35.2886622469614 35.5223828628689 35.8014130943786 35.8831551753362 36.1064773368985 36.1524529066211 36.2154193164153 36.3466674381471
-9999 -9999 -9999 -9999 -9999 -9999 -9999 13.510589252185 15.4541228125468 -9999 32.239574316585 33.0297414881952 34.0285491955027 34.8343585519955 35.2447480945634 35.4981386504249 35.4292273060884 35.4266687308424 35.4921318699555 35.7121461483887 35.7834668291063 35.8420560113469 35.891448968635 35.8761972154279 35.9154639206701 35.9470772209424 35.8346127722601 35.7866763299513 35.9118613937408 35.9574409083334 36.0361006761786 36.2256123671065 36.3439480484662 36.3904974292157 36.5247226456296
-9999 -9999 -9999 -9999 -9999 -9999 -9999 15.9429599284345 20.1987503596516 31.1903414900852 32.5771232104442 33.6594787165347 34.7872603344209 35.286335674095 35.7900315590265 35.9310910609337 36.0455438797145 36.1336806629211 36.2415252625704 36.352766758786 36.4115107926142 36.4190196485086 36.3992651273439 36.4012542754967 36.4507324713171 36.4180571872822 36.3775740343756 36.3962043690188 36.3924044792244 36.3505603067727 36.3315148533273 36.3654116115258 36.4410079823686 36.5267605469335 36.5574248932706
-9999 -9999 -9999 -9999 -9999 -9999 -9999 20.24366412059 -9999 32.3555246115508 33.604075645217 34.4258588644361 35.2164241570447 35.5463720103304 35.9056674147467 36.1149975466835 36.2578659108287 36.3915566683245 36.4840078847364 36.5357500589543 36.5713663265611 36.5890693827888 36.5955646874598 36.5983774074378 36.5978841880809 36.5897603889164 36.5779117889053 36.5659803797696 36.5611809651928 36.5617033817083 36.5571192198799 36.5496689809873 36.5538797236999 36.5692851788524 36.5467331942816
-9999 -9999 -9999 -9999 -9999 -9999 -9999 -9999 31.1727489072639 33.7221806053038 34.5774845007818 34.9073229247537 35.5003827227054 35.9058991166363 36.1885723714605 36.3246677768895 36.441993767785 36.5057172566151 36.5323311367438 36.5906765760336 36.6214345129134 36.6192286578556 36.6126055456915 36.6196464260668 36.6180482180078 36.6250649652849 36.6352342826367 36.62058598835 36.600837709059 36.6085314883399 36.6235681296533 36.5962366580863 36.5786873749019 36.5790241181474 36.5545473144173
-9999 -9999 -9999 -9999 -9999 -9999 -9999 -9999 -9999 34.928527083166 35.2519454000741 35.6790988511017 36.229823089697 36.4105718567989 36.4592921633337 36.4774461597156 36.4858450627854 36.5104079984687 36.5780253660535 36.6202108400757 36.629456971846 36.6228456861073 36.6121006421053 36.6078949299162 36.6072392005026 36.614057122709 36.623934656281 36.6277582069752 36.640215182405 36.6411068460553 36.6082477762029 36.5746631331481 36.5555074669687 36.5496482793769 36.5288464273587
-9999 -9999 -9999 -9999 -9999 -9999 -9999 -9999 -9999 34.9615171859374 35.9154061045277 36.3590380763782 36.4677570266281 36.4947282577096 36.5064528600106 36.5057006719851 36.5089618785632 36.558842140654 36.6166316628245 36.6324168205519 36.6254827777647 36.6198738204868 36.6142324371249 36.6027761133147 36.5968743352985 36.5886318104126 36.5771489683653 36.5782481297089 36.5761063380329 36.5610871465996 36.5540102449929 36.540563131067 36.5395755708819 36.5423277662837 36.5390167011807
-9999 -9999 -9999 -9999 -9999 -9999 -9999 34.1565456682319 34.7903958857096 35.5382337330567 36.2959903974702 36.4694376453943 36.5248554474265 36.5428703800158 36.5236922119692 36.5195171591442 36.5392142303886 36.5889385556401 36.6239461138014 36.6447877015896 36.6487297942234 36.6474051044486 36.6431266978408 36.6388946364401 36.6361111471576 36.6214010297488 36.5972001334662 36.5571804312903 36.5327382496354 36.5380097728093 36.5301603732767 36.5321688601034 36.5296797396189 36.5278422503482 36.5341418663122
-9999 -9999 -9999 -9999 -9999 -9999 34.4435744915959 35.0699897346704 36.0609539884366 36.3430310510993 36.4459476479415 36.5253182555917 36.56746599398 36.5642351704226 36.5428759900556 36.5341576366681 36.5585900242291 36.5828856553309 36.6131026888567 36.633945610069 36.6478523448204 36.6585415231817 36.6610710246847 36.6615765721779 36.6608025087531 36.6533854243642 36.6333554625847 36.5699836033253 36.501928997391 36.4835744481212 36.5084851848115 36.5174700285065 36.5156818853179 36.513438231577 36.5186517051923
-9999 -9999 -9999 -9999 34.693927270587 35.5130320090133 35.8310794749583 36.0545719277036 36.3260562496783 36.4095239276484 36.4842198495346 36.5686361675353 36.5908065835423 36.5995957801159 36.5697098623566 36.5494499868709 36.5589659747042 36.5749609374584 36.6001499318568 36.6313035831327 36.6659360225321 36.6851456494606 36.6796289211305 36.6825555925276 36.6843739443453 36.6547764700981 36.5821914363757 36.5212146026641 36.4727848001438 36.4550317807563 36.4674788762378 36.4895528229011 36.5098679080473 36.508909656363 36.499638547708
-9999 -9999 -9999 35.3453072110025 35.498095193409 36.1981972949457 36.3425423001889 36.3440821219794 36.3870568596563 36.4451905313444 36.5224983801971 36.5711003097936 36.5876192438304 36.6021269678504 36.5823495316449 36.569779503583 36.5819026360317 36.597837330431 36.635941169121 36.6631005390998 36.6832264779025 36.6749013585275 36.6525203420003 36.6479956262039 36.6470175797449 36.5803024546661 36.5044699443411 36.4605157825126 36.4420537732112 36.4491213824349 36.4566579907215 36.4614373784487 36.4710119765764 36.4797809732504 36.4998362325267
-9999 -9999 35.6197656982615 36.2671214510195 36.2853240945762 36.3199792041976 36.3449412032642 36.3886118937501 36.4499512954027 36.4826844673487 36.5327388660422 36.5513356390446 36.5708341307078 36.5880079543961 36.5972100617074 36.6075976031702 36.6238430316668 36.6400622471114 36.6521814128247 36.6627169039968 36.6761444827229 36.6456046726972 36.5999719324828 36.591523761807 36.5762834969742 36.5038180891014 36.4650246132571 36.4438100275757 36.4397509638672 36.4621567298995 36.4570669984436 36.4539670436206 36.4934440837714 36.5244348507196 36.5221874254275
