NCOLS 35 
NROWS 26 
XLLCORNER -80 
YLLCORNER 33 
CELLSIZE 0.5 
NODATA_value -9999 
-9999.000000000000000 -9999 -9999 -9999 -9999 -9999 -9999 -9999 -9999 -9999 -9999 -9999 -9999 -9999 -9999 -9999 -9999 -9999 -9999 -9999 -9999 -9999 -9999 -9999 -9999 -9999 -9999 -9999 -9999 -9999 -9999 -9999 -9999 -9999 -9999
-9999 -9999 -9999 -9999 -9999 -9999 -9999 -9999 -9999 -9999 -9999 -9999 -9999 -9999 -9999 -9999 -9999 -9999 -9999 -9999 -9999 -9999 -9999 -9999 -9999 -9999 -9999 -9999 -9999 31.0731411065918 -9999 -9999 -9999 -9999 -9999
-9999 -9999 -9999 -9999 -9999 -9999 -9999 -9999 -9999 -9999 -9999 -9999 -9999 -9999 -9999 -9999 -9999 -9999 -9999 -9999 -9999 -9999 -9999 -9999 -9999 -9999 30.9342501406068 30.9151741094877 30.9507832907637 31.1250828262012 -9999 -9999 -9999 -9999 -9999
-9999 -9999 -9999 -9999 -9999 -9999 -9999 -9999 -9999 -9999 -9999 -9999 -9999 -9999 -9999 -9999 -9999 -9999 -9999 -9999 -9999 -9999 -9999 31.4728568468021 31.1661011677433 30.8940429485394 30.8582113600965 30.8127905871635 -9999 -9999 -9999 30.0274737588449 30.2883725355984 30.7300367468923 30.9621215130749
-9999 -9999 -9999 -9999 -9999 -9999 -9999 -9999 -9999 -9999 -9999 -9999 -9999 -9999 -9999 -9999 -9999 -9999 -9999 -9999 31.6298551026728 31.8338163992321 31.6834400655973 31.4874711806673 31.2884654391669 31.0794553357227 30.7900030909199 30.4628422315894 -9999 -9999 30.2512236133524 30.431202960644 30.6617847676592 31.0230060107541 31.2429985465938
-9999 -9999 -9999 -9999 -9999 -9999 -9999 -9999 -9999 -9999 -9999 -9999 -9999 -9999 -9999 -9999 -9999 -9999 -9999 31.9672769236603 32.1372221994839 32.0950614099053 31.9472245063236 31.9749210262151 31.7914959360797 31.3956155462005 30.9501383246583 30.6008598690726 30.414682403778 30.5482561258084 30.6083262995436 30.6114748371507 30.7569900883888 31.0088703496207 31.5553763828893
-9999 -9999 -9999 -9999 -9999 -9999 -9999 -9999 -9999 -9999 -9999 -9999 -9999 -9999 -9999 -9999 -9999 -9999 -9999 31.9981743180842 32.3086813871898 32.3371385718744 32.3833843853458 32.5726526123493 32.0747255171724 31.6700084372115 31.620139413981 31.2970158709958 30.9981282447859 31.1525038751763 31.3895679594656 31.5128370323293 31.5879464672745 31.6996897977862 31.988627186615
-9999 -9999 -9999 -9999 -9999 -9999 -9999 -9999 -9999 -9999 -9999 -9999 -9999 -9999 -9999 -9999 -9999 -9999 -9999 31.8132111359584 32.2758705516884 32.5301303642278 32.5976957886388 32.6206616712714 32.3861727844193 32.2142811568126 32.3368654774956 32.0379957156809 31.7531788018503 32.5265861323468 33.0576823399441 33.3962789644158 33.5535656206044 33.6276296966613 33.1785460136497
-9999 -9999 -9999 -9999 -9999 -9999 -9999 -9999 -9999 -9999 -9999 -9999 -9999 -9999 -9999 -9999 -9999 -9999 -9999 31.7418196972222 32.0255355493669 32.2845707948413 32.4782959771598 32.5760317290332 32.4268900256959 32.3656295871651 32.5460306028946 32.5813938137039 32.7477672400432 33.4649895197652 34.0829735160881 34.708225607449 35.1711069339493 35.0288968667968 34.181914979818
-9999 -9999 -9999 -9999 -9999 -9999 -9999 -9999 -9999 -9999 -9999 -9999 -9999 -9999 -9999 -9999 -9999 31.5955685143997 31.9318107438763 32.0470799914845 32.0431792403639 32.1274701566812 32.4588010216193 32.6653165018571 32.6578412310793 32.6415113642391 32.7996716546817 33.495584094753 33.8079127942361 34.0260837064056 34.7350523618946 35.4861603393707 35.7411023288126 35.4396390155277 35.3239583036353
-9999 -9999 -9999 -9999 -9999 -9999 -9999 -9999 -9999 -9999 -9999 -9999 -9999 -9999 30.4275271967358 31.2525581451477 31.6994917722333 32.3611512219419 32.5093144428414 32.4169698171866 32.3405216257813 32.4567733034365 32.9099086183965 33.1681071098709 33.2799144890082 33.7093734678748 34.3827205542559 34.945450720809 34.6367087336305 34.7176873474581 34.951520883192 35.5113733890618 35.6895334997284 35.7626852789397 36.0178917183087
-9999 -9999 -9999 -9999 -9999 -9999 -9999 -9999 -9999 -9999 -9999 -9999 30.9016299530034 31.4662338061973 31.9499950705143 32.3880852512957 32.8626830427222 33.1902901531627 33.3209358086641 33.3646349242909 33.3928603587929 33.6914206092629 34.2170261909106 34.6874138245067 34.9684140143988 35.3490053151959 35.6023062231037 35.5673360330126 35.4160045561952 35.2336874194171 35.3394831029281 35.6459579592476 35.8499382622104 36.0088023725301 36.200347571438
-9999 -9999 -9999 -9999 -9999 -9999 -9999 -9999 -9999 -9999 -9999 -9999 31.534116024494 32.1524037185336 32.6742053162114 33.5405015052526 34.1952617247382 34.4830558566663 34.5982443687213 34.7694228558969 34.9316975310506 35.1702654883386 35.436167553188 35.6287650303017 35.7182907423979 35.7102222186259 35.6931991550328 35.6861782008966 35.3969028413746 35.2791464147389 35.6997618016455 35.9200759811112 36.023966822678 36.1121027889277 36.2146687582794
-9999 -9999 -9999 -9999 -9999 -9999 -9999 -9999 -9999 29.2408330041663 30.9149105543231 31.6273699276545 32.187539262604 32.7114005779602 33.7017525144769 34.5973896841142 34.9840045673293 35.1309977582111 35.1832587994071 35.278103343062 35.3107954263625 35.3443826490697 35.4503128890243 35.6315819651876 35.7693843801801 35.8741913310587 35.9423772752429 35.8658044730745 35.6296497384148 35.4449101872357 35.8623035278424 36.0221761239836 36.0542895039054 36.0969792389482 36.1351570290171
-9999 -9999 -9999 -9999 -9999 -9999 -9999 -9999 -9999 -9999 31.7885837660051 32.4443415678202 32.9413896413878 33.8064067091486 34.8012600842232 35.3313760869316 35.5750183520902 35.481734075615 35.3765151986399 35.4369066135593 35.5043165854027 35.2879300173704 35.3559521663668 35.6289881628621 35.8764593124115 36.029935919831 36.1281597813907 36.1675423778219 36.1278367748282 35.8762660168922 35.8636811454321 36.0393410107791 36.0612207939902 36.0572715942327 36.071095164369
-9999 -9999 -9999 -9999 -9999 -9999 -9999 12.7133268223362 14.1993608661382 -9999 32.2938885304128 33.1348727441821 34.1652678251144 35.0650783197595 35.6031281502831 35.8086275076938 35.7528443997743 35.7593645243777 35.9009048061631 35.9630626672876 35.8696150155056 35.6694547888221 35.5643307848379 35.7477438567173 35.9324211219661 36.1619955092777 36.3182611985805 36.3713831622327 36.3884352861542 36.3158672448696 36.0908631727026 36.0531967521195 36.0978357278365 36.1049585614768 36.1212773906777
-9999 -9999 -9999 -9999 -9999 -9999 -9999 14.4128524611083 19.1803923869519 31.3186302370779 32.8501657130833 34.0368859347162 35.1301906207709 35.6759321969025 35.895832601722 35.9807944001824 36.0061018694467 36.0587550459888 36.1177777547232 36.1404716577411 36.0965540376355 35.9757291727421 35.8780004542114 35.9000876063343 36.1022045859405 36.3747517201831 36.4480385508414 36.4584578154564 36.4574076634852 36.4504150654041 36.3997652888233 36.2853355406941 36.2391848000931 36.2630578551447 36.3604373788781
-9999 -9999 -9999 -9999 -9999 -9999 -9999 17.645585011655 -9999 32.0514686314973 33.4447129657464 34.7806395886151 35.5696827789492 35.7922295047599 35.7712680509983 35.9369231172352 36.2000026961836 36.4019245102572 36.4989207040727 36.5131922658056 36.4767905724982 36.383054553668 36.231968574448 36.155153754463 36.3277047160211 36.4805865787285 36.5108694115021 36.514359461291 36.5076467105634 36.5015536063101 36.5030785860441 36.4968486716727 36.4923435762596 36.5128007904641 36.538334084625
-9999 -9999 -9999 -9999 -9999 -9999 -9999 -9999 29.1995948265131 32.5946508288405 33.7931575402873 35.0741003611576 35.6302474316844 35.6804121732348 35.762723387503 36.2863803388467 36.5471742598534 36.6158078495341 36.6227654646839 36.614498620235 36.6050430764895 36.5908308320072 36.5187209587329 36.3810921719249 36.3928249330644 36.4968377963516 36.5251426742227 36.5220825289507 36.51977837478 36.5255910172852 36.5572023536411 36.5592130767033 36.5644098771513 36.5637739800737 36.574186511836
-9999 -9999 -9999 -9999 -9999 -9999 -9999 -9999 -9999 32.7750874660425 34.0846246211082 35.045832542818 35.5525013947194 35.951145378496 36.4436319825915 36.6125575303505 36.6245872117696 36.6236237337068 36.6183024043254 36.6047484715922 36.6017988314953 36.6017029161799 36.5897910013289 36.467437989484 36.4236371620372 36.5145103662653 36.5276897758506 36.5122159149684 36.5219284567588 36.5525814569177 36.5946022356238 36.5890651839785 36.577280592349 36.5917024191735 36.5989065487571
-9999 -9999 -9999 -9999 -9999 -9999 -9999 -9999 -9999 32.3781986139634 34.4859987424469 35.9376414920938 36.4265401698516 36.581392256553 36.62668827901 36.6243084952778 36.6229508334395 36.623669088907 36.608096083784 36.5873769282068 36.5886848200574 36.5735045673581 36.5462746922445 36.4855174670439 36.4467208648969 36.5378008075446 36.5473772743441 36.5385011449579 36.5461663629384 36.5785251170421 36.592922140032 36.5827724081851 36.5841396910673 36.5749804075967 36.5555574462261
-9999 -9999 -9999 -9999 -9999 -9999 -9999 31.3047861685642 32.1281360992532 33.9201430884081 35.9202483402623 36.5932820169783 36.6436842944841 36.6589489821733 36.640359875018 36.64443212943 36.645021050808 36.634948917805 36.6216153528564 36.6013855679503 36.5886984118613 36.5624254026903 36.5157553644984 36.4666432526197 36.4660412974905 36.5477215741066 36.5715589057338 36.5829724352156 36.5867469215369 36.5896102311425 36.5902425639265 36.5840554626641 36.5761742930278 36.5617555529325 36.5554588506478
-9999 -9999 -9999 -9999 -9999 -9999 33.574246408517 33.5666756373692 35.1119140110791 36.2258962227812 36.5653916944907 36.6344761693253 36.6632397839912 36.6615943064502 36.6411804888954 36.6663746050375 36.6682271590493 36.6527042579407 36.6380847047118 36.6111320047375 36.6007876788256 36.5900496641418 36.5521936934319 36.518188749465 36.5049352315484 36.5463289749471 36.5788687017996 36.6042069927462 36.6009959693294 36.6035977359798 36.5939179958858 36.5897091714794 36.5889325793781 36.5893430700986 36.592692513401
-9999 -9999 -9999 -9999 34.0506960166774 34.892409775415 35.3111756817993 35.7472749179623 36.4006500398635 36.5291006069689 36.5596159867601 36.6234710620126 36.6614597164698 36.6656117844974 36.6504312970404 36.6462254694846 36.6476206523211 36.6435463575288 36.6395922010289 36.6232115352912 36.6193486123661 36.6191970608019 36.5990429859457 36.5841166593183 36.5571443067654 36.5556939545128 36.5616045956408 36.5779343726023 36.5910345936984 36.6092070702116 36.6066209706237 36.6062938685443 36.6060089061544 36.6102122922294 36.6186967074919
-9999 -9999 -9999 34.3191421725541 34.8931661501776 35.8569420709809 36.259581281793 36.4547049577033 36.5657955462616 36.5682232232608 36.5545429935329 36.598368944085 36.6466418063442 36.6660237749847 36.6671318839528 36.6504861230396 36.6404240685228 36.6354927576434 36.6354934444775 36.6323771156358 36.6273628225816 36.5960875077586 36.5746095855726 36.5795694443378 36.5671043932409 36.5630430061013 36.5603272129093 36.5644889636886 36.5805853793585 36.5894355767313 36.586600286471 36.6053107875373 36.6193261037916 36.6267611934303 36.6323251577057
-9999 -9999 34.850553699724 35.7241563154009 36.069974540129 36.287668910804 36.4240035578713 36.4866563883041 36.5518375189508 36.5661679592726 36.5551277328691 36.5927437543137 36.6283481901292 36.6533903388504 36.6486147193207 36.639880301124 36.6323429469784 36.6141318199468 36.596994699629 36.5936993572596 36.5757638593199 36.5506450521274 36.5401901029907 36.5280085004315 36.5249115491664 36.5347149435534 36.5528119025179 36.5710122011799 36.5724639224058 36.5724359493412 36.5885886927893 36.6095928630737 36.6165965819656 36.6251772183993 36.6271405170392
