NCOLS 70 
NROWS 52 
XLLCORNER -80 
YLLCORNER 33 
CELLSIZE 0.25 
NODATA_value -9999 
-9999.000000000000000 -9999 -9999 -9999 -9999 -9999 -9999 -9999 -9999 -9999 -9999 -9999 -9999 -9999 -9999 -9999 -9999 -9999 -9999 -9999 -9999 -9999 -9999 -9999 -9999 -9999 -9999 -9999 -9999 -9999 -9999 -9999 -9999 -9999 -9999 -9999 -9999 -9999 -9999 -9999 -9999 -9999 -9999 -9999 -9999 -9999 -9999 -9999 -9999 -9999 -9999 -9999 -9999 -9999 -9999 -9999 -9999 -9999 -9999 -9999 -9999 -9999 -9999 -9999 -9999 -9999 -9999 -9999 -9999 -9999
-9999 -9999 -9999 -9999 -9999 -9999 -9999 -9999 -9999 -9999 -9999 -9999 -9999 -9999 -9999 -9999 -9999 -9999 -9999 -9999 -9999 -9999 -9999 -9999 -9999 -9999 -9999 -9999 -9999 -9999 -9999 -9999 -9999 -9999 -9999 -9999 -9999 -9999 -9999 -9999 -9999 -9999 -9999 -9999 -9999 -9999 -9999 -9999 -9999 -9999 -9999 -9999 -9999 -9999 -9999 -9999 -9999 -9999 -9999 -9999 -9999 -9999 -9999 -9999 -9999 -9999 -9999 -9999 -9999 -9999
-9999 -9999 -9999 -9999 -9999 -9999 -9999 -9999 -9999 -9999 -9999 -9999 -9999 -9999 -9999 -9999 -9999 -9999 -9999 -9999 -9999 -9999 -9999 -9999 -9999 -9999 -9999 -9999 -9999 -9999 -9999 -9999 -9999 -9999 -9999 -9999 -9999 -9999 -9999 -9999 -9999 -9999 -9999 -9999 -9999 -9999 -9999 -9999 -9999 -9999 -9999 -9999 -9999 -9999 -9999 -9999 -9999 -9999 -9999 27.2136650085449 -9999 -9999 -9999 -9999 -9999 -9999 -9999 -9999 -9999 -9999
-9999 -9999 -9999 -9999 -9999 -9999 -9999 -9999 -9999 -9999 -9999 -9999 -9999 -9999 -9999 -9999 -9999 -9999 -9999 -9999 -9999 -9999 -9999 -9999 -9999 -9999 -9999 -9999 -9999 -9999 -9999 -9999 -9999 -9999 -9999 -9999 -9999 -9999 -9999 -9999 -9999 -9999 -9999 -9999 -9999 -9999 -9999 -9999 -9999 -9999 -9999 -9999 -9999 -9999 -9999 29.44260597229 29.2544078826904 29.0228462219238 28.596363067627 28.0445404052734 -9999 -9999 -9999 -9999 -9999 -9999 -9999 -9999 -9999 -9999
-9999 -9999 -9999 -9999 -9999 -9999 -9999 -9999 -9999 -9999 -9999 -9999 -9999 -9999 -9999 -9999 -9999 -9999 -9999 -9999 -9999 -9999 -9999 -9999 -9999 -9999 -9999 -9999 -9999 -9999 -9999 -9999 -9999 -9999 -9999 -9999 -9999 -9999 -9999 -9999 -9999 -9999 -9999 -9999 -9999 -9999 -9999 -9999 -9999 -9999 -9999 -9999 30.9309177398682 30.6844234466553 30.3087406158447 29.901927947998 29.4787540435791 29.0951633453369 -9999 -9999 -9999 -9999 -9999 -9999 -9999 -9999 -9999 -9999 -9999 -9999
-9999 -9999 -9999 -9999 -9999 -9999 -9999 -9999 -9999 -9999 -9999 -9999 -9999 -9999 -9999 -9999 -9999 -9999 -9999 -9999 -9999 -9999 -9999 -9999 -9999 -9999 -9999 -9999 -9999 -9999 -9999 -9999 -9999 -9999 -9999 -9999 -9999 -9999 -9999 -9999 -9999 -9999 -9999 -9999 -9999 -9999 -9999 -9999 -9999 -9999 31.7636699676514 31.7062644958496 31.5712394714355 31.1986465454102 30.6151828765869 29.9401836395264 -9999 -9999 -9999 -9999 -9999 -9999 -9999 -9999 -9999 -9999 -9999 30.570717493693 30.2434463500977 30.1215267181396
-9999 -9999 -9999 -9999 -9999 -9999 -9999 -9999 -9999 -9999 -9999 -9999 -9999 -9999 -9999 -9999 -9999 -9999 -9999 -9999 -9999 -9999 -9999 -9999 -9999 -9999 -9999 -9999 -9999 -9999 -9999 -9999 -9999 -9999 -9999 -9999 -9999 -9999 -9999 -9999 -9999 -9999 -9999 -9999 31.5541903177897 -9999 -9999 31.7791686058044 31.8818874359131 31.9845676422119 32.0476417541504 32.034782409668 31.8823299407959 31.4510498046875 30.8105411529541 -9999 -9999 -9999 -9999 -9999 -9999 -9999 -9999 31.1588077545166 31.0781116485596 30.9662570953369 30.8381690979004 30.5909805297852 30.2830028533936 29.9782752990723
-9999 -9999 -9999 -9999 -9999 -9999 -9999 -9999 -9999 -9999 -9999 -9999 -9999 -9999 -9999 -9999 -9999 -9999 -9999 -9999 -9999 -9999 -9999 -9999 -9999 -9999 -9999 -9999 -9999 -9999 -9999 -9999 -9999 -9999 -9999 -9999 -9999 -9999 -9999 -9999 -9999 -9999 -9999 -9999 31.5470638275146 31.5644931793213 31.6412582397461 31.7438621520996 31.849666595459 31.9603404998779 32.0412178039551 32.0767974853516 32.0168800354004 31.8285942077637 31.5106229782104 -9999 -9999 -9999 -9999 -9999 -9999 -9999 31.3698387145996 31.2512359619141 31.1270961761475 30.9969825744629 30.8326797485352 30.6138954162598 30.367244720459 30.105001449585
-9999 -9999 -9999 -9999 -9999 -9999 -9999 -9999 -9999 -9999 -9999 -9999 -9999 -9999 -9999 -9999 -9999 -9999 -9999 -9999 -9999 -9999 -9999 -9999 -9999 -9999 -9999 -9999 -9999 -9999 -9999 -9999 -9999 -9999 -9999 -9999 -9999 -9999 -9999 -9999 30.7892017364502 31.0371545155843 31.4602031707764 31.7418022155762 31.7794361114502 31.7980937957764 31.8068809509277 31.8195762634277 31.8486347198486 31.9049797058105 31.9698734283447 32.0241546630859 32.0326309204102 31.9523067474365 31.9123531341553 -9999 -9999 -9999 -9999 -9999 31.7814979553223 31.6478958129883 31.5299396514893 31.4076366424561 31.2780990600586 31.1542377471924 31.0002136230469 30.8398895263672 30.6948585510254 30.5311813354492
-9999 -9999 -9999 -9999 -9999 -9999 -9999 -9999 -9999 -9999 -9999 -9999 -9999 -9999 -9999 -9999 -9999 -9999 -9999 -9999 -9999 -9999 -9999 -9999 -9999 -9999 -9999 -9999 -9999 -9999 -9999 -9999 -9999 -9999 -9999 -9999 -9999 -9999 -9999 30.6397285461426 30.7376518249512 30.9902248382568 31.3835868835449 31.6343879699707 31.7118949890137 31.744421005249 31.7646560668945 31.7798137664795 31.7949180603027 31.8195514678955 31.854585647583 31.9038410186768 31.9444026947021 31.9447746276855 31.9411735534668 31.8949165344238 -9999 -9999 -9999 31.9206728935242 31.8720970153809 31.8245010375977 31.7512359619141 31.6302871704102 31.4803924560547 31.3189258575439 31.1427516937256 31.0246562957764 30.9518527984619 30.8523769378662
-9999 -9999 -9999 -9999 -9999 -9999 -9999 -9999 -9999 -9999 -9999 -9999 -9999 -9999 -9999 -9999 -9999 -9999 -9999 -9999 -9999 -9999 -9999 -9999 -9999 -9999 -9999 -9999 -9999 -9999 -9999 -9999 -9999 -9999 -9999 -9999 -9999 -9999 31.4426776885986 31.4532680511475 31.5642852783203 31.6837100982666 31.7047100067139 31.727575302124 31.7439346313477 31.7510623931885 31.7523708343506 31.7540130615234 31.7613353729248 31.7746829986572 31.7929573059082 31.8281154632568 31.8720893859863 31.9200611114502 31.968412399292 31.9230670928955 31.859582901001 31.8899072011312 31.9608974456787 31.9475479125977 31.9021492004395 31.8467140197754 31.7896156311035 31.7320976257324 31.6133308410645 31.4216594696045 31.2277164459229 31.1516933441162 31.1526298522949 31.0669593811035
-9999 -9999 -9999 -9999 -9999 -9999 -9999 -9999 -9999 -9999 -9999 -9999 -9999 -9999 -9999 -9999 -9999 -9999 -9999 -9999 -9999 -9999 -9999 -9999 -9999 -9999 -9999 -9999 -9999 -9999 -9999 -9999 -9999 -9999 -9999 -9999 -9999 31.7126216888428 31.7097091674805 31.6980609893799 31.6995220184326 31.7189998626709 31.7441139221191 31.7674198150635 31.7750072479248 31.7659301757812 31.7564258575439 31.7581119537354 31.7680072784424 31.7794952392578 31.7929630279541 31.8194046020508 31.8527851104736 31.8733863830566 31.9077224731445 31.9120941162109 31.8803997039795 31.8880386352539 31.9214973449707 31.903148651123 31.8730564117432 31.794584274292 31.7067089080811 31.6805686950684 31.6155757904053 31.4673328399658 31.3352699279785 31.3419742584229 31.4463996887207 31.4338321685791
-9999 -9999 -9999 -9999 -9999 -9999 -9999 -9999 -9999 -9999 -9999 -9999 -9999 -9999 -9999 -9999 -9999 -9999 -9999 -9999 -9999 -9999 -9999 -9999 -9999 -9999 -9999 -9999 -9999 -9999 -9999 -9999 -9999 -9999 -9999 -9999 -9999 31.6614151000977 31.6748466491699 31.6938133239746 31.7152442932129 31.7464485168457 31.7779407501221 31.801025390625 31.8048419952393 31.7895240783691 31.7762222290039 31.7866058349609 31.8065948486328 31.8197269439697 31.8348197937012 31.8686275482178 31.9151821136475 31.9452857971191 31.9524517059326 31.9374713897705 31.920015335083 31.9224262237549 31.9358291625977 31.9526348114014 31.9655685424805 31.8579216003418 31.7125568389893 31.6909446716309 31.7240734100342 31.7506465911865 31.7940082550049 31.8743019104004 31.979808807373 32.029167175293
-9999 -9999 -9999 -9999 -9999 -9999 -9999 -9999 -9999 -9999 -9999 -9999 -9999 -9999 -9999 -9999 -9999 -9999 -9999 -9999 -9999 -9999 -9999 -9999 -9999 -9999 -9999 -9999 -9999 -9999 -9999 -9999 -9999 -9999 -9999 -9999 -9999 31.5471687316895 31.6242084503174 31.6933326721191 31.757511138916 31.8075523376465 31.8346576690674 31.8477840423584 31.8411483764648 31.8077831268311 31.7819728851318 31.8044567108154 31.8484325408936 31.8784599304199 31.9047622680664 31.9569702148438 32.0609283447266 32.1819915771484 32.2411575317383 32.2555656433105 32.2673988342285 32.2681198120117 32.2369079589844 32.2238655090332 32.2095603942871 32.0649032592773 31.8998374938965 31.9681873321533 32.2228889465332 32.4990310668945 32.6790771484375 32.7622528076172 32.7561149597168 32.7420768737793
-9999 -9999 -9999 -9999 -9999 -9999 -9999 -9999 -9999 -9999 -9999 -9999 -9999 -9999 -9999 -9999 -9999 -9999 -9999 -9999 -9999 -9999 -9999 -9999 -9999 -9999 -9999 -9999 -9999 -9999 -9999 -9999 -9999 -9999 -9999 -9999 31.3877925872803 31.5160331726074 31.6542835235596 31.7461204528809 31.8272361755371 31.8818988800049 31.8954658508301 31.8809185028076 31.8478622436523 31.7978019714355 31.7728748321533 31.8161201477051 31.8855209350586 31.9321975708008 31.9760665893555 32.0553283691406 32.2160720825195 32.3991508483887 32.5015449523926 32.6018447875977 32.6839447021484 32.661075592041 32.5725593566895 32.5068321228027 32.419849395752 32.2804336547852 32.2340774536133 32.4672203063965 32.8661956787109 33.1985092163086 33.3727645874023 33.41357421875 33.3389282226562 33.2608299255371
-9999 -9999 -9999 -9999 -9999 -9999 -9999 -9999 -9999 -9999 -9999 -9999 -9999 -9999 -9999 -9999 -9999 -9999 -9999 -9999 -9999 -9999 -9999 -9999 -9999 -9999 -9999 -9999 -9999 -9999 -9999 -9999 -9999 -9999 -9999 -9999 -9999 31.5344524383545 31.630542755127 31.7644653320312 31.8542995452881 31.9325733184814 31.9611282348633 31.9237022399902 31.8565902709961 31.7993755340576 31.7968578338623 31.8677005767822 31.9533214569092 31.986156463623 32.0152244567871 32.0907287597656 32.2225532531738 32.3339080810547 32.3527717590332 32.4298973083496 32.497631072998 32.444709777832 32.4203681945801 32.4161109924316 32.4456062316895 32.5283164978027 32.6977767944336 33.0485992431641 33.4176330566406 33.6373023986816 33.7469215393066 33.7438430786133 33.6717681884766 33.6336555480957
-9999 -9999 -9999 -9999 -9999 -9999 -9999 -9999 -9999 -9999 -9999 -9999 -9999 -9999 -9999 -9999 -9999 -9999 -9999 -9999 -9999 -9999 -9999 -9999 -9999 -9999 -9999 -9999 -9999 -9999 -9999 -9999 -9999 -9999 -9999 -9999 -9999 -9999 31.5167922973633 -9999 31.853385925293 31.983678817749 32.0625877380371 32.023494720459 31.9395484924316 31.9025173187256 31.9450817108154 32.0340728759766 32.1024169921875 32.1024856567383 32.058910369873 32.0730476379395 32.1614570617676 32.2447052001953 32.2556304931641 32.3522033691406 32.4232635498047 32.519416809082 32.6524810791016 32.7517967224121 32.8249397277832 32.9623756408691 33.1287879943848 33.5033226013184 33.7148628234863 33.7917213439941 33.8311157226562 33.8444023132324 33.9351463317871 34.0643424987793
-9999 -9999 -9999 -9999 -9999 -9999 -9999 -9999 -9999 -9999 -9999 -9999 -9999 -9999 -9999 -9999 -9999 -9999 -9999 -9999 -9999 -9999 -9999 -9999 -9999 -9999 -9999 -9999 -9999 -9999 -9999 -9999 -9999 -9999 -9999 -9999 -9999 -9999 -9999 -9999 31.8389015197754 32.0426940917969 32.1933822631836 32.1789054870605 32.1101951599121 32.1053047180176 32.1587257385254 32.1912384033203 32.1794471740723 32.1538734436035 32.1030349731445 32.0929527282715 32.1459808349609 32.1974563598633 32.2402725219727 32.3827705383301 32.6969680786133 33.1537551879883 33.4692306518555 33.6203346252441 33.5883827209473 33.4776344299316 33.4970893859863 33.8648948669434 34.0254974365234 34.1100845336914 34.0885696411133 34.0711288452148 34.1291465759277 34.1968650817871
-9999 -9999 -9999 -9999 -9999 -9999 -9999 -9999 -9999 -9999 -9999 -9999 -9999 -9999 -9999 -9999 -9999 -9999 -9999 -9999 -9999 -9999 -9999 -9999 -9999 -9999 -9999 -9999 -9999 -9999 -9999 -9999 -9999 -9999 32.1981000900269 32.0768928527832 32.0246238708496 -9999 31.8263931274414 31.709810256958 31.7952060699463 32.0875053405762 32.3016395568848 32.3092231750488 32.2396087646484 32.2081146240234 32.2104988098145 32.1879196166992 32.1452980041504 32.126163482666 32.1393013000488 32.2519989013672 32.4238739013672 32.5027236938477 32.6688423156738 33.0132102966309 33.5406265258789 33.9508094787598 34.213752746582 34.329517364502 34.3473854064941 34.0001564025879 33.8151969909668 34.043025970459 34.2113761901855 34.4407157897949 34.4450302124023 34.384407043457 34.3185424804688 34.3408355712891
-9999 -9999 -9999 -9999 -9999 -9999 -9999 -9999 -9999 -9999 -9999 -9999 -9999 -9999 -9999 -9999 -9999 -9999 -9999 -9999 -9999 -9999 -9999 -9999 -9999 -9999 -9999 27.7985744476318 27.7985744476318 28.4943065643311 29.4491920471191 30.8124752044678 31.8370380401611 32.1200637817383 32.2460136413574 32.3494300842285 32.4020729064941 32.3439598083496 32.1633758544922 31.9569358825684 31.9604091644287 32.2048568725586 32.3918190002441 32.3951950073242 32.3089790344238 32.2286186218262 32.2080039978027 32.2215919494629 32.2301063537598 32.2638397216797 32.3736763000488 32.6758613586426 33.0455894470215 33.3608131408691 33.7757034301758 34.1961402893066 34.4649085998535 34.5506286621094 34.6039428710938 34.5870628356934 34.6122970581055 34.3174247741699 34.0521545410156 34.0931739807129 34.178596496582 34.510181427002 34.657299041748 34.6576919555664 34.6000747680664 34.6075706481934
-9999 -9999 -9999 -9999 -9999 -9999 -9999 -9999 -9999 -9999 -9999 -9999 -9999 -9999 -9999 -9999 -9999 -9999 -9999 -9999 -9999 -9999 -9999 -9999 -9999 -9999 -9999 -9999 -9999 -9999 30.6159324645996 31.5031032562256 32.1771965026855 32.3794784545898 32.4951171875 32.591381072998 32.6218605041504 32.5696792602539 32.4357681274414 32.2653274536133 32.2158813476562 32.3399696350098 32.4421768188477 32.4418182373047 32.379207611084 32.3078956604004 32.3518447875977 32.517650604248 32.6369132995605 32.7085494995117 32.883113861084 33.3529396057129 33.8455924987793 34.2908935546875 34.590202331543 34.7272338867188 34.8124504089355 34.8848609924316 34.9135437011719 34.8546981811523 34.8184242248535 34.5185775756836 34.2682723999023 34.3506965637207 34.4468841552734 34.6799736022949 34.8167381286621 34.8994522094727 35.0107269287109 35.1893081665039
-9999 -9999 -9999 -9999 -9999 -9999 -9999 -9999 -9999 -9999 -9999 -9999 -9999 -9999 -9999 -9999 -9999 -9999 -9999 -9999 -9999 -9999 -9999 -9999 -9999 32.1669019063314 32.2716382344564 32.3696950276693 32.4035558700562 32.2362518310547 32.2495422363281 32.2377471923828 32.2766914367676 32.403980255127 32.5714912414551 32.6985397338867 32.7288513183594 32.677059173584 32.5819625854492 32.480770111084 32.4489212036133 32.4774475097656 32.4964370727539 32.5076866149902 32.5437278747559 32.630989074707 32.9445266723633 33.4744110107422 33.7917633056641 33.853157043457 34.0217514038086 34.4504508972168 34.7484588623047 34.832691192627 34.8185768127441 34.856315612793 34.9159355163574 34.9615745544434 34.989070892334 34.9318351745605 34.7950248718262 34.4930801391602 34.4485015869141 34.7119140625 34.8930816650391 35.0201835632324 35.13623046875 35.2523651123047 35.424144744873 35.6219100952148
-9999 -9999 -9999 -9999 -9999 -9999 -9999 -9999 -9999 -9999 -9999 -9999 -9999 -9999 -9999 -9999 -9999 -9999 -9999 -9999 -9999 -9999 -9999 -9999 32.0471229553223 32.1782646179199 32.275318145752 32.3613319396973 32.4724349975586 32.5442047119141 32.5115356445312 32.4581604003906 32.4968338012695 32.6493263244629 32.8600387573242 33.0452194213867 33.1232223510742 33.0871086120605 33.0175933837891 32.9828453063965 32.9815254211426 32.967041015625 32.98681640625 33.1318740844727 33.3711814880371 33.670093536377 34.1824684143066 34.7954788208008 35.1006278991699 35.0813827514648 35.0816917419434 35.0943565368652 35.0168380737305 34.9412536621094 34.9213447570801 34.9205627441406 34.9196243286133 34.9054145812988 34.8757705688477 34.7887687683105 34.6263198852539 34.5272979736328 34.8061408996582 35.1116027832031 35.1887741088867 35.2937965393066 35.4454650878906 35.584300994873 35.7195854187012 35.8140678405762
-9999 -9999 -9999 -9999 -9999 -9999 -9999 -9999 -9999 -9999 -9999 -9999 -9999 -9999 -9999 -9999 -9999 -9999 -9999 -9999 -9999 -9999 -9999 -9999 32.3137626647949 32.472282409668 32.6293296813965 32.8068084716797 32.9726181030273 33.0079078674316 32.9013557434082 32.7916984558105 32.8064804077148 32.9799385070801 33.276798248291 33.5759391784668 33.7272491455078 33.7355575561523 33.7172508239746 33.7336158752441 33.7659797668457 33.8113250732422 33.9783630371094 34.3007545471191 34.6151123046875 34.8707962036133 35.1579627990723 35.3863182067871 35.4560775756836 35.3971824645996 35.3025169372559 35.2108879089355 35.1541023254395 35.1232681274414 35.1054916381836 35.0934028625488 35.0673980712891 34.9921989440918 34.8730316162109 34.7614250183105 34.7045822143555 34.8450927734375 35.1816482543945 35.3291511535645 35.3583908081055 35.5126647949219 35.6604881286621 35.7674522399902 35.8331489562988 35.872501373291
-9999 -9999 -9999 -9999 -9999 -9999 -9999 -9999 -9999 -9999 -9999 -9999 -9999 -9999 -9999 -9999 -9999 -9999 -9999 -9999 -9999 -9999 -9999 32.575511932373 32.5507469177246 32.747371673584 32.9978485107422 33.2827110290527 33.4945335388184 33.502986907959 33.3558731079102 33.2176666259766 33.2294502258301 33.4492225646973 33.804386138916 34.08642578125 34.1701316833496 34.159595489502 34.1508255004883 34.1648025512695 34.2433967590332 34.3904685974121 34.594310760498 34.8018074035645 34.9379119873047 35.0247497558594 35.1031684875488 35.1878509521484 35.2840766906738 35.3776206970215 35.4145317077637 35.3869819641113 35.3491706848145 35.3157577514648 35.2937393188477 35.2923889160156 35.2785987854004 35.2062873840332 35.0755195617676 34.9750328063965 34.9906578063965 35.1501159667969 35.3152122497559 35.3983268737793 35.5203018188477 35.6737098693848 35.771484375 35.827579498291 35.8657455444336 35.9242286682129
-9999 -9999 -9999 -9999 -9999 -9999 -9999 -9999 -9999 -9999 -9999 -9999 -9999 -9999 -9999 -9999 -9999 -9999 -9999 -9999 -9999 -9999 -9999 32.6455497741699 32.7919883728027 33.0380859375 33.3523864746094 33.6994094848633 33.9351844787598 33.9428443908691 33.8227386474609 33.7435989379883 33.8001136779785 34.0149116516113 34.300350189209 34.5054092407227 34.572868347168 34.5684356689453 34.5324020385742 34.4640083312988 34.4363479614258 34.5098037719727 34.6224327087402 34.7140426635742 34.799015045166 34.8704605102539 34.9150009155273 34.986213684082 35.1228942871094 35.2984046936035 35.4465446472168 35.5215530395508 35.5510025024414 35.548957824707 35.5270690917969 35.4993057250977 35.4637260437012 35.3901214599609 35.2907066345215 35.2295112609863 35.2503128051758 35.3167610168457 35.3549690246582 35.3947296142578 35.5295524597168 35.6676177978516 35.7503967285156 35.8266716003418 35.9143524169922 36.0125541687012
-9999 -9999 -9999 -9999 -9999 -9999 -9999 -9999 -9999 -9999 -9999 -9999 -9999 -9999 -9999 -9999 -9999 -9999 -9999 -9999 -9999 -9999 32.7625160217285 32.8312301635742 33.0414543151855 33.3578109741211 33.7437286376953 34.1247978210449 34.3643913269043 34.4240760803223 34.4256744384766 34.4784126281738 34.5898590087891 34.727180480957 34.878345489502 35.0274963378906 35.1160888671875 35.1049270629883 35.0226249694824 34.877628326416 34.7238578796387 34.6687164306641 34.6799583435059 34.7387542724609 34.8875694274902 35.0252456665039 35.1112976074219 35.2267150878906 35.3691940307617 35.4920463562012 35.6044616699219 35.7026329040527 35.7807464599609 35.824577331543 35.8319854736328 35.8050270080566 35.756404876709 35.6911697387695 35.6131706237793 35.5500297546387 35.5381240844727 35.5573883056641 35.5608291625977 35.5665435791016 35.6405143737793 35.7358703613281 35.8201293945312 35.9262771606445 36.0435485839844 36.154224395752
-9999 -9999 -9999 -9999 -9999 -9999 -9999 -9999 -9999 -9999 -9999 -9999 -9999 -9999 21.0919582578871 -9999 -9999 -9999 -9999 32.4883613586426 -9999 32.7975807189941 32.890811920166 33.065601348877 33.3609237670898 33.7644462585449 34.2070808410645 34.5836791992188 34.8111190795898 34.9221534729004 34.9952697753906 35.0741157531738 35.1691741943359 35.2369117736816 35.2850151062012 35.3527336120605 35.4146575927734 35.4185180664062 35.3637733459473 35.250114440918 35.0923919677734 34.9618606567383 34.8820266723633 34.9289436340332 35.1358413696289 35.3334350585938 35.4642333984375 35.5893859863281 35.706371307373 35.7986602783203 35.873291015625 35.9420127868652 36.0072631835938 36.0551338195801 36.0801315307617 36.084888458252 36.0672950744629 36.0351181030273 35.9836387634277 35.9155616760254 35.8638648986816 35.8344116210938 35.8157196044922 35.8080635070801 35.8264999389648 35.8728179931641 35.9503135681152 36.0625534057617 36.1832962036133 36.2814559936523
-9999 -9999 -9999 -9999 -9999 -9999 -9999 -9999 -9999 -9999 -9999 -9999 -9999 -9999 21.1095094680786 -9999 -9999 -9999 -9999 32.5514392852783 32.8102264404297 32.9567375183105 33.152645111084 33.3818054199219 33.7056579589844 34.0981979370117 34.4885139465332 34.836353302002 35.083137512207 35.2097244262695 35.2615432739258 35.2876396179199 35.3393516540527 35.3757972717285 35.3784217834473 35.4120063781738 35.481746673584 35.528247833252 35.5221099853516 35.4683380126953 35.3701477050781 35.2481231689453 35.1325950622559 35.1643295288086 35.3676490783691 35.5398216247559 35.6248397827148 35.6980590820312 35.7905387878418 35.8942413330078 35.990535736084 36.0664978027344 36.1224555969238 36.1601104736328 36.1844596862793 36.2013778686523 36.2117691040039 36.2103652954102 36.1922225952148 36.1535873413086 36.0978965759277 36.0380935668945 35.9932060241699 35.9718551635742 35.9785919189453 36.0251884460449 36.1132316589355 36.2199745178223 36.3109436035156 36.3674507141113
-9999 -9999 -9999 -9999 -9999 -9999 -9999 -9999 -9999 -9999 -9999 -9999 -9999 -9999 21.0305290222168 -9999 -9999 -9999 -9999 -9999 33.1967620849609 33.1939353942871 33.4369316101074 33.7187194824219 34.0723876953125 34.4501838684082 34.7960815429688 35.1061172485352 35.2974281311035 35.3514060974121 35.3547210693359 35.359001159668 35.4053077697754 35.4468574523926 35.447639465332 35.4911918640137 35.587589263916 35.6508407592773 35.673583984375 35.6855506896973 35.6665382385254 35.6002960205078 35.4808616638184 35.4098281860352 35.4633445739746 35.5335655212402 35.5695457458496 35.6401443481445 35.7776985168457 35.9239082336426 36.0274925231934 36.0920181274414 36.1382179260254 36.1766242980957 36.2105674743652 36.2418174743652 36.2672843933105 36.2822914123535 36.2847023010254 36.2732963562012 36.2454223632812 36.2047729492188 36.1646575927734 36.1401481628418 36.1494483947754 36.1975517272949 36.2660751342773 36.3335800170898 36.3845825195312 36.4070320129395
-9999 -9999 -9999 -9999 -9999 -9999 -9999 -9999 -9999 -9999 -9999 -9999 -9999 -9999 21.1540842056274 -9999 21.3464508056641 -9999 -9999 -9999 33.2495460510254 33.3868293762207 33.6995506286621 34.0712814331055 34.5214996337891 34.9787368774414 35.3369407653809 35.5379981994629 35.5732917785645 35.5379753112793 35.4758949279785 35.4309463500977 35.4665679931641 35.5195846557617 35.5390014648438 35.5958099365234 35.681224822998 35.7271423339844 35.7684898376465 35.826343536377 35.8594169616699 35.8498153686523 35.7881813049316 35.6994552612305 35.637451171875 35.6034355163574 35.5824356079102 35.6384201049805 35.797607421875 35.9430122375488 36.0227012634277 36.0772895812988 36.1305160522461 36.1828231811523 36.2302513122559 36.2715950012207 36.300178527832 36.3150482177734 36.3208084106445 36.3201942443848 36.3133659362793 36.2977600097656 36.2792091369629 36.2721824645996 36.2848968505859 36.3109130859375 36.340991973877 36.3780174255371 36.4137802124023 36.4138145446777
-9999 -9999 -9999 -9999 -9999 -9999 -9999 -9999 -9999 -9999 -9999 -9999 -9999 -9999 21.1540842056274 21.2776393890381 21.7097396850586 -9999 -9999 33.4563131332397 33.3873252868652 33.7013282775879 34.1317863464355 34.5546035766602 34.9933242797852 35.4171257019043 35.6937713623047 35.7574157714844 35.6991729736328 35.6482429504395 35.5836448669434 35.5070953369141 35.5026321411133 35.5412864685059 35.5706443786621 35.630012512207 35.6924781799316 35.7200241088867 35.7634391784668 35.8331718444824 35.8927803039551 35.931224822998 35.9430503845215 35.9200019836426 35.8689193725586 35.8063507080078 35.7529296875 35.7684478759766 35.8604583740234 35.9421463012695 36.0006294250488 36.0622634887695 36.1316032409668 36.199333190918 36.2573318481445 36.3010330200195 36.3211288452148 36.3232345581055 36.318603515625 36.3138122558594 36.311767578125 36.3096084594727 36.3108444213867 36.3233909606934 36.341854095459 36.3583641052246 36.3788146972656 36.4061546325684 36.4257774353027 36.4117126464844
-9999 -9999 -9999 -9999 -9999 -9999 -9999 -9999 -9999 -9999 -9999 -9999 -9999 -9999 -9999 23.2515644073486 22.4281883239746 -9999 30.5335330963135 33.4319763183594 33.756404876709 34.3162727355957 34.8442497253418 35.1683006286621 35.4161033630371 35.6786079406738 35.8407707214355 35.8532028198242 35.804386138916 35.771427154541 35.7410125732422 35.6972618103027 35.6745643615723 35.6775207519531 35.6896667480469 35.7271003723145 35.7773933410645 35.820442199707 35.8745918273926 35.9429321289062 36.0061645507812 36.0553855895996 36.0869750976562 36.09619140625 36.0820808410645 36.0471076965332 35.9998359680176 35.9707374572754 35.971378326416 35.9880256652832 36.0268745422363 36.090030670166 36.1680107116699 36.240779876709 36.2985191345215 36.3366622924805 36.3412590026855 36.3239097595215 36.3080253601074 36.3011779785156 36.3001022338867 36.3020057678223 36.312126159668 36.3337020874023 36.3569793701172 36.3768196105957 36.3994369506836 36.4220352172852 36.4361305236816 36.4226112365723
-9999 -9999 -9999 -9999 -9999 -9999 -9999 -9999 -9999 -9999 -9999 -9999 -9999 -9999 -9999 25.2449550628662 25.5972995758057 -9999 33.0848808288574 33.6242332458496 34.343132019043 35.1032867431641 35.5636177062988 35.710376739502 35.7905731201172 35.9042167663574 35.9706268310547 35.9882736206055 35.9914169311523 35.992733001709 35.9782791137695 35.9505920410156 35.9260330200195 35.9169044494629 35.9235992431641 35.9451675415039 35.9756736755371 36.0114097595215 36.0557098388672 36.1045188903809 36.148307800293 36.1830368041992 36.2080001831055 36.2229804992676 36.225887298584 36.2127723693848 36.1829414367676 36.1462097167969 36.1163597106934 36.1040725708008 36.1218795776367 36.171703338623 36.237117767334 36.2975273132324 36.3455772399902 36.3720054626465 36.3586311340332 36.3247871398926 36.3073768615723 36.306266784668 36.3070487976074 36.3065948486328 36.3167610168457 36.3403244018555 36.3633499145508 36.3825454711914 36.404426574707 36.4318046569824 36.4545936584473 36.4488563537598
-9999 -9999 -9999 -9999 -9999 -9999 -9999 -9999 -9999 -9999 -9999 -9999 -9999 -9999 -9999 26.2259674072266 -9999 30.3883688790458 33.0494918823242 33.9774627685547 34.9098014831543 35.6236572265625 35.9061012268066 35.9474067687988 35.9918670654297 36.0496520996094 36.064323425293 36.0718536376953 36.080883026123 36.0932083129883 36.0967330932617 36.09033203125 36.0833930969238 36.0817489624023 36.087833404541 36.1017036437988 36.120189666748 36.1436309814453 36.1741523742676 36.2074851989746 36.2380714416504 36.265510559082 36.2876091003418 36.3016929626465 36.3072929382324 36.3040313720703 36.2913856506348 36.2704849243164 36.2485008239746 36.2356414794922 36.2427139282227 36.2715835571289 36.3119049072266 36.3538284301758 36.3872413635254 36.3992614746094 36.3715019226074 36.3280372619629 36.3124465942383 36.3154716491699 36.3217163085938 36.3217506408691 36.3293647766113 36.3495178222656 36.3703231811523 36.3874168395996 36.4065780639648 36.4347648620605 36.4602928161621 36.462287902832
-9999 -9999 -9999 -9999 -9999 -9999 -9999 -9999 -9999 -9999 -9999 -9999 -9999 -9999 26.2259674072266 27.4611053466797 28.7677154541016 31.6589946746826 33.1705665588379 34.342357635498 35.2958221435547 35.8648490905762 36.0150909423828 36.0290145874023 36.058666229248 36.0859298706055 36.0868797302246 36.0886383056641 36.0941963195801 36.1074256896973 36.1244621276855 36.1401863098145 36.1550445556641 36.1692047119141 36.1831016540527 36.1995239257812 36.219841003418 36.2445869445801 36.2739486694336 36.3016929626465 36.3246917724609 36.3435173034668 36.3560638427734 36.3630905151367 36.3661766052246 36.3647918701172 36.359073638916 36.3495178222656 36.3370590209961 36.3283615112305 36.3291854858398 36.3423919677734 36.3667755126953 36.3952178955078 36.414608001709 36.4150848388672 36.3783683776855 36.3255386352539 36.308292388916 36.3126602172852 36.3285026550293 36.3432006835938 36.3549461364746 36.3693923950195 36.3871726989746 36.3970603942871 36.4069213867188 36.4280166625977 36.4506340026855 36.4545249938965
-9999 -9999 -9999 -9999 -9999 -9999 -9999 -9999 -9999 -9999 -9999 -9999 -9999 -9999 -9999 -9999 31.3359541893005 32.1458930969238 33.6501045227051 34.7095909118652 35.5266075134277 35.9524078369141 36.0294380187988 36.0485153198242 36.0699272155762 36.0796661376953 36.0856666564941 36.0996246337891 36.1208763122559 36.1482048034668 36.1775894165039 36.2075538635254 36.2372703552246 36.263011932373 36.2839469909668 36.3028411865234 36.3223304748535 36.3424873352051 36.3584594726562 36.3682632446289 36.3739318847656 36.3779678344727 36.38134765625 36.3844451904297 36.3878707885742 36.3903770446777 36.3898315429688 36.3867378234863 36.3800163269043 36.3724975585938 36.3700790405273 36.3771553039551 36.3954277038574 36.4156875610352 36.4245300292969 36.4195022583008 36.3804473876953 36.3240509033203 36.3059349060059 36.311653137207 36.3269805908203 36.3452529907227 36.3666839599609 36.381706237793 36.3979148864746 36.4072456359863 36.4083213806152 36.4178199768066 36.4353828430176 36.4382591247559
-9999 -9999 -9999 -9999 -9999 -9999 -9999 -9999 -9999 -9999 -9999 -9999 -9999 -9999 -9999 -9999 32.458553314209 32.7712135314941 34.0826988220215 35.0968971252441 35.7547035217285 36.0030708312988 36.0368194580078 36.0484809875488 36.0626678466797 36.077938079834 36.1037979125977 36.1405448913574 36.1826324462891 36.2271499633789 36.2697143554688 36.3086776733398 36.3370361328125 36.3517189025879 36.3608551025391 36.3690185546875 36.3762512207031 36.3776702880859 36.3753662109375 36.3777351379395 36.3833503723145 36.3874969482422 36.3885459899902 36.3889045715332 36.3925628662109 36.3979415893555 36.4002342224121 36.3989639282227 36.3951072692871 36.3877296447754 36.3856315612793 36.3943748474121 36.4108734130859 36.4212188720703 36.4232597351074 36.41357421875 36.3737945556641 36.3207092285156 36.3077545166016 36.3198280334473 36.3323059082031 36.3393249511719 36.3540802001953 36.3697776794434 36.3844680786133 36.3963737487793 36.3991737365723 36.405330657959 36.417594909668 36.4212265014648
-9999 -9999 -9999 -9999 -9999 -9999 -9999 -9999 -9999 -9999 -9999 -9999 -9999 -9999 -9999 -9999 -9999 33.8349618911743 34.2103652954102 35.3491363525391 35.8801422119141 35.998722076416 36.0396537780762 36.0519104003906 36.0682411193848 36.0992851257324 36.1470489501953 36.206127166748 36.2704658508301 36.3260231018066 36.3631820678711 36.3876457214355 36.3916206359863 36.3814315795898 36.3743057250977 36.3728103637695 36.3712196350098 36.3706398010254 36.3810615539551 36.3957214355469 36.4012641906738 36.3986854553223 36.3930053710938 36.3893089294434 36.3934364318848 36.3990287780762 36.3981475830078 36.3958587646484 36.3942070007324 36.3901023864746 36.392692565918 36.4039497375488 36.4134521484375 36.4169044494629 36.4178047180176 36.4020080566406 36.3622550964355 36.3276405334473 36.3232116699219 36.3327445983887 36.3425025939941 36.3472175598145 36.3521385192871 36.3606491088867 36.3756103515625 36.3887634277344 36.3934288024902 36.3996086120605 36.4021682739258 36.3947105407715
-9999 -9999 -9999 -9999 -9999 -9999 -9999 -9999 -9999 -9999 -9999 -9999 -9999 -9999 32.6930484771729 32.7712135314941 33.7811782360077 34.2429676055908 34.2755699157715 35.2644424438477 35.8270530700684 35.9967460632324 36.0474700927734 36.0599632263184 36.088134765625 36.1396331787109 36.2112236022949 36.2907752990723 36.355281829834 36.3898506164551 36.4049377441406 36.4086074829102 36.3911094665527 36.3689422607422 36.3667297363281 36.3800277709961 36.3917999267578 36.3984413146973 36.4042282104492 36.4022636413574 36.3925628662109 36.3824157714844 36.375415802002 36.3722038269043 36.372631072998 36.3732261657715 36.3720664978027 36.375846862793 36.3812713623047 36.3854293823242 36.3917808532715 36.3965492248535 36.401252746582 36.4015960693359 36.3950309753418 36.3757972717285 36.3540496826172 36.3451614379883 36.345458984375 36.3487091064453 36.3517837524414 36.352237701416 36.3509635925293 36.3559875488281 36.3758850097656 36.3941078186035 36.3980979919434 36.3915824890137 36.3758659362793 36.3385543823242
-9999 -9999 -9999 -9999 -9999 -9999 -9999 -9999 -9999 -9999 -9999 -9999 -9999 -9999 -9999 -9999 -9999 -9999 35.1101160049438 35.3036956787109 35.8438529968262 36.0233116149902 36.0514183044434 36.0718994140625 36.1267967224121 36.2047805786133 36.2877311706543 36.3562278747559 36.3983001708984 36.4134902954102 36.4170379638672 36.4134674072266 36.3960266113281 36.3846054077148 36.3976516723633 36.4146766662598 36.4140090942383 36.4057159423828 36.3977127075195 36.3881492614746 36.3781356811523 36.3683052062988 36.3609237670898 36.3553047180176 36.3498382568359 36.3469734191895 36.3489151000977 36.3565902709961 36.3655204772949 36.373649597168 36.3781433105469 36.3806953430176 36.3807067871094 36.3767356872559 36.3739776611328 36.3707427978516 36.3686218261719 36.3640899658203 36.3591461181641 36.3581962585449 36.3567123413086 36.3537559509277 36.3507270812988 36.3515319824219 36.3570213317871 36.3543739318848 36.3490829467773 36.3404922485352 36.3233375549316 36.2882347106934
-9999 -9999 -9999 -9999 -9999 -9999 -9999 -9999 -9999 -9999 -9999 -9999 -9999 -9999 -9999 -9999 -9999 35.8815116882324 35.6678276062012 35.5967559814453 35.9263763427734 36.0419235229492 36.0598526000977 36.1024284362793 36.1849594116211 36.2715454101562 36.3447532653809 36.394702911377 36.4203491210938 36.4286346435547 36.4292526245117 36.4265403747559 36.4184837341309 36.4157180786133 36.4256935119629 36.4282379150391 36.4129447937012 36.398681640625 36.3894805908203 36.3808479309082 36.3736152648926 36.3667831420898 36.360179901123 36.3529434204102 36.3446235656738 36.3390731811523 36.3380012512207 36.3418960571289 36.3499641418457 36.357105255127 36.362865447998 36.3691101074219 36.3687438964844 36.367317199707 36.3763008117676 36.3861770629883 36.3873519897461 36.3799057006836 36.3709526062012 36.3659286499023 36.3573150634766 36.3453369140625 36.3306350708008 36.315601348877 36.3015098571777 36.290111541748 36.2895126342773 36.2856750488281 36.2787399291992 36.2751083374023
-9999 -9999 -9999 -9999 -9999 -9999 -9999 -9999 -9999 -9999 -9999 -9999 -9999 35.8872489929199 35.9001473320855 -9999 35.9237155914307 35.926025390625 35.8815116882324 35.889347076416 36.0064544677734 36.0366821289062 36.0714721679688 36.1459045410156 36.2466621398926 36.3266220092773 36.3855590820312 36.4193801879883 36.4365730285645 36.4440002441406 36.4437866210938 36.4414443969727 36.4389381408691 36.4400405883789 36.4433403015137 36.4371490478516 36.4235877990723 36.4168434143066 36.4109420776367 36.4034767150879 36.3976745605469 36.3922996520996 36.3859214782715 36.378116607666 36.3699569702148 36.3618774414062 36.3546829223633 36.3502655029297 36.350772857666 36.3588104248047 36.3717842102051 36.3806762695312 36.3744468688965 36.3746070861816 36.3920516967773 36.4112892150879 36.420036315918 36.4181213378906 36.4104843139648 36.3980560302734 36.3767280578613 36.3537216186523 36.3305816650391 36.3085632324219 36.2896728515625 36.2744369506836 36.2664375305176 36.2647590637207 36.2672843933105 36.2778167724609
-9999 -9999 -9999 -9999 -9999 -9999 -9999 -9999 -9999 -9999 -9999 -9999 -9999 -9999 35.8872489929199 35.9144198099772 35.8987731933594 35.948657989502 35.9751586914062 35.9959716796875 36.0281677246094 36.0589599609375 36.113883972168 36.207160949707 36.304069519043 36.365062713623 36.4142417907715 36.4335899353027 36.4482269287109 36.4584083557129 36.4590148925781 36.4556159973145 36.4552612304688 36.4598236083984 36.4648551940918 36.4633865356445 36.4607849121094 36.4615440368652 36.4556999206543 36.4472579956055 36.4399642944336 36.4338340759277 36.4299850463867 36.4238967895508 36.4179000854492 36.412784576416 36.4078979492188 36.4046325683594 36.401252746582 36.4056625366211 36.4123497009277 36.4066925048828 36.3901519775391 36.3887634277344 36.412769317627 36.4393882751465 36.4543952941895 36.4613342285156 36.4581260681152 36.4483642578125 36.4328193664551 36.4050064086914 36.3639450073242 36.3211479187012 36.2981758117676 36.2785415649414 36.2639694213867 36.2621803283691 36.2687301635742 36.2785034179688
-9999 -9999 -9999 -9999 -9999 -9999 -9999 -9999 -9999 -9999 -9999 -9999 -9999 -9999 35.8871965408325 35.8872489929199 35.9572372436523 35.9824829101562 36.000919342041 36.0231819152832 36.0473480224609 36.0801124572754 36.1504096984863 36.2601928710938 36.3474197387695 36.3945922851562 36.4322090148926 36.4402847290039 36.4547805786133 36.4658241271973 36.4666175842285 36.4646415710449 36.4663429260254 36.4727630615234 36.4790420532227 36.4805221557617 36.4833793640137 36.4853248596191 36.4767608642578 36.4617614746094 36.4458541870117 36.4345893859863 36.4294624328613 36.4231986999512 36.4173812866211 36.4159812927246 36.4177856445312 36.4234161376953 36.4271659851074 36.4289588928223 36.4308891296387 36.4231033325195 36.4053573608398 36.3994255065918 36.4230308532715 36.4533615112305 36.4705390930176 36.4768562316895 36.4731369018555 36.4685592651367 36.4719200134277 36.4628524780273 36.4287910461426 36.3607444763184 36.3082008361816 36.289794921875 36.2673492431641 36.2525939941406 36.2627754211426 36.2730903625488
-9999 -9999 -9999 -9999 -9999 -9999 -9999 -9999 -9999 -9999 -9999 35.6627502441406 35.7802352905273 35.8565101623535 35.8621635437012 35.9428634643555 35.9788208007812 35.9861793518066 36.0093116760254 36.0395545959473 36.0689468383789 36.1057624816895 36.1874923706055 36.3042030334473 36.3797645568848 36.4173545837402 36.4382438659668 36.4420585632324 36.4552192687988 36.4655990600586 36.4681625366211 36.4699821472168 36.4749946594238 36.4815940856934 36.4859313964844 36.487003326416 36.4906120300293 36.4885902404785 36.4803466796875 36.4689064025879 36.4493827819824 36.4313049316406 36.4202079772949 36.4105072021484 36.4030265808105 36.4082489013672 36.4168968200684 36.4216575622559 36.4225959777832 36.419246673584 36.421314239502 36.4239158630371 36.4144821166992 36.4030151367188 36.4115028381348 36.438892364502 36.4594764709473 36.4675407409668 36.4642906188965 36.4650611877441 36.4768676757812 36.4785995483398 36.4636116027832 36.4044990539551 36.3381996154785 36.3049163818359 36.2933540344238 36.2614326477051 36.2535552978516 36.2606201171875
-9999 -9999 -9999 -9999 -9999 -9999 -9999 -9999 -9999 35.5413284301758 35.734188079834 35.8614730834961 35.9420318603516 35.9700736999512 35.9696922302246 35.9887771606445 35.9881935119629 36.0032043457031 36.0346260070801 36.0580062866211 36.0742492675781 36.1147994995117 36.2223167419434 36.349853515625 36.4078140258789 36.4357147216797 36.4379997253418 36.4390487670898 36.4458122253418 36.4545364379883 36.461856842041 36.4680480957031 36.4754981994629 36.481372833252 36.4840431213379 36.4842071533203 36.4892120361328 36.4912796020508 36.4916496276855 36.4902458190918 36.4705581665039 36.4389343261719 36.4131736755371 36.4008026123047 36.4022216796875 36.4120483398438 36.4203224182129 36.4238052368164 36.4234809875488 36.4216117858887 36.4255409240723 36.4302597045898 36.4233322143555 36.4099884033203 36.4048652648926 36.4194793701172 36.4357147216797 36.4454116821289 36.4467468261719 36.4509963989258 36.4642066955566 36.4710807800293 36.4640693664551 36.4078941345215 36.3522911071777 36.3222732543945 36.3017692565918 36.2759895324707 36.2448081970215 36.2187690734863
-9999 -9999 -9999 -9999 -9999 -9999 -9999 -9999 -9999 35.6898307800293 35.8996849060059 35.9659423828125 35.988582611084 36.0000877380371 35.9929008483887 35.9860382080078 36.0009536743164 36.0256004333496 36.0573921203613 36.0846366882324 36.1087112426758 36.1595458984375 36.2780570983887 36.4045181274414 36.4462814331055 36.4575805664062 36.4461250305176 36.4402923583984 36.4377899169922 36.4397964477539 36.4461517333984 36.4538421630859 36.461483001709 36.4673347473145 36.471866607666 36.4768524169922 36.4846687316895 36.490779876709 36.4945449829102 36.4966239929199 36.4803009033203 36.4412231445312 36.4078521728516 36.3991088867188 36.408332824707 36.4176445007324 36.4228668212891 36.4262962341309 36.4290008544922 36.4349098205566 36.442684173584 36.4443817138672 36.4351921081543 36.419563293457 36.4086608886719 36.4127998352051 36.4231567382812 36.4330291748047 36.4390335083008 36.4457092285156 36.4540176391602 36.4620361328125 36.4518814086914 36.396556854248 36.3562202453613 36.3416595458984 36.3043212890625 36.2915840148926 36.2416534423828 36.1742706298828
-9999 -9999 -9999 -9999 -9999 35.6766891479492 35.681022644043 35.717601776123 35.7275886535645 35.804557800293 35.9281921386719 35.977611541748 35.9933776855469 35.9935340881348 35.9848213195801 35.9974098205566 36.0240898132324 36.0575714111328 36.0910301208496 36.1066284179688 36.1214752197266 36.1822738647461 36.325325012207 36.4649963378906 36.4984283447266 36.4937896728516 36.4753074645996 36.4644775390625 36.4490699768066 36.4379615783691 36.4328346252441 36.4338607788086 36.4396705627441 36.4474983215332 36.4555549621582 36.4638023376465 36.4714660644531 36.4774856567383 36.4803123474121 36.4822654724121 36.4757461547852 36.4427261352539 36.4079666137695 36.4009628295898 36.4082374572754 36.4104843139648 36.4099807739258 36.4108734130859 36.4157981872559 36.4250984191895 36.4333076477051 36.435432434082 36.4305419921875 36.4229698181152 36.4167098999023 36.416202545166 36.4214172363281 36.4276733398438 36.4332580566406 36.4396362304688 36.4417686462402 36.4490127563477 36.423957824707 36.3809013366699 36.3614768981934 36.3547668457031 36.3162155151367 36.3307151794434 36.2799453735352 36.1854972839355
-9999 -9999 -9999 -9999 35.4944152832031 35.6760902404785 35.8552284240723 35.9095878601074 35.9181938171387 35.9324417114258 35.9661140441895 35.9905891418457 35.9899253845215 35.9841804504395 35.9944534301758 36.0226554870605 36.0585594177246 36.1003875732422 36.1187400817871 36.1198806762695 36.1473808288574 36.2339057922363 36.3981857299805 36.5433616638184 36.5627250671387 36.5405197143555 36.5297012329102 36.5243034362793 36.5090141296387 36.4887161254883 36.4658164978027 36.444896697998 36.4344596862793 36.4328536987305 36.4337310791016 36.4401893615723 36.4496612548828 36.4550514221191 36.4566192626953 36.4572715759277 36.4603996276855 36.4389114379883 36.4030227661133 36.3885078430176 36.3884696960449 36.3834800720215 36.3778114318848 36.3767509460449 36.3824195861816 36.3917579650879 36.4006156921387 36.4057884216309 36.4084129333496 36.409740447998 36.4132995605469 36.4168663024902 36.4225769042969 36.4311485290527 36.4357757568359 36.4310760498047 36.4262275695801 36.4281196594238 36.399787902832 36.3824729919434 36.3731002807617 36.3545455932617 36.3332672119141 36.3561592102051 36.3368797302246 36.2683296203613
-9999 -9999 -9999 35.6514539718628 35.6125602722168 35.8756217956543 35.9676094055176 35.9879608154297 35.9971351623535 35.9960174560547 35.9978294372559 35.9881858825684 35.9821434020996 35.992244720459 36.0206527709961 36.0601501464844 36.1026344299316 36.1382141113281 36.1306343078613 36.135181427002 36.186092376709 36.2968139648438 36.4725189208984 36.5945434570312 36.5864677429199 36.5663452148438 36.5634689331055 36.5666275024414 36.5702095031738 36.5679969787598 36.5575828552246 36.5356483459473 36.5114593505859 36.4918251037598 36.4691123962402 36.455265045166 36.4533081054688 36.4522857666016 36.446891784668 36.4381675720215 36.4407081604004 36.432243347168 36.3994522094727 36.3764572143555 36.3686714172363 36.3577537536621 36.3479385375977 36.3425559997559 36.3495063781738 36.3609161376953 36.3750076293945 36.3903923034668 36.4033279418945 36.412525177002 36.4213523864746 36.4263572692871 36.429084777832 36.4295654296875 36.425407409668 36.4187049865723 36.411247253418 36.405345916748 36.3904075622559 36.392749786377 36.3838424682617 36.3713150024414 36.370849609375 36.3860015869141 36.3710327148438 36.3372573852539
-9999 -9999 -9999 35.6580543518066 35.8407859802246 35.9668998718262 35.9833564758301 35.984375 35.9908790588379 35.9762725830078 35.9741973876953 35.9743156433105 35.9879837036133 36.0160446166992 36.0611991882324 36.1040267944336 36.142162322998 36.1520957946777 36.1399383544922 36.1688270568848 36.2495155334473 36.3699607849121 36.5195198059082 36.604663848877 36.5840110778809 36.5678939819336 36.5602798461914 36.5552406311035 36.5516586303711 36.5569648742676 36.5691947937012 36.5741882324219 36.5824394226074 36.5946578979492 36.568603515625 36.5188026428223 36.4893760681152 36.4797515869141 36.4736442565918 36.4586601257324 36.441967010498 36.4321365356445 36.4123153686523 36.3877258300781 36.3675804138184 36.3436622619629 36.3222923278809 36.3093605041504 36.3112335205078 36.3246269226074 36.3344802856445 36.34521484375 36.3632354736328 36.3772583007812 36.3817176818848 36.376823425293 36.3647804260254 36.3520965576172 36.3430709838867 36.3468055725098 36.3632278442383 36.3754806518555 36.3848609924316 36.410774230957 36.4227714538574 36.4236602783203 36.4466781616211 36.4537773132324 36.4273529052734 36.4028282165527
