NCOLS 70 
NROWS 52 
XLLCORNER -80 
YLLCORNER 33 
CELLSIZE 0.25 
NODATA_value -9999 
-9999.000000000000000 -9999 -9999 -9999 -9999 -9999 -9999 -9999 -9999 -9999 -9999 -9999 -9999 -9999 -9999 -9999 -9999 -9999 -9999 -9999 -9999 -9999 -9999 -9999 -9999 -9999 -9999 -9999 -9999 -9999 -9999 -9999 -9999 -9999 -9999 -9999 -9999 -9999 -9999 -9999 -9999 -9999 -9999 -9999 -9999 -9999 -9999 -9999 -9999 -9999 -9999 -9999 -9999 -9999 -9999 -9999 -9999 -9999 -9999 -9999 -9999 -9999 -9999 -9999 -9999 -9999 -9999 -9999 -9999 -9999
-9999 -9999 -9999 -9999 -9999 -9999 -9999 -9999 -9999 -9999 -9999 -9999 -9999 -9999 -9999 -9999 -9999 -9999 -9999 -9999 -9999 -9999 -9999 -9999 -9999 -9999 -9999 -9999 -9999 -9999 -9999 -9999 -9999 -9999 -9999 -9999 -9999 -9999 -9999 -9999 -9999 -9999 -9999 -9999 -9999 -9999 -9999 -9999 -9999 -9999 -9999 -9999 -9999 -9999 -9999 -9999 -9999 -9999 -9999 -9999 -9999 -9999 -9999 -9999 -9999 -9999 -9999 -9999 -9999 -9999
-9999 -9999 -9999 -9999 -9999 -9999 -9999 -9999 -9999 -9999 -9999 -9999 -9999 -9999 -9999 -9999 -9999 -9999 -9999 -9999 -9999 -9999 -9999 -9999 -9999 -9999 -9999 -9999 -9999 -9999 -9999 -9999 -9999 -9999 -9999 -9999 -9999 -9999 -9999 -9999 -9999 -9999 -9999 -9999 -9999 -9999 -9999 -9999 -9999 -9999 -9999 -9999 -9999 -9999 -9999 -9999 -9999 -9999 -9999 26.6158390045166 -9999 -9999 -9999 -9999 -9999 -9999 -9999 -9999 -9999 -9999
-9999 -9999 -9999 -9999 -9999 -9999 -9999 -9999 -9999 -9999 -9999 -9999 -9999 -9999 -9999 -9999 -9999 -9999 -9999 -9999 -9999 -9999 -9999 -9999 -9999 -9999 -9999 -9999 -9999 -9999 -9999 -9999 -9999 -9999 -9999 -9999 -9999 -9999 -9999 -9999 -9999 -9999 -9999 -9999 -9999 -9999 -9999 -9999 -9999 -9999 -9999 -9999 -9999 -9999 -9999 27.9817962646484 27.809196472168 27.7567882537842 27.630443572998 27.4041404724121 -9999 -9999 -9999 -9999 -9999 -9999 -9999 -9999 -9999 -9999
-9999 -9999 -9999 -9999 -9999 -9999 -9999 -9999 -9999 -9999 -9999 -9999 -9999 -9999 -9999 -9999 -9999 -9999 -9999 -9999 -9999 -9999 -9999 -9999 -9999 -9999 -9999 -9999 -9999 -9999 -9999 -9999 -9999 -9999 -9999 -9999 -9999 -9999 -9999 -9999 -9999 -9999 -9999 -9999 -9999 -9999 -9999 -9999 -9999 -9999 -9999 -9999 29.4731159210205 29.1521625518799 28.7910747528076 28.5396194458008 28.2053813934326 27.9267101287842 -9999 -9999 -9999 -9999 -9999 -9999 -9999 -9999 -9999 -9999 -9999 -9999
-9999 -9999 -9999 -9999 -9999 -9999 -9999 -9999 -9999 -9999 -9999 -9999 -9999 -9999 -9999 -9999 -9999 -9999 -9999 -9999 -9999 -9999 -9999 -9999 -9999 -9999 -9999 -9999 -9999 -9999 -9999 -9999 -9999 -9999 -9999 -9999 -9999 -9999 -9999 -9999 -9999 -9999 -9999 -9999 -9999 -9999 -9999 -9999 -9999 -9999 30.440491104126 30.3821201324463 30.0250568389893 29.5771389007568 29.2040119171143 28.6399784088135 -9999 -9999 -9999 -9999 -9999 -9999 -9999 -9999 -9999 -9999 -9999 30.6434847513835 30.4553503990173 30.3040866851807
-9999 -9999 -9999 -9999 -9999 -9999 -9999 -9999 -9999 -9999 -9999 -9999 -9999 -9999 -9999 -9999 -9999 -9999 -9999 -9999 -9999 -9999 -9999 -9999 -9999 -9999 -9999 -9999 -9999 -9999 -9999 -9999 -9999 -9999 -9999 -9999 -9999 -9999 -9999 -9999 -9999 -9999 -9999 -9999 30.7556095123291 -9999 -9999 30.7092642784119 30.6898078918457 30.6949577331543 30.7091770172119 30.7185077667236 30.4486064910889 30.0734939575195 29.5187911987305 -9999 -9999 -9999 -9999 -9999 -9999 -9999 -9999 30.9424953460693 30.9132099151611 30.8539142608643 30.7714786529541 30.6523380279541 30.5066375732422 30.3583393096924
-9999 -9999 -9999 -9999 -9999 -9999 -9999 -9999 -9999 -9999 -9999 -9999 -9999 -9999 -9999 -9999 -9999 -9999 -9999 -9999 -9999 -9999 -9999 -9999 -9999 -9999 -9999 -9999 -9999 -9999 -9999 -9999 -9999 -9999 -9999 -9999 -9999 -9999 -9999 -9999 -9999 -9999 -9999 -9999 30.7548160552979 30.7446346282959 30.7421035766602 30.7108383178711 30.6943073272705 30.7025890350342 30.7088642120361 30.6994857788086 30.6360492706299 30.4978847503662 30.1922688484192 -9999 -9999 -9999 -9999 -9999 -9999 -9999 31.0253314971924 31.0100936889648 30.9741992950439 30.8983783721924 30.7850933074951 30.6322059631348 30.4647350311279 30.3371868133545
-9999 -9999 -9999 -9999 -9999 -9999 -9999 -9999 -9999 -9999 -9999 -9999 -9999 -9999 -9999 -9999 -9999 -9999 -9999 -9999 -9999 -9999 -9999 -9999 -9999 -9999 -9999 -9999 -9999 -9999 -9999 -9999 -9999 -9999 -9999 -9999 -9999 -9999 -9999 -9999 29.8567225138346 30.0449225107829 30.5528648376465 30.988697052002 31.0094203948975 30.9640789031982 30.8974914550781 30.8389492034912 30.8295364379883 30.8622951507568 30.85475730896 30.772310256958 30.709400177002 30.6789054870605 30.8311878204346 -9999 -9999 -9999 -9999 -9999 31.0073839823405 31.0483493804932 31.0398254394531 31.0092391967773 30.9447460174561 30.8513851165771 30.7290019989014 30.588508605957 30.5011978149414 30.4912376403809
-9999 -9999 -9999 -9999 -9999 -9999 -9999 -9999 -9999 -9999 -9999 -9999 -9999 -9999 -9999 -9999 -9999 -9999 -9999 -9999 -9999 -9999 -9999 -9999 -9999 -9999 -9999 -9999 -9999 -9999 -9999 -9999 -9999 -9999 -9999 -9999 -9999 -9999 -9999 29.7864971160889 29.8220272064209 29.9616432189941 30.3510971069336 30.6955089569092 30.832878112793 30.877161026001 30.8925914764404 30.9191398620605 30.9919052124023 31.0888080596924 31.0980892181396 30.9661045074463 30.8522186279297 30.8394641876221 30.9757976531982 31.1638870239258 -9999 -9999 -9999 30.9800181388855 30.9986114501953 30.975191116333 30.9712715148926 30.96311378479 30.9085388183594 30.8072032928467 30.6932106018066 30.6123676300049 30.6806182861328 30.8335914611816
-9999 -9999 -9999 -9999 -9999 -9999 -9999 -9999 -9999 -9999 -9999 -9999 -9999 -9999 -9999 -9999 -9999 -9999 -9999 -9999 -9999 -9999 -9999 -9999 -9999 -9999 -9999 -9999 -9999 -9999 -9999 -9999 -9999 -9999 -9999 -9999 -9999 -9999 30.8540302276611 30.7292346954346 30.7704677581787 30.7961616516113 30.7431774139404 30.7687168121338 30.8246517181396 30.8821697235107 30.9445247650146 31.0412712097168 31.1840972900391 31.297571182251 31.2711887359619 31.1115093231201 30.9871311187744 30.9846076965332 31.0574359893799 31.1514129638672 31.1719055175781 31.1215225855509 31.0417213439941 30.9732360839844 30.9065036773682 30.889404296875 30.910026550293 30.929557800293 30.9110660552979 30.8115501403809 30.6818180084229 30.6376686096191 30.8123569488525 31.0614471435547
-9999 -9999 -9999 -9999 -9999 -9999 -9999 -9999 -9999 -9999 -9999 -9999 -9999 -9999 -9999 -9999 -9999 -9999 -9999 -9999 -9999 -9999 -9999 -9999 -9999 -9999 -9999 -9999 -9999 -9999 -9999 -9999 -9999 -9999 -9999 -9999 -9999 31.2623691558838 31.269552230835 31.2224979400635 31.1216468811035 31.0118293762207 30.9274482727051 30.9035301208496 30.9226894378662 30.9600200653076 31.0410232543945 31.2028656005859 31.4022483825684 31.5003356933594 31.419734954834 31.2553405761719 31.1722640991211 31.1487331390381 31.1329708099365 31.1446895599365 31.1546268463135 31.1338329315186 31.0391120910645 30.9108333587646 30.8523063659668 30.8533515930176 30.8513717651367 30.8226661682129 30.7924137115479 30.734748840332 30.6870899200439 30.7796440124512 30.9793262481689 31.1244316101074
-9999 -9999 -9999 -9999 -9999 -9999 -9999 -9999 -9999 -9999 -9999 -9999 -9999 -9999 -9999 -9999 -9999 -9999 -9999 -9999 -9999 -9999 -9999 -9999 -9999 -9999 -9999 -9999 -9999 -9999 -9999 -9999 -9999 -9999 -9999 -9999 -9999 31.2093296051025 31.2082424163818 31.1729011535645 31.107738494873 31.0501232147217 31.0295486450195 31.0609130859375 31.1115226745605 31.1519393920898 31.2371921539307 31.4202156066895 31.6152839660645 31.6860790252686 31.6118774414062 31.4799938201904 31.3980903625488 31.2902030944824 31.1810283660889 31.1363792419434 31.1127834320068 31.0792198181152 30.9993419647217 30.8927059173584 30.8446197509766 30.8437175750732 30.8422966003418 30.8236446380615 30.8006973266602 30.8248176574707 30.9314270019531 31.1060390472412 31.1597270965576 31.1379680633545
-9999 -9999 -9999 -9999 -9999 -9999 -9999 -9999 -9999 -9999 -9999 -9999 -9999 -9999 -9999 -9999 -9999 -9999 -9999 -9999 -9999 -9999 -9999 -9999 -9999 -9999 -9999 -9999 -9999 -9999 -9999 -9999 -9999 -9999 -9999 -9999 -9999 31.1202373504639 31.1396884918213 31.1219673156738 31.0875339508057 31.0781135559082 31.112642288208 31.1916675567627 31.2786407470703 31.3384208679199 31.4251194000244 31.5898475646973 31.7353687286377 31.7605400085449 31.6797943115234 31.5443840026855 31.4124488830566 31.2510414123535 31.119909286499 31.078311920166 31.0615940093994 31.0306377410889 30.973783493042 30.8979263305664 30.8349018096924 30.822135925293 30.8648490905762 30.9644317626953 31.0521621704102 31.0799522399902 31.12672996521 31.2291088104248 31.2705593109131 31.2549076080322
-9999 -9999 -9999 -9999 -9999 -9999 -9999 -9999 -9999 -9999 -9999 -9999 -9999 -9999 -9999 -9999 -9999 -9999 -9999 -9999 -9999 -9999 -9999 -9999 -9999 -9999 -9999 -9999 -9999 -9999 -9999 -9999 -9999 -9999 -9999 -9999 31.049352645874 31.072509765625 31.1037216186523 31.1109466552734 31.112548828125 31.155704498291 31.2264728546143 31.3109226226807 31.3997688293457 31.4607925415039 31.52516746521 31.6449909210205 31.752405166626 31.7817134857178 31.7186603546143 31.597526550293 31.5007591247559 31.398889541626 31.2736415863037 31.2105617523193 31.1773071289062 31.101282119751 30.9926261901855 30.9159774780273 30.8244285583496 30.8056087493896 30.9019451141357 31.1394176483154 31.3694896697998 31.4404907226562 31.3533172607422 31.3472480773926 31.3581714630127 31.3176670074463
-9999 -9999 -9999 -9999 -9999 -9999 -9999 -9999 -9999 -9999 -9999 -9999 -9999 -9999 -9999 -9999 -9999 -9999 -9999 -9999 -9999 -9999 -9999 -9999 -9999 -9999 -9999 -9999 -9999 -9999 -9999 -9999 -9999 -9999 -9999 -9999 -9999 31.0048351287842 31.0680713653564 31.1305656433105 31.1304531097412 31.1942939758301 31.3199195861816 31.4273109436035 31.5078372955322 31.5541954040527 31.586404800415 31.6627464294434 31.7599544525146 31.8374118804932 31.8567943572998 31.8021106719971 31.7292385101318 31.6650485992432 31.5775833129883 31.5512313842773 31.5002212524414 31.3833980560303 31.2659397125244 31.1675491333008 31.0472717285156 30.9956684112549 31.1574363708496 31.4300804138184 31.5087852478027 31.5517768859863 31.4390087127686 31.4059677124023 31.3435363769531 31.2726192474365
-9999 -9999 -9999 -9999 -9999 -9999 -9999 -9999 -9999 -9999 -9999 -9999 -9999 -9999 -9999 -9999 -9999 -9999 -9999 -9999 -9999 -9999 -9999 -9999 -9999 -9999 -9999 -9999 -9999 -9999 -9999 -9999 -9999 -9999 -9999 -9999 -9999 -9999 31.0196723937988 -9999 31.0338230133057 31.0931797027588 31.3113613128662 31.4951286315918 31.6084480285645 31.6700897216797 31.7057800292969 31.7725410461426 31.8549308776855 31.9240436553955 31.9676990509033 31.9625263214111 31.9225044250488 31.8841018676758 31.8101234436035 31.8212203979492 31.7951831817627 31.8035907745361 31.858585357666 31.8108711242676 31.7160587310791 31.5668849945068 31.676342010498 31.6985416412354 31.6066589355469 31.6884574890137 31.4966564178467 31.3993396759033 31.2658462524414 31.2791137695312
-9999 -9999 -9999 -9999 -9999 -9999 -9999 -9999 -9999 -9999 -9999 -9999 -9999 -9999 -9999 -9999 -9999 -9999 -9999 -9999 -9999 -9999 -9999 -9999 -9999 -9999 -9999 -9999 -9999 -9999 -9999 -9999 -9999 -9999 -9999 -9999 -9999 -9999 -9999 -9999 30.7180252075195 30.9969120025635 31.3121471405029 31.5407028198242 31.6864013671875 31.7926425933838 31.8765068054199 31.9510459899902 31.9890460968018 32.0147705078125 32.0423278808594 32.0542221069336 32.0369720458984 32.0270462036133 31.983907699585 31.991678237915 32.0875205993652 32.3185653686523 32.5282783508301 32.5394020080566 32.4224739074707 32.186954498291 32.1412239074707 31.9762439727783 31.8797798156738 32.0222778320312 31.8189163208008 31.523193359375 31.4295864105225 31.498046875
-9999 -9999 -9999 -9999 -9999 -9999 -9999 -9999 -9999 -9999 -9999 -9999 -9999 -9999 -9999 -9999 -9999 -9999 -9999 -9999 -9999 -9999 -9999 -9999 -9999 -9999 -9999 -9999 -9999 -9999 -9999 -9999 -9999 -9999 30.3096914291382 30.394868850708 30.4599151611328 -9999 30.3991203308105 30.3923740386963 30.5631217956543 30.9458618164062 31.333137512207 31.5772171020508 31.7307586669922 31.8743419647217 32.0073928833008 32.0822410583496 32.0896034240723 32.0852127075195 32.1112976074219 32.146671295166 32.1718673706055 32.200569152832 32.230354309082 32.3801231384277 32.6923713684082 33.0804977416992 33.2740669250488 33.2548866271973 33.0362358093262 32.692211151123 32.5820045471191 32.5396270751953 32.3886604309082 32.395679473877 32.3743209838867 32.1375923156738 32.0743026733398 32.1520576477051
-9999 -9999 -9999 -9999 -9999 -9999 -9999 -9999 -9999 -9999 -9999 -9999 -9999 -9999 -9999 -9999 -9999 -9999 -9999 -9999 -9999 -9999 -9999 -9999 -9999 -9999 -9999 26.5655498504639 26.5655498504639 26.7202110290527 26.9775047302246 28.1091022491455 29.5549583435059 30.1077136993408 30.3014030456543 30.4347801208496 30.4880790710449 30.4756565093994 30.4419345855713 30.4314079284668 30.5714073181152 30.9575176239014 31.3732261657715 31.6229724884033 31.7777805328369 31.9701690673828 32.1304740905762 32.1903419494629 32.1956405639648 32.2020950317383 32.246639251709 32.3283462524414 32.4193687438965 32.5007591247559 32.5805854797363 32.865852355957 33.2666130065918 33.7881164550781 33.966381072998 33.8615570068359 33.596981048584 33.2886810302734 33.1694641113281 33.197265625 33.0331649780273 32.8746452331543 32.9852066040039 33.0968055725098 33.2460823059082 33.450366973877
-9999 -9999 -9999 -9999 -9999 -9999 -9999 -9999 -9999 -9999 -9999 -9999 -9999 -9999 -9999 -9999 -9999 -9999 -9999 -9999 -9999 -9999 -9999 -9999 -9999 -9999 -9999 -9999 -9999 -9999 28.1967010498047 29.2024936676025 30.5906257629395 30.9219036102295 30.9119281768799 30.8838920593262 30.816427230835 30.7214202880859 30.6267166137695 30.5728244781494 30.6622180938721 31.0392570495605 31.4746246337891 31.7312316894531 31.9129753112793 32.1795425415039 32.3668899536133 32.3823356628418 32.3679885864258 32.3754119873047 32.4312324523926 32.5699920654297 32.7856903076172 32.9665679931641 33.0933227539062 33.2432670593262 33.4468879699707 33.8795967102051 34.1002502441406 34.0822639465332 34.0715637207031 34.0600929260254 34.0020599365234 33.9841918945312 33.9086036682129 33.7051658630371 33.6963882446289 33.8143577575684 34.1025581359863 34.394905090332
-9999 -9999 -9999 -9999 -9999 -9999 -9999 -9999 -9999 -9999 -9999 -9999 -9999 -9999 -9999 -9999 -9999 -9999 -9999 -9999 -9999 -9999 -9999 -9999 -9999 30.7538057963053 30.7782688140869 30.7804927825928 30.8176107406616 30.8390598297119 30.9655380249023 31.0648040771484 31.170862197876 31.2861480712891 31.3193321228027 31.2889976501465 31.2017211914062 31.0785350799561 30.9600658416748 30.9049453735352 30.9780139923096 31.2542762756348 31.6129722595215 31.8710231781006 32.084903717041 32.4059982299805 32.7286529541016 32.8819732666016 32.9476585388184 32.9863204956055 33.0794982910156 33.352954864502 33.7177963256836 33.9482345581055 34.0709419250488 34.11083984375 34.0552597045898 34.160400390625 34.3391609191895 34.4001808166504 34.580924987793 34.8457145690918 34.9364624023438 34.8281059265137 34.8012733459473 34.786205291748 34.7013854980469 34.7239265441895 34.9338035583496 35.1528778076172
-9999 -9999 -9999 -9999 -9999 -9999 -9999 -9999 -9999 -9999 -9999 -9999 -9999 -9999 -9999 -9999 -9999 -9999 -9999 -9999 -9999 -9999 -9999 -9999 30.6891803741455 30.7822780609131 30.7899589538574 30.7625694274902 30.7889499664307 30.8798637390137 31.023380279541 31.2138614654541 31.4444980621338 31.6962490081787 31.8905849456787 31.9885272979736 31.9760856628418 31.8651828765869 31.6950740814209 31.5383720397949 31.5050926208496 31.6590385437012 31.9499111175537 32.2439231872559 32.5438232421875 32.9994163513184 33.5485763549805 33.9682540893555 34.2098808288574 34.3368797302246 34.5178833007812 34.8176460266113 35.057186126709 35.1073799133301 35.0439071655273 35.0148544311523 35.0067596435547 34.9558525085449 34.9406890869141 34.876148223877 34.8607482910156 35.0152130126953 35.1027526855469 34.9982261657715 35.0734939575195 35.2255859375 35.2393913269043 35.2772750854492 35.3841209411621 35.4848785400391
-9999 -9999 -9999 -9999 -9999 -9999 -9999 -9999 -9999 -9999 -9999 -9999 -9999 -9999 -9999 -9999 -9999 -9999 -9999 -9999 -9999 -9999 -9999 -9999 30.9658241271973 31.0440292358398 31.0011100769043 30.9307518005371 30.9601860046387 31.0852451324463 31.2740097045898 31.5219345092773 31.8088226318359 32.1479568481445 32.5499076843262 32.9265480041504 33.1457862854004 33.2095069885254 33.1476402282715 32.9300994873047 32.6980285644531 32.671817779541 32.9543991088867 33.3693733215332 33.8387298583984 34.3818054199219 34.8233833312988 35.0736122131348 35.2109985351562 35.3075866699219 35.4344825744629 35.5422210693359 35.5481414794922 35.4530029296875 35.3551864624023 35.2661399841309 35.3100433349609 35.3063926696777 35.2084541320801 35.1388053894043 35.0690422058105 35.0798721313477 35.072639465332 35.0371055603027 35.1613388061523 35.3192520141602 35.3620109558105 35.4115142822266 35.4759750366211 35.5384712219238
-9999 -9999 -9999 -9999 -9999 -9999 -9999 -9999 -9999 -9999 -9999 -9999 -9999 -9999 -9999 -9999 -9999 -9999 -9999 -9999 -9999 -9999 -9999 31.1708326339722 31.1304912567139 31.1798667907715 31.1263942718506 31.0776977539062 31.1389465332031 31.3095760345459 31.5401802062988 31.8114852905273 32.1224746704102 32.5599212646484 33.2110710144043 33.8898658752441 34.3338508605957 34.5763397216797 34.7114639282227 34.6871490478516 34.5273475646973 34.4343872070312 34.5413055419922 34.7579612731934 35.0541572570801 35.3259391784668 35.4429817199707 35.471866607666 35.5097236633301 35.5651969909668 35.6133270263672 35.6387901306152 35.591480255127 35.4731063842773 35.3754119873047 35.30615234375 35.3524322509766 35.3721008300781 35.2767372131348 35.229133605957 35.1668243408203 35.1280174255371 35.0746994018555 35.0521278381348 35.1530647277832 35.2816009521484 35.3664016723633 35.4374847412109 35.4822616577148 35.5117797851562
-9999 -9999 -9999 -9999 -9999 -9999 -9999 -9999 -9999 -9999 -9999 -9999 -9999 -9999 -9999 -9999 -9999 -9999 -9999 -9999 -9999 -9999 -9999 31.2569732666016 31.330041885376 31.3114185333252 31.2337017059326 31.2011184692383 31.2572116851807 31.4110984802246 31.7099838256836 32.1525535583496 32.5846290588379 33.0557479858398 33.7015800476074 34.3508071899414 34.804874420166 35.0695610046387 35.2234344482422 35.327808380127 35.3855590820312 35.3864440917969 35.342700958252 35.3392448425293 35.4177932739258 35.4965591430664 35.5424842834473 35.5779609680176 35.606330871582 35.6249198913574 35.6338996887207 35.6308097839355 35.5567512512207 35.4337005615234 35.3576469421387 35.3390808105469 35.3674201965332 35.3418922424316 35.291130065918 35.2704582214355 35.1849746704102 35.1070365905762 35.0928802490234 35.1276588439941 35.1893310546875 35.2469139099121 35.3056831359863 35.3713417053223 35.4169883728027 35.4398956298828
-9999 -9999 -9999 -9999 -9999 -9999 -9999 -9999 -9999 -9999 -9999 -9999 -9999 -9999 -9999 -9999 -9999 -9999 -9999 -9999 -9999 -9999 31.5453586578369 31.532018661499 31.5020809173584 31.399206161499 31.2798690795898 31.2538051605225 31.3521118164062 31.6163845062256 32.1807556152344 32.9250793457031 33.5081901550293 33.9617042541504 34.4087753295898 34.7307281494141 34.9321250915527 35.0827751159668 35.1810340881348 35.262451171875 35.3617401123047 35.4313774108887 35.408332824707 35.3988418579102 35.4672508239746 35.5360374450684 35.5822257995605 35.6094131469727 35.6254119873047 35.6347274780273 35.6253967285156 35.5819282531738 35.4847068786621 35.3877182006836 35.3530387878418 35.355094909668 35.3464202880859 35.3014907836914 35.2995872497559 35.2505226135254 35.1578369140625 35.1496353149414 35.2045021057129 35.2476844787598 35.2543411254883 35.2405548095703 35.2257232666016 35.2453117370605 35.3109550476074 35.3821105957031
-9999 -9999 -9999 -9999 -9999 -9999 -9999 -9999 -9999 -9999 -9999 -9999 -9999 -9999 16.732736799452 -9999 -9999 -9999 -9999 31.5268669128418 -9999 31.6354751586914 31.6212348937988 31.6082153320312 31.5470104217529 31.4342861175537 31.3528327941895 31.47141456604 31.8443355560303 32.4528503417969 33.2934532165527 34.1401405334473 34.7307395935059 35.1056137084961 35.359806060791 35.4517784118652 35.4133491516113 35.3615760803223 35.3420448303223 35.3628883361816 35.4334716796875 35.5391540527344 35.5639991760254 35.5176048278809 35.5184440612793 35.5463027954102 35.5686149597168 35.5812530517578 35.5870628356934 35.6023635864258 35.6106033325195 35.5556488037109 35.433177947998 35.33837890625 35.3134536743164 35.3049125671387 35.292179107666 35.2881698608398 35.2802772521973 35.2272491455078 35.2360496520996 35.3148574829102 35.3636016845703 35.3708763122559 35.3504257202148 35.3261642456055 35.2994766235352 35.2949485778809 35.3456954956055 35.4276847839355
-9999 -9999 -9999 -9999 -9999 -9999 -9999 -9999 -9999 -9999 -9999 -9999 -9999 -9999 16.7457389831543 -9999 -9999 -9999 -9999 31.558687210083 31.6540470123291 31.7337284088135 31.7097949981689 31.6444110870361 31.5695514678955 31.5240631103516 31.6308116912842 32.0581741333008 32.7788581848145 33.5910415649414 34.3752365112305 35.0342178344727 35.4515266418457 35.6249694824219 35.6877250671387 35.7164726257324 35.6778869628906 35.5890960693359 35.5221138000488 35.5087661743164 35.5418701171875 35.6296882629395 35.6848335266113 35.6477432250977 35.6144523620605 35.6163330078125 35.6235237121582 35.6219673156738 35.6069831848145 35.6122093200684 35.6192245483398 35.5479736328125 35.4135894775391 35.3212509155273 35.2900276184082 35.2707023620605 35.2611427307129 35.2598571777344 35.2427406311035 35.2784538269043 35.357234954834 35.3898048400879 35.3977088928223 35.3942108154297 35.3834838867188 35.3867835998535 35.3951225280762 35.4133377075195 35.4709968566895 35.5515403747559
-9999 -9999 -9999 -9999 -9999 -9999 -9999 -9999 -9999 -9999 -9999 -9999 -9999 -9999 16.6872291564941 -9999 -9999 -9999 -9999 -9999 31.7257852554321 31.7836570739746 31.7506122589111 31.7287254333496 31.8123531341553 32.0319328308105 32.4208297729492 32.9846649169922 33.6318740844727 34.3035545349121 34.9342155456543 35.3580055236816 35.5513229370117 35.6228294372559 35.6560516357422 35.6911697387695 35.7058448791504 35.6803741455078 35.6446418762207 35.6239547729492 35.6210250854492 35.6476783752441 35.6675872802734 35.6447334289551 35.6272850036621 35.6399574279785 35.6557922363281 35.6643905639648 35.6655921936035 35.6774444580078 35.6640510559082 35.5668411254883 35.4387626647949 35.3645286560059 35.3423004150391 35.3204078674316 35.2971382141113 35.2853126525879 35.3102722167969 35.3653450012207 35.3812026977539 35.3644256591797 35.3627891540527 35.3691291809082 35.3723373413086 35.395378112793 35.4358596801758 35.484920501709 35.5550651550293 35.6318130493164
-9999 -9999 -9999 -9999 -9999 -9999 -9999 -9999 -9999 -9999 -9999 -9999 -9999 -9999 16.7538013458252 -9999 16.9212684631348 -9999 -9999 -9999 31.6224918365479 31.7632637023926 31.8698120117188 32.098518371582 32.5475463867188 33.1242446899414 33.6777496337891 34.0519332885742 34.3594436645508 34.8007583618164 35.1766357421875 35.3131141662598 35.3484802246094 35.4007720947266 35.4621238708496 35.5395927429199 35.6176910400391 35.6701393127441 35.7026672363281 35.718376159668 35.7101821899414 35.6827812194824 35.6500816345215 35.6228981018066 35.6159820556641 35.6320877075195 35.6542587280273 35.6788940429688 35.7002906799316 35.7195129394531 35.7080039978027 35.6206741333008 35.5039978027344 35.4281425476074 35.4062652587891 35.3921203613281 35.3713798522949 35.3784713745117 35.4317283630371 35.4448776245117 35.4103698730469 35.3973541259766 35.3976440429688 35.4125289916992 35.4340896606445 35.4719924926758 35.5238876342773 35.5792922973633 35.6421012878418 35.7070541381836
-9999 -9999 -9999 -9999 -9999 -9999 -9999 -9999 -9999 -9999 -9999 -9999 -9999 -9999 16.7538013458252 16.8203735351562 17.2519702911377 -9999 -9999 31.2739305496216 31.4683284759521 31.7740058898926 32.1387481689453 32.6317443847656 33.2712554931641 33.918815612793 34.4366912841797 34.7068977355957 34.8974266052246 35.1086959838867 35.1599159240723 35.1115455627441 35.1256713867188 35.2100410461426 35.3170471191406 35.4297142028809 35.5340309143066 35.6186141967773 35.6841697692871 35.7318305969238 35.7546844482422 35.7467460632324 35.714282989502 35.6706886291504 35.6340255737305 35.6248092651367 35.6434669494629 35.6791534423828 35.7109527587891 35.7237739562988 35.7085380554199 35.6559410095215 35.5901069641113 35.5263137817383 35.4744606018066 35.4481925964355 35.4558563232422 35.4916610717773 35.5411643981934 35.5402221679688 35.507640838623 35.4957122802734 35.4981269836426 35.5125427246094 35.5399742126465 35.5864105224609 35.6414031982422 35.6918563842773 35.7420196533203 35.7881317138672
-9999 -9999 -9999 -9999 -9999 -9999 -9999 -9999 -9999 -9999 -9999 -9999 -9999 -9999 -9999 18.6566410064697 17.8862552642822 -9999 27.0596890449524 30.7370834350586 31.2678184509277 31.7982940673828 32.3262748718262 32.8761520385742 33.465087890625 34.0130996704102 34.4951362609863 34.8357315063477 35.0351982116699 35.0579643249512 34.9699363708496 34.9443893432617 35.0386619567871 35.206169128418 35.3822975158691 35.5233116149902 35.6250686645508 35.6922149658203 35.7331008911133 35.7573432922363 35.7722091674805 35.7768440246582 35.7675285339355 35.7344284057617 35.6833877563477 35.6476020812988 35.6503219604492 35.6862716674805 35.7234153747559 35.7342758178711 35.7256965637207 35.71728515625 35.7145195007324 35.7121467590332 35.7002105712891 35.6631889343262 35.6309394836426 35.635181427002 35.6727714538574 35.6870079040527 35.6704788208008 35.660774230957 35.6626472473145 35.6689910888672 35.6878890991211 35.7306861877441 35.7791976928711 35.8207664489746 35.854564666748 35.8749465942383
-9999 -9999 -9999 -9999 -9999 -9999 -9999 -9999 -9999 -9999 -9999 -9999 -9999 -9999 -9999 20.3844089508057 20.9401969909668 -9999 29.4384174346924 30.2958889007568 31.0903453826904 31.8083782196045 32.4491310119629 33.0468215942383 33.484748840332 33.7751350402832 34.0817260742188 34.4207153320312 34.7045936584473 34.8040809631348 34.8157386779785 34.9213447570801 35.1432189941406 35.3978042602539 35.6141662597656 35.7684059143066 35.8636322021484 35.9096412658691 35.9236679077148 35.9195137023926 35.9057312011719 35.8921966552734 35.8717765808105 35.8270416259766 35.7589988708496 35.6950340270996 35.6760292053223 35.7107963562012 35.7552185058594 35.7733726501465 35.7771301269531 35.7845764160156 35.8059196472168 35.8511924743652 35.8964996337891 35.903491973877 35.8773880004883 35.8422355651855 35.8290672302246 35.8311958312988 35.8258323669434 35.8187255859375 35.8142700195312 35.8103179931641 35.8229026794434 35.8595581054688 35.9011650085449 35.9323921203613 35.9470252990723 35.9390754699707
-9999 -9999 -9999 -9999 -9999 -9999 -9999 -9999 -9999 -9999 -9999 -9999 -9999 -9999 -9999 21.4283809661865 -9999 25.6186825888497 28.5510501861572 29.842306137085 31.1686458587646 32.1405334472656 32.9380264282227 33.6036262512207 34.006721496582 34.2469711303711 34.3724975585938 34.5250930786133 34.7210235595703 34.8974342346191 35.0693016052246 35.3093872070312 35.5838241577148 35.8135681152344 35.9721450805664 36.0703964233398 36.1177406311035 36.1328506469727 36.1361351013184 36.1325302124023 36.1147994995117 36.0913581848145 36.0566482543945 35.9864768981934 35.8828277587891 35.7724609375 35.7230758666992 35.7572898864746 35.8076591491699 35.8219680786133 35.8085289001465 35.8096313476562 35.8563804626465 35.9300918579102 35.9953575134277 36.0420379638672 36.0654373168945 36.0510101318359 36.0111465454102 35.9707946777344 35.9416961669922 35.923957824707 35.9128761291504 35.9067993164062 35.9190483093262 35.9411506652832 35.9645385742188 35.983097076416 35.9875335693359 35.9680786132812
-9999 -9999 -9999 -9999 -9999 -9999 -9999 -9999 -9999 -9999 -9999 -9999 -9999 -9999 21.4283809661865 22.4663321177165 23.5245761871338 26.3319396972656 28.0985584259033 29.5724411010742 31.1185970306396 32.4442863464355 33.5492858886719 34.2867317199707 34.6939926147461 34.9926681518555 35.1479949951172 35.2458305358887 35.3461532592773 35.4736747741699 35.6333160400391 35.8083648681641 35.9508781433105 36.0409202575684 36.0938911437988 36.1159286499023 36.1174926757812 36.1219253540039 36.1409111022949 36.1656455993652 36.1751823425293 36.1737213134766 36.1641693115234 36.117073059082 36.018180847168 35.8867225646973 35.7971572875977 35.8051605224609 35.845287322998 35.844799041748 35.8296699523926 35.8550148010254 35.9351692199707 36.0242500305176 36.0967140197754 36.1485023498535 36.1682014465332 36.1589279174805 36.1273536682129 36.0832252502441 36.0534820556641 36.0367202758789 36.0216178894043 36.0114784240723 36.0147323608398 36.0130424499512 36.0118446350098 36.0185165405273 36.0183944702148 35.9958000183105
-9999 -9999 -9999 -9999 -9999 -9999 -9999 -9999 -9999 -9999 -9999 -9999 -9999 -9999 -9999 -9999 26.9178900718689 27.9072132110596 29.3383636474609 30.0183238983154 31.0383739471436 32.6703681945801 34.2415771484375 34.8402328491211 35.1657066345215 35.4010848999023 35.5131149291992 35.603343963623 35.6993560791016 35.8202896118164 35.9397773742676 36.0220642089844 36.0659446716309 36.0956649780273 36.1104164123535 36.105899810791 36.0945701599121 36.0971832275391 36.1172981262207 36.1502952575684 36.1724662780762 36.1754875183105 36.181957244873 36.1732711791992 36.1064643859863 35.9910202026367 35.890209197998 35.8710403442383 35.8955993652344 35.8888931274414 35.8805541992188 35.9372062683105 36.0321426391602 36.1172981262207 36.1788673400879 36.2095527648926 36.2146873474121 36.2028160095215 36.1759490966797 36.1435737609863 36.1336975097656 36.126033782959 36.1104927062988 36.094799041748 36.0802841186523 36.0620002746582 36.0461883544922 36.0468215942383 36.0465698242188 36.0196304321289
-9999 -9999 -9999 -9999 -9999 -9999 -9999 -9999 -9999 -9999 -9999 -9999 -9999 -9999 -9999 -9999 28.9075222015381 29.9078311920166 30.6964340209961 30.9922122955322 31.8140449523926 33.4375610351562 34.6415138244629 35.0187644958496 35.3225250244141 35.5276641845703 35.6656799316406 35.7925109863281 35.9077568054199 35.9985580444336 36.0485801696777 36.0748748779297 36.1072044372559 36.1373062133789 36.1454811096191 36.1370735168457 36.1332359313965 36.1489410400391 36.1695938110352 36.1893768310547 36.202320098877 36.1999626159668 36.2014350891113 36.2033576965332 36.1647758483887 36.0722770690918 35.9735069274902 35.9320182800293 35.9331741333008 35.9256744384766 35.9428749084473 36.0198059082031 36.1064758300781 36.1765251159668 36.2188758850098 36.2341690063477 36.2425537109375 36.2360153198242 36.204833984375 36.1703643798828 36.167049407959 36.1567802429199 36.1347045898438 36.1197738647461 36.0981216430664 36.0775337219238 36.0637016296387 36.0694808959961 36.0682601928711 36.0261344909668
-9999 -9999 -9999 -9999 -9999 -9999 -9999 -9999 -9999 -9999 -9999 -9999 -9999 -9999 -9999 -9999 -9999 31.0491504669189 31.4824810028076 31.8654365539551 32.8219223022461 34.1938819885254 34.9107131958008 35.2588348388672 35.5493125915527 35.7369270324707 35.8653793334961 35.9467391967773 35.9930839538574 36.0284423828125 36.075927734375 36.1342086791992 36.1858062744141 36.2092132568359 36.2005577087402 36.1916847229004 36.2025184631348 36.2187385559082 36.2198181152344 36.2127838134766 36.2148742675781 36.223316192627 36.2338790893555 36.2327079772949 36.2022438049316 36.1250953674316 36.0313949584961 35.9792442321777 35.9713134765625 35.9779472351074 36.0154037475586 36.0816230773926 36.1554298400879 36.2146759033203 36.235912322998 36.2442283630371 36.2592277526855 36.2615127563477 36.235782623291 36.1928482055664 36.1814842224121 36.1665840148926 36.1331634521484 36.1116065979004 36.0936317443848 36.0828399658203 36.0807189941406 36.0970916748047 36.0921783447266 36.0379371643066
-9999 -9999 -9999 -9999 -9999 -9999 -9999 -9999 -9999 -9999 -9999 -9999 -9999 -9999 29.657753944397 29.9078311920166 31.2157514095306 31.7961683273315 32.1098556518555 32.637882232666 33.7609901428223 34.8522453308105 35.3057594299316 35.6110534667969 35.7923202514648 35.876953125 35.9187316894531 35.9494018554688 35.9904251098633 36.0685882568359 36.1615982055664 36.2190933227539 36.2364768981934 36.2351303100586 36.2253112792969 36.2245140075684 36.2414245605469 36.2520866394043 36.2439384460449 36.2300262451172 36.228946685791 36.2436218261719 36.2570724487305 36.2536125183105 36.241081237793 36.1997756958008 36.1281471252441 36.0720062255859 36.0438041687012 36.0444641113281 36.0789756774902 36.1280746459961 36.1928672790527 36.2335929870605 36.2447128295898 36.2541694641113 36.2755088806152 36.2891426086426 36.2815742492676 36.2490081787109 36.2259864807129 36.2060279846191 36.1672973632812 36.1290245056152 36.1024971008301 36.0963897705078 36.1009674072266 36.119083404541 36.1107139587402 36.0624847412109
-9999 -9999 -9999 -9999 -9999 -9999 -9999 -9999 -9999 -9999 -9999 -9999 -9999 -9999 -9999 -9999 -9999 -9999 33.2187614440918 33.4251174926758 34.4274673461914 35.2370338439941 35.6061477661133 35.792407989502 35.8697052001953 35.897777557373 35.9235687255859 35.964298248291 36.0325965881348 36.1299667358398 36.2139701843262 36.2449150085449 36.2439918518066 36.2400283813477 36.2397117614746 36.2495422363281 36.2644882202148 36.2721366882324 36.2661590576172 36.2568397521973 36.2575874328613 36.2717895507812 36.2851028442383 36.2846412658691 36.2779693603516 36.2512054443359 36.200008392334 36.1516265869141 36.1242218017578 36.1211128234863 36.141170501709 36.1751823425293 36.2248916625977 36.2444877624512 36.2501449584961 36.262321472168 36.2882232666016 36.3080749511719 36.3167457580566 36.3038558959961 36.289421081543 36.2675743103027 36.2309494018555 36.1891708374023 36.1455001831055 36.1238174438477 36.1273345947266 36.1374168395996 36.1300315856934 36.0950355529785
-9999 -9999 -9999 -9999 -9999 -9999 -9999 -9999 -9999 -9999 -9999 -9999 -9999 -9999 -9999 -9999 -9999 35.6796379089355 34.8535242080688 34.7021903991699 35.1913833618164 35.634578704834 35.8130683898926 35.862174987793 35.870735168457 35.888256072998 35.9342155456543 35.9950752258301 36.0766448974609 36.1700820922852 36.2346076965332 36.2511138916016 36.2427406311035 36.2390480041504 36.2490081787109 36.2652320861816 36.2745094299316 36.2771797180176 36.2696800231934 36.2626571655273 36.2637901306152 36.2728805541992 36.2832946777344 36.2866706848145 36.2800521850586 36.2642936706543 36.2311134338379 36.2031898498535 36.1907043457031 36.1893768310547 36.202205657959 36.2178993225098 36.2437858581543 36.2487945556641 36.2527961730957 36.2616806030273 36.2888641357422 36.3141937255859 36.3268852233887 36.328254699707 36.3356323242188 36.332389831543 36.2979545593262 36.2366790771484 36.1860389709473 36.1657218933105 36.1636619567871 36.168384552002 36.162727355957 36.1354751586914
-9999 -9999 -9999 -9999 -9999 -9999 -9999 -9999 -9999 -9999 -9999 -9999 -9999 35.5892181396484 35.5821465386285 -9999 35.6163673400879 35.6684703826904 35.6796379089355 35.6071510314941 35.731029510498 35.8090324401855 35.8334655761719 35.8415184020996 35.8599014282227 35.9057006835938 35.9648971557617 36.0249290466309 36.0999412536621 36.1789474487305 36.2395935058594 36.2620277404785 36.2543334960938 36.2464065551758 36.2472190856934 36.2593421936035 36.2701263427734 36.2664222717285 36.2523078918457 36.2389831542969 36.2302398681641 36.2324981689453 36.2404403686523 36.2420883178711 36.2436103820801 36.2473793029785 36.2408905029297 36.2362747192383 36.2338066101074 36.2297821044922 36.237663269043 36.2429580688477 36.2477531433105 36.2443656921387 36.2452049255371 36.2456550598145 36.2721481323242 36.3075752258301 36.326229095459 36.3366088867188 36.3587379455566 36.3696441650391 36.3319053649902 36.2666854858398 36.2281036376953 36.226146697998 36.2194671630859 36.2112808227539 36.1972198486328 36.1727828979492
-9999 -9999 -9999 -9999 -9999 -9999 -9999 -9999 -9999 -9999 -9999 -9999 -9999 -9999 35.5892181396484 35.5972887674967 35.5599327087402 35.6728019714355 35.7615089416504 35.7813339233398 35.8012390136719 35.8238830566406 35.8477745056152 35.8742332458496 35.9095458984375 35.9453430175781 35.9778251647949 36.0239868164062 36.0881996154785 36.1563987731934 36.2159004211426 36.253303527832 36.2599105834961 36.2531967163086 36.2443885803223 36.2462882995605 36.2443962097168 36.2282066345215 36.2094039916992 36.1909713745117 36.178539276123 36.1773834228516 36.178581237793 36.1750297546387 36.1864814758301 36.2109680175781 36.2360229492188 36.256290435791 36.2619171142578 36.2486724853516 36.2538299560547 36.260814666748 36.2499465942383 36.2401924133301 36.2392959594727 36.2307777404785 36.253589630127 36.2959938049316 36.3198165893555 36.3364295959473 36.3672409057617 36.3772277832031 36.3308067321777 36.2849273681641 36.271915435791 36.2676162719727 36.2473449707031 36.2424049377441 36.2354545593262 36.2166709899902
-9999 -9999 -9999 -9999 -9999 -9999 -9999 -9999 -9999 -9999 -9999 -9999 -9999 -9999 35.6074275970459 35.5892181396484 35.6427154541016 35.6981735229492 35.7568359375 35.8040885925293 35.824031829834 35.8336486816406 35.8492317199707 35.8755035400391 35.9163436889648 35.9554100036621 35.9776229858398 36.0104866027832 36.0658798217773 36.1323738098145 36.1943397521973 36.2390632629395 36.2601547241211 36.2662620544434 36.2545738220215 36.2352752685547 36.211612701416 36.1872062683105 36.1648635864258 36.1435165405273 36.1302642822266 36.1309432983398 36.1366271972656 36.1354331970215 36.1501045227051 36.1846008300781 36.2316246032715 36.2729454040527 36.2857704162598 36.2652473449707 36.270149230957 36.2801666259766 36.2606430053711 36.2490692138672 36.2465286254883 36.2262573242188 36.2367210388184 36.282169342041 36.3119010925293 36.3296661376953 36.3595428466797 36.372875213623 36.3520469665527 36.3333740234375 36.3234214782715 36.297233581543 36.2690353393555 36.2621269226074 36.2679595947266 36.2748489379883
-9999 -9999 -9999 -9999 -9999 -9999 -9999 -9999 -9999 -9999 -9999 35.436767578125 35.5156288146973 35.5761566162109 35.6204490661621 35.6438865661621 35.7347373962402 35.7958679199219 35.8143577575684 35.8113594055176 35.8020782470703 35.8123245239258 35.8393821716309 35.8762741088867 35.9162330627441 35.9623413085938 35.986701965332 36.0083961486816 36.0484657287598 36.1057434082031 36.1683731079102 36.2199478149414 36.2517776489258 36.2650756835938 36.252384185791 36.2186012268066 36.1834716796875 36.1612854003906 36.1440505981445 36.1236381530762 36.1060104370117 36.0997924804688 36.1088752746582 36.1228179931641 36.1487426757812 36.184700012207 36.2369689941406 36.2883796691895 36.2971801757812 36.2678718566895 36.2742500305176 36.2931976318359 36.2859382629395 36.2849884033203 36.2596206665039 36.2212333679199 36.2204475402832 36.265007019043 36.306324005127 36.3266716003418 36.3484802246094 36.369945526123 36.3748779296875 36.3736152648926 36.3617248535156 36.3374710083008 36.3084754943848 36.2944297790527 36.2914581298828 36.2971534729004
-9999 -9999 -9999 -9999 -9999 -9999 -9999 -9999 -9999 35.3783226013184 35.5275993347168 35.5615158081055 35.6294021606445 35.6685180664062 35.6928291320801 35.7302398681641 35.8016166687012 35.8123512268066 35.8091850280762 35.8134689331055 35.8251571655273 35.8407516479492 35.857551574707 35.8811416625977 35.9173851013184 35.9611778259277 35.9954719543457 36.0228424072266 36.0495491027832 36.0903854370117 36.1391716003418 36.1835556030273 36.2162780761719 36.2338676452637 36.2330055236816 36.2078742980957 36.1775894165039 36.1614189147949 36.150146484375 36.1345138549805 36.1188087463379 36.1118469238281 36.1212005615234 36.1418037414551 36.1723098754883 36.2080459594727 36.2527770996094 36.2875823974609 36.2822723388672 36.2574691772461 36.2715339660645 36.2941818237305 36.3030128479004 36.3075408935547 36.2656135559082 36.2221984863281 36.2185592651367 36.2686614990234 36.3176040649414 36.3427925109863 36.3535346984863 36.3699226379395 36.3848609924316 36.3849830627441 36.3740768432617 36.3577117919922 36.3355026245117 36.3237648010254 36.3217926025391 36.3339157104492
-9999 -9999 -9999 -9999 -9999 -9999 -9999 -9999 -9999 35.5056190490723 35.6352272033691 35.6613655090332 35.7087860107422 35.7444114685059 35.7608261108398 35.8079643249512 35.8197059631348 35.8196029663086 35.8168411254883 35.811351776123 35.807991027832 35.8155632019043 35.8418006896973 35.8745269775391 35.8972434997559 35.9248962402344 35.9716720581055 36.0205955505371 36.0591697692871 36.0945358276367 36.1288070678711 36.157787322998 36.1783447265625 36.1914329528809 36.1999435424805 36.1971893310547 36.1842956542969 36.1721115112305 36.1644134521484 36.1548957824707 36.1450271606445 36.1433029174805 36.153621673584 36.1739730834961 36.1920967102051 36.2116355895996 36.2487487792969 36.2742767333984 36.2656517028809 36.2504005432129 36.2698211669922 36.2841758728027 36.2951736450195 36.3012657165527 36.2837371826172 36.2776336669922 36.2775611877441 36.320125579834 36.3533821105957 36.3504104614258 36.3484306335449 36.3703384399414 36.3955841064453 36.4031829833984 36.3997650146484 36.3826065063477 36.3529434204102 36.3336334228516 36.3457565307617 36.3665313720703
-9999 -9999 -9999 -9999 -9999 35.5560445785522 35.5546417236328 35.5900955200195 35.593563079834 35.6247024536133 35.6477432250977 35.649486541748 35.6949920654297 35.7485504150391 35.7957077026367 35.8178253173828 35.8257293701172 35.8212852478027 35.8172073364258 35.823974609375 35.830738067627 35.8407745361328 35.865608215332 35.8883857727051 35.8964195251465 35.9162330627441 35.9536247253418 35.998363494873 36.0444030761719 36.0821990966797 36.1099967956543 36.1269607543945 36.1344451904297 36.1373519897461 36.1454048156738 36.1636238098145 36.1838073730469 36.1959915161133 36.1995468139648 36.194465637207 36.1841850280762 36.182014465332 36.1867179870605 36.1943283081055 36.1976356506348 36.2011337280273 36.2318458557129 36.2605094909668 36.2549629211426 36.2495994567871 36.2665672302246 36.2725715637207 36.2807350158691 36.2845497131348 36.2890090942383 36.3046226501465 36.2996368408203 36.3339538574219 36.373161315918 36.3618583679199 36.3547706604004 36.3724212646484 36.3968849182129 36.4318084716797 36.4624557495117 36.4503707885742 36.4117088317871 36.3650970458984 36.3543434143066 36.3717193603516
-9999 -9999 -9999 -9999 35.4443893432617 35.5780754089355 35.6470718383789 35.6628150939941 35.6556243896484 35.6575736999512 35.6532783508301 35.6668930053711 35.7506294250488 35.8085823059082 35.8271789550781 35.8274993896484 35.8251495361328 35.820556640625 35.8316078186035 35.8514213562012 35.8525123596191 35.855297088623 35.8754920959473 35.8934478759766 35.8954544067383 35.9155578613281 35.9435539245605 35.9786338806152 36.0195960998535 36.055534362793 36.0853652954102 36.0989265441895 36.102123260498 36.1078491210938 36.1202392578125 36.1337280273438 36.1518363952637 36.172061920166 36.1891326904297 36.1967544555664 36.1924247741699 36.1889190673828 36.191535949707 36.1945877075195 36.1918106079102 36.1873397827148 36.1999397277832 36.2254943847656 36.2365875244141 36.2512664794922 36.2622985839844 36.2668876647949 36.2844772338867 36.3059387207031 36.3159637451172 36.3218154907227 36.3175201416016 36.3481788635254 36.3812103271484 36.3525505065918 36.3277320861816 36.3243675231934 36.3542671203613 36.4336471557617 36.4936103820801 36.4946327209473 36.4359512329102 36.378604888916 36.3627777099609 36.391716003418
-9999 -9999 -9999 35.5901641845703 35.5837707519531 35.7093315124512 35.7057876586914 35.7095909118652 35.7028388977051 35.7133979797363 35.7027359008789 35.7777671813965 35.8389930725098 35.8479461669922 35.8435134887695 35.8388442993164 35.8330993652344 35.8334846496582 35.85791015625 35.8716583251953 35.8622283935547 35.8570747375488 35.8709945678711 35.8836631774902 35.8884162902832 35.9137420654297 35.9404640197754 35.9733581542969 36.0151824951172 36.0514602661133 36.0769958496094 36.0857429504395 36.0970916748047 36.1154289245605 36.1322631835938 36.1361885070801 36.1383018493652 36.1425514221191 36.1548500061035 36.1715507507324 36.1779670715332 36.178409576416 36.1824111938477 36.1843070983887 36.1825904846191 36.1796112060547 36.1833038330078 36.1981811523438 36.2124176025391 36.2301292419434 36.2328147888184 36.2496299743652 36.2998313903809 36.3418502807617 36.3624076843262 36.3623657226562 36.3414077758789 36.3535537719727 36.3598556518555 36.3123588562012 36.2803649902344 36.2635307312012 36.2914695739746 36.3932151794434 36.4701766967773 36.5058250427246 36.4606323242188 36.3664512634277 36.3504524230957 36.3766937255859
-9999 -9999 -9999 35.5993347167969 35.7331619262695 35.7236404418945 35.7196235656738 35.7310638427734 35.7580833435059 35.7834739685059 35.841480255127 35.8799209594727 35.8734664916992 35.8568115234375 35.8384552001953 35.8228530883789 35.8177223205566 35.8370590209961 35.8771705627441 35.8791656494141 35.8628730773926 35.8462829589844 35.848949432373 35.8659019470215 35.889461517334 35.924732208252 35.9538269042969 35.9897880554199 36.0215339660645 36.0465049743652 36.0752410888672 36.0918235778809 36.1088066101074 36.1218605041504 36.1240577697754 36.1223983764648 36.1252479553223 36.1285934448242 36.1373710632324 36.1522560119629 36.1602745056152 36.1617126464844 36.1671524047852 36.1704368591309 36.1674194335938 36.1650886535645 36.1714706420898 36.1837463378906 36.1950607299805 36.2136344909668 36.2318534851074 36.2929916381836 36.3591270446777 36.403507232666 36.4300689697266 36.4077911376953 36.367862701416 36.3447074890137 36.3173294067383 36.2642974853516 36.2327880859375 36.2098045349121 36.243034362793 36.3496894836426 36.4316291809082 36.4671440124512 36.4659385681152 36.3775939941406 36.3439025878906 36.3771133422852
