NCOLS 35 
NROWS 26 
XLLCORNER -80 
YLLCORNER 33 
CELLSIZE 0.5 
NODATA_value -9999 
-9999.000000000000000 -9999 -9999 -9999 -9999 -9999 -9999 -9999 -9999 -9999 -9999 -9999 -9999 -9999 -9999 -9999 -9999 -9999 -9999 -9999 -9999 -9999 -9999 -9999 -9999 -9999 -9999 -9999 -9999 -9999 -9999 -9999 -9999 -9999 -9999
-9999 -9999 -9999 -9999 -9999 -9999 -9999 -9999 -9999 -9999 -9999 -9999 -9999 -9999 -9999 -9999 -9999 -9999 -9999 -9999 -9999 -9999 -9999 -9999 -9999 -9999 -9999 -9999 -9999 28.4607355558354 -9999 -9999 -9999 -9999 -9999
-9999 -9999 -9999 -9999 -9999 -9999 -9999 -9999 -9999 -9999 -9999 -9999 -9999 -9999 -9999 -9999 -9999 -9999 -9999 -9999 -9999 -9999 -9999 -9999 -9999 -9999 29.1664937731475 29.1296459128863 28.9309418765457 28.6113638865754 -9999 -9999 -9999 -9999 -9999
-9999 -9999 -9999 -9999 -9999 -9999 -9999 -9999 -9999 -9999 -9999 -9999 -9999 -9999 -9999 -9999 -9999 -9999 -9999 -9999 -9999 -9999 -9999 31.2181912236038 31.3403897568668 31.1875100585834 30.7175591348125 30.3139123122123 -9999 -9999 -9999 31.0232447396565 30.878294542586 30.6427744126609 30.5958295468748
-9999 -9999 -9999 -9999 -9999 -9999 -9999 -9999 -9999 -9999 -9999 -9999 -9999 -9999 -9999 -9999 -9999 -9999 -9999 -9999 31.290260785059 31.5942744203453 31.643327762462 31.6469539900129 31.6273318029934 31.6019446515779 31.3196492668766 30.9598580660594 -9999 -9999 31.2123367079815 31.1091992491101 30.9840739037422 30.8153442673748 30.9230664294471
-9999 -9999 -9999 -9999 -9999 -9999 -9999 -9999 -9999 -9999 -9999 -9999 -9999 -9999 -9999 -9999 -9999 -9999 -9999 31.7688918929683 31.9998700029331 32.1663494069763 32.0055155368123 31.8065359686366 31.6949055485611 31.7641662446473 31.584077790772 31.2500088212639 31.1794005015815 31.2086994967575 31.1729847690611 31.117350354027 31.0391623553863 31.005997424337 31.2917409364562
-9999 -9999 -9999 -9999 -9999 -9999 -9999 -9999 -9999 -9999 -9999 -9999 -9999 -9999 -9999 -9999 -9999 -9999 -9999 31.800034918437 32.2060546853335 32.5476194125941 32.5650368316711 32.4305034118486 32.0074944615997 31.8788703843595 31.6777290446098 31.4966119801359 31.329225960385 31.2816930505766 31.4228178057522 31.6540852392353 31.4192986553907 31.2989066757671 31.741110756988
-9999 -9999 -9999 -9999 -9999 -9999 -9999 -9999 -9999 -9999 -9999 -9999 -9999 -9999 -9999 -9999 -9999 -9999 -9999 31.7563872018126 32.1711376938016 32.5219658848963 32.5843730507183 32.589677751201 32.4444104108702 32.376763438319 32.2588599728341 32.0361235225051 31.4779424597266 32.2463014921712 33.1337204135584 33.422449853959 32.7792958102015 32.2743683793275 32.5999798140079
-9999 -9999 -9999 -9999 -9999 -9999 -9999 -9999 -9999 -9999 -9999 -9999 -9999 -9999 -9999 -9999 -9999 -9999 -9999 31.8403646490848 32.00425548488 32.2429620093054 32.5413555079813 32.778826049182 32.856237102914 32.8463435427647 32.6862568596151 32.3077970935918 32.4023578084015 34.1593270330405 35.1163100031563 34.6894222898698 33.9606129477261 33.4646790506088 33.2386960010006
-9999 -9999 -9999 -9999 -9999 -9999 -9999 -9999 -9999 -9999 -9999 -9999 -9999 -9999 -9999 -9999 -9999 31.5313225852125 32.1237760715407 32.4268873430549 32.3127426981703 32.2129101432942 32.6035287075074 32.9399291288191 32.9703727787106 32.8148007047002 32.4786446903684 32.6829443886485 33.6485466121797 35.4611550905457 36.2220957628607 35.5805294864782 35.1206708379106 35.0476134916871 35.0746905864474
-9999 -9999 -9999 -9999 -9999 -9999 -9999 -9999 -9999 -9999 -9999 -9999 -9999 -9999 30.7698076697596 31.1173996043704 31.4228491626822 32.3343863952532 32.9063136748138 32.8411568328762 32.6622861560651 32.6673972122456 33.0573585620347 33.2005616612404 33.2025239531048 33.6823749955022 34.8626518261256 35.9045518995064 36.2288314702148 36.2220109039653 36.5103157654965 36.1169779859939 35.5781209321758 35.4511678231454 35.7534763207261
-9999 -9999 -9999 -9999 -9999 -9999 -9999 -9999 -9999 -9999 -9999 -9999 31.0154580824481 31.1408659843448 31.5559619291215 32.1596834240198 33.0949989043837 33.9934024769627 34.2891141713465 33.9340099013329 33.7323022614634 33.8530189902229 34.2830398799098 34.6787222965536 34.9007400178752 35.4859852691028 36.190017872947 36.4080385079515 36.5958105512793 36.5850549753732 36.6087979343788 36.3403444872613 36.0912689494872 35.806929117094 35.7703412501472
-9999 -9999 -9999 -9999 -9999 -9999 -9999 -9999 -9999 -9999 -9999 -9999 31.5245680415051 31.6807550587857 32.474283832809 33.8175786366705 34.9463584687199 35.5536749823234 35.6863880877532 35.5336952452908 35.511695149396 35.6210695902772 35.8791836937132 36.029893705019 36.0242175775079 36.0890124846796 36.2874622515313 36.4644450976165 36.7318607329725 36.738818631173 36.5620651836683 36.2949784506485 36.2365608387729 36.2129821109338 36.0991727873333
-9999 -9999 -9999 -9999 -9999 -9999 -9999 -9999 -9999 30.402917724761 31.5685191233118 31.9593749189661 32.0532267994728 32.7274388152901 34.0945004080825 35.3269109057044 35.7821620119117 35.9137642368904 35.8878591347227 35.9062837504658 36.0049447309839 36.1401920786821 36.232399341532 36.3292377325194 36.3817110872965 36.3349804011129 36.3181555589277 36.4476925822865 36.5810056977098 36.5384159345966 36.3228071820889 36.1841228760765 36.2028030880252 36.2281649526758 36.3063380220641
-9999 -9999 -9999 -9999 -9999 -9999 -9999 -9999 -9999 -9999 32.1347082671159 32.3269861476913 32.790711812018 33.9423797212693 35.3537011197685 35.6956527291672 35.7840202376712 35.8456003948143 35.8398433134356 35.8492208934566 35.9472969407957 36.0716614752206 36.1705606584063 36.302203036353 36.3607352837989 36.3307093658988 36.2885796247116 36.2803780670679 36.2805889667366 36.2663931901762 36.2585487742155 36.2143303878273 36.2705803243065 36.3427809777378 36.4249725742052
-9999 -9999 -9999 -9999 -9999 -9999 -9999 11.6269453307726 13.9253514408691 -9999 31.8712039536874 32.6200915855149 33.6400881772237 34.9328538901176 35.7413819977502 35.8178500577113 35.845709956934 35.8775513491923 35.8948650053372 35.92821714296 35.993855630026 36.0730760316093 36.113848776329 36.1600306914197 36.2083697942713 36.241949110337 36.2514250444713 36.2618257444421 36.2809665041742 36.3100014102793 36.3111094347347 36.3003541687088 36.3550570206629 36.4023111415399 36.4301813674213
-9999 -9999 -9999 -9999 -9999 -9999 -9999 15.0673008920989 19.0057108109543 29.9206535248258 30.9802866103787 32.5950350763258 34.4942237195252 35.4999349846472 35.8748117690021 35.9117494666044 36.0727374237165 36.2110905804256 36.2759337041593 36.3038959067916 36.30822857598 36.282372055255 36.2121297725628 36.1030726383256 36.1031365085353 36.1453859426459 36.2277286104302 36.3405313235884 36.4146129018428 36.3977997693749 36.3557010041393 36.335299092157 36.3819996730048 36.4403614809474 36.4334333916171
-9999 -9999 -9999 -9999 -9999 -9999 -9999 20.6198410531429 -9999 30.213014093883 30.8984149337446 33.2117893833049 34.6662285875703 35.4201022140803 35.9832213125421 36.2335561137726 36.3684946423261 36.4188550055099 36.4282889273945 36.422977499425 36.4155831664172 36.4068466696082 36.3660139503162 36.2432541918018 36.2045265655105 36.228518118233 36.2903357603556 36.3889824152842 36.4257589362539 36.4316091064646 36.4084395949467 36.4146201632358 36.4417301710347 36.4567511868712 36.4503117612557
-9999 -9999 -9999 -9999 -9999 -9999 -9999 -9999 32.1248104786439 32.0648775228345 32.7123532048484 34.5183989950161 35.2016605765733 35.8023422575636 36.2384556022309 36.3833907750805 36.4096185336862 36.4189754831948 36.4212301504287 36.416860385489 36.4238285352257 36.4397989020735 36.4410379240447 36.4073016932059 36.3518410257474 36.3516778315395 36.3703683272198 36.4148120274034 36.4275035271819 36.4460553548041 36.4485098317498 36.4376091084712 36.4261261242278 36.4310133382087 36.4260475756211
-9999 -9999 -9999 -9999 -9999 -9999 -9999 -9999 -9999 34.8214928284186 34.832176974915 35.1142704572066 35.6835234594798 36.1240824186499 36.331687875166 36.4097576055277 36.3870034408623 36.386123199854 36.4297403756306 36.4161733635361 36.4236547930161 36.4545528829646 36.4848358418367 36.4902922025429 36.4749431710839 36.4611717547327 36.4710012260122 36.475226435169 36.4771095143977 36.4713009700924 36.4480199687582 36.4362405739948 36.4528646513394 36.4646879404389 36.4473597400444
-9999 -9999 -9999 -9999 -9999 -9999 -9999 -9999 -9999 35.4475325383218 35.8492463988817 35.9767181669618 36.2257929025351 36.3399919039034 36.3729774907519 36.3775470104031 36.3594992600198 36.3614425995545 36.4188891634354 36.4311296278151 36.4466453171652 36.4884755074443 36.5256465207282 36.5331379804014 36.5320622331265 36.514575353922 36.5045913664231 36.4986469899335 36.480893545299 36.4743809705054 36.457275694743 36.4534165883084 36.4535712520899 36.4594953964845 36.4746389424597
-9999 -9999 -9999 -9999 -9999 -9999 -9999 35.2537653928486 35.5767709869566 35.8487859465762 36.1795813838195 36.3083869422268 36.3479165077506 36.3896575544698 36.4022839257368 36.3774036377994 36.3819355197442 36.4056114279078 36.4377417975844 36.4377405137948 36.4682754737251 36.5154901512732 36.5497415479661 36.552732807261 36.5381444781563 36.5253875775475 36.5271011174013 36.5279376626113 36.5181268445131 36.5072221705968 36.5069774980053 36.5185066624547 36.5171668757435 36.5025560367228 36.497485055705
-9999 -9999 -9999 -9999 -9999 -9999 35.2221375157339 35.4949604365784 35.9659835327898 36.2120797825736 36.3175257132346 36.3781959801345 36.4356372680024 36.4528258894787 36.4381382699127 36.4219128058871 36.4257331196071 36.4458185781223 36.4666075117561 36.4652303489257 36.4946946551538 36.5357437137873 36.5604179622124 36.5695696113604 36.5702982256819 36.5565323254675 36.5496601071438 36.5436162483623 36.5379354324032 36.5423212842864 36.5697639035941 36.5810860023046 36.5727288941658 36.5730325030296 36.5768061804428
-9999 -9999 -9999 -9999 34.9608899441891 35.4030195729908 35.738718143241 35.9737834196059 36.2152872631603 36.2986319736716 36.3640112438964 36.458388372768 36.4943455904794 36.4688713627136 36.4633133518951 36.4630637775615 36.4579462809694 36.4493547812878 36.4692991423374 36.4892555511555 36.5053468356914 36.5339657631102 36.5478264276563 36.5595366386356 36.5977379715546 36.6160887660416 36.6024633810935 36.5928343674573 36.62564848321 36.6571076629974 36.6573158824032 36.6116961048417 36.5885736884144 36.5987483783654 36.597250366262
-9999 -9999 -9999 35.0656300783126 35.3556171160602 35.8362580432143 36.1321487491135 36.2364931882924 36.2864996199379 36.3449008564532 36.4192068416674 36.5140322223813 36.4893091644631 36.448700897741 36.4444822470454 36.4416487597248 36.4255066279984 36.4260052575157 36.4598484600898 36.492257837358 36.5163450907602 36.5352746275286 36.5285614944812 36.5692853062923 36.6672880582328 36.710411789285 36.7112884284384 36.6995386533975 36.7014269429071 36.6876208696024 36.6276817067977 36.5883774188496 36.5955897260523 36.5951623783828 36.5930001050979
-9999 -9999 35.3231539219305 35.7581153266635 35.9306160399988 36.0693264698552 36.2379521313378 36.2971204274477 36.3461455032204 36.3978340627892 36.4833328736615 36.5414671859029 36.5043839331205 36.4588389245657 36.4382157788778 36.4225573366846 36.4129117531746 36.4266032324946 36.4594818710836 36.5058590147561 36.522915217426 36.5087379686192 36.5008733520882 36.5481327006853 36.6861009539288 36.7286073009008 36.7425728974727 36.6990988213101 36.6462961845601 36.5965327097622 36.5820295708967 36.587927383519 36.5867010995042 36.5866031022227 36.5999696606983
