NCOLS 35 
NROWS 26 
XLLCORNER -80 
YLLCORNER 33 
CELLSIZE 0.5 
NODATA_value -9999 
-9999.000000000000000 -9999 -9999 -9999 -9999 -9999 -9999 -9999 -9999 -9999 -9999 -9999 -9999 -9999 -9999 -9999 -9999 -9999 -9999 -9999 -9999 -9999 -9999 -9999 -9999 -9999 -9999 -9999 -9999 -9999 -9999 -9999 -9999 -9999 -9999
-9999 -9999 -9999 -9999 -9999 -9999 -9999 -9999 -9999 -9999 -9999 -9999 -9999 -9999 -9999 -9999 -9999 -9999 -9999 -9999 -9999 -9999 -9999 -9999 -9999 -9999 -9999 -9999 -9999 31.1255685253109 -9999 -9999 -9999 -9999 -9999
-9999 -9999 -9999 -9999 -9999 -9999 -9999 -9999 -9999 -9999 -9999 -9999 -9999 -9999 -9999 -9999 -9999 -9999 -9999 -9999 -9999 -9999 -9999 -9999 -9999 -9999 31.2551385106572 31.3512254231047 31.4679653033432 31.4817166906946 -9999 -9999 -9999 -9999 -9999
-9999 -9999 -9999 -9999 -9999 -9999 -9999 -9999 -9999 -9999 -9999 -9999 -9999 -9999 -9999 -9999 -9999 -9999 -9999 -9999 -9999 -9999 -9999 31.7046685162293 31.7577760115153 31.6821569135975 31.4209752233159 31.3749256682703 -9999 -9999 -9999 30.1370923888985 30.3059712233394 30.6544144519358 30.7210975019689
-9999 -9999 -9999 -9999 -9999 -9999 -9999 -9999 -9999 -9999 -9999 -9999 -9999 -9999 -9999 -9999 -9999 -9999 -9999 -9999 31.9848459544675 32.0590604054492 32.033746034951 32.037998363942 32.0733749933117 31.8909433323055 31.3703727520297 30.9122760613969 -9999 -9999 30.3404458561687 30.5552146361442 30.9264006014215 31.2761824876561 31.3021586852067
-9999 -9999 -9999 -9999 -9999 -9999 -9999 -9999 -9999 -9999 -9999 -9999 -9999 -9999 -9999 -9999 -9999 -9999 -9999 32.3341594890127 32.611306988852 32.7596689409192 32.8767581658647 32.8779729715663 32.6085771262918 32.1603646883709 31.5761315046976 30.9690440341843 30.6544907956082 30.7506111578371 30.947942900894 31.0288136978582 31.2405853427462 31.5847620466077 31.7799021904398
-9999 -9999 -9999 -9999 -9999 -9999 -9999 -9999 -9999 -9999 -9999 -9999 -9999 -9999 -9999 -9999 -9999 -9999 -9999 32.6436652949037 33.0543370417931 33.2914039163462 33.4309257696489 33.3685951844927 32.99731116651 32.7493347967868 32.4045726016936 32.090929781901 31.9022244034074 32.0228151893211 32.3292903447891 32.6746150396094 32.7440290231258 32.688177482647 32.8994428060119
-9999 -9999 -9999 -9999 -9999 -9999 -9999 -9999 -9999 -9999 -9999 -9999 -9999 -9999 -9999 -9999 -9999 -9999 -9999 32.5337171097194 33.0857438667495 33.4510576162985 33.5205289652223 33.4625864225747 33.2873471827762 33.2523332901796 33.2055437602854 32.9883564536388 33.1550870256855 33.8873703964067 34.5385969011592 34.8671335986901 34.5901801175407 34.0906921179844 33.9418450034469
-9999 -9999 -9999 -9999 -9999 -9999 -9999 -9999 -9999 -9999 -9999 -9999 -9999 -9999 -9999 -9999 -9999 -9999 -9999 32.3657843963824 32.7823739070299 33.2318584369475 33.3162118908431 33.1216258974104 33.0276662657725 33.1003914901248 33.1632331228133 33.2326868622218 33.9487407887673 34.8748509650899 35.4170866499786 35.5120866113228 35.2793162653356 34.7467604037122 34.4386436676821
-9999 -9999 -9999 -9999 -9999 -9999 -9999 -9999 -9999 -9999 -9999 -9999 -9999 -9999 -9999 -9999 -9999 32.0349420500891 32.3688171710252 32.577858133469 32.7035138960286 32.9450545857116 33.0297929564876 32.8782066668847 32.9925158353769 33.2061362472985 33.3646829597541 33.7636703123109 34.6147320048529 35.2398755938578 35.5212492189632 35.5473195168164 35.5290095809123 35.3904648618669 35.2348708225785
-9999 -9999 -9999 -9999 -9999 -9999 -9999 -9999 -9999 -9999 -9999 -9999 -9999 -9999 30.781043316863 31.7473037866429 32.2568409286153 32.8406162085484 32.9889644869819 32.9730083464547 32.9811329491615 33.0827967068612 33.2588964130152 33.4805880987284 33.7631472907912 33.963349392894 34.0229637072939 34.4826030625966 35.1531111522278 35.5475049217918 35.7346829756567 35.8101587896677 35.8619696177878 35.8400659509925 35.8125038721778
-9999 -9999 -9999 -9999 -9999 -9999 -9999 -9999 -9999 -9999 -9999 -9999 31.2861022453573 31.9072063468416 32.3611445695775 32.7442503326245 33.1941865176668 33.6261031071598 33.8031037854449 33.8228286399354 33.8263690445941 33.9627243791864 34.277754543589 34.6193835045985 34.6175296869192 34.3752451506724 34.4787158066938 34.9318504187219 35.4076600927804 35.7509633179989 36.0179416090289 36.1221773634115 36.1658458773575 36.1480593211464 36.12132591712
-9999 -9999 -9999 -9999 -9999 -9999 -9999 -9999 -9999 -9999 -9999 -9999 31.9259816360008 32.6262594165184 32.8901333419625 33.6385663029996 34.5660269508654 35.0678510651852 35.2377580305246 35.2473080501851 35.228294113305 35.2584083967107 35.2187921586201 34.9832308111018 34.7386581861643 34.6684913841301 34.9432224805921 35.3447887639055 35.6543216795065 35.9437921898049 36.1803095178937 36.2952417549577 36.3495148727619 36.3411774373239 36.2764800887719
-9999 -9999 -9999 -9999 -9999 -9999 -9999 -9999 -9999 29.3608859364588 30.4852790915485 31.5669268995637 32.5203833492657 32.9315800587862 33.7915381020775 34.9995054736476 35.3635390141565 35.4763562447348 35.4961707109594 35.4727934844295 35.4345605531154 35.4009348717203 35.2857457506366 35.161433308289 35.1539957369254 35.3660177046888 35.62743153644 35.7516828881098 35.9126770884369 36.1928878121119 36.4552268443369 36.6018796619475 36.6497257386144 36.6191786410369 36.542656385569
-9999 -9999 -9999 -9999 -9999 -9999 -9999 -9999 -9999 -9999 31.4778041592321 32.6280452979836 33.1376436115457 33.8544176434498 35.192600736492 35.3508537535688 35.392779702211 35.4644653883261 35.515494516016 35.5714963001228 35.6344945511188 35.5616154437223 35.4121720431203 35.3608708003269 35.6307642676724 35.7718222684714 35.7079144894299 35.7444409598431 36.0501193595299 36.4779939555577 36.6758728572571 36.7307377859721 36.7099168447939 36.6996852683414 36.7089888245439
-9999 -9999 -9999 -9999 -9999 -9999 -9999 12.7735558838158 14.4437193155301 -9999 32.2091474847398 33.3397646813029 34.1137974869736 34.986606394346 35.2849315221704 35.3547860454012 35.5633556775461 35.8079563768294 36.0261568617699 36.1943959603848 36.2462907553209 36.1612855709425 35.9432154235131 35.8856735345649 35.8628283093746 35.6960445667064 35.6991143303394 35.8569571974298 36.3369938232186 36.6671865221458 36.7125588489252 36.6801258335624 36.6520003334288 36.6651103969118 36.6704178152187
-9999 -9999 -9999 -9999 -9999 -9999 -9999 14.9852580250721 19.692986011728 31.4310326095876 32.9417224058245 34.0342552928608 34.8578614181982 35.1633950206371 35.2692565409573 35.6491353854745 36.2242864230545 36.5461685079537 36.6574710076513 36.6902091517668 36.6939553625214 36.6617301775372 36.5187230581381 36.3036254980417 36.1407948373536 35.9734805957955 36.0036178961939 36.2527952638377 36.6036017577157 36.7184000245598 36.6992140719458 36.6711660405332 36.6667161842929 36.6830619368557 36.6761765962437
-9999 -9999 -9999 -9999 -9999 -9999 -9999 18.7551516159271 -9999 32.462832583791 33.6064097008195 34.5975048750543 35.0656501440649 35.1791252866332 35.5114389079418 36.2038052756313 36.6272376081556 36.7138734454576 36.7169006334223 36.7209316590048 36.7208694750265 36.7236265372921 36.7211272927114 36.6712429713235 36.5664171633597 36.5229842469407 36.5569194946809 36.6517610683147 36.7189557028969 36.734687256707 36.6790436297782 36.5993569643953 36.587517426034 36.6696486508531 36.6945558661769
-9999 -9999 -9999 -9999 -9999 -9999 -9999 -9999 29.7958958779744 32.8091181421434 33.8405166139829 34.8012207294315 35.1964919819353 35.5536681783726 36.1217344157531 36.6210429490347 36.7115591765809 36.7021737288211 36.7055774306796 36.7054834229387 36.7049117542441 36.7190644789134 36.7367505427034 36.7424146895197 36.7430400506688 36.7456053547431 36.7430165198919 36.7383851543136 36.7371130650344 36.7511087246857 36.6822801076441 36.5523211051905 36.5479056885851 36.6654020908129 36.7057103532091
-9999 -9999 -9999 -9999 -9999 -9999 -9999 -9999 -9999 33.0160052707526 34.1100707101375 35.3541737220277 36.1344666989919 36.4851052069206 36.698911850165 36.7210683054631 36.7065465348799 36.6851856709644 36.6902746760127 36.6920140217814 36.6904019643558 36.6923604853398 36.7045780038248 36.7215207292863 36.7355227783732 36.7361660911132 36.726611896789 36.7384134392706 36.7496981725938 36.7545862263367 36.7308620962453 36.6832641035356 36.6747529621076 36.704376529345 36.7060875364978
-9999 -9999 -9999 -9999 -9999 -9999 -9999 -9999 -9999 32.5678293694803 34.9423703353933 36.4078038695776 36.6623480733893 36.7098007081154 36.7198203720872 36.7105363933408 36.6952193627188 36.6876033003313 36.6981551158877 36.7012032844893 36.6956566855811 36.6950243688948 36.7036855889497 36.7169969565454 36.7215414604092 36.7172119731946 36.7227186780389 36.7359287563787 36.7479697598295 36.7479726319231 36.7348170240921 36.7279372573002 36.7243049939403 36.7108204488949 36.6942730944124
-9999 -9999 -9999 -9999 -9999 -9999 -9999 32.4251256389872 32.129754886032 34.0029066898715 36.1568425213359 36.6933285941672 36.7318947258968 36.7212996411306 36.7101860757306 36.6911320261266 36.6871257641346 36.6956484019857 36.7076846217439 36.7056245485752 36.7047750031509 36.7077759451975 36.712920516738 36.7180404239569 36.7194475901711 36.7240167355514 36.7247170219887 36.722576036538 36.7213882856627 36.7239129243262 36.7216457196863 36.7133365732297 36.7112851203661 36.7142122653031 36.6982267907871
-9999 -9999 -9999 -9999 -9999 -9999 34.9862688025533 34.5593589951272 35.3495487123482 36.3057246885615 36.6627869161405 36.7349662092981 36.7347074257527 36.7099233710598 36.6915794127189 36.6934015421244 36.6948529420674 36.7018202775301 36.7027559012488 36.703146377193 36.7095451830078 36.7138051846069 36.7159386430529 36.7194623772274 36.7160900282745 36.7149311163845 36.7146203775921 36.7140761420192 36.7190308656259 36.7236699674786 36.7207978537861 36.707263371069 36.6985607665738 36.7095244639582 36.710207622469
-9999 -9999 -9999 -9999 35.2183414824008 35.9559225145608 36.1301387437978 36.233661447103 36.4845173251841 36.6291828780699 36.7078667736475 36.7420624442129 36.7399947407461 36.7121163010258 36.6968315770968 36.6895174185609 36.6874513852279 36.7061507131661 36.715768335014 36.7146433959263 36.7180704930729 36.7148330211756 36.7159221697652 36.7090580552796 36.7028814014085 36.7020872507678 36.7027332196243 36.7071052784827 36.7248922679895 36.7405076126816 36.7273498880063 36.7192338479213 36.7161141680801 36.7190237075263 36.7273695271702
-9999 -9999 -9999 35.0715934795714 35.6052922868738 36.1961695606652 36.4281183389877 36.5011620907244 36.5964737714778 36.6837012144451 36.7316565339611 36.7478246956284 36.7513506445747 36.7194492120119 36.6987148012045 36.6930120266748 36.6972522978899 36.7162141212291 36.738330601975 36.7333977202307 36.7140101227698 36.7101177182939 36.7130316242344 36.7064941731666 36.7087055913127 36.7107839018061 36.7071645850015 36.7085457320065 36.7396415040908 36.7426294164107 36.7275789646334 36.7249619467771 36.7243045579615 36.7235942936484 36.7230964784053
-9999 -9999 35.2401435577149 36.0350364078877 36.2671728918117 36.4027777789397 36.4811865491485 36.5679361735391 36.6386138936534 36.7171113721142 36.7524450430187 36.7539160640157 36.7494225119773 36.7235473105708 36.7058392674174 36.7065464865869 36.7168327280619 36.7325931939676 36.7485047305195 36.7514619895119 36.7301698760847 36.7150167620538 36.7119929955159 36.7094868604594 36.7051959955923 36.7071075764258 36.7084753247991 36.7047392689946 36.726675257239 36.7276127342025 36.7222221921955 36.723840574666 36.7235695649362 36.7198255488313 36.7198148619871
