NCOLS 35 
NROWS 26 
XLLCORNER -80 
YLLCORNER 33 
CELLSIZE 0.5 
NODATA_value -9999 
-9999.000000000000000 -9999 -9999 -9999 -9999 -9999 -9999 -9999 -9999 -9999 -9999 -9999 -9999 -9999 -9999 -9999 -9999 -9999 -9999 -9999 -9999 -9999 -9999 -9999 -9999 -9999 -9999 -9999 -9999 -9999 -9999 -9999 -9999 -9999 -9999
-9999 -9999 -9999 -9999 -9999 -9999 -9999 -9999 -9999 -9999 -9999 -9999 -9999 -9999 -9999 -9999 -9999 -9999 -9999 -9999 -9999 -9999 -9999 -9999 -9999 -9999 -9999 -9999 -9999 30.7409485134742 -9999 -9999 -9999 -9999 -9999
-9999 -9999 -9999 -9999 -9999 -9999 -9999 -9999 -9999 -9999 -9999 -9999 -9999 -9999 -9999 -9999 -9999 -9999 -9999 -9999 -9999 -9999 -9999 -9999 -9999 -9999 31.2763758826107 31.1689239034191 30.9138345900649 30.6630424411545 -9999 -9999 -9999 -9999 -9999
-9999 -9999 -9999 -9999 -9999 -9999 -9999 -9999 -9999 -9999 -9999 -9999 -9999 -9999 -9999 -9999 -9999 -9999 -9999 -9999 -9999 -9999 -9999 31.5096223282448 31.5334409873524 31.4234216323639 31.2936447484526 31.3648151728302 -9999 -9999 -9999 31.0786861506009 30.8284999631582 30.575106320854 30.4931055432034
-9999 -9999 -9999 -9999 -9999 -9999 -9999 -9999 -9999 -9999 -9999 -9999 -9999 -9999 -9999 -9999 -9999 -9999 -9999 -9999 31.6296920298682 31.6782612747853 31.6525901812672 31.5100624941363 31.4491819197166 31.3709614077962 31.2762595928379 31.4343352278418 -9999 -9999 31.206378947334 30.8486377888432 30.6294651631018 30.7773726026724 31.1347795056264
-9999 -9999 -9999 -9999 -9999 -9999 -9999 -9999 -9999 -9999 -9999 -9999 -9999 -9999 -9999 -9999 -9999 -9999 -9999 31.5146069514912 31.4132820781444 31.3474489876231 31.4265007620331 31.5597634085614 31.6405741692455 31.3960298990215 31.2623342290518 31.3640683765198 31.2854637405296 31.1394846374603 30.9822765446346 30.8456011976474 30.9059850466593 31.3997954175963 31.8399350926908
-9999 -9999 -9999 -9999 -9999 -9999 -9999 -9999 -9999 -9999 -9999 -9999 -9999 -9999 -9999 -9999 -9999 -9999 -9999 31.4747311331369 31.5216101795206 31.4939934745862 31.4968796710617 31.55627578818 31.6058324239478 31.3693056746945 31.3486313900458 31.240487133512 31.0970152608119 31.029159447753 31.1147086718492 31.2657036361545 31.8341639593829 32.5118029945413 32.725133985017
-9999 -9999 -9999 -9999 -9999 -9999 -9999 -9999 -9999 -9999 -9999 -9999 -9999 -9999 -9999 -9999 -9999 -9999 -9999 31.3842775902883 31.5826579662441 31.588817002726 31.6253915381147 31.6361603194805 31.6105636004788 31.5596953355169 31.5846083728333 31.515185679133 31.3921420515292 31.3346597481261 31.4760696092291 31.943826287065 32.7459116797905 33.2128717507487 33.8859755797924
-9999 -9999 -9999 -9999 -9999 -9999 -9999 -9999 -9999 -9999 -9999 -9999 -9999 -9999 -9999 -9999 -9999 -9999 -9999 31.0238860343748 31.5627450778836 31.7067404829872 31.7967543637947 31.8125331012326 31.7560362639754 31.7756886252681 31.8770206756117 31.7973617894505 31.7557371222165 31.926881356222 32.7805093119914 33.6499193763203 34.1727771625975 34.4830014196943 34.6430473341397
-9999 -9999 -9999 -9999 -9999 -9999 -9999 -9999 -9999 -9999 -9999 -9999 -9999 -9999 -9999 -9999 -9999 30.8914497114066 30.9909521383485 30.9573334713732 31.3280676750849 31.7963481563973 31.9491044129687 31.9769997726872 31.9188229511804 31.9654860163959 32.1243592581219 32.0641071041917 32.3049836465355 33.2191667118016 34.208358416419 34.6192230698005 35.0146056095582 35.2908560783973 35.3218764623851
-9999 -9999 -9999 -9999 -9999 -9999 -9999 -9999 -9999 -9999 -9999 -9999 -9999 -9999 30.5080858618837 31.0984444494226 31.2546335452096 31.4185114187017 31.428246819191 31.3111663513809 31.4454371201915 31.7322581798422 31.8844343835132 32.0624640936194 32.1839686157792 32.2836976180296 32.3615848946563 32.5258126055112 33.1741468382572 33.8363817154675 34.5482546987803 35.2065189462029 35.6200537934281 35.8504471177759 35.8022209025553
-9999 -9999 -9999 -9999 -9999 -9999 -9999 -9999 -9999 -9999 -9999 -9999 31.1228051504236 31.5574333720118 31.8086191983113 31.9259681324185 32.0182299824854 32.0254149397377 32.0112491035118 31.8679279211503 31.951443292508 32.1838292501552 32.4291292297711 32.5885578426369 32.7161872686661 32.7283946161032 32.9772573077314 33.3665543118263 33.7871599569563 34.3639683776497 35.3578719321975 36.0802535892969 36.6276756057788 36.7776403899621 36.5229733421072
-9999 -9999 -9999 -9999 -9999 -9999 -9999 -9999 -9999 -9999 -9999 -9999 31.4372059970365 31.9381297959946 32.1700696025461 32.5150741280192 33.0249329408707 33.3876453719962 33.4766877044396 33.6045192032455 33.8641248770318 34.0423797815424 34.1301308926195 33.773421170593 33.4843448655336 33.4016326152462 33.5794947767233 33.8633126621165 34.2358925456449 35.0428061677859 35.7428981116895 36.2858208319459 36.7045255924769 36.8069656444709 36.4803132737385
-9999 -9999 -9999 -9999 -9999 -9999 -9999 -9999 -9999 30.0399805962115 30.6580430964489 31.2512227872035 31.8142174372204 32.1284426172469 32.7077821317716 33.8157870552868 34.2288179567375 34.2760109171801 34.3546045276042 34.4781237140737 35.0755315290057 35.3047012905165 35.2646994822483 35.0408764187136 34.8642793480513 34.5728363278891 34.5553727983626 34.4089153770179 34.8516658026071 35.5114003365703 35.6817559897308 35.8562816477535 36.078909469628 36.1682599263331 36.033006352859
-9999 -9999 -9999 -9999 -9999 -9999 -9999 -9999 -9999 -9999 31.308778221004 31.9688813944148 32.220304102031 32.745798065081 34.2965587304427 34.6045478950789 34.7511036329756 34.9461253609666 35.0304848810029 34.5934541687222 35.1933680268199 35.3733634200342 35.436528141115 35.46854798147 35.5652435726627 35.624633716202 35.6018354358574 35.2013727434313 35.1650993874989 35.6607627886706 35.6955273014471 35.612684539257 35.6873231882975 35.8164714179192 35.8854468511255
-9999 -9999 -9999 -9999 -9999 -9999 -9999 13.0193275960811 14.7397315743049 -9999 31.4641285991715 32.2748465205285 32.9493478625471 34.167125498187 34.6962774620968 34.698647826006 34.846093792177 35.0805345577116 35.2348825618083 35.3260291931004 35.4023472119957 35.5771273796311 35.6667935815057 35.8387641963806 36.1321091005392 36.3405537691136 36.3678734437676 36.1475345905901 35.6651339822789 35.6110960394378 35.7766860348466 35.8860610364635 36.0489024436914 36.192237553225 36.343683873541
-9999 -9999 -9999 -9999 -9999 -9999 -9999 15.3795960983564 19.1318370103232 29.9594667719691 31.8265793384383 32.8820372683607 34.0000768682715 34.6257641549186 34.5464942905449 34.6463897521483 34.911422254114 35.4197347376897 35.7463964075126 36.0213694949616 36.1475901396432 36.2113888408367 36.2904568618256 36.3825332935023 36.4655244360145 36.5270124688448 36.5407323940985 36.5240973072855 36.4197049413028 36.1819816102579 36.2126820153876 36.3186505691509 36.4408478574508 36.5487341621524 36.5981825169072
-9999 -9999 -9999 -9999 -9999 -9999 -9999 19.6343433826901 -9999 31.0138536372108 32.5294709900323 33.6076080587214 34.4964804459199 34.617288643012 34.5488087432033 34.9929331348929 35.4025390734804 36.0122909440158 36.268368403108 36.433402561886 36.4964300247968 36.5279240734904 36.5361167774126 36.5451221389362 36.5704470621049 36.5754197346196 36.5580814651291 36.5508678151121 36.545378648685 36.515076646263 36.4936272384259 36.555627508675 36.6371204003016 36.6666989530729 36.6482364487681
-9999 -9999 -9999 -9999 -9999 -9999 -9999 -9999 29.6680149754029 31.8792783839647 32.922797211404 33.9253940834298 34.5012569280167 34.754751044248 35.2168478572493 35.7660189840815 36.1962456758399 36.4313136000974 36.4949022440673 36.5388180411112 36.5691123193319 36.5771776436909 36.5719051694127 36.5942461255334 36.6015049979449 36.6043604398117 36.6160033879962 36.606024198946 36.5830797678072 36.5840377082697 36.6312436233166 36.6699795747889 36.6802769062208 36.6739460969864 36.6630113740762
-9999 -9999 -9999 -9999 -9999 -9999 -9999 -9999 -9999 32.9522344735377 33.4833217254616 34.0233546151923 34.608560845655 35.2256998481713 35.8644988483132 36.2047976154845 36.4753932929396 36.5256550457887 36.559513117249 36.5697915070829 36.5875194650729 36.5745908130003 36.5729317919484 36.6042960128907 36.6336100003682 36.6427365867772 36.6500954539233 36.6461386332581 36.632501201883 36.6411707430945 36.6645325400026 36.6671480111405 36.6710003189902 36.6757225089941 36.6781665533047
-9999 -9999 -9999 -9999 -9999 -9999 -9999 -9999 -9999 33.0876188012544 34.6653174846356 35.2060820217581 35.7477832329726 36.2019872632062 36.4199976681381 36.50310377354 36.5342897341917 36.5577944167488 36.5757084933779 36.5863520603177 36.5941612827357 36.5911571198126 36.6065771339709 36.6353413442508 36.6604296382998 36.6572081621259 36.6504258573676 36.651113203957 36.6500243987845 36.6580498773726 36.6712705815196 36.662588423755 36.6641697936456 36.6751450048922 36.66830427228
-9999 -9999 -9999 -9999 -9999 -9999 -9999 32.8734750634298 33.0670652380305 34.4201561572134 35.9876435478545 36.3226558934533 36.4466799378989 36.5092155296331 36.5406459012891 36.5581414718968 36.5864682962653 36.5940760415205 36.5963825861959 36.60492552724 36.611278712243 36.6150146352416 36.6352482741995 36.6548690599021 36.6768463896596 36.6746837421038 36.6623609381149 36.6593288940181 36.6597126196704 36.6513542746936 36.6544250565046 36.642541030876 36.6395924666405 36.6447307842341 36.6321307769349
-9999 -9999 -9999 -9999 -9999 -9999 34.8465978331341 34.8527446189971 35.573715078931 36.1183178464862 36.4024929527093 36.5054570041568 36.5628437812716 36.5788703719334 36.5791150498908 36.5860472521771 36.6050547499871 36.6097400655827 36.6211872096935 36.6284952390395 36.629681067584 36.6388706066353 36.6520259086104 36.6658136480044 36.6851474054487 36.692039403791 36.6827082789779 36.6724434957041 36.6646213938044 36.6553969295051 36.6538895566035 36.6471254274622 36.6269019984548 36.6209665508091 36.6172561037231
-9999 -9999 -9999 -9999 35.2132715279451 35.8869479563302 36.0684902380833 36.1003276208539 36.2848747004697 36.3884500477225 36.5248381732794 36.6069687823624 36.6069292437889 36.5987301893337 36.5939002294181 36.5967976365829 36.6062923164601 36.613028927967 36.632106052247 36.640763204956 36.6557385691268 36.6750792686936 36.6760903703874 36.6743607516389 36.6845937057842 36.6942122170287 36.6899050653386 36.6860598015634 36.6790735835275 36.6689290083027 36.6807066014679 36.6854758221716 36.6626499987046 36.6416337658954 36.6348852528406
-9999 -9999 -9999 35.6166544526982 35.8531749372728 36.3442838432903 36.3821494377271 36.3293787602284 36.3637721665886 36.5077386873142 36.6156227477316 36.6227157242086 36.6095116127405 36.6094285111747 36.6025350533099 36.5962130334063 36.6039692113012 36.6171979441637 36.6340334014243 36.6441219634465 36.6507286734209 36.6742236168844 36.6931551739111 36.6942349026777 36.6938634072342 36.6970808764284 36.6916285025798 36.687554356691 36.6882004395726 36.6855865352751 36.6891332542469 36.7004614808058 36.6925640538589 36.6669140622837 36.6392001180001
-9999 -9999 35.6150415455661 36.2533690641328 36.3758557255855 36.3706646612758 36.3221417028499 36.3383890818482 36.4676373833393 36.5838192715353 36.6414300773145 36.6228105804312 36.6170724225404 36.620969198206 36.6179609136073 36.6210638934518 36.632731719252 36.6449022010005 36.6392697558728 36.6282293631266 36.6586575766889 36.711769212341 36.7297837136468 36.7292372351312 36.7208014428969 36.7066499483584 36.683654800152 36.6839067274292 36.6970329959054 36.6909307414652 36.6744483343952 36.691500612586 36.706095474664 36.6835767861223 36.6497765261093
