NCOLS 35 
NROWS 26 
XLLCORNER -80 
YLLCORNER 33 
CELLSIZE 0.5 
NODATA_value -9999 
-9999.000000000000000 -9999 -9999 -9999 -9999 -9999 -9999 -9999 -9999 -9999 -9999 -9999 -9999 -9999 -9999 -9999 -9999 -9999 -9999 -9999 -9999 -9999 -9999 -9999 -9999 -9999 -9999 -9999 -9999 -9999 -9999 -9999 -9999 -9999 -9999
-9999 -9999 -9999 -9999 -9999 -9999 -9999 -9999 -9999 -9999 -9999 -9999 -9999 -9999 -9999 -9999 -9999 -9999 -9999 -9999 -9999 -9999 -9999 -9999 -9999 -9999 -9999 -9999 -9999 32.4153987292342 -9999 -9999 -9999 -9999 -9999
-9999 -9999 -9999 -9999 -9999 -9999 -9999 -9999 -9999 -9999 -9999 -9999 -9999 -9999 -9999 -9999 -9999 -9999 -9999 -9999 -9999 -9999 -9999 -9999 -9999 -9999 32.6300302310564 32.6471444180601 32.6060341580773 32.4041899816516 -9999 -9999 -9999 -9999 -9999
-9999 -9999 -9999 -9999 -9999 -9999 -9999 -9999 -9999 -9999 -9999 -9999 -9999 -9999 -9999 -9999 -9999 -9999 -9999 -9999 -9999 -9999 -9999 32.7437766971024 32.7380147368171 32.4947899592889 32.3985058478975 32.5678759568671 -9999 -9999 -9999 31.073500888702 30.8529056158514 30.8826429179804 31.0590810150391
-9999 -9999 -9999 -9999 -9999 -9999 -9999 -9999 -9999 -9999 -9999 -9999 -9999 -9999 -9999 -9999 -9999 -9999 -9999 -9999 33.0132332141731 33.0024042984409 32.9409961732529 32.8476789738273 32.7001114043616 32.2274240085774 31.8410941145815 32.186741413746 -9999 -9999 31.1495290661876 30.8667584367725 30.9220130458677 31.1971919367297 31.3400927511055
-9999 -9999 -9999 -9999 -9999 -9999 -9999 -9999 -9999 -9999 -9999 -9999 -9999 -9999 -9999 -9999 -9999 -9999 -9999 33.2388398316882 33.3067553061146 33.2536259831418 33.2214088644343 33.0600463546619 32.5563825027628 31.9852176023977 31.5501600693759 31.6257564992435 31.6334958617751 31.110921960685 30.894405623926 30.8271678395251 30.9448522196735 31.3655627800609 31.5527417608836
-9999 -9999 -9999 -9999 -9999 -9999 -9999 -9999 -9999 -9999 -9999 -9999 -9999 -9999 -9999 -9999 -9999 -9999 -9999 33.3005556674461 33.3631267907742 33.3986868010302 33.4951174432678 33.3201306928237 32.6171256143265 32.0000073818357 31.5566803938587 31.3189515292378 31.2097635571201 31.3468094175926 31.2669852914773 31.1474803018123 31.315430565205 31.7787635173521 32.0626584113411
-9999 -9999 -9999 -9999 -9999 -9999 -9999 -9999 -9999 -9999 -9999 -9999 -9999 -9999 -9999 -9999 -9999 -9999 -9999 33.0325515798194 33.2455399245104 33.3777555438246 33.4097140439878 33.3755536367216 33.0203374570107 32.5917229004833 32.2207792919915 31.9345756305064 31.7209990391399 32.139361804559 32.6614556488247 32.4187110088221 31.9721826842045 32.191329232206 32.721866206563
-9999 -9999 -9999 -9999 -9999 -9999 -9999 -9999 -9999 -9999 -9999 -9999 -9999 -9999 -9999 -9999 -9999 -9999 -9999 32.6531075260945 33.0934959777438 33.2606672297392 33.2946052892066 33.3263903342354 33.2593713534618 32.9891551961413 32.735711627952 32.4852448137107 32.5883881409437 33.4263676914205 33.9975731391467 33.3372475562293 32.5145835312419 32.7206870022118 33.1330107944938
-9999 -9999 -9999 -9999 -9999 -9999 -9999 -9999 -9999 -9999 -9999 -9999 -9999 -9999 -9999 -9999 -9999 31.9158593683016 32.1425785442155 32.5115097844099 32.9907490208765 33.1690956587216 33.1816550717081 33.1870099231568 33.1259831182366 32.902340324519 32.8241152998836 33.0042539074077 33.5358784447333 33.6720827898385 33.1691161685014 32.8498109095876 32.8653123766415 33.0616130448141 33.2037272100659
-9999 -9999 -9999 -9999 -9999 -9999 -9999 -9999 -9999 -9999 -9999 -9999 -9999 -9999 31.6538385410197 32.0843085496347 32.1866687620308 32.4942176512228 32.708830832269 32.9072328480497 33.0811347171297 33.1011828679409 32.9942586662923 32.9655934647644 32.9889768714601 33.1363443346344 33.4759152802947 34.2036684807906 34.2416446179637 34.0098441099626 34.0454631758819 34.0702198470877 34.4316653227509 34.6413488080511 35.0943292177645
-9999 -9999 -9999 -9999 -9999 -9999 -9999 -9999 -9999 -9999 -9999 -9999 32.5353909549383 32.8793848329358 33.0297872833985 32.9273686936301 32.9178584097397 33.0385386490937 33.155547066392 33.2380523166726 33.2249850636156 33.2183854634477 33.3167157883246 33.4906134022524 33.7776565226268 34.2809784639267 34.933915652537 35.5069649749452 35.2234911545567 35.1372893454595 34.9819643452772 34.9346006797197 35.4534013823025 35.8396990527768 36.0087353498589
-9999 -9999 -9999 -9999 -9999 -9999 -9999 -9999 -9999 -9999 -9999 -9999 32.9818292053407 33.5365970141054 33.4139640046619 33.4505002007539 33.6737129075144 33.7269832608792 33.7112802804427 33.7283116343386 34.0980763161641 34.5467378510553 34.9396849292464 34.8768758715454 34.525057542188 35.0188248437946 35.716019521388 36.028327548773 35.9374576807882 35.9625711609916 35.6059343949712 35.4063693677591 35.7150704426957 35.9432442450593 35.9613511584239
-9999 -9999 -9999 -9999 -9999 -9999 -9999 -9999 -9999 30.3700747604209 31.1610967404774 32.1421064313704 33.2333237667456 33.7291612079339 33.9399512917037 34.5064391493368 34.7215243705651 34.9014901628374 35.0746211236369 35.0750848721747 35.3495104575643 35.5877430385678 35.6053286662786 35.4039669520369 35.3434941204417 35.7424266993168 36.1120154630635 36.2485628630444 36.3096883950073 36.4308287300682 36.2927884330202 35.9721068094525 35.7214489117807 35.730326522153 35.8097811663758
-9999 -9999 -9999 -9999 -9999 -9999 -9999 -9999 -9999 -9999 32.1440904832674 33.1042435605338 33.688255876053 34.2387522976643 34.8516045187572 35.0568931052806 35.175739889173 35.2702033847556 35.5387093263923 35.7344593963858 35.753602751868 35.778505840821 35.7643675141808 35.9125357817016 36.0791603317756 36.2458368706336 36.4173207293684 36.4742141395644 36.471447249668 36.4399747571031 36.3952128340494 36.250430131673 36.0606434978166 35.8984259774591 35.9273665377721
-9999 -9999 -9999 -9999 -9999 -9999 -9999 12.9140558565201 14.5615560199311 -9999 32.9375305430021 33.8650856480023 34.4564670915941 34.9405111464562 35.2433299524175 35.398767216446 35.4155418204695 35.4282110893583 35.6325695092751 35.7464894400026 35.7736145742504 35.899872870053 35.9557821139904 35.9734794233481 36.0349647316468 36.3056022161062 36.5262589634928 36.5759447334705 36.5660175090577 36.5294318568827 36.4345057302093 36.3593306435782 36.3138305119886 36.2735209684857 36.2733250342892
-9999 -9999 -9999 -9999 -9999 -9999 -9999 14.4562616334562 19.6326806041726 31.9303689516033 33.6471137581001 34.49234644485 34.9709290078718 35.2729900452802 35.4817332667069 35.5542025970465 35.6056628701158 35.6334451074454 35.7701379807766 35.8879146140192 36.0167527943656 36.096071087254 36.0897885200696 35.9988109505881 35.9865815976288 36.2336809445373 36.4855992875031 36.5534466425751 36.5619073996208 36.5703271411312 36.538866390479 36.5031136333662 36.4843412005185 36.4561844306506 36.4071843196893
-9999 -9999 -9999 -9999 -9999 -9999 -9999 18.1728075216166 -9999 33.0680925254702 34.2814806792011 34.9325166008926 35.1518746589331 35.566415655134 35.8229649706265 35.8232390134266 35.853954410858 35.9107075029841 36.0143723264822 36.1756042680101 36.3011879746311 36.380735918297 36.3753360470163 36.3056186048811 36.2546773034248 36.3267783149289 36.436860228518 36.4988715525041 36.5325660192657 36.5419422041549 36.5471804748975 36.5500732338586 36.5721161428624 36.5696321977806 36.5331965585004
-9999 -9999 -9999 -9999 -9999 -9999 -9999 -9999 30.1105475551765 33.6010371727819 34.5643540106903 35.1584952920552 35.4691937115443 35.9329225323567 36.1211795168118 36.2016860636279 36.2774353798253 36.3072756727484 36.35353198727 36.430632204282 36.5214809024824 36.5660534471178 36.5678018853901 36.555180971235 36.5378399973351 36.5264312233749 36.506392351532 36.4734242467588 36.4210007518481 36.3819591055215 36.4607134378189 36.54941812823 36.6042613559372 36.6186941184492 36.6191128833748
-9999 -9999 -9999 -9999 -9999 -9999 -9999 -9999 -9999 33.7327624953421 34.7187067153081 35.4812453314119 36.0687442169392 36.3406112083021 36.4536851632648 36.504264988739 36.5150449459159 36.5170012172498 36.5289438250017 36.5559289188646 36.5797766925171 36.5857761257392 36.5872485479047 36.5945675840362 36.6034999506511 36.6037406632145 36.5808169028323 36.531019066205 36.4224351338654 36.3284652949598 36.41934521326 36.5448022365421 36.6311946783348 36.6527027984182 36.6206113301154
-9999 -9999 -9999 -9999 -9999 -9999 -9999 -9999 -9999 33.1582261905961 35.2785654939055 36.2567546493992 36.450836491812 36.5135983524704 36.5470358091139 36.5686294856586 36.5829967614859 36.5799382715916 36.5704657608963 36.5775143721802 36.5913723001214 36.5940892939317 36.588757128132 36.5851892876686 36.598776906129 36.6075126007372 36.5938754725349 36.5756235982627 36.5415320058755 36.4928039536759 36.5152566115656 36.5837882144245 36.6375929341457 36.6485001568606 36.631154534757
-9999 -9999 -9999 -9999 -9999 -9999 -9999 33.451565995138 33.4618141625853 34.6230371395472 36.1410677197796 36.4579231512929 36.5226696178767 36.5514699942672 36.56379550669 36.5909761993812 36.5932537199481 36.5793692657208 36.5719536891476 36.5688725820194 36.5660083467975 36.5734461636506 36.5843500608541 36.5929563341773 36.6005435146523 36.6000347596973 36.5933005386952 36.5893354974839 36.5865299610935 36.5873655095891 36.6023116283083 36.6305641028804 36.6417661625675 36.6281220224862 36.6351641584801
-9999 -9999 -9999 -9999 -9999 -9999 34.8665534355374 35.1968715517045 35.94608447194 36.3085822606873 36.4181618127814 36.4920732292175 36.5418658273929 36.5572266450332 36.5558931806839 36.5562294275844 36.552374550814 36.5520521009627 36.5632011832004 36.5651404500233 36.5353159180658 36.5407847477631 36.5512657630605 36.5759572158762 36.5905894661466 36.6038272620003 36.6124900717006 36.6139191562412 36.6117189058573 36.6165233844944 36.6330866045775 36.6496586515525 36.6536563012882 36.6552769951166 36.6476894900051
-9999 -9999 -9999 -9999 34.5739182543237 35.6333257455305 36.0776375547403 36.2290752587756 36.3623195056609 36.3784392643015 36.4276173203072 36.4930509309179 36.5374654607725 36.5722911594714 36.5591232838704 36.5335265527955 36.5137847447699 36.5298498853396 36.5466363560328 36.5343248754169 36.5275212774587 36.5504649493238 36.547027821984 36.5536508000008 36.5841795743993 36.6039805212596 36.6231260311473 36.6325938279067 36.619211509807 36.6222264903679 36.6452061459032 36.64676075475 36.6486400040734 36.6508372039479 36.6456145680724
-9999 -9999 -9999 35.0148638994416 35.5957279416238 36.2918989184096 36.3871487586017 36.3762729719637 36.3736404882659 36.3961950511478 36.4454627792537 36.4858805662083 36.5207855526655 36.5624121408887 36.5694603993652 36.5511779757297 36.5155799991065 36.5119881529848 36.5305794400337 36.5291038224796 36.541081955118 36.5592964197342 36.5475455567589 36.5499403207194 36.5752086350714 36.5844333716898 36.5972535616505 36.621916266701 36.6349181806355 36.6307786352578 36.6327611229974 36.6281110720425 36.6281678861046 36.6407278893393 36.651297166849
-9999 -9999 35.55984796852 36.2812037195176 36.3745033558581 36.3821888823975 36.3615439827136 36.3753982444093 36.4202933629822 36.4579396561053 36.4746111578721 36.490822609542 36.5059712477484 36.5320495702927 36.551593183069 36.5479913483398 36.5154381852943 36.4955014672868 36.5130761908348 36.5185751506851 36.5307041862855 36.5496183517862 36.5555925633048 36.5673942567022 36.5808728892055 36.5825435401571 36.5918980803803 36.6101806287728 36.6209754642261 36.6205099107365 36.6116873396575 36.5929290056905 36.5866054088855 36.6126112898786 36.6353489571098
