NCOLS 35 
NROWS 26 
XLLCORNER -80 
YLLCORNER 33 
CELLSIZE 0.5 
NODATA_value -9999 
-9999.000000000000000 -9999 -9999 -9999 -9999 -9999 -9999 -9999 -9999 -9999 -9999 -9999 -9999 -9999 -9999 -9999 -9999 -9999 -9999 -9999 -9999 -9999 -9999 -9999 -9999 -9999 -9999 -9999 -9999 -9999 -9999 -9999 -9999 -9999 -9999
-9999 -9999 -9999 -9999 -9999 -9999 -9999 -9999 -9999 -9999 -9999 -9999 -9999 -9999 -9999 -9999 -9999 -9999 -9999 -9999 -9999 -9999 -9999 -9999 -9999 -9999 -9999 -9999 -9999 32.4263887326519 -9999 -9999 -9999 -9999 -9999
-9999 -9999 -9999 -9999 -9999 -9999 -9999 -9999 -9999 -9999 -9999 -9999 -9999 -9999 -9999 -9999 -9999 -9999 -9999 -9999 -9999 -9999 -9999 -9999 -9999 -9999 32.0809750458636 31.8332790299268 31.6819597417325 31.8891159157605 -9999 -9999 -9999 -9999 -9999
-9999 -9999 -9999 -9999 -9999 -9999 -9999 -9999 -9999 -9999 -9999 -9999 -9999 -9999 -9999 -9999 -9999 -9999 -9999 -9999 -9999 -9999 -9999 32.4621685727562 32.6517791653053 32.4564260875034 31.8402628406974 31.4142179473526 -9999 -9999 -9999 30.3293559145186 30.353589839751 30.6312764963331 31.0859798541165
-9999 -9999 -9999 -9999 -9999 -9999 -9999 -9999 -9999 -9999 -9999 -9999 -9999 -9999 -9999 -9999 -9999 -9999 -9999 -9999 32.2034211871468 32.4026542634284 32.644642339 32.8845043851735 32.7366084804197 32.3545552907025 31.4715659961436 31.0456733851012 -9999 -9999 30.4354243062352 30.3748951384071 30.6698373211957 31.267961320361 31.9371998775604
-9999 -9999 -9999 -9999 -9999 -9999 -9999 -9999 -9999 -9999 -9999 -9999 -9999 -9999 -9999 -9999 -9999 -9999 -9999 32.5399934548606 32.7012324665925 32.6975189730215 32.7748607530907 32.7701774993391 32.3245493124563 31.6181459073827 31.1774005827425 30.9005172767257 30.7589048304033 30.5506201110138 30.60293597016 30.8687164895119 31.5850812152161 32.2378443732001 32.3328032103498
-9999 -9999 -9999 -9999 -9999 -9999 -9999 -9999 -9999 -9999 -9999 -9999 -9999 -9999 -9999 -9999 -9999 -9999 -9999 32.5402740259096 32.6964115160092 32.7321465629962 32.7495951632703 32.7308007839253 32.4895236978829 31.8479714922101 31.5207638925341 31.1323812431044 30.8082430904736 30.8375861490113 31.3703621034175 32.0292292557321 32.6374296135402 32.8435004773273 32.9201645600221
-9999 -9999 -9999 -9999 -9999 -9999 -9999 -9999 -9999 -9999 -9999 -9999 -9999 -9999 -9999 -9999 -9999 -9999 -9999 32.2138264216899 32.5475702683744 32.697598893955 32.7609680702685 32.7066354983834 32.4537063488479 32.1117520980889 31.8795187235986 31.5182963201295 31.5091766785259 32.1382357788782 32.5474819545446 33.0726505956498 33.6838776437361 34.2530870696022 34.5678030140901
-9999 -9999 -9999 -9999 -9999 -9999 -9999 -9999 -9999 -9999 -9999 -9999 -9999 -9999 -9999 -9999 -9999 -9999 -9999 31.9542522402932 32.4222591077587 32.6631930722627 32.7350110450491 32.6917834330152 32.6108272982498 32.4969610841232 32.2656701198632 31.8843457322738 32.7875157098047 33.5066428918372 33.7876641200495 34.6082973119539 35.1646953506047 35.4952785845009 35.7500818669821
-9999 -9999 -9999 -9999 -9999 -9999 -9999 -9999 -9999 -9999 -9999 -9999 -9999 -9999 -9999 -9999 -9999 31.4183489962065 31.6761205653397 32.2528315537353 32.4697120000317 32.6221584800735 32.5876552728115 32.5543121954969 32.5188879409613 32.3535432714413 32.1314037618157 32.8451377302977 34.4522943756149 34.6967462170116 34.5946286242592 34.7532849095661 35.3079672231038 35.5844412524332 35.9034333270493
-9999 -9999 -9999 -9999 -9999 -9999 -9999 -9999 -9999 -9999 -9999 -9999 -9999 -9999 30.8513762850426 31.3279254116162 31.6397706873191 32.0647789809151 32.2568684918598 32.4970933855508 32.5644213169334 32.5165441704117 32.3998133172799 32.4839999818202 32.5831746552552 32.7545160790759 33.2701828204966 34.4268466177933 35.4773431623544 35.785077298228 35.8655945110954 35.6953684965386 35.516621152067 35.7497605399437 35.9500077584645
-9999 -9999 -9999 -9999 -9999 -9999 -9999 -9999 -9999 -9999 -9999 -9999 31.3896410979514 31.9420997966315 32.3316789634621 32.4734875519093 32.6026609596367 32.7156275122512 32.7505782858629 32.6814358526899 32.6273857708601 32.7155589053005 33.0319326393681 33.4883258179556 33.923118171289 34.475415914719 34.9163521859593 35.1579404843341 35.4844245713103 35.8651468293791 36.094194247216 36.1407029156031 36.0204167352676 36.0572165777444 36.0750450536435
-9999 -9999 -9999 -9999 -9999 -9999 -9999 -9999 -9999 -9999 -9999 -9999 32.1376505605178 32.7280513358601 32.9423131583132 33.1325303862035 33.1335134779422 33.2113596625698 33.4318946551892 33.3696900853183 33.2244297139394 33.3852971638541 33.5810394895243 33.7408657149702 34.4929141333943 35.1328113491414 35.3991680794152 35.5545201438141 35.9943276554518 36.3645035926373 36.4684412650246 36.3928351591126 36.1627899550423 36.0328333417521 36.0638400467403
-9999 -9999 -9999 -9999 -9999 -9999 -9999 -9999 -9999 29.1400760304939 30.4030280651468 31.7273915534467 32.6780938840748 33.0849844547172 33.3949308793529 33.7732012267137 33.6278679114021 33.738142001722 33.9052246433425 33.6919640064152 33.5860602498195 34.1478062112112 34.7045054856602 34.768416890703 35.2412173552172 35.6581398026012 35.8819724241306 36.0890046840145 36.4019372542501 36.6474639763302 36.6204634193087 36.4190746448748 36.0697593631739 35.8341358880192 36.0100089925638
-9999 -9999 -9999 -9999 -9999 -9999 -9999 -9999 -9999 -9999 31.4255089560862 32.556907386247 33.1411766152982 33.5644047836896 34.2418687579704 34.070288450014 34.0325755755643 34.2232576077317 34.2687866748927 34.2754152025831 34.8554160833907 35.3269777499597 35.5056692931813 35.6143009765918 35.7594862415836 36.0161582025814 36.1841832047976 36.3772686467187 36.6230368983191 36.6420660944539 36.4896050611989 36.2446429395925 35.9949888875874 35.9675266572867 36.1313987865916
-9999 -9999 -9999 -9999 -9999 -9999 -9999 16.1448976831193 17.6785606320304 -9999 32.1762819610611 33.2137897166591 33.8096030367293 34.3980879585284 34.4644193351498 34.3785866672111 34.5752704600561 34.9007537746802 35.1194703631645 35.3260009792414 35.4371720910546 35.4679519462609 35.5266945876402 35.5464500357627 35.602139126551 35.8609715672843 36.1433283753486 36.3296632933469 36.5387101182715 36.5890524305953 36.3657699189488 36.1235412215132 35.9857177869812 35.961891937021 36.1892906443671
-9999 -9999 -9999 -9999 -9999 -9999 -9999 17.2901150420317 21.6656855792277 31.2523713142637 32.8848052824114 33.7997605571867 34.4096037404438 34.6904661691135 34.7227216660204 34.8344108734647 35.0883337982294 35.2781850548619 35.4771068686029 35.7378668959542 35.8461774656204 35.8497584297136 35.7913437100537 35.7100718784118 35.6787242649046 35.8189018060352 36.1082245879672 36.3388935595167 36.4502517893663 36.5156600139431 36.4355405223152 36.2719447418024 36.1513295035199 36.1773724447153 36.3825574212346
-9999 -9999 -9999 -9999 -9999 -9999 -9999 19.8588828967403 -9999 32.3776331856551 33.4468748030525 34.2219385038503 34.6488972602023 34.8142361144372 34.8652607012411 35.1223854214303 35.3150294946066 35.5227402473585 35.9526463069615 36.2628710201591 36.3615488777484 36.3787181618922 36.3083000952685 36.1509398794111 36.0114171756145 36.0756667069614 36.2906294825638 36.4272253606939 36.4729734984353 36.4990692453717 36.4952814556632 36.4640331044464 36.4359606971289 36.4381446888607 36.4622280519914
-9999 -9999 -9999 -9999 -9999 -9999 -9999 -9999 29.8372151065756 32.717990117081 33.6738481601824 34.4510371887586 34.7758597260065 35.0884110590221 35.4025812815851 35.7062019315344 35.9284576610098 36.1905841609936 36.4108802735017 36.5100746598816 36.555409931154 36.5653237032761 36.551953053308 36.4995547190638 36.4434965233367 36.4652320499134 36.483581129998 36.4862346359183 36.5016386355726 36.5041608475116 36.4978210879698 36.490111283453 36.4873675768921 36.4810632671143 36.4810474189529
-9999 -9999 -9999 -9999 -9999 -9999 -9999 -9999 -9999 32.8991620008467 33.8778437747173 34.9390589510197 35.7036617519068 36.1009728092647 36.2901246473928 36.3825687352174 36.4441100942801 36.4985137145966 36.5575905557887 36.607105616627 36.6285296800158 36.6227214496152 36.6068200680135 36.6053408271409 36.6074874990955 36.5605009054845 36.5145394198863 36.5029579943339 36.5042059572222 36.5044269286698 36.4893889941765 36.4837566724643 36.4853627657012 36.4855027323051 36.4855249149017
-9999 -9999 -9999 -9999 -9999 -9999 -9999 -9999 -9999 32.2174071327696 34.4453095594184 36.0399736963705 36.374218600055 36.4904362123463 36.556957120314 36.5796174355323 36.5847105454877 36.5968543527175 36.6125924945012 36.6232314601889 36.6202482068045 36.6155716295636 36.6045364920377 36.603333715324 36.5809712057575 36.5480098231052 36.5393125952336 36.532225573555 36.5182269532729 36.505912998981 36.4951437118799 36.4946505408161 36.49018711826 36.4809960472466 36.4777021194605
-9999 -9999 -9999 -9999 -9999 -9999 -9999 32.2000113352217 32.4839676540866 33.8992785092318 35.8666699417827 36.3841228114995 36.5364853806405 36.6009164213254 36.6089818288557 36.6059741579808 36.6045584103641 36.6050610616173 36.6028148282239 36.6018849527168 36.5991955047119 36.6051331201779 36.5998775699223 36.5864114030563 36.5660917233653 36.5517309992918 36.536838504612 36.5285416004375 36.5166605206836 36.5134844721493 36.5132477813219 36.5045518345569 36.4910798014297 36.4818412959331 36.4751956684871
-9999 -9999 -9999 -9999 -9999 -9999 34.6107894103224 34.7293195123581 35.6238651930604 36.0944936290985 36.3102531524332 36.4893525745276 36.5726948878267 36.5859158079508 36.6038683982681 36.603470182025 36.5975857505953 36.5970556340252 36.5969456064144 36.6014672891405 36.6051266596442 36.6123073161342 36.5996404176281 36.5814395407913 36.5590285852709 36.5457990394758 36.5453004072756 36.5325248159243 36.5300046980246 36.5304271144395 36.5102925378925 36.4873189619126 36.4774223391806 36.4694569277264 36.4733140917081
-9999 -9999 -9999 -9999 34.3308878856148 35.5266721407735 35.9107779718409 36.0370716374441 36.1749421867222 36.2295433040512 36.3977966330112 36.5257736963876 36.5697147050739 36.5750557742296 36.5857423004989 36.5983344279862 36.5786727716275 36.5690458399573 36.5833002979102 36.5979167214827 36.5968277446017 36.5928505724505 36.580538205121 36.5681619259962 36.5760571623178 36.599327626382 36.6017203056937 36.563861771429 36.5443178735896 36.5337518692739 36.5184167824261 36.4929111829741 36.4705515159888 36.4654165480531 36.4826048073317
-9999 -9999 -9999 34.7823326146646 35.2046954847148 36.0394930318589 36.182436813613 36.1972516235947 36.2407719369759 36.3457927749834 36.4653345733245 36.5344498644754 36.5703165569097 36.5677350277201 36.5676537170207 36.5743085027024 36.565165154589 36.5594074843036 36.5764800160529 36.5739522262695 36.5655201646715 36.5608244352215 36.5573281677055 36.5653405696154 36.5713476304526 36.5860343847687 36.6088029179508 36.5972497988189 36.5555335639833 36.5384554289015 36.5227596065647 36.4961018696611 36.4723979059324 36.4572392818014 36.4470819585592
-9999 -9999 35.1458418374118 35.9135807455261 36.0948474130748 36.1326218389981 36.1922753237372 36.2681077918057 36.3893355385851 36.4633063272721 36.508960909349 36.5462900863172 36.5796046137339 36.5798726339912 36.5552668704427 36.5623925721522 36.5569646399405 36.5507117280278 36.5458769850904 36.5407318796437 36.5411334227396 36.5389040154413 36.5376317028069 36.5483633850677 36.5552631787092 36.5739421692468 36.5997368467277 36.6182268472034 36.6057207886202 36.5613651487571 36.5218661527187 36.5068882471274 36.4863720765286 36.4661718945766 36.446432244981
