NCOLS 35 
NROWS 26 
XLLCORNER -80 
YLLCORNER 33 
CELLSIZE 0.5 
NODATA_value -9999 
-9999.000000000000000 -9999 -9999 -9999 -9999 -9999 -9999 -9999 -9999 -9999 -9999 -9999 -9999 -9999 -9999 -9999 -9999 -9999 -9999 -9999 -9999 -9999 -9999 -9999 -9999 -9999 -9999 -9999 -9999 -9999 -9999 -9999 -9999 -9999 -9999
-9999 -9999 -9999 -9999 -9999 -9999 -9999 -9999 -9999 -9999 -9999 -9999 -9999 -9999 -9999 -9999 -9999 -9999 -9999 -9999 -9999 -9999 -9999 -9999 -9999 -9999 -9999 -9999 -9999 29.0477994916593 -9999 -9999 -9999 -9999 -9999
-9999 -9999 -9999 -9999 -9999 -9999 -9999 -9999 -9999 -9999 -9999 -9999 -9999 -9999 -9999 -9999 -9999 -9999 -9999 -9999 -9999 -9999 -9999 -9999 -9999 -9999 30.4783700548202 30.2484190459645 29.8557604498529 28.8941984557304 -9999 -9999 -9999 -9999 -9999
-9999 -9999 -9999 -9999 -9999 -9999 -9999 -9999 -9999 -9999 -9999 -9999 -9999 -9999 -9999 -9999 -9999 -9999 -9999 -9999 -9999 -9999 -9999 31.7279515083076 31.5529035803799 31.1822044324843 30.6704183053499 30.8023678823412 -9999 -9999 -9999 30.4146037049575 30.1825530014552 30.0674899769248 30.0512745695266
-9999 -9999 -9999 -9999 -9999 -9999 -9999 -9999 -9999 -9999 -9999 -9999 -9999 -9999 -9999 -9999 -9999 -9999 -9999 -9999 31.6800619228934 31.7239897246021 31.7186247877127 31.69814825724 31.704698975804 31.5264058500464 31.0671569331266 31.0993023861014 -9999 -9999 30.6680113531124 30.3090876746788 30.3234672567553 30.5925499754155 30.6255843462691
-9999 -9999 -9999 -9999 -9999 -9999 -9999 -9999 -9999 -9999 -9999 -9999 -9999 -9999 -9999 -9999 -9999 -9999 -9999 31.578313917574 31.5966183842346 31.635033412452 31.7064530657019 31.8127671091142 31.8074835032935 31.6219032805337 31.3775559358548 31.1718285226779 31.0632268332609 30.8538731732302 30.6859154284429 30.5263829131318 30.5711483495032 30.8376321870213 30.8372778597485
-9999 -9999 -9999 -9999 -9999 -9999 -9999 -9999 -9999 -9999 -9999 -9999 -9999 -9999 -9999 -9999 -9999 -9999 -9999 31.5795480001835 31.6496218636307 31.7528171340376 31.8700480587701 31.9127972009421 31.8751642514504 31.8384016549699 31.8241296304289 31.5571038512566 31.2942776805716 31.121169405421 30.9508320190976 30.8705985612944 30.9122554198546 31.138647634808 31.3034403137
-9999 -9999 -9999 -9999 -9999 -9999 -9999 -9999 -9999 -9999 -9999 -9999 -9999 -9999 -9999 -9999 -9999 -9999 -9999 31.5357265114288 31.6656710855826 31.7599989576091 31.8798441045682 31.9279900782432 31.9182786793878 31.9432811862421 31.9373719845145 31.7148195574439 31.3326014792385 31.2348647118702 31.4661034780765 31.8783733807074 32.0994909481964 32.1293847672314 32.1783325258696
-9999 -9999 -9999 -9999 -9999 -9999 -9999 -9999 -9999 -9999 -9999 -9999 -9999 -9999 -9999 -9999 -9999 -9999 -9999 31.3676317487488 31.6484649139047 31.7217742844024 31.8001605648173 31.8393843710962 31.8112999508885 31.797286976846 31.8373345736102 31.7208195701823 31.3606642225849 31.8069122464312 32.7044923424295 33.6733343787282 34.2035361444848 34.0354751290859 33.2058999092784
-9999 -9999 -9999 -9999 -9999 -9999 -9999 -9999 -9999 -9999 -9999 -9999 -9999 -9999 -9999 -9999 -9999 31.3206289765181 31.3488773482155 31.3625303582786 31.5183244651465 31.7019300683324 31.7589760308314 31.7599690467869 31.7331550349928 31.7764716390003 31.7871540979237 31.5141937873318 31.5932004265432 32.8855568184811 34.0927752993661 34.6282334859941 34.9601627283531 34.7559231079387 34.1752831427138
-9999 -9999 -9999 -9999 -9999 -9999 -9999 -9999 -9999 -9999 -9999 -9999 -9999 -9999 30.984360574402 31.1934777549125 31.3081580164769 31.4968129931491 31.5029300802556 31.4698834402904 31.5868099821292 31.7555919198437 31.8189601343211 31.9287158593739 32.0312912083045 32.1700913920911 31.9962555596997 32.0571722256669 33.1662675855858 34.7277549449411 35.1858682111117 35.2288305307736 35.3262559999552 35.463902893965 35.3438316672294
-9999 -9999 -9999 -9999 -9999 -9999 -9999 -9999 -9999 -9999 -9999 -9999 31.0053509436636 31.1549832324206 31.251448095633 31.3981333929865 31.6530029831337 31.8588367925541 31.8948521537273 32.149229424646 32.4744328717944 32.6626736686955 32.9060132895095 33.2764139019494 33.4127433997728 33.4806212720128 33.3264969343828 33.5945973071632 34.6867048922762 35.0912063358274 35.3547599537525 35.5139607013412 35.5824020753885 35.7400666137733 35.8661329233342
-9999 -9999 -9999 -9999 -9999 -9999 -9999 -9999 -9999 -9999 -9999 -9999 31.1156585132083 31.2746551804666 31.5246527890583 32.0106157029154 32.6711820185183 32.8609881587327 32.9273607722324 33.7301679713042 34.389972430886 34.6707357958033 34.7999011345709 34.9725918977317 34.8602611120719 34.595328046788 34.503687180644 34.738035118934 34.9800487903301 35.0740068095175 35.4116155598994 35.4254065322432 35.4806229268692 35.814558764578 36.1434709135562
-9999 -9999 -9999 -9999 -9999 -9999 -9999 -9999 -9999 30.3847989086482 30.7485063063015 31.0567787578279 31.2517566800199 31.513738221779 32.3308588378809 33.2852326444645 33.6934795824239 33.8310010460306 34.1309135293979 34.9390706285417 35.2747936274808 35.4283973260469 35.5170671448689 35.6209940505943 35.6118581543631 35.5361201977585 35.3030974147344 34.9447606067609 34.9018927522822 35.4053167058921 35.4812318683895 35.3448145107957 35.4063839629847 35.7686142888567 36.0855342841213
-9999 -9999 -9999 -9999 -9999 -9999 -9999 -9999 -9999 -9999 31.0887109678044 31.4217140324246 31.5970179768289 32.5607468749812 33.7595128622939 34.0653318376134 34.3745433242241 34.6758056915695 34.946611663689 35.098064005877 35.1402954803479 35.2252431316347 35.3557835700473 35.4492313439033 35.618366353272 35.6470065846225 35.5964262882913 35.2149831468096 35.2112179542128 35.7940671872027 35.7448054004804 35.6386447947432 35.7055817820077 35.9191735306769 36.0975122396852
-9999 -9999 -9999 -9999 -9999 -9999 -9999 13.840530635938 15.6449367510779 -9999 31.3794299601411 31.9572878365812 32.6246825687331 33.6149402184826 34.132552681894 34.3273448865474 34.5053118814521 34.7448135817137 34.9691203616109 35.1624698966272 35.2091079581285 35.2683242065303 35.422761053697 35.63035786442 35.7385600001454 35.6904187323574 35.5462787310093 35.4493265106769 35.3794392367256 35.9565220892462 36.0539667481983 36.0514902603646 36.0773823167079 36.1394731095511 36.2065228959094
-9999 -9999 -9999 -9999 -9999 -9999 -9999 17.1846289862382 20.5458253597392 30.7716306610355 31.7778057646958 32.7215879327572 33.4833139905287 33.9934262639609 34.3542639343314 34.412753041349 34.6623272971776 34.9139284743541 35.0799213865272 35.2365524085468 35.4539879292734 35.7987489022849 36.0082867948437 35.987451355026 35.9190174489586 35.8967486801798 35.8356879869702 35.7534338121315 35.8505072439347 36.094125009773 36.1282756645309 36.1568926374236 36.1812363147203 36.207317471797 36.2317780034603
-9999 -9999 -9999 -9999 -9999 -9999 -9999 21.7599625543162 -9999 31.3678386097012 32.3958269157949 33.4941540510592 33.8281012778733 34.2847512506018 34.8512048014059 34.875635867616 34.8787673618094 35.0510083693366 35.2581999385228 35.6522538526242 35.9482845076882 36.113080226358 36.1328288946761 36.0699526023513 36.0732316652757 36.04936682138 35.9265541685874 35.8070328733188 35.9195079746378 36.1249449508738 36.1829721136346 36.2238268464976 36.2486819187681 36.2682319149434 36.2629893179506
-9999 -9999 -9999 -9999 -9999 -9999 -9999 -9999 30.423080751478 31.698291234438 32.7819373595735 33.8772286033967 34.2775654428557 34.8799326403299 35.4191083851921 35.6879797507657 35.8084232617309 35.8977292955595 36.0115951099271 36.1179630215269 36.161255352923 36.1611109648243 36.142494488938 36.1008695413361 36.0432578501848 36.1239190030989 36.0453625461094 35.9032027734605 35.9165713468285 36.1219775872364 36.2411879344428 36.2727516418019 36.2839045110177 36.3052115510143 36.3005888822052
-9999 -9999 -9999 -9999 -9999 -9999 -9999 -9999 -9999 32.3123739698806 33.686880427625 34.7555673023627 35.5453134137871 35.9791145983732 36.1290529246857 36.1648125085543 36.1742056697836 36.1781059876084 36.1684792813057 36.1682486834483 36.1727088676888 36.1692378842549 36.1523139233169 36.1282238152602 36.0748203649744 36.0738401627684 36.1064914800477 36.0704617114551 36.0533998417327 36.1700519785737 36.2690612604682 36.2678404154554 36.2661370640887 36.2868194056238 36.3368456950933
-9999 -9999 -9999 -9999 -9999 -9999 -9999 -9999 -9999 33.2587753777441 34.8616904863707 35.90852892812 36.1353672968521 36.1897673810459 36.2011757485398 36.2006557399683 36.1960697336147 36.1761582493839 36.1642973198951 36.1595903260967 36.1616304703434 36.1656765432279 36.1445597737291 36.1248463861493 36.1337521231848 36.118185228471 36.1190693329213 36.1591306180755 36.2025764528789 36.2464543050191 36.2700665898039 36.2509284848468 36.2301674860456 36.2431059322121 36.2690865794285
-9999 -9999 -9999 -9999 -9999 -9999 -9999 35.3929634627083 35.1704535335369 35.0193963727427 35.8825197907013 36.1543693616966 36.2198099332104 36.2286750182499 36.219609333371 36.2262492984597 36.2307465207681 36.2039292948048 36.1776622806764 36.1550485038374 36.1536758094534 36.1591966507396 36.1505250490256 36.1356489498282 36.1412081237037 36.1481616138242 36.1473739532296 36.1767195484926 36.229523159152 36.2536191723726 36.2764669316052 36.2857740775894 36.2523329520174 36.2310433726326 36.2330927556035
-9999 -9999 -9999 -9999 -9999 -9999 35.4820945096554 35.7479116658837 35.9227170059672 35.9940835073762 36.1242901175641 36.2001605204753 36.2442082406513 36.2468527332149 36.2418393604111 36.2510476331321 36.2672729294735 36.2679254822791 36.2379760726054 36.1997018708761 36.184382766337 36.1794228646448 36.1725164722979 36.1631218958147 36.1668495875353 36.1719619677496 36.1901777818877 36.2488993044584 36.2887163744633 36.2708128283969 36.2922977450228 36.3031254841244 36.2838987695135 36.262830742434 36.25115049057
-9999 -9999 -9999 -9999 35.0873119137762 35.5769430729866 35.8011760975787 35.8988013252046 35.9466357314652 36.0420790415681 36.1641326044569 36.2104316301355 36.2507005672523 36.2592980110005 36.2584259127331 36.2668039572401 36.2753318858604 36.2907385845583 36.3000085543028 36.2913364441706 36.257610413892 36.2499000312005 36.2412423714148 36.2330607722056 36.2267677978741 36.233146842451 36.2615547910542 36.3301113654319 36.3849997243133 36.3541785195451 36.3185679089297 36.3210513241297 36.2972900969455 36.2697964386168 36.2966413807525
-9999 -9999 -9999 35.2635803517384 35.5524753459978 35.9138591340278 35.9577663684499 35.9480667866296 36.0376892578277 36.1482581489001 36.2010766217382 36.2447713386752 36.2659193430301 36.263775375485 36.2687822542182 36.2737404871181 36.274660034625 36.2962386772825 36.3394483310181 36.3346973717855 36.3118748389516 36.3034405397768 36.3317876163622 36.3432991484914 36.3274286596701 36.3399544446129 36.3778348314718 36.406945093478 36.414604563247 36.419771172505 36.3712352889873 36.3344673829569 36.3199669189884 36.3335300555676 36.4762722595485
-9999 -9999 35.2449026127659 35.6957974271462 35.8364016076486 35.9081438167261 35.9715515798381 36.0904509192867 36.1800752879983 36.2317802839643 36.2543316460917 36.2724531305353 36.2755670319818 36.2703766645673 36.2546706275847 36.2584174185264 36.2917191992672 36.3432493657597 36.3691517769326 36.372542595285 36.3432621171308 36.3405693436145 36.3744586029792 36.4072312826449 36.3798699901343 36.3926024249596 36.4293343151245 36.443485914298 36.4449692996511 36.4406028709546 36.3964211222047 36.3583716909744 36.3815703848947 36.481583748555 36.4917480306882
