NCOLS 70 
NROWS 52 
XLLCORNER -80 
YLLCORNER 33 
CELLSIZE 0.25 
NODATA_value -9999 
-9999.000000000000000 -9999 -9999 -9999 -9999 -9999 -9999 -9999 -9999 -9999 -9999 -9999 -9999 -9999 -9999 -9999 -9999 -9999 -9999 -9999 -9999 -9999 -9999 -9999 -9999 -9999 -9999 -9999 -9999 -9999 -9999 -9999 -9999 -9999 -9999 -9999 -9999 -9999 -9999 -9999 -9999 -9999 -9999 -9999 -9999 -9999 -9999 -9999 -9999 -9999 -9999 -9999 -9999 -9999 -9999 -9999 -9999 -9999 -9999 -9999 -9999 -9999 -9999 -9999 -9999 -9999 -9999 -9999 -9999 -9999
-9999 -9999 -9999 -9999 -9999 -9999 -9999 -9999 -9999 -9999 -9999 -9999 -9999 -9999 -9999 -9999 -9999 -9999 -9999 -9999 -9999 -9999 -9999 -9999 -9999 -9999 -9999 -9999 -9999 -9999 -9999 -9999 -9999 -9999 -9999 -9999 -9999 -9999 -9999 -9999 -9999 -9999 -9999 -9999 -9999 -9999 -9999 -9999 -9999 -9999 -9999 -9999 -9999 -9999 -9999 -9999 -9999 -9999 -9999 -9999 -9999 -9999 -9999 -9999 -9999 -9999 -9999 -9999 -9999 -9999
-9999 -9999 -9999 -9999 -9999 -9999 -9999 -9999 -9999 -9999 -9999 -9999 -9999 -9999 -9999 -9999 -9999 -9999 -9999 -9999 -9999 -9999 -9999 -9999 -9999 -9999 -9999 -9999 -9999 -9999 -9999 -9999 -9999 -9999 -9999 -9999 -9999 -9999 -9999 -9999 -9999 -9999 -9999 -9999 -9999 -9999 -9999 -9999 -9999 -9999 -9999 -9999 -9999 -9999 -9999 -9999 -9999 -9999 -9999 27.185375213623 -9999 -9999 -9999 -9999 -9999 -9999 -9999 -9999 -9999 -9999
-9999 -9999 -9999 -9999 -9999 -9999 -9999 -9999 -9999 -9999 -9999 -9999 -9999 -9999 -9999 -9999 -9999 -9999 -9999 -9999 -9999 -9999 -9999 -9999 -9999 -9999 -9999 -9999 -9999 -9999 -9999 -9999 -9999 -9999 -9999 -9999 -9999 -9999 -9999 -9999 -9999 -9999 -9999 -9999 -9999 -9999 -9999 -9999 -9999 -9999 -9999 -9999 -9999 -9999 -9999 29.0655498504639 28.9777164459229 28.8190593719482 28.375955581665 27.8578033447266 -9999 -9999 -9999 -9999 -9999 -9999 -9999 -9999 -9999 -9999
-9999 -9999 -9999 -9999 -9999 -9999 -9999 -9999 -9999 -9999 -9999 -9999 -9999 -9999 -9999 -9999 -9999 -9999 -9999 -9999 -9999 -9999 -9999 -9999 -9999 -9999 -9999 -9999 -9999 -9999 -9999 -9999 -9999 -9999 -9999 -9999 -9999 -9999 -9999 -9999 -9999 -9999 -9999 -9999 -9999 -9999 -9999 -9999 -9999 -9999 -9999 -9999 29.8071784973145 29.9113483428955 29.8074169158936 29.4381332397461 29.1159687042236 28.8451061248779 -9999 -9999 -9999 -9999 -9999 -9999 -9999 -9999 -9999 -9999 -9999 -9999
-9999 -9999 -9999 -9999 -9999 -9999 -9999 -9999 -9999 -9999 -9999 -9999 -9999 -9999 -9999 -9999 -9999 -9999 -9999 -9999 -9999 -9999 -9999 -9999 -9999 -9999 -9999 -9999 -9999 -9999 -9999 -9999 -9999 -9999 -9999 -9999 -9999 -9999 -9999 -9999 -9999 -9999 -9999 -9999 -9999 -9999 -9999 -9999 -9999 -9999 30.6193984985352 30.3051261901855 30.3409976959229 30.4486351013184 30.2809238433838 29.7131996154785 -9999 -9999 -9999 -9999 -9999 -9999 -9999 -9999 -9999 -9999 -9999 30.4170761108398 30.1845331192017 30.0596542358398
-9999 -9999 -9999 -9999 -9999 -9999 -9999 -9999 -9999 -9999 -9999 -9999 -9999 -9999 -9999 -9999 -9999 -9999 -9999 -9999 -9999 -9999 -9999 -9999 -9999 -9999 -9999 -9999 -9999 -9999 -9999 -9999 -9999 -9999 -9999 -9999 -9999 -9999 -9999 -9999 -9999 -9999 -9999 -9999 31.0893955230713 -9999 -9999 31.3832745552063 31.2592182159424 31.1817035675049 30.9915351867676 30.9083995819092 30.9287166595459 31.0297756195068 30.8485469818115 -9999 -9999 -9999 -9999 -9999 -9999 -9999 -9999 31.3482780456543 31.0774383544922 30.8271923065186 30.6191673278809 30.4171772003174 30.2148838043213 30.0464172363281
-9999 -9999 -9999 -9999 -9999 -9999 -9999 -9999 -9999 -9999 -9999 -9999 -9999 -9999 -9999 -9999 -9999 -9999 -9999 -9999 -9999 -9999 -9999 -9999 -9999 -9999 -9999 -9999 -9999 -9999 -9999 -9999 -9999 -9999 -9999 -9999 -9999 -9999 -9999 -9999 -9999 -9999 -9999 -9999 31.0782489776611 31.0865364074707 31.2504405975342 31.4608707427979 31.5625686645508 31.5927886962891 31.5349273681641 31.4221992492676 31.3718929290771 31.383846282959 31.2015738487244 -9999 -9999 -9999 -9999 -9999 -9999 -9999 31.7825908660889 31.5459823608398 31.2159957885742 30.9106388092041 30.6948699951172 30.5291576385498 30.3666667938232 30.2118053436279
-9999 -9999 -9999 -9999 -9999 -9999 -9999 -9999 -9999 -9999 -9999 -9999 -9999 -9999 -9999 -9999 -9999 -9999 -9999 -9999 -9999 -9999 -9999 -9999 -9999 -9999 -9999 -9999 -9999 -9999 -9999 -9999 -9999 -9999 -9999 -9999 -9999 -9999 -9999 -9999 30.9446519215902 31.1645024617513 31.3706775665283 31.5207252502441 31.5378761291504 31.5903491973877 31.6666240692139 31.7482070922852 31.7930564880371 31.7906188964844 31.7210807800293 31.588794708252 31.5129585266113 31.5441265106201 31.5745613098145 -9999 -9999 -9999 -9999 -9999 31.8345012664795 31.8899059295654 31.8054103851318 31.612979888916 31.3254699707031 31.0537357330322 30.8960609436035 30.8173179626465 30.7381458282471 30.6240692138672
-9999 -9999 -9999 -9999 -9999 -9999 -9999 -9999 -9999 -9999 -9999 -9999 -9999 -9999 -9999 -9999 -9999 -9999 -9999 -9999 -9999 -9999 -9999 -9999 -9999 -9999 -9999 -9999 -9999 -9999 -9999 -9999 -9999 -9999 -9999 -9999 -9999 -9999 -9999 30.7984313964844 30.8968830108643 31.1386413574219 31.4579830169678 31.6326370239258 31.6962013244629 31.7405700683594 31.7708835601807 31.801778793335 31.8181819915771 31.7958297729492 31.7195014953613 31.6059913635254 31.5503787994385 31.6072025299072 31.6841850280762 31.6534461975098 -9999 -9999 -9999 31.7542414665222 31.8214664459229 31.7921314239502 31.7367897033691 31.6556034088135 31.4904384613037 31.2695579528809 31.0940914154053 31.0068130493164 30.9618835449219 30.8870029449463
-9999 -9999 -9999 -9999 -9999 -9999 -9999 -9999 -9999 -9999 -9999 -9999 -9999 -9999 -9999 -9999 -9999 -9999 -9999 -9999 -9999 -9999 -9999 -9999 -9999 -9999 -9999 -9999 -9999 -9999 -9999 -9999 -9999 -9999 -9999 -9999 -9999 -9999 31.3088050842285 31.3431949615479 31.5220165252686 31.6802730560303 31.7327461242676 31.7696475982666 31.7822322845459 31.7917404174805 31.798002243042 31.807092666626 31.8091869354248 31.7659740447998 31.6808700561523 31.5972766876221 31.5717144012451 31.6438293457031 31.7324371337891 31.6936225891113 31.6342754364014 31.6883999506632 31.7247886657715 31.7369213104248 31.7337894439697 31.7352237701416 31.7627735137939 31.765739440918 31.6492042541504 31.4091339111328 31.1720867156982 31.1061038970947 31.1432514190674 31.1153736114502
-9999 -9999 -9999 -9999 -9999 -9999 -9999 -9999 -9999 -9999 -9999 -9999 -9999 -9999 -9999 -9999 -9999 -9999 -9999 -9999 -9999 -9999 -9999 -9999 -9999 -9999 -9999 -9999 -9999 -9999 -9999 -9999 -9999 -9999 -9999 -9999 -9999 31.4366359710693 31.4429092407227 31.5228538513184 31.689380645752 31.7798957824707 31.7973613739014 31.8060626983643 31.8119945526123 31.8169326782227 31.8059272766113 31.7901573181152 31.7806663513184 31.7411441802979 31.6742935180664 31.6259422302246 31.6178455352783 31.6473846435547 31.7015476226807 31.7172737121582 31.7007522583008 31.7231197357178 31.7590026855469 31.735631942749 31.7150096893311 31.7552394866943 31.8232860565186 31.7986698150635 31.6193828582764 31.3585071563721 31.1930828094482 31.2470092773438 31.4117088317871 31.4850883483887
-9999 -9999 -9999 -9999 -9999 -9999 -9999 -9999 -9999 -9999 -9999 -9999 -9999 -9999 -9999 -9999 -9999 -9999 -9999 -9999 -9999 -9999 -9999 -9999 -9999 -9999 -9999 -9999 -9999 -9999 -9999 -9999 -9999 -9999 -9999 -9999 -9999 31.5491809844971 31.557502746582 31.6357269287109 31.7861614227295 31.8737525939941 31.8732261657715 31.8560619354248 31.8461513519287 31.8265132904053 31.7863006591797 31.7574729919434 31.7596778869629 31.7480964660645 31.7074699401855 31.6795978546143 31.6763458251953 31.6762409210205 31.6885662078857 31.7043056488037 31.7192153930664 31.7540054321289 31.7690963745117 31.7407627105713 31.7705078125 31.9235095977783 32.1055374145508 32.0646629333496 31.7250690460205 31.3987369537354 31.2561740875244 31.3230285644531 31.5541706085205 31.8289642333984
-9999 -9999 -9999 -9999 -9999 -9999 -9999 -9999 -9999 -9999 -9999 -9999 -9999 -9999 -9999 -9999 -9999 -9999 -9999 -9999 -9999 -9999 -9999 -9999 -9999 -9999 -9999 -9999 -9999 -9999 -9999 -9999 -9999 -9999 -9999 -9999 -9999 31.5400161743164 31.6034393310547 31.7287921905518 31.8903617858887 31.9566497802734 31.9109191894531 31.8382740020752 31.7986259460449 31.7608966827393 31.7185287475586 31.7085609436035 31.7318019866943 31.7489490509033 31.7448272705078 31.7551021575928 31.7665176391602 31.7487659454346 31.7351684570312 31.7399139404297 31.7704753875732 31.8479957580566 31.8896007537842 31.9407920837402 32.1575698852539 32.6886444091797 33.2716331481934 33.3891677856445 32.9167175292969 32.380989074707 31.9929161071777 31.820894241333 31.8775482177734 32.2424697875977
-9999 -9999 -9999 -9999 -9999 -9999 -9999 -9999 -9999 -9999 -9999 -9999 -9999 -9999 -9999 -9999 -9999 -9999 -9999 -9999 -9999 -9999 -9999 -9999 -9999 -9999 -9999 -9999 -9999 -9999 -9999 -9999 -9999 -9999 -9999 -9999 31.4215507507324 31.5366172790527 31.6489276885986 31.7743301391602 31.9413948059082 32.0156631469727 31.9696273803711 31.8709850311279 31.8032627105713 31.7840061187744 31.7884006500244 31.7998580932617 31.8025913238525 31.8215637207031 31.8759727478027 31.9483337402344 31.9399242401123 31.8653087615967 31.8200302124023 31.8380756378174 31.9649066925049 32.2232093811035 32.4048080444336 32.6547470092773 33.0572242736816 33.7694511413574 34.3488616943359 34.6028213500977 34.5778427124023 34.3368721008301 33.8571128845215 33.2462921142578 32.8266944885254 33.0034942626953
-9999 -9999 -9999 -9999 -9999 -9999 -9999 -9999 -9999 -9999 -9999 -9999 -9999 -9999 -9999 -9999 -9999 -9999 -9999 -9999 -9999 -9999 -9999 -9999 -9999 -9999 -9999 -9999 -9999 -9999 -9999 -9999 -9999 -9999 -9999 -9999 -9999 31.5561428070068 31.6196269989014 31.739933013916 31.8860931396484 31.9962463378906 32.0442390441895 32.0204696655273 31.9758834838867 32.0152168273926 32.1159286499023 32.183277130127 32.1335144042969 32.1006088256836 32.1824340820312 32.2365646362305 32.1493072509766 32.0112953186035 31.9474983215332 32.0325317382812 32.3209037780762 32.9188079833984 33.5257835388184 34.0515785217285 34.4386367797852 34.7696266174316 34.8786811828613 34.9401397705078 34.8346672058105 34.7507209777832 34.5857162475586 34.0574073791504 33.516471862793 33.6540412902832
-9999 -9999 -9999 -9999 -9999 -9999 -9999 -9999 -9999 -9999 -9999 -9999 -9999 -9999 -9999 -9999 -9999 -9999 -9999 -9999 -9999 -9999 -9999 -9999 -9999 -9999 -9999 -9999 -9999 -9999 -9999 -9999 -9999 -9999 -9999 -9999 -9999 -9999 31.5263442993164 -9999 31.8176708221436 31.9682807922363 32.1361923217773 32.2120780944824 32.2486877441406 32.4025611877441 32.6333198547363 32.7958602905273 32.7018165588379 32.4954109191895 32.4835205078125 32.4940185546875 32.3926010131836 32.234691619873 32.1418838500977 32.3383750915527 32.8617858886719 33.8130378723145 34.6616058349609 35.1161079406738 35.2874641418457 35.3114700317383 35.288028717041 35.2024917602539 34.935676574707 34.7443962097168 34.5565452575684 34.1535682678223 33.8044967651367 34.0758476257324
-9999 -9999 -9999 -9999 -9999 -9999 -9999 -9999 -9999 -9999 -9999 -9999 -9999 -9999 -9999 -9999 -9999 -9999 -9999 -9999 -9999 -9999 -9999 -9999 -9999 -9999 -9999 -9999 -9999 -9999 -9999 -9999 -9999 -9999 -9999 -9999 -9999 -9999 -9999 -9999 31.8819427490234 32.0602722167969 32.3290405273438 32.5158004760742 32.664981842041 32.8735771179199 33.0752754211426 33.1977119445801 33.1217613220215 32.8741073608398 32.7485656738281 32.6806907653809 32.5783157348633 32.4653549194336 32.4533500671387 32.8842964172363 33.6959991455078 34.7115516662598 35.2238655090332 35.4315071105957 35.5439338684082 35.6054992675781 35.5775833129883 35.432544708252 35.0354537963867 34.7348175048828 34.4838714599609 34.18505859375 34.112922668457 34.5939254760742
-9999 -9999 -9999 -9999 -9999 -9999 -9999 -9999 -9999 -9999 -9999 -9999 -9999 -9999 -9999 -9999 -9999 -9999 -9999 -9999 -9999 -9999 -9999 -9999 -9999 -9999 -9999 -9999 -9999 -9999 -9999 -9999 -9999 -9999 32.1077604293823 31.7929420471191 31.7211284637451 -9999 31.6868362426758 31.7719116210938 31.9121894836426 32.1581535339355 32.4919242858887 32.8316802978516 33.1315841674805 33.28466796875 33.3098640441895 33.2799110412598 33.1931533813477 33.0290031433105 32.8974800109863 32.835521697998 32.805606842041 32.8549270629883 33.1193313598633 33.7987861633301 34.5827522277832 35.2697219848633 35.591251373291 35.7571907043457 35.8552703857422 35.9351119995117 35.9137191772461 35.8187217712402 35.3684768676758 34.8217811584473 34.4843864440918 34.3439903259277 34.5133628845215 35.0603866577148
-9999 -9999 -9999 -9999 -9999 -9999 -9999 -9999 -9999 -9999 -9999 -9999 -9999 -9999 -9999 -9999 -9999 -9999 -9999 -9999 -9999 -9999 -9999 -9999 -9999 -9999 -9999 27.335111618042 27.335111618042 27.9666709899902 29.0012702941895 30.6836166381836 31.9871559143066 32.2357749938965 32.2009201049805 32.2014045715332 32.1631011962891 32.0476493835449 31.9424743652344 31.9499359130859 32.0833282470703 32.3194274902344 32.6252326965332 33.0546836853027 33.396800994873 33.4348983764648 33.3232231140137 33.2180786132812 33.1368865966797 33.064697265625 33.0783615112305 33.196533203125 33.3390350341797 33.599178314209 34.1501388549805 34.8134689331055 35.4124526977539 35.7954750061035 35.9871520996094 36.1405372619629 36.2408409118652 36.320125579834 36.3057975769043 36.2621307373047 35.9488372802734 35.2106170654297 34.7175788879395 34.5817260742188 34.7055320739746 35.0725402832031
-9999 -9999 -9999 -9999 -9999 -9999 -9999 -9999 -9999 -9999 -9999 -9999 -9999 -9999 -9999 -9999 -9999 -9999 -9999 -9999 -9999 -9999 -9999 -9999 -9999 -9999 -9999 -9999 -9999 -9999 30.487756729126 31.6210880279541 32.5197982788086 32.7231636047363 32.6943130493164 32.6568832397461 32.5526275634766 32.4065895080566 32.299690246582 32.304443359375 32.4504013061523 32.6898307800293 32.9826965332031 33.4241180419922 33.6628303527832 33.5243530273438 33.3201065063477 33.2451438903809 33.2877655029297 33.417179107666 33.6648788452148 33.9390563964844 34.1864166259766 34.5589561462402 35.1215019226074 35.5902442932129 35.8871688842773 36.0952453613281 36.260181427002 36.3911819458008 36.4685134887695 36.5107803344727 36.5108489990234 36.4965209960938 36.3550262451172 35.6693115234375 35.0283164978027 34.8274116516113 34.7841758728027 34.909797668457
-9999 -9999 -9999 -9999 -9999 -9999 -9999 -9999 -9999 -9999 -9999 -9999 -9999 -9999 -9999 -9999 -9999 -9999 -9999 -9999 -9999 -9999 -9999 -9999 -9999 32.3808186848958 32.5341580708822 32.6512438456217 32.7178478240967 32.6439895629883 32.6654663085938 32.6456451416016 32.6850624084473 32.7681274414062 32.8200416564941 32.8530578613281 32.8300666809082 32.773983001709 32.7464447021484 32.8202323913574 33.014778137207 33.2619285583496 33.5582542419434 33.9026336669922 33.9694900512695 33.7495193481445 33.5705451965332 33.6178741455078 33.8255767822266 34.1030578613281 34.4381561279297 34.7519378662109 35.036434173584 35.3455581665039 35.6384658813477 35.8707733154297 36.0484619140625 36.1931571960449 36.3195724487305 36.430305480957 36.4889297485352 36.5111503601074 36.5136260986328 36.5152397155762 36.491138458252 36.0045204162598 35.3170394897461 35.0713577270508 35.0212745666504 34.9608421325684
-9999 -9999 -9999 -9999 -9999 -9999 -9999 -9999 -9999 -9999 -9999 -9999 -9999 -9999 -9999 -9999 -9999 -9999 -9999 -9999 -9999 -9999 -9999 -9999 32.1870384216309 32.4111862182617 32.5442314147949 32.6470565795898 32.7624435424805 32.8179016113281 32.7817115783691 32.7317085266113 32.7647590637207 32.9053382873535 33.1076393127441 33.2820129394531 33.3595809936523 33.3637046813965 33.3597450256348 33.4347724914551 33.6034660339355 33.8143463134766 34.0807838439941 34.3038444519043 34.2915077209473 34.1585273742676 34.131103515625 34.2855377197266 34.5188484191895 34.759880065918 35.0123558044434 35.2563781738281 35.4468002319336 35.593620300293 35.7690315246582 35.9222373962402 36.0176277160645 36.1273002624512 36.2681159973145 36.4006423950195 36.4795265197754 36.5033798217773 36.5025215148926 36.5052299499512 36.509334564209 36.1829452514648 35.6073417663574 35.2896194458008 35.3258285522461 35.4255905151367
-9999 -9999 -9999 -9999 -9999 -9999 -9999 -9999 -9999 -9999 -9999 -9999 -9999 -9999 -9999 -9999 -9999 -9999 -9999 -9999 -9999 -9999 -9999 -9999 32.4558486938477 32.739128112793 32.9282608032227 33.0570907592773 33.154541015625 33.1209564208984 32.9636039733887 32.8474922180176 32.9258003234863 33.2418174743652 33.6745834350586 34.0202865600586 34.1990737915039 34.2526779174805 34.2414016723633 34.2363319396973 34.269359588623 34.3504295349121 34.4899520874023 34.5990905761719 34.6200981140137 34.6509437561035 34.7763900756836 34.9632682800293 35.1480445861816 35.2782554626465 35.3582992553711 35.4414978027344 35.5252227783203 35.5978088378906 35.7205047607422 35.8305587768555 35.8965454101562 35.9970245361328 36.1512908935547 36.3158340454102 36.4355354309082 36.4829330444336 36.4880599975586 36.4896812438965 36.4871978759766 36.2740859985352 35.8689460754395 35.6224174499512 35.7141036987305 35.9249114990234
-9999 -9999 -9999 -9999 -9999 -9999 -9999 -9999 -9999 -9999 -9999 -9999 -9999 -9999 -9999 -9999 -9999 -9999 -9999 -9999 -9999 -9999 -9999 32.5869874954224 32.5793876647949 32.8785362243652 33.1333885192871 33.3603057861328 33.5389518737793 33.5079193115234 33.279411315918 33.1439323425293 33.4096145629883 34.018310546875 34.587474822998 34.910572052002 35.044677734375 35.0903396606445 35.0957069396973 35.0751724243164 35.0138549804688 34.9282035827637 34.888256072998 34.9215812683105 34.9905853271484 35.0759506225586 35.1983299255371 35.3430519104004 35.4686737060547 35.5022201538086 35.4432983398438 35.3978652954102 35.396312713623 35.4186744689941 35.5450706481934 35.6794738769531 35.7443923950195 35.8150672912598 35.9527130126953 36.1383171081543 36.3149604797363 36.4247283935547 36.4590950012207 36.4550628662109 36.4510498046875 36.3451766967773 36.0864372253418 35.9745750427246 36.0835647583008 36.2304534912109
-9999 -9999 -9999 -9999 -9999 -9999 -9999 -9999 -9999 -9999 -9999 -9999 -9999 -9999 -9999 -9999 -9999 -9999 -9999 -9999 -9999 -9999 -9999 32.5619125366211 32.7508010864258 33.0301666259766 33.2847557067871 33.5755653381348 33.8339805603027 33.8392333984375 33.6505393981934 33.6797904968262 34.2246932983398 34.9520988464355 35.342155456543 35.414794921875 35.3914070129395 35.3760948181152 35.3675308227539 35.3447151184082 35.289867401123 35.2001838684082 35.1456031799316 35.1887245178223 35.2726821899414 35.346549987793 35.4387092590332 35.5397491455078 35.6030197143555 35.5858192443848 35.4896926879883 35.3917121887207 35.3238639831543 35.3079261779785 35.4336204528809 35.5889320373535 35.6573944091797 35.6893920898438 35.7782440185547 35.9399681091309 36.1240043640137 36.28125 36.3755493164062 36.3995170593262 36.4152145385742 36.3868026733398 36.2354316711426 36.1666717529297 36.2411766052246 36.3327369689941
-9999 -9999 -9999 -9999 -9999 -9999 -9999 -9999 -9999 -9999 -9999 -9999 -9999 -9999 -9999 -9999 -9999 -9999 -9999 -9999 -9999 -9999 32.7583847045898 32.8130302429199 33.0121383666992 33.2748718261719 33.5500602722168 33.8724632263184 34.1369972229004 34.1858253479004 34.1827507019043 34.4580879211426 35.0331535339355 35.5313148498535 35.6785316467285 35.6002349853516 35.4888229370117 35.435001373291 35.4082565307617 35.3691482543945 35.3214683532715 35.2869186401367 35.3150863647461 35.4048652648926 35.5013198852539 35.586612701416 35.6718597412109 35.7406272888184 35.7818870544434 35.777156829834 35.7132186889648 35.6364669799805 35.5786819458008 35.5759239196777 35.6604194641113 35.7544479370117 35.7887344360352 35.798168182373 35.8441963195801 35.9463920593262 36.0641136169434 36.1681022644043 36.2600173950195 36.3057327270508 36.348876953125 36.3641395568848 36.266357421875 36.1936798095703 36.265941619873 36.3460083007812
-9999 -9999 -9999 -9999 -9999 -9999 -9999 -9999 -9999 -9999 -9999 -9999 -9999 -9999 21.8059552510579 -9999 -9999 -9999 -9999 32.6576385498047 -9999 32.8584861755371 32.9176826477051 33.0712814331055 33.2816276550293 33.5721015930176 33.9587135314941 34.3590927124023 34.6157417297363 34.716423034668 34.8339195251465 35.0777626037598 35.4078216552734 35.6936874389648 35.8064155578613 35.7453956604004 35.6270484924316 35.5637092590332 35.5385932922363 35.5252723693848 35.5310401916504 35.5484428405762 35.5844993591309 35.6136436462402 35.632884979248 35.6845016479492 35.7483100891113 35.7981300354004 35.8648643493652 35.9396057128906 35.9665870666504 35.9630928039551 35.9689445495605 36.0050048828125 36.0531005859375 36.0859870910645 36.0995216369629 36.1071586608887 36.1255531311035 36.1622505187988 36.2004737854004 36.2205657958984 36.2449188232422 36.2493934631348 36.2818222045898 36.3156471252441 36.2312049865723 36.1591339111328 36.2238998413086 36.3011779785156
-9999 -9999 -9999 -9999 -9999 -9999 -9999 -9999 -9999 -9999 -9999 -9999 -9999 -9999 21.8183860778809 -9999 -9999 -9999 -9999 32.7058696746826 32.9068092346191 33.0257797241211 33.1888809204102 33.3500671386719 33.5534706115723 33.8804512023926 34.3334846496582 34.7367515563965 34.9412651062012 35.0170974731445 35.0623817443848 35.1258239746094 35.3134346008301 35.6078567504883 35.8107986450195 35.8350105285645 35.7754783630371 35.7425003051758 35.751708984375 35.8028602600098 35.8800926208496 35.9287185668945 35.9348983764648 35.9065055847168 35.8647308349609 35.8390655517578 35.8161697387695 35.8041038513184 35.8791465759277 36.0154075622559 36.1067123413086 36.1487007141113 36.1774711608887 36.213134765625 36.2532615661621 36.2897720336914 36.3156661987305 36.3268547058105 36.3347625732422 36.3394813537598 36.3396949768066 36.3323554992676 36.3184776306152 36.2886428833008 36.2885322570801 36.3110466003418 36.2344932556152 36.1469764709473 36.1849250793457 36.2560882568359
-9999 -9999 -9999 -9999 -9999 -9999 -9999 -9999 -9999 -9999 -9999 -9999 -9999 -9999 21.7624473571777 -9999 -9999 -9999 -9999 -9999 33.2214689254761 33.2380409240723 33.4366722106934 33.6147689819336 33.8557281494141 34.1775436401367 34.5354156494141 34.8156356811523 34.9602432250977 35.0152130126953 35.0242538452148 35.0516624450684 35.2222442626953 35.5459976196289 35.8155364990234 35.8996086120605 35.8919677734375 35.9057502746582 35.982250213623 36.091438293457 36.1692581176758 36.1978416442871 36.2003173828125 36.1976051330566 36.1801910400391 36.1395301818848 36.067928314209 35.9776229858398 35.9755172729492 36.0702667236328 36.1541900634766 36.2057075500488 36.2469177246094 36.2924919128418 36.3408660888672 36.3831901550293 36.4086608886719 36.4180183410645 36.4236297607422 36.4250602722168 36.4197998046875 36.4106674194336 36.394718170166 36.3669281005859 36.3465003967285 36.3617630004883 36.3114013671875 36.2015571594238 36.1892127990723 36.2362594604492
-9999 -9999 -9999 -9999 -9999 -9999 -9999 -9999 -9999 -9999 -9999 -9999 -9999 -9999 21.8543968200684 -9999 21.9862022399902 -9999 -9999 -9999 33.2227325439453 33.3993225097656 33.6300735473633 33.8181533813477 34.0767135620117 34.3855361938477 34.6725730895996 34.8718948364258 34.9937057495117 35.0629577636719 35.1043701171875 35.1856498718262 35.3408851623535 35.578182220459 35.8025245666504 35.9017295837402 35.9465789794922 36.0290412902832 36.1400909423828 36.2219505310059 36.2568855285645 36.2663612365723 36.2717208862305 36.2796821594238 36.2761764526367 36.2635879516602 36.231689453125 36.1562843322754 36.1052017211914 36.1355476379395 36.1928100585938 36.2381324768066 36.2767066955566 36.3265151977539 36.3844299316406 36.4332160949707 36.4577255249023 36.4657402038574 36.4703712463379 36.4711112976074 36.4667129516602 36.4609680175781 36.4527740478516 36.4338569641113 36.4069328308105 36.4165992736816 36.402946472168 36.3050079345703 36.2376861572266 36.2349128723145
-9999 -9999 -9999 -9999 -9999 -9999 -9999 -9999 -9999 -9999 -9999 -9999 -9999 -9999 21.8543968200684 21.946346282959 22.2580966949463 -9999 -9999 33.3582668304443 33.3177185058594 33.5791397094727 33.8054618835449 34.0262069702148 34.4062004089355 34.8854637145996 35.2591819763184 35.4139595031738 35.4541130065918 35.4841918945312 35.5338172912598 35.6129417419434 35.698673248291 35.7974624633789 35.8930053710938 35.9409637451172 35.9930801391602 36.0961685180664 36.1809577941895 36.2119560241699 36.227970123291 36.2413444519043 36.2543754577637 36.2697067260742 36.277645111084 36.2812232971191 36.2796897888184 36.2441177368164 36.1839408874512 36.174446105957 36.2108383178711 36.2369384765625 36.262393951416 36.3193969726562 36.3940353393555 36.4548187255859 36.4787979125977 36.4825553894043 36.4850692749023 36.4893989562988 36.4922180175781 36.4900550842285 36.48486328125 36.4729423522949 36.4494018554688 36.4372138977051 36.440975189209 36.4005813598633 36.3235015869141 36.2754974365234
-9999 -9999 -9999 -9999 -9999 -9999 -9999 -9999 -9999 -9999 -9999 -9999 -9999 -9999 -9999 23.669652557373 22.8254508972168 -9999 30.5867004394531 33.3335647583008 33.5590515136719 33.8639755249023 34.1106605529785 34.466178894043 35.0169830322266 35.5712089538574 35.8822898864746 35.9408378601074 35.9377403259277 35.9546012878418 35.987060546875 35.9984703063965 36.0058174133301 36.0640487670898 36.1153411865234 36.0954208374023 36.0832405090332 36.1297149658203 36.1712265014648 36.190731048584 36.2150077819824 36.2420272827148 36.2690696716309 36.2939186096191 36.3109436035156 36.3180313110352 36.3212852478027 36.3039817810059 36.2461090087891 36.2109031677246 36.212646484375 36.2161750793457 36.237621307373 36.3031539916992 36.3942489624023 36.468132019043 36.4971351623535 36.4994049072266 36.4985542297363 36.5034942626953 36.5100555419922 36.5091667175293 36.5031318664551 36.4918022155762 36.4739227294922 36.4463806152344 36.439998626709 36.437442779541 36.3942680358887 36.3396453857422
-9999 -9999 -9999 -9999 -9999 -9999 -9999 -9999 -9999 -9999 -9999 -9999 -9999 -9999 -9999 25.4897422790527 25.8286266326904 -9999 33.0917167663574 33.4727592468262 33.9147796630859 34.3075981140137 34.6065864562988 35.029483795166 35.5605506896973 35.966194152832 36.1307487487793 36.1550979614258 36.1715202331543 36.1964073181152 36.2190551757812 36.2219734191895 36.2048950195312 36.2073211669922 36.2227096557617 36.1970520019531 36.1594314575195 36.1584053039551 36.1800270080566 36.2106285095215 36.2504463195801 36.2923698425293 36.3327407836914 36.364013671875 36.3829536437988 36.3860206604004 36.3786163330078 36.3642959594727 36.3156890869141 36.2571678161621 36.2157859802246 36.2014198303223 36.2227668762207 36.2944946289062 36.3933410644531 36.4734382629395 36.5071563720703 36.5133171081543 36.5157699584961 36.5214080810547 36.5234680175781 36.5153388977051 36.5064888000488 36.4950866699219 36.4861297607422 36.4645195007324 36.4471130371094 36.4444732666016 36.4232635498047 36.3866958618164
-9999 -9999 -9999 -9999 -9999 -9999 -9999 -9999 -9999 -9999 -9999 -9999 -9999 -9999 -9999 26.6478977203369 -9999 30.7759769984654 33.1616020202637 33.8007125854492 34.3780670166016 34.8883628845215 35.3214378356934 35.6857795715332 35.9196357727051 36.1092910766602 36.1842880249023 36.2071266174316 36.235595703125 36.268440246582 36.3005561828613 36.3262634277344 36.3310317993164 36.3173408508301 36.3015174865723 36.2772026062012 36.2493019104004 36.2444686889648 36.2668190002441 36.3021659851074 36.3424758911133 36.3835258483887 36.4203338623047 36.4465065002441 36.4626884460449 36.4621429443359 36.4426460266113 36.4265899658203 36.3861236572266 36.3166275024414 36.2518043518066 36.2252311706543 36.2460517883301 36.3170127868652 36.4082145690918 36.479377746582 36.509033203125 36.5174140930176 36.521728515625 36.5241012573242 36.5222091674805 36.5113983154297 36.5049438476562 36.492977142334 36.4835777282715 36.477653503418 36.4683570861816 36.4645767211914 36.4516220092773 36.4281005859375
-9999 -9999 -9999 -9999 -9999 -9999 -9999 -9999 -9999 -9999 -9999 -9999 -9999 -9999 26.6478977203369 28.0748291015625 29.631872177124 32.3755264282227 33.397777557373 34.1351890563965 34.7877159118652 35.4007911682129 35.8680725097656 36.0977172851562 36.1134796142578 36.150806427002 36.2026977539062 36.2447357177734 36.2914962768555 36.338062286377 36.3753471374512 36.4012336730957 36.4142303466797 36.4145355224609 36.4040641784668 36.3854560852051 36.3690338134766 36.3708534240723 36.3881759643555 36.407787322998 36.429573059082 36.4544296264648 36.4788284301758 36.4993934631348 36.5115432739258 36.5120239257812 36.4907302856445 36.4745140075684 36.4512939453125 36.4004707336426 36.3433799743652 36.3153190612793 36.3317604064941 36.3815078735352 36.4456329345703 36.4947853088379 36.5165405273438 36.525447845459 36.5259780883789 36.5215034484863 36.5202217102051 36.5132751464844 36.5140190124512 36.506046295166 36.4880485534668 36.4822044372559 36.482349395752 36.4846343994141 36.4800682067871 36.4686317443848
-9999 -9999 -9999 -9999 -9999 -9999 -9999 -9999 -9999 -9999 -9999 -9999 -9999 -9999 -9999 -9999 31.9419598579407 32.6628952026367 33.7270851135254 34.3579292297363 34.9907302856445 35.6426620483398 36.0739784240723 36.2281951904297 36.2170143127441 36.2294769287109 36.2751846313477 36.3293228149414 36.3738098144531 36.403018951416 36.4230766296387 36.4408531188965 36.4553031921387 36.4642906188965 36.4657020568848 36.4601593017578 36.4533576965332 36.4529724121094 36.457389831543 36.4653472900391 36.4808197021484 36.5016098022461 36.5211944580078 36.534236907959 36.5378570556641 36.5348281860352 36.5195465087891 36.504222869873 36.4932556152344 36.4708518981934 36.4400367736816 36.4204902648926 36.4265975952148 36.4528923034668 36.4912872314453 36.516674041748 36.5248794555664 36.529857635498 36.5285186767578 36.520206451416 36.517147064209 36.5115661621094 36.5159339904785 36.5146751403809 36.4966773986816 36.4834136962891 36.4815902709961 36.4882774353027 36.4897689819336 36.4895629882812
-9999 -9999 -9999 -9999 -9999 -9999 -9999 -9999 -9999 -9999 -9999 -9999 -9999 -9999 -9999 -9999 32.880220413208 33.0975456237793 34.0829086303711 34.7227630615234 35.2740211486816 35.8306312561035 36.1661186218262 36.2279243469238 36.245002746582 36.2851982116699 36.3352127075195 36.375659942627 36.4047317504883 36.4363594055176 36.4711036682129 36.4993782043457 36.5167999267578 36.5238647460938 36.5234527587891 36.5184593200684 36.5122413635254 36.5093193054199 36.5113716125488 36.520622253418 36.535228729248 36.5494842529297 36.5589447021484 36.5598030090332 36.5515975952148 36.5367164611816 36.522891998291 36.5152015686035 36.5116271972656 36.5062255859375 36.4976997375488 36.4906883239746 36.4923057556152 36.5063514709473 36.5231056213379 36.5237503051758 36.5186576843262 36.5198440551758 36.5218391418457 36.5164756774902 36.5139961242676 36.5108070373535 36.5159034729004 36.5164833068848 36.5065498352051 36.4894676208496 36.4774551391602 36.4851760864258 36.4918785095215 36.5012435913086
-9999 -9999 -9999 -9999 -9999 -9999 -9999 -9999 -9999 -9999 -9999 -9999 -9999 -9999 -9999 -9999 -9999 33.8568363189697 34.1547088623047 34.9732666015625 35.5551338195801 35.9957847595215 36.1783256530762 36.2248802185059 36.2821731567383 36.333812713623 36.3738403320312 36.4092025756836 36.4543991088867 36.5027770996094 36.5332717895508 36.5485305786133 36.5568237304688 36.5601921081543 36.5601997375488 36.5570335388184 36.5523567199707 36.5493392944336 36.5518531799316 36.5613212585449 36.5729675292969 36.5815963745117 36.5865707397461 36.5819473266602 36.5653915405273 36.5431747436523 36.5267601013184 36.5212898254395 36.5204772949219 36.5176734924316 36.5145111083984 36.515682220459 36.5182876586914 36.5227165222168 36.5226631164551 36.5155563354492 36.5089683532715 36.5097465515137 36.5106315612793 36.5012512207031 36.4979782104492 36.4962997436523 36.5001335144043 36.4984703063965 36.5009536743164 36.4925575256348 36.47265625 36.4716491699219 36.4809799194336 36.4962882995605
-9999 -9999 -9999 -9999 -9999 -9999 -9999 -9999 -9999 -9999 -9999 -9999 -9999 -9999 33.0432143211365 33.0975456237793 33.7925024032593 34.1234455108643 34.0921821594238 34.932056427002 35.7308387756348 36.0802116394043 36.1798400878906 36.2641677856445 36.3292503356934 36.374641418457 36.4152069091797 36.4625129699707 36.5157127380371 36.5501708984375 36.566650390625 36.5788383483887 36.585521697998 36.5867538452148 36.5866889953613 36.5844459533691 36.5791816711426 36.5757637023926 36.5784950256348 36.5839157104492 36.5857391357422 36.585994720459 36.5918045043945 36.5922966003418 36.5746078491211 36.5520057678223 36.53857421875 36.5317115783691 36.5273094177246 36.521354675293 36.5174407958984 36.5183067321777 36.5166664123535 36.5150260925293 36.5184020996094 36.5172004699707 36.5101127624512 36.5088729858398 36.5065879821777 36.4928169250488 36.4833030700684 36.4810218811035 36.4853858947754 36.4897766113281 36.5041542053223 36.5067253112793 36.4933662414551 36.4963912963867 36.5106506347656 36.5261917114258
-9999 -9999 -9999 -9999 -9999 -9999 -9999 -9999 -9999 -9999 -9999 -9999 -9999 -9999 -9999 -9999 -9999 -9999 34.845850944519 35.0995140075684 35.8058090209961 36.090389251709 36.216438293457 36.3189086914062 36.3787422180176 36.4203910827637 36.4656639099121 36.5195007324219 36.5607032775879 36.5776443481445 36.5865249633789 36.5929832458496 36.5948829650879 36.5959930419922 36.5969161987305 36.5949211120605 36.5902366638184 36.5868034362793 36.5862312316895 36.5841407775879 36.5782699584961 36.576602935791 36.5850601196289 36.5885429382324 36.5727157592773 36.5537071228027 36.5419654846191 36.5342712402344 36.5299110412598 36.5250053405762 36.5201225280762 36.516960144043 36.5189743041992 36.5311508178711 36.542797088623 36.5414733886719 36.5260353088379 36.5198974609375 36.5163383483887 36.503475189209 36.4932289123535 36.4969940185547 36.5094451904297 36.5236206054688 36.5478172302246 36.5592956542969 36.554328918457 36.5597839355469 36.5708961486816 36.5866203308105
-9999 -9999 -9999 -9999 -9999 -9999 -9999 -9999 -9999 -9999 -9999 -9999 -9999 -9999 -9999 -9999 -9999 35.2000160217285 35.3045482635498 35.259651184082 35.8235168457031 36.1792869567871 36.3141632080078 36.3848266601562 36.4228134155273 36.4645080566406 36.5162048339844 36.5605735778809 36.5846176147461 36.5906829833984 36.595775604248 36.6010818481445 36.6030349731445 36.6035499572754 36.6027221679688 36.5987586975098 36.5937843322754 36.5913124084473 36.5897445678711 36.5857696533203 36.5800437927246 36.5761756896973 36.5771369934082 36.5759315490723 36.5649108886719 36.552131652832 36.5426330566406 36.5376129150391 36.5353813171387 36.5328559875488 36.5341377258301 36.5441627502441 36.5620193481445 36.5752487182617 36.5742607116699 36.5644264221191 36.5459060668945 36.5351791381836 36.5293960571289 36.5218200683594 36.5263366699219 36.5401191711426 36.5583190917969 36.5771369934082 36.6055068969727 36.6162986755371 36.6148414611816 36.6189346313477 36.6239356994629 36.6312675476074
-9999 -9999 -9999 -9999 -9999 -9999 -9999 -9999 -9999 -9999 -9999 -9999 -9999 36.0421562194824 36.0007074144152 -9999 35.8713779449463 35.7029991149902 35.2000160217285 35.6590118408203 36.1529273986816 36.3235931396484 36.3754844665527 36.412784576416 36.4539566040039 36.5044708251953 36.5521697998047 36.5824241638184 36.5914688110352 36.591136932373 36.595588684082 36.6011123657227 36.6047592163086 36.6058959960938 36.6040229797363 36.59912109375 36.5945892333984 36.5931930541992 36.592945098877 36.591136932373 36.5872077941895 36.5817985534668 36.5754623413086 36.5675086975098 36.5581398010254 36.5527610778809 36.5520248413086 36.5543174743652 36.5579490661621 36.564510345459 36.5764389038086 36.5943489074707 36.6059226989746 36.5975723266602 36.5832710266113 36.5720825195312 36.5593452453613 36.5514335632324 36.5517120361328 36.5599517822266 36.5789031982422 36.5952110290527 36.608829498291 36.621711730957 36.6388969421387 36.6427345275879 36.6404762268066 36.6463890075684 36.6532249450684 36.6585540771484
-9999 -9999 -9999 -9999 -9999 -9999 -9999 -9999 -9999 -9999 -9999 -9999 -9999 -9999 36.0421562194824 36.0395024617513 35.9204635620117 35.8222923278809 35.8692245483398 36.2134742736816 36.344123840332 36.3805923461914 36.4196701049805 36.4578018188477 36.4956932067871 36.543514251709 36.57763671875 36.5899505615234 36.5862922668457 36.5803871154785 36.5809745788574 36.5825500488281 36.5837478637695 36.5838050842285 36.5819511413574 36.5772323608398 36.5721321105957 36.5701370239258 36.5711898803711 36.5736465454102 36.576358795166 36.5785446166992 36.578197479248 36.5772247314453 36.5782775878906 36.5818252563477 36.585994720459 36.5908203125 36.5956535339355 36.6025047302246 36.6143798828125 36.6291122436523 36.6335792541504 36.6184120178223 36.5961799621582 36.5813064575195 36.5729751586914 36.5719261169434 36.5808982849121 36.5972747802734 36.6170463562012 36.6321105957031 36.643741607666 36.6454086303711 36.6451225280762 36.6431922912598 36.6397171020508 36.6483306884766 36.6580581665039 36.662425994873
-9999 -9999 -9999 -9999 -9999 -9999 -9999 -9999 -9999 -9999 -9999 -9999 -9999 -9999 36.0808753967285 36.0421562194824 36.1558876037598 36.2000999450684 36.2804870605469 36.3471298217773 36.3676528930664 36.403736114502 36.4480209350586 36.4798393249512 36.5202674865723 36.5650672912598 36.5845565795898 36.5854949951172 36.5770492553711 36.5710983276367 36.5698623657227 36.5695724487305 36.5696754455566 36.5701942443848 36.571590423584 36.5722961425781 36.5703392028809 36.5686302185059 36.5666580200195 36.5631332397461 36.5635223388672 36.5719566345215 36.5838813781738 36.5912933349609 36.594295501709 36.5959815979004 36.5969085693359 36.5980491638184 36.600887298584 36.6078872680664 36.6193962097168 36.6322975158691 36.6392707824707 36.6298980712891 36.6040687561035 36.5815238952637 36.5722465515137 36.5745658874512 36.5870704650879 36.6009521484375 36.6143531799316 36.6298904418945 36.6481666564941 36.6540451049805 36.6434478759766 36.6359977722168 36.6311683654785 36.6417274475098 36.6549186706543 36.6596870422363
-9999 -9999 -9999 -9999 -9999 -9999 -9999 -9999 -9999 -9999 -9999 35.7743148803711 35.9190902709961 36.0402030944824 36.0347290039062 36.206413269043 36.3012008666992 36.3229026794434 36.3398857116699 36.3608169555664 36.3940582275391 36.4351463317871 36.4672660827637 36.493709564209 36.5370941162109 36.5799903869629 36.5876693725586 36.5832824707031 36.5745429992676 36.570240020752 36.5684547424316 36.5664939880371 36.5649185180664 36.5634651184082 36.5635871887207 36.5674171447754 36.570182800293 36.5719566345215 36.576114654541 36.5774230957031 36.5769500732422 36.5801010131836 36.5865669250488 36.5909042358398 36.5894584655762 36.5842704772949 36.5816955566406 36.5842666625977 36.5894470214844 36.5976181030273 36.6108779907227 36.628849029541 36.6370620727539 36.6293067932129 36.6031723022461 36.5782470703125 36.5667533874512 36.56494140625 36.5726356506348 36.5813407897949 36.5889472961426 36.5963745117188 36.6111869812012 36.633113861084 36.6364669799805 36.6319694519043 36.6241607666016 36.6334648132324 36.648136138916 36.6570129394531
-9999 -9999 -9999 -9999 -9999 -9999 -9999 -9999 -9999 35.6507759094238 35.887809753418 36.0658111572266 36.1814002990723 36.2242660522461 36.2094345092773 36.2971458435059 36.321964263916 36.3362274169922 36.3491363525391 36.3689842224121 36.4007034301758 36.4424896240234 36.4781951904297 36.504825592041 36.5517539978027 36.5885925292969 36.5925979614258 36.5856895446777 36.5792350769043 36.579174041748 36.5793380737305 36.5767517089844 36.5725288391113 36.5690956115723 36.5682220458984 36.5699920654297 36.5721626281738 36.5762023925781 36.5828742980957 36.5887680053711 36.5921211242676 36.5934066772461 36.5943603515625 36.5950698852539 36.5901908874512 36.5776786804199 36.5690536499023 36.5710411071777 36.572998046875 36.5717887878418 36.574764251709 36.5844573974609 36.5948181152344 36.6024017333984 36.5981864929199 36.5820732116699 36.566722869873 36.5578956604004 36.5588226318359 36.5657691955566 36.5720176696777 36.5777969360352 36.5895805358887 36.6051445007324 36.6176452636719 36.6245994567871 36.619026184082 36.6248817443848 36.6397514343262 36.6530914306641
-9999 -9999 -9999 -9999 -9999 -9999 -9999 -9999 -9999 35.8643379211426 36.1463050842285 36.2542457580566 36.2859535217285 36.3027267456055 36.3129844665527 36.3249397277832 36.3285369873047 36.3399620056152 36.3579559326172 36.3912620544434 36.4313011169434 36.4694786071777 36.4944915771484 36.5146827697754 36.5516662597656 36.5872650146484 36.5907745361328 36.5825309753418 36.5780830383301 36.581111907959 36.584285736084 36.5841445922852 36.5801963806152 36.5766830444336 36.5765419006348 36.5770225524902 36.5729446411133 36.5724143981934 36.5783615112305 36.583065032959 36.5889434814453 36.5949211120605 36.5991744995117 36.6011238098145 36.5947227478027 36.5782623291016 36.5695037841797 36.5727615356445 36.5685501098633 36.5612373352051 36.5576210021973 36.5548858642578 36.5514335632324 36.5517425537109 36.5530281066895 36.5519943237305 36.5534210205078 36.5583648681641 36.5627479553223 36.5695877075195 36.5676612854004 36.5671882629395 36.5827903747559 36.5835075378418 36.5952568054199 36.6139678955078 36.61376953125 36.6173629760742 36.6300315856934 36.6462898254395
-9999 -9999 -9999 -9999 -9999 35.9495191574097 35.9413070678711 35.9853401184082 35.9922714233398 36.0474700927734 36.2089309692383 36.2845611572266 36.3098182678223 36.3153991699219 36.317138671875 36.3225059509277 36.3373947143555 36.3570976257324 36.384765625 36.4168472290039 36.4461898803711 36.4790000915527 36.5032119750977 36.5199165344238 36.5472526550293 36.5782356262207 36.5880165100098 36.5834083557129 36.5813980102539 36.5850410461426 36.5869522094727 36.5847244262695 36.5778656005859 36.5711288452148 36.5686531066895 36.5725593566895 36.5712623596191 36.5682144165039 36.5748825073242 36.578067779541 36.5819892883301 36.5909080505371 36.5994186401367 36.6034851074219 36.5946846008301 36.5763397216797 36.5700759887695 36.569766998291 36.5608596801758 36.5542221069336 36.5505867004395 36.545597076416 36.5359039306641 36.5283317565918 36.526481628418 36.5354843139648 36.557559967041 36.5764961242676 36.5796241760254 36.5924034118652 36.5916442871094 36.5818939208984 36.588249206543 36.571849822998 36.578670501709 36.6059913635254 36.6097640991211 36.6120109558105 36.6208229064941 36.6352958679199
-9999 -9999 -9999 -9999 35.8042449951172 35.9423484802246 36.1101760864258 36.1755142211914 36.1871337890625 36.2076263427734 36.2626075744629 36.3040542602539 36.3168678283691 36.311107635498 36.3146095275879 36.3325691223145 36.3610076904297 36.3892593383789 36.4142723083496 36.4399833679199 36.4704971313477 36.500659942627 36.5156555175781 36.5230560302734 36.5407066345215 36.5650520324707 36.5825691223145 36.5909881591797 36.5955581665039 36.5985298156738 36.5974464416504 36.5917282104492 36.5817604064941 36.570873260498 36.5635795593262 36.5689544677734 36.5718650817871 36.5672340393066 36.5749473571777 36.5814743041992 36.5790710449219 36.583438873291 36.5938491821289 36.5971984863281 36.5851440429688 36.5675659179688 36.5600128173828 36.5557327270508 36.5487403869629 36.544994354248 36.5433692932129 36.5400810241699 36.5306854248047 36.5240097045898 36.5314750671387 36.5485496520996 36.5651969909668 36.5651664733887 36.5686950683594 36.5855445861816 36.6012382507324 36.6002006530762 36.5921936035156 36.5619277954102 36.5687561035156 36.6002960205078 36.607250213623 36.6062965393066 36.6098937988281 36.6200141906738
-9999 -9999 -9999 35.9083204269409 35.8918609619141 36.1176719665527 36.2115440368652 36.2588882446289 36.2802429199219 36.3020057678223 36.3063621520996 36.3214721679688 36.3121109008789 36.3107986450195 36.3307418823242 36.3632278442383 36.3924255371094 36.4132080078125 36.4329528808594 36.4687309265137 36.5118942260742 36.5383644104004 36.5514297485352 36.5439491271973 36.5389442443848 36.5457725524902 36.5580596923828 36.5699691772461 36.5794906616211 36.5867729187012 36.5887756347656 36.5848426818848 36.5763702392578 36.5648994445801 36.5559158325195 36.561824798584 36.5710906982422 36.5692367553711 36.5785102844238 36.593563079834 36.5891647338867 36.5793876647949 36.582633972168 36.5858154296875 36.5768432617188 36.5602645874023 36.5463485717773 36.5403938293457 36.5373115539551 36.5353164672852 36.535270690918 36.5341644287109 36.5270805358887 36.5241622924805 36.5345191955566 36.5477714538574 36.5516738891602 36.5502548217773 36.5617446899414 36.5807991027832 36.5940971374512 36.5888175964355 36.5729484558105 36.5497360229492 36.5609588623047 36.5981216430664 36.6050910949707 36.6027793884277 36.601936340332 36.6090660095215
-9999 -9999 -9999 35.8857765197754 36.051399230957 36.203971862793 36.2622604370117 36.3030014038086 36.3206024169922 36.3285217285156 36.3202629089355 36.3135681152344 36.3115348815918 36.3273162841797 36.3636741638184 36.3967552185059 36.4219741821289 36.4449615478516 36.485523223877 36.5363960266113 36.5621147155762 36.5684242248535 36.5717010498047 36.5587959289551 36.5372581481934 36.5248908996582 36.5225219726562 36.5277328491211 36.5355606079102 36.5439529418945 36.5500030517578 36.5529556274414 36.5520515441895 36.5492324829102 36.5486755371094 36.5613784790039 36.575611114502 36.5751495361328 36.5801315307617 36.5984039306641 36.6083717346191 36.5965538024902 36.5808334350586 36.5745544433594 36.5660667419434 36.5502777099609 36.5387763977051 36.5315017700195 36.526725769043 36.5219955444336 36.5220222473145 36.5243301391602 36.5225257873535 36.5248031616211 36.534065246582 36.5386924743652 36.5399932861328 36.5446243286133 36.5538597106934 36.5630722045898 36.5706558227539 36.5631904602051 36.5476303100586 36.5390129089355 36.5554504394531 36.5937042236328 36.6048812866211 36.6017227172852 36.599292755127 36.6082382202148
