NCOLS 35 
NROWS 26 
XLLCORNER -80 
YLLCORNER 33 
CELLSIZE 0.5 
NODATA_value -9999 
-9999.000000000000000 -9999 -9999 -9999 -9999 -9999 -9999 -9999 -9999 -9999 -9999 -9999 -9999 -9999 -9999 -9999 -9999 -9999 -9999 -9999 -9999 -9999 -9999 -9999 -9999 -9999 -9999 -9999 -9999 -9999 -9999 -9999 -9999 -9999 -9999
-9999 -9999 -9999 -9999 -9999 -9999 -9999 -9999 -9999 -9999 -9999 -9999 -9999 -9999 -9999 -9999 -9999 -9999 -9999 -9999 -9999 -9999 -9999 -9999 -9999 -9999 -9999 -9999 -9999 30.7596809084335 -9999 -9999 -9999 -9999 -9999
-9999 -9999 -9999 -9999 -9999 -9999 -9999 -9999 -9999 -9999 -9999 -9999 -9999 -9999 -9999 -9999 -9999 -9999 -9999 -9999 -9999 -9999 -9999 -9999 -9999 -9999 29.9993590609923 29.9726694730612 30.6217993344157 30.9000170769749 -9999 -9999 -9999 -9999 -9999
-9999 -9999 -9999 -9999 -9999 -9999 -9999 -9999 -9999 -9999 -9999 -9999 -9999 -9999 -9999 -9999 -9999 -9999 -9999 -9999 -9999 -9999 -9999 31.6426152314114 31.720463114141 31.6623734603749 31.4140456546923 31.1444262884131 -9999 -9999 -9999 30.9902883669942 31.0060268525385 30.9614139489329 30.8816502278083
-9999 -9999 -9999 -9999 -9999 -9999 -9999 -9999 -9999 -9999 -9999 -9999 -9999 -9999 -9999 -9999 -9999 -9999 -9999 -9999 31.5245633269338 31.8070816385265 31.9996149247478 31.9649750613935 31.6946587618082 31.6686534972219 31.4879727977986 31.2323298645975 -9999 -9999 31.1601805619915 31.0479917901469 30.9624147499031 30.9369822902389 30.9118887926164
-9999 -9999 -9999 -9999 -9999 -9999 -9999 -9999 -9999 -9999 -9999 -9999 -9999 -9999 -9999 -9999 -9999 -9999 -9999 32.0265586091122 32.1077872004151 32.2110210073152 32.3728489867352 32.261372617388 31.7943204851661 31.5635718287823 31.2256318660479 31.0526751800227 31.0121635328893 30.9193598927548 30.9582985233496 30.9874249085191 30.9872852625272 31.001923986746 30.967451370433
-9999 -9999 -9999 -9999 -9999 -9999 -9999 -9999 -9999 -9999 -9999 -9999 -9999 -9999 -9999 -9999 -9999 -9999 -9999 32.148764101219 32.4930851033005 32.543191857 32.5224336900482 32.4687836502061 31.9804112376496 31.7051512158455 31.5220100940684 30.9898839572045 30.8078473961997 30.8808140829988 31.0719460317764 31.3134989179485 31.4215609488982 31.4384143510424 31.3713302551721
-9999 -9999 -9999 -9999 -9999 -9999 -9999 -9999 -9999 -9999 -9999 -9999 -9999 -9999 -9999 -9999 -9999 -9999 -9999 32.0360701228416 32.4654545944346 32.6170178819759 32.6642734596925 32.7245216790826 32.4421779584283 32.2128114793007 32.1778695634349 31.6506743792772 31.2336447629613 31.4485892140433 31.7993437016983 32.2053104254131 32.6378587507346 32.6219777769608 32.5007647971156
-9999 -9999 -9999 -9999 -9999 -9999 -9999 -9999 -9999 -9999 -9999 -9999 -9999 -9999 -9999 -9999 -9999 -9999 -9999 31.5436259641165 32.1428323611341 32.5924838228391 32.7557074237572 32.7996312991511 32.7703481856733 32.7388819255917 32.7480582712566 32.3890111466526 32.1188592821059 32.8848540999532 32.8949175630166 33.0193519626939 33.3407280064378 33.6451575055468 33.7440298270782
-9999 -9999 -9999 -9999 -9999 -9999 -9999 -9999 -9999 -9999 -9999 -9999 -9999 -9999 -9999 -9999 -9999 29.9737062807302 30.8864669663611 31.4498528922872 31.8825655219465 32.456629497537 32.7529147252629 32.7269445509258 32.7456633785146 32.7196502555798 32.659395527363 32.7553144795028 34.0810140547316 34.8344072420974 34.9300648766495 35.0157623174082 35.1778555355413 35.3871471806194 35.2251661284048
-9999 -9999 -9999 -9999 -9999 -9999 -9999 -9999 -9999 -9999 -9999 -9999 -9999 -9999 30.0515215031083 30.5624312124786 30.3351216651432 30.9044955824215 31.7085472444787 32.1712070616008 32.387763818281 32.6101742383674 32.6753410206195 32.6737847671268 32.707621324044 32.6866541797542 32.9151262465534 34.0150413611456 35.001429910487 34.871128242185 35.4269912893529 35.7202100467619 35.7909934715904 35.9077881882246 36.0637513713544
-9999 -9999 -9999 -9999 -9999 -9999 -9999 -9999 -9999 -9999 -9999 -9999 30.7799112778775 31.1060443999434 31.265570693503 31.3063490496039 31.8613486617367 32.5124644802153 32.8916768890234 32.9901550308039 32.9282221253016 33.0158740948208 33.3160926808501 33.7720491388966 34.0810546597761 34.1979002383569 34.4080286486466 35.1916083563946 35.5370511987614 35.2199140015882 35.4694408511045 35.7154194577356 35.8189439457248 35.9642866043955 36.1124922238888
-9999 -9999 -9999 -9999 -9999 -9999 -9999 -9999 -9999 -9999 -9999 -9999 31.4745512622897 31.9576966343628 31.8083708889866 32.2258897471921 33.1701694340312 33.7862178096548 34.2794549142029 34.5728437529418 34.5537547271138 34.6199462417663 34.9741167500257 35.4462644108788 35.658257735512 35.7479845612318 35.8967356061845 36.1628277175057 36.1699756420559 35.8453238568746 35.5323773822718 35.6735340336495 35.7283321100604 35.834489350042 36.0155409908804
-9999 -9999 -9999 -9999 -9999 -9999 -9999 -9999 -9999 28.6669377116417 30.2374124154093 31.3428581291619 32.0467742140077 32.3165575195952 32.5239593740555 34.0106268527173 34.861290813288 35.0565107626869 35.165381758163 35.3200506090507 35.4130503175291 35.3739926741377 35.3407977544608 35.4196894857829 35.5816160017564 35.748795689554 35.9655950610062 36.2068817157751 36.2919797756912 35.9098789355136 35.4889044202026 35.5402000180778 35.5878620379496 35.7346631392963 36.0474534248628
-9999 -9999 -9999 -9999 -9999 -9999 -9999 -9999 -9999 -9999 31.2923990778382 32.0412997192702 32.6185796381906 32.9564157440897 34.5033105218711 35.3649945981537 35.4733805961606 35.5104672522599 35.4565484040452 35.4921131121394 35.4948213085701 35.41740849885 35.3249349643527 35.319650098889 35.4588396532461 35.7127455305727 35.8687989693436 36.0833943087997 36.2705483261524 36.1990546329863 35.7845481743478 35.5209374016265 35.6332796635874 35.8944260619756 36.1857432774638
-9999 -9999 -9999 -9999 -9999 -9999 -9999 10.898577473914 12.8991269818767 -9999 31.0522842063921 32.2014667432344 33.297132537035 34.4037862699775 35.3449087197575 35.5143838984934 35.5680445332888 35.535812263986 35.5640745661888 35.6634255158759 35.744984645412 35.6941240000164 35.5362426152134 35.4646572632255 35.5816290730688 35.6646030085076 35.8261137510402 36.0987527587402 36.3325108996703 36.383403940296 36.2585178237518 36.0966727070149 36.1707858917134 36.2822687296431 36.4226476875702
-9999 -9999 -9999 -9999 -9999 -9999 -9999 12.7139182243772 17.2239727501299 29.0858769257573 30.7768433433035 32.6522797351142 34.3163843832102 35.182080951285 35.5142286847081 35.821617110931 35.9320773212315 35.9716624975161 36.0243583878982 36.1427007457688 36.2498884475816 36.2590388062327 36.1602092495172 35.9731351329759 35.8798763243645 35.8990000366584 36.0935237844051 36.3370292407872 36.4684052987935 36.5177650827973 36.5301038878755 36.5182127081717 36.5077973177306 36.5026563976795 36.5311848467727
-9999 -9999 -9999 -9999 -9999 -9999 -9999 16.849889539163 -9999 29.615108952004 31.7174001221144 33.902405034901 35.1886967497387 35.6144354632788 36.022163608041 36.2486312781645 36.3458859067425 36.3833129146495 36.4217295137316 36.4649643013043 36.5007321016947 36.5155690942729 36.497120695556 36.4329509080682 36.3370762929507 36.2914893398907 36.3894326605554 36.505493733686 36.5710282552574 36.6077991755775 36.6210461336915 36.6059563338298 36.5889164146292 36.5653390819219 36.555945558495
-9999 -9999 -9999 -9999 -9999 -9999 -9999 -9999 29.056477395111 30.984443403074 32.4729853513912 34.770673807587 35.7156746085723 36.1671402860635 36.3848252281959 36.515124962094 36.5529446043751 36.5679147770456 36.598002703191 36.6381423397553 36.6529123619798 36.6522130400615 36.6484322032072 36.627559803127 36.5924220979437 36.5802603619281 36.594127456154 36.6172791099841 36.6335673643337 36.6469477359562 36.6501001852984 36.6355193040514 36.6311964960306 36.6108509473754 36.5735004047676
-9999 -9999 -9999 -9999 -9999 -9999 -9999 -9999 -9999 32.9003353416196 33.8369129602164 35.4879372732113 36.1769140218252 36.3415553289104 36.5226399042511 36.5991999624265 36.6123302284921 36.645157593973 36.6724352644261 36.6881401591445 36.6788574749194 36.6770142267054 36.682578256713 36.6860192971293 36.6769787554778 36.653986581317 36.6468163883159 36.6520993341319 36.6546663418769 36.6551376871759 36.6511278166217 36.6398806995414 36.6429849376875 36.642329208274 36.6281593945809
-9999 -9999 -9999 -9999 -9999 -9999 -9999 -9999 -9999 33.7656043322249 35.1824310998696 36.1540039350767 36.2826239007024 36.4162766757333 36.566074284217 36.6175548095033 36.6332175457514 36.6462869666288 36.6530164562557 36.650524251725 36.6506449655093 36.6604836151466 36.6709398051458 36.6738801635913 36.6533773366239 36.6351129182381 36.6163070572262 36.6003670666917 36.6156416356706 36.6427677411448 36.6581378565341 36.6609838826023 36.6641943090636 36.6666211597155 36.6613057100101
-9999 -9999 -9999 -9999 -9999 -9999 -9999 34.5058366302859 35.0789904925796 35.3892320249609 36.1144618053173 36.2645823680461 36.3700774060071 36.4883741283096 36.588205755923 36.6202589479783 36.62013620857 36.6138872962588 36.6134248073641 36.620683956119 36.6210266836753 36.6204278353974 36.6232722007221 36.6188241031529 36.609670117159 36.6049805021426 36.5892118686789 36.5799899518367 36.5733520526163 36.5922521923467 36.6233793133122 36.6448543714534 36.653141557998 36.6610557386005 36.6664190855973
-9999 -9999 -9999 -9999 -9999 -9999 34.7068708710717 35.1914162128506 35.9228944023492 36.1779413620489 36.2500857232511 36.3466437249299 36.4593457900561 36.5479187947757 36.6067414845285 36.610031970095 36.5906852741441 36.5735514518375 36.5826181052599 36.6081344432028 36.6217845340581 36.6122338369538 36.6041003456472 36.6034641453968 36.6023462758715 36.6104264503359 36.6359505017482 36.6470139309385 36.6317773471075 36.6284379648522 36.6252632148638 36.6362835626505 36.6470606812706 36.6546190562971 36.6608589311051
-9999 -9999 -9999 -9999 34.2800950583838 35.1972934888782 35.7849691289655 35.9992170889871 36.1833853959603 36.2526737465112 36.3557784111526 36.4996481352151 36.5672118183942 36.5983339853001 36.6092537118843 36.5980355545219 36.5794766694105 36.5720919628126 36.5863638250354 36.6104135882933 36.628564103553 36.6324098475756 36.6239085820714 36.6289765112383 36.6248197118356 36.6389677990329 36.6719787531349 36.6636404819592 36.662508728189 36.6547854297959 36.6332399443252 36.6349282403411 36.6468009654015 36.6452575618781 36.645335631579
-9999 -9999 -9999 34.543804621197 34.9726431084613 35.8825363766727 36.2404208936288 36.227885070444 36.2597754600015 36.3537338091913 36.5121738088157 36.6224791796017 36.6130368694868 36.6119617298991 36.6094489511979 36.6020910888151 36.6047178699114 36.6095029132885 36.6188464359944 36.6166334550323 36.6201859718503 36.6493512302226 36.665426257448 36.6608037885183 36.6519691938173 36.6516725404908 36.6604357567579 36.6379943296796 36.6369057726796 36.6394230882424 36.6373147515601 36.6464236989414 36.6432342168971 36.6302181410329 36.6317748466019
-9999 -9999 34.9369412984786 35.9571771874968 36.1898339684091 36.2122360313053 36.2249044738468 36.2435241062189 36.3425150495075 36.49393394408 36.5857210737018 36.6080811015434 36.5851383405384 36.5676790212248 36.591281416671 36.5969490211338 36.6168587554131 36.6403660940866 36.6506953109888 36.6345111348175 36.6192576551347 36.6250881600228 36.6361042379012 36.6452920303547 36.6456371993917 36.6477824413361 36.6471651960983 36.6317711998077 36.6300361856551 36.6307599237225 36.64403703077 36.6518688489583 36.6463594262898 36.6342646847744 36.630192451826
