NCOLS 35 
NROWS 26 
XLLCORNER -80 
YLLCORNER 33 
CELLSIZE 0.5 
NODATA_value -9999 
-9999.000000000000000 -9999 -9999 -9999 -9999 -9999 -9999 -9999 -9999 -9999 -9999 -9999 -9999 -9999 -9999 -9999 -9999 -9999 -9999 -9999 -9999 -9999 -9999 -9999 -9999 -9999 -9999 -9999 -9999 -9999 -9999 -9999 -9999 -9999 -9999
-9999 -9999 -9999 -9999 -9999 -9999 -9999 -9999 -9999 -9999 -9999 -9999 -9999 -9999 -9999 -9999 -9999 -9999 -9999 -9999 -9999 -9999 -9999 -9999 -9999 -9999 -9999 -9999 -9999 29.9211662845795 -9999 -9999 -9999 -9999 -9999
-9999 -9999 -9999 -9999 -9999 -9999 -9999 -9999 -9999 -9999 -9999 -9999 -9999 -9999 -9999 -9999 -9999 -9999 -9999 -9999 -9999 -9999 -9999 -9999 -9999 -9999 30.9374443525494 30.5297276827425 30.099499174965 29.9791123861118 -9999 -9999 -9999 -9999 -9999
-9999 -9999 -9999 -9999 -9999 -9999 -9999 -9999 -9999 -9999 -9999 -9999 -9999 -9999 -9999 -9999 -9999 -9999 -9999 -9999 -9999 -9999 -9999 31.4815868555658 31.7635948901555 31.7160891771353 31.3139980112081 30.578922453501 -9999 -9999 -9999 31.6134779610905 31.53728275905 31.5700871024704 31.5901582721731
-9999 -9999 -9999 -9999 -9999 -9999 -9999 -9999 -9999 -9999 -9999 -9999 -9999 -9999 -9999 -9999 -9999 -9999 -9999 -9999 31.3467653763828 31.3250663946269 31.2312772700866 31.1650252669357 31.3518253204143 31.5975611432479 31.424042786526 30.8851375458074 -9999 -9999 31.5592635859099 31.4375789707251 31.4422199072185 31.4861457009188 31.5558457508573
-9999 -9999 -9999 -9999 -9999 -9999 -9999 -9999 -9999 -9999 -9999 -9999 -9999 -9999 -9999 -9999 -9999 -9999 -9999 31.3190352422821 31.1997661294038 31.2301658339831 31.2935201467764 31.5160085359532 31.7022495132842 31.8196258335616 31.7158784705748 31.4217646918088 31.2393415826925 31.4072405495014 31.6628106420631 31.6371198120272 31.4788721474274 31.4753436121213 31.799955815802
-9999 -9999 -9999 -9999 -9999 -9999 -9999 -9999 -9999 -9999 -9999 -9999 -9999 -9999 -9999 -9999 -9999 -9999 -9999 31.0267724120181 31.2314924742595 31.6533303857031 32.1000086024829 32.3711241758258 32.314483810354 32.1942072604527 32.0612558504034 31.9720915780695 31.8963474278844 31.9741240061639 32.1971233301892 32.1686468403675 31.9180349270467 31.6718966609889 32.0950740559708
-9999 -9999 -9999 -9999 -9999 -9999 -9999 -9999 -9999 -9999 -9999 -9999 -9999 -9999 -9999 -9999 -9999 -9999 -9999 30.9542988362665 31.2484738151862 31.6621862897017 32.1434819710185 32.4596309372701 32.4932026995016 32.405886299439 32.3968195856504 32.3916674106413 32.5377664105377 33.2338048189428 33.8240325099496 33.7911563618051 33.1414386385008 32.2528850657618 32.4304898656549
-9999 -9999 -9999 -9999 -9999 -9999 -9999 -9999 -9999 -9999 -9999 -9999 -9999 -9999 -9999 -9999 -9999 -9999 -9999 31.2273833773829 31.4233510118299 31.4780330654921 31.8853686590515 32.2808896482073 32.5703586842269 32.7020825351913 32.7460417342508 32.8089869125527 33.6672130364695 35.3190338342679 35.6192537322577 35.2390652087116 34.1585485816577 33.073651362636 33.271477905305
-9999 -9999 -9999 -9999 -9999 -9999 -9999 -9999 -9999 -9999 -9999 -9999 -9999 -9999 -9999 -9999 -9999 30.3391814759911 30.9746454868154 31.3821553619989 31.4769062529764 31.4167130776358 31.6514352224861 32.1629561686067 32.6992213249909 32.8847650717599 33.1141818762449 33.9305134674743 35.2750192310344 36.046891362456 35.870226652045 35.4428111536683 34.6790807904414 34.1330334966505 33.970653902215
-9999 -9999 -9999 -9999 -9999 -9999 -9999 -9999 -9999 -9999 -9999 -9999 -9999 -9999 30.5492165190584 30.8665616602722 30.7890221696844 30.9423814948075 31.1494920511012 31.3576474632308 31.4717803340074 31.5543284134947 32.0496575893656 32.7641777280658 33.1096802995153 33.4473035270732 34.1335911590261 35.1207333639645 35.7309272498345 35.9019052807082 35.8862562543135 35.5244480349762 35.0525531961628 35.0195795712284 35.0765026118787
-9999 -9999 -9999 -9999 -9999 -9999 -9999 -9999 -9999 -9999 -9999 -9999 31.1569261364219 31.0802066370346 31.017772923463 31.2870644276305 31.9179474026446 32.6832939027164 32.9200567699882 32.7782412501503 32.6751877009939 32.6475627956354 33.1056191645726 33.4903018706494 33.9522821378229 34.4614633096418 35.0895034499518 35.5436425086264 35.702021465866 35.8014431581288 35.7636909060824 35.523674761679 35.317966689859 35.40778101181 35.6688026948002
-9999 -9999 -9999 -9999 -9999 -9999 -9999 -9999 -9999 -9999 -9999 -9999 31.496439020873 31.5965588308848 32.0180996530231 33.1222160556266 34.2511922927295 34.9440506187912 35.1092466396945 35.1777428316921 35.2195279699439 35.1999956610893 35.3273264417046 35.2319186323417 35.1203378306673 35.4238071879566 35.4574074766103 35.5914933180099 35.694609673588 35.6950373955284 35.6562524212688 35.6483962191269 35.7007052126146 35.8204193043746 35.937163609797
-9999 -9999 -9999 -9999 -9999 -9999 -9999 -9999 -9999 30.8652157772725 31.6220676136521 31.8308357274507 31.792170564164 32.192140941386 33.6051454430593 34.8120188783229 35.2720855893439 35.5557287371545 35.5704524423428 35.5980979071156 35.7636419342711 35.9718726781553 36.1318367077508 36.2739982202902 35.9537865670117 35.6262842175592 35.6021080929159 35.6908145862666 35.721561714899 35.7226929495192 35.7872962406959 35.8987604455664 36.0041078249177 36.0639641048166 36.0638018845181
-9999 -9999 -9999 -9999 -9999 -9999 -9999 -9999 -9999 -9999 32.1433223464701 31.9001850855081 32.0377422443683 33.5449132703686 35.2782957666238 35.5787133387006 35.6511158449071 35.6715684068833 35.6404964620414 35.7303002668446 35.7349271505618 35.9072532061321 36.0970425148855 36.2710904207344 36.2451003228412 35.8017286732055 35.6904180093035 35.8313306843141 35.8738732409945 35.8559521055348 36.0054475794336 36.167193385587 36.1932140985758 36.1303092986094 36.1022135671019
-9999 -9999 -9999 -9999 -9999 -9999 -9999 11.2959911144066 13.5429556875908 -9999 32.3606272238298 32.0240684054175 33.2381059836392 35.0505716005027 35.51854526427 35.4493685309753 35.2509300566429 35.2644545427036 35.413055085124 35.6641232642464 35.7871612254686 35.8242746050504 35.9174199116361 36.0512773538524 36.1728307270909 35.976376186606 35.8177041255772 35.8528806221336 35.8959451875216 35.978737586793 36.1681351505688 36.229124596809 36.2082791013101 36.1849474285184 36.1525334231686
-9999 -9999 -9999 -9999 -9999 -9999 -9999 14.7981611554728 19.1918390534145 31.9613421105607 32.3619206546021 32.8644901543381 34.6548329090689 35.2101602108463 35.2188402759131 35.1493633571936 35.0782270632733 35.3781936469029 35.7678275122928 36.0022756411725 36.0981930103742 36.0935239775772 36.0890289646747 36.1090440132996 36.1123547980347 36.1339614949158 36.0390109842887 35.9957496301858 36.0496983825155 36.1440901240518 36.2288596894396 36.2399880405544 36.1997252326274 36.1778242957296 36.1817008748492
-9999 -9999 -9999 -9999 -9999 -9999 -9999 21.7720289776731 -9999 33.0855880994316 33.2739873061773 33.9469176894768 34.8846879593496 35.024132757105 35.1043128497731 35.3183077928915 35.652884009539 35.9791915077 36.1757884656599 36.2626757553576 36.2886929724679 36.2956235180351 36.2764434665605 36.2436649575242 36.2298964615596 36.2273523715384 36.2201086188685 36.2034636494243 36.2343282186469 36.2641853618116 36.2647929551516 36.2511154647114 36.1943618225814 36.1827542986729 36.2345442829864
-9999 -9999 -9999 -9999 -9999 -9999 -9999 -9999 33.5228677642732 34.5247796855803 34.3070741961068 34.5804858761242 34.9096565940121 35.2880713308131 35.7851780482119 36.0567209880049 36.1834569863468 36.2494330027614 36.2673711051708 36.2967017752059 36.3129292608311 36.3275967287906 36.33660705913 36.3516268475188 36.3506260416299 36.3228078970939 36.3087856481075 36.3112235672526 36.323135738325 36.303629725023 36.2890086210513 36.2674802407021 36.2402276946956 36.2206764160721 36.2855639237797
-9999 -9999 -9999 -9999 -9999 -9999 -9999 -9999 -9999 35.5230420170629 35.5274549063332 35.2395601693003 35.7169547426647 36.1324497917396 36.212240992743 36.2558478096654 36.2787044293268 36.2597851159237 36.2602112938288 36.3035234763415 36.3389080662051 36.3456044026698 36.3393184442419 36.3665655438682 36.3788713916391 36.3488299126529 36.3548099186639 36.3553501660377 36.3391064539557 36.3185004086941 36.2986013290637 36.2685262273997 36.2606249853037 36.2491721211523 36.2864425805083
-9999 -9999 -9999 -9999 -9999 -9999 -9999 -9999 -9999 35.7390186355132 35.9899541558514 36.115199800559 36.1922910578733 36.2266698301051 36.2774940048759 36.2790722330368 36.2716731471904 36.2579335814313 36.2649542994683 36.3462611864811 36.3910964223726 36.3959130346325 36.3778885883171 36.3749913917635 36.3667276541659 36.3607302801048 36.3809005747104 36.3792354606884 36.3466460201901 36.3272687842662 36.3285587379406 36.2904307420059 36.2595887980659 36.2587664644202 36.3032020755221
-9999 -9999 -9999 -9999 -9999 -9999 -9999 35.4611087605977 35.7327382518677 35.9113871365123 36.1141555591177 36.1918821661886 36.2317325758205 36.2988087087074 36.2923949776646 36.2731174601319 36.2689370226345 36.2754687187835 36.3031633874424 36.359738097204 36.3747936868226 36.3786101317347 36.3733175192646 36.3732576238392 36.3603151613027 36.3588013359162 36.3778182562321 36.3990842632544 36.3809622730754 36.3674832535572 36.3568635822749 36.3034109401763 36.2669218794191 36.2571196856504 36.3024649696768
-9999 -9999 -9999 -9999 -9999 -9999 35.4962807689283 35.6760200472243 35.9101528709959 36.1033649841825 36.1818938980495 36.2083809727653 36.2845304020486 36.3262329525187 36.3007866461708 36.2817711062306 36.2889333375897 36.3140765112968 36.3426268049354 36.3690752049863 36.3766070523854 36.3848685537475 36.3955302117914 36.3947622923127 36.3758554586324 36.366800261389 36.3667338584783 36.386974968099 36.3949596229826 36.3783254322735 36.3249021442859 36.2552574368136 36.2732558250171 36.2848514299385 36.2894288508653
-9999 -9999 -9999 -9999 35.2013241686961 35.571214095466 35.7297617556284 35.8818436310047 36.1133380561161 36.1778248779289 36.1890098284701 36.2431919005057 36.3137446644276 36.3303554920439 36.3213223727622 36.3167371404384 36.3304317480733 36.3420942401771 36.3592873140022 36.3851504951403 36.404223051705 36.4130160339153 36.4164946570376 36.4099769900127 36.3899060395274 36.3751332753322 36.402900780606 36.3976907948204 36.3925124356009 36.3806813699827 36.358579508609 36.2856885600308 36.2781644153693 36.3959260764324 36.4714970142897
-9999 -9999 -9999 35.153647957382 35.461553443619 35.7613257175758 35.9529937122339 36.1500825172239 36.1828494158119 36.1904264802395 36.2166519073652 36.291200946013 36.3268887181521 36.3293222640954 36.3241648546589 36.3299498292846 36.3469951707188 36.3581474926136 36.3667659330964 36.3741285268543 36.3782443013314 36.3908093015528 36.4063263256684 36.4107668050128 36.4046452306793 36.4230133422405 36.4749963121931 36.458988327761 36.403137742411 36.3783673076929 36.3680948672915 36.3537820123385 36.4710606787515 36.5472221933645 36.4866694019331
-9999 -9999 35.2629115840244 35.6077032518032 35.8015836485778 35.9821151862709 36.1646884384048 36.1827671868742 36.1902370917602 36.2000707645329 36.2739795986335 36.324782837036 36.3314318677989 36.3362779327679 36.3415897477524 36.3562249921904 36.3674323104514 36.3754375193834 36.3813327114383 36.3953331205745 36.3973569518394 36.3911484111565 36.3873955534034 36.4223796740202 36.472455339755 36.5025751413097 36.5168739664679 36.4773354687465 36.4108512440272 36.3581576281125 36.3931172346527 36.4302478655766 36.5109943026331 36.5287582966108 36.4779785829485
