NCOLS 35 
NROWS 26 
XLLCORNER -80 
YLLCORNER 33 
CELLSIZE 0.5 
NODATA_value -9999 
-9999.000000000000000 -9999 -9999 -9999 -9999 -9999 -9999 -9999 -9999 -9999 -9999 -9999 -9999 -9999 -9999 -9999 -9999 -9999 -9999 -9999 -9999 -9999 -9999 -9999 -9999 -9999 -9999 -9999 -9999 -9999 -9999 -9999 -9999 -9999 -9999
-9999 -9999 -9999 -9999 -9999 -9999 -9999 -9999 -9999 -9999 -9999 -9999 -9999 -9999 -9999 -9999 -9999 -9999 -9999 -9999 -9999 -9999 -9999 -9999 -9999 -9999 -9999 -9999 -9999 31.6068514660423 -9999 -9999 -9999 -9999 -9999
-9999 -9999 -9999 -9999 -9999 -9999 -9999 -9999 -9999 -9999 -9999 -9999 -9999 -9999 -9999 -9999 -9999 -9999 -9999 -9999 -9999 -9999 -9999 -9999 -9999 -9999 32.1427346651175 31.9955403691626 31.8965391461668 31.5392271034795 -9999 -9999 -9999 -9999 -9999
-9999 -9999 -9999 -9999 -9999 -9999 -9999 -9999 -9999 -9999 -9999 -9999 -9999 -9999 -9999 -9999 -9999 -9999 -9999 -9999 -9999 -9999 -9999 32.7590233936334 32.9588128399774 32.9329698107652 32.6720880365199 32.4843713655861 -9999 -9999 -9999 31.1730261644504 30.9280808078052 30.8304869510809 30.9196853428394
-9999 -9999 -9999 -9999 -9999 -9999 -9999 -9999 -9999 -9999 -9999 -9999 -9999 -9999 -9999 -9999 -9999 -9999 -9999 -9999 32.4879868147653 32.6796207010971 32.9413015690999 33.1293557283711 33.1389851019276 33.0782352051938 32.8370224897306 32.4838431757064 -9999 -9999 31.5349528563182 31.1802774917066 31.0570888339327 31.1932121473648 31.5410088736457
-9999 -9999 -9999 -9999 -9999 -9999 -9999 -9999 -9999 -9999 -9999 -9999 -9999 -9999 -9999 -9999 -9999 -9999 -9999 32.6554816664356 32.8511749648859 32.9347313786082 33.0407956370756 33.1102769759485 33.1313503192852 32.9941391705655 32.7074970835274 32.3640139386164 32.0690785881613 31.8180317371172 31.68051803259 31.5461612820711 31.5333142103341 31.6005425453996 31.628547825411
-9999 -9999 -9999 -9999 -9999 -9999 -9999 -9999 -9999 -9999 -9999 -9999 -9999 -9999 -9999 -9999 -9999 -9999 -9999 32.7213482075179 32.8579220251255 32.9649962678397 33.0443385677279 33.0143519523021 33.0048174990937 32.9239497969076 32.8135548962174 32.6538663595542 32.28121732712 32.1427776950406 32.2012842412064 32.2036634118855 32.0421060088995 31.8127345247364 31.6728285393151
-9999 -9999 -9999 -9999 -9999 -9999 -9999 -9999 -9999 -9999 -9999 -9999 -9999 -9999 -9999 -9999 -9999 -9999 -9999 32.5481740440573 32.718931162625 33.0057344910947 33.1870094469339 33.0260288773133 32.9486921103284 32.9201862663958 32.884223885355 32.8027052173258 32.6966344755196 32.7369982695297 32.8661589399715 32.7515392996399 32.4837709977547 32.405435356602 32.5232419543257
-9999 -9999 -9999 -9999 -9999 -9999 -9999 -9999 -9999 -9999 -9999 -9999 -9999 -9999 -9999 -9999 -9999 -9999 -9999 32.2391861131994 32.6096527452519 32.9895126074604 33.2023654218569 32.9879908512859 32.9076597959603 32.8683689509125 32.8394131890281 32.8722403130439 33.2190998313266 33.3008176061359 33.3315651774543 33.2340117398028 33.1228110189988 33.1721259736597 33.6413646504364
-9999 -9999 -9999 -9999 -9999 -9999 -9999 -9999 -9999 -9999 -9999 -9999 -9999 -9999 -9999 -9999 -9999 32.2763783597624 32.2602028438152 32.2985102057393 32.5776614080473 33.1185403513483 33.1530502807312 32.8889885557826 32.8618552506231 32.8756738358459 33.0110342683717 33.2941041685741 34.2137720297485 33.9839637284584 33.7235141944101 33.9765109421086 34.1720096858048 34.0040886477417 33.4273569230809
-9999 -9999 -9999 -9999 -9999 -9999 -9999 -9999 -9999 -9999 -9999 -9999 -9999 -9999 31.5094653014122 32.0702522172098 32.5093882479998 33.0506582534686 33.0638344931534 32.8274981686673 32.8516718424395 33.1757336826989 33.047852878055 32.8510604849264 33.0746487786228 33.4471970007068 33.7624948426204 34.1901602708211 34.6256640193293 34.2972028641642 34.0882365946899 34.4580372239658 34.7032930624145 34.8386384945899 34.934379690833
-9999 -9999 -9999 -9999 -9999 -9999 -9999 -9999 -9999 -9999 -9999 -9999 31.901454976936 32.4099213521233 32.830485717448 33.2766271652934 33.8977254822731 34.4580442009666 34.4690446842219 34.1658975312943 33.8052422328288 33.4910614273858 33.5155140832615 33.7931888905099 34.3032694018873 34.5425020563355 34.6739927499122 34.8542699932991 34.8642719766575 34.4780079945932 34.4956013290661 34.9419848725334 35.1103189125544 35.2658501937141 35.4877971201426
-9999 -9999 -9999 -9999 -9999 -9999 -9999 -9999 -9999 -9999 -9999 -9999 32.2329158533735 32.9366016226237 33.5813995475695 34.4244785759737 35.1356604498656 35.3932584282942 35.4531997253824 35.4637346008185 35.0810592077795 34.409119515663 34.5392747407298 34.8994807235649 35.040328675189 34.9949673645853 34.9961412808502 35.0312593052839 34.8757971529079 34.6537360939615 34.952754484271 35.071633857907 35.1708686078663 35.4748279716848 35.8377992735515
-9999 -9999 -9999 -9999 -9999 -9999 -9999 -9999 -9999 31.2401436970226 31.5375826323588 32.0143831143085 32.6662582695218 33.390828677899 34.3761982537835 35.4061026480598 35.7272560072952 35.8431068447863 35.8243641819061 35.9744997382781 35.585613906372 34.8851026824172 34.7577571053553 34.9276244596817 35.0047129549032 34.9670440525951 35.0399153459118 35.1043105625617 35.1047380041343 35.1632505829039 35.2517739316611 35.3032912052572 35.6156444523537 35.9891045098166 36.2024161428378
-9999 -9999 -9999 -9999 -9999 -9999 -9999 -9999 -9999 -9999 32.0418652332869 32.7744343981113 33.3559559243537 34.3063473136269 35.3658169599703 35.5799482919843 35.6651166236191 35.741805488685 35.7804473479037 35.7845370039026 35.6441075180556 35.37670143667 35.1156446808697 34.9770923087213 34.9581938444906 35.0729089628174 35.3200774613146 35.3497876420941 35.4094970977794 35.528674091944 35.6548222796475 35.9078561539512 36.1908409994032 36.3095610489808 36.3604311302971
-9999 -9999 -9999 -9999 -9999 -9999 -9999 14.4171915500831 16.4202579761133 -9999 32.3897235519565 33.4190027500849 34.1748560365095 35.0519849160289 35.45358127919 35.5637160427886 35.6690153839938 35.7196107383588 35.7427600137574 35.8342838055333 35.9497947607322 36.0132553490364 36.0193502575708 36.0028860851424 35.9524836708064 35.8493878464717 35.8204774330801 35.8973098236777 36.0498703620297 36.1649693012534 36.2197413758942 36.2775869756582 36.3249336152411 36.3759358665206 36.3810161667509
-9999 -9999 -9999 -9999 -9999 -9999 -9999 17.1031525896982 20.7909306957393 31.2151275214995 32.9446362567647 34.2584272989958 35.0003627016874 35.3327749574771 35.4237844057217 35.616464101712 35.8298164672176 35.969373139792 36.0782468906536 36.1699613365885 36.2277008996237 36.2524089585329 36.2616304729332 36.2680171692718 36.2717916797397 36.2704123195766 36.2709885935478 36.2915545153536 36.3344273869411 36.3666068612348 36.3758418721944 36.3803148889651 36.4014678728675 36.3992939381583 36.3685754687539
-9999 -9999 -9999 -9999 -9999 -9999 -9999 21.2463863874698 -9999 31.9227614057396 33.6290491293041 34.9079241420728 35.2558359613663 35.3843464265801 35.668433860839 35.9489613612762 36.1295818460035 36.2369628111402 36.2971528240193 36.3266835801097 36.3452993208688 36.3538225704315 36.3591912189294 36.3700948585701 36.3791057737917 36.3787562194796 36.3845555814026 36.3911568087771 36.4268000131606 36.4601611507254 36.4556633931693 36.4412885514346 36.425567233063 36.3927231125851 36.3932993825318
-9999 -9999 -9999 -9999 -9999 -9999 -9999 -9999 30.4237120835231 32.3889274964243 33.7179922826285 35.0610063792522 35.4384174045339 35.7709552369472 36.0912426391783 36.2136456182075 36.2931820721576 36.3272422901756 36.3374123828988 36.395608419664 36.4189085504024 36.4003603326838 36.3995300816648 36.4391791201104 36.4371377054889 36.4237203575062 36.4272654613446 36.4255899978589 36.4452746913324 36.4609109509291 36.4538653083248 36.4318397767615 36.4070947079553 36.4096927412865 36.4260151964887
-9999 -9999 -9999 -9999 -9999 -9999 -9999 -9999 -9999 32.7050323322405 34.4914899425469 35.4336879893568 35.8671167086145 36.1316434578417 36.241587033375 36.3202741270241 36.3362347494124 36.3336038969457 36.3855439759839 36.4484976095898 36.4383984244434 36.3800474006017 36.3811662091581 36.4155900937835 36.3996137238443 36.3910078180847 36.4082711797261 36.4106490075908 36.3948778441091 36.3862207544494 36.3909268655585 36.3971518567242 36.4097718184335 36.4224489107925 36.424697793595
-9999 -9999 -9999 -9999 -9999 -9999 -9999 -9999 -9999 32.760081640579 34.9851113764102 35.9141450341072 36.1329461058745 36.2602975639538 36.3371076995152 36.3584460803442 36.3590911745603 36.3896789348656 36.4494518717335 36.4793449556413 36.444225097414 36.3954260826372 36.3719526309117 36.3745030634169 36.3533073039668 36.3639364701946 36.402303798317 36.4108642469244 36.3851407050708 36.3866541803328 36.4030376846272 36.4040302310672 36.4179131707715 36.4467131393542 36.4461537344053
-9999 -9999 -9999 -9999 -9999 -9999 -9999 34.1569660866906 33.7436648748002 34.4125673911173 35.8317791534751 36.1550264245343 36.2744860898529 36.3807356661001 36.3635653382902 36.3499557129662 36.3799371838433 36.3982120509618 36.4192369966377 36.4491190925406 36.4462609516302 36.4314954099254 36.4193481108415 36.4194429865154 36.4088343045795 36.406145206699 36.4296072210263 36.4354357519369 36.4138187136409 36.4010559561612 36.4289597899643 36.4326301592047 36.4664741760529 36.5029906900539 36.5061165970125
-9999 -9999 -9999 -9999 -9999 -9999 35.3667088365102 35.3451178257602 35.6955824762292 36.0115947128511 36.1487921141561 36.2715300603205 36.4075558795235 36.3955015713441 36.3128472995173 36.3388446896574 36.3778750998066 36.3929893949642 36.3869833455976 36.3811874782116 36.4071801597817 36.4309052020747 36.4350106995276 36.4349859761813 36.4356926775423 36.4154013431746 36.4120577486942 36.4154868017084 36.4119572790782 36.4229436741847 36.4880620373124 36.5187240105839 36.5454965574493 36.5227744472799 36.4882678796281
-9999 -9999 -9999 -9999 35.1996204477535 35.7715867752438 35.978942014438 36.0595365365077 36.1369473520991 36.130129075744 36.2640872303829 36.4059789123472 36.4479008124241 36.4146352655382 36.3329602796913 36.3399111901593 36.3695264268497 36.3885832734248 36.3775003808036 36.3510589765341 36.3347332387476 36.3930785505975 36.4204651285315 36.4136385296782 36.402810176182 36.3897246723855 36.4044866202844 36.4167339556885 36.4193811472957 36.4254912989871 36.4682173839222 36.5291896619917 36.5561918395125 36.5620291865834 36.5118466745409
-9999 -9999 -9999 35.3360859541649 35.5333732662966 36.0576679820482 36.1876811196424 36.1549081240598 36.1339797698017 36.2378177787982 36.4055679225987 36.4597243684767 36.4573830809935 36.4723758346781 36.4407832883336 36.398404506719 36.4006713773321 36.3873080692455 36.3805572126374 36.3668307584349 36.3594205021433 36.4000598762815 36.3994578031027 36.3812598117741 36.3800847512329 36.3812643016841 36.4035574020991 36.4093488922588 36.4161192297369 36.4333121949027 36.4647060771531 36.484590485094 36.4681898461657 36.501844689841 36.5422232829806
-9999 -9999 35.4906475740922 35.999975406115 36.0912293559133 36.1446862477981 36.1510832486611 36.1270392215415 36.2043480121081 36.3336095908276 36.4385094091951 36.463048917395 36.4638423235181 36.4758541646886 36.5013522337822 36.4898681857508 36.4499101430373 36.4233449590471 36.3901420381549 36.3742638351934 36.3704373574052 36.3910469327528 36.3881027947073 36.3767851382844 36.395014748801 36.3968795518023 36.4036657387832 36.4142375516768 36.4286975306625 36.4390889402626 36.4422783646235 36.4260444479769 36.4141563489659 36.502006863188 36.5196369231656
