NCOLS 35 
NROWS 26 
XLLCORNER -80 
YLLCORNER 33 
CELLSIZE 0.5 
NODATA_value -9999 
-9999.000000000000000 -9999 -9999 -9999 -9999 -9999 -9999 -9999 -9999 -9999 -9999 -9999 -9999 -9999 -9999 -9999 -9999 -9999 -9999 -9999 -9999 -9999 -9999 -9999 -9999 -9999 -9999 -9999 -9999 -9999 -9999 -9999 -9999 -9999 -9999
-9999 -9999 -9999 -9999 -9999 -9999 -9999 -9999 -9999 -9999 -9999 -9999 -9999 -9999 -9999 -9999 -9999 -9999 -9999 -9999 -9999 -9999 -9999 -9999 -9999 -9999 -9999 -9999 -9999 29.604603421952 -9999 -9999 -9999 -9999 -9999
-9999 -9999 -9999 -9999 -9999 -9999 -9999 -9999 -9999 -9999 -9999 -9999 -9999 -9999 -9999 -9999 -9999 -9999 -9999 -9999 -9999 -9999 -9999 -9999 -9999 -9999 30.7347134813554 30.903449594047 30.9038737594073 29.9819449141215 -9999 -9999 -9999 -9999 -9999
-9999 -9999 -9999 -9999 -9999 -9999 -9999 -9999 -9999 -9999 -9999 -9999 -9999 -9999 -9999 -9999 -9999 -9999 -9999 -9999 -9999 -9999 -9999 31.1943708616341 31.5851373928238 31.753300942834 31.7339854697138 31.7262350545311 -9999 -9999 -9999 30.9763440519103 30.7595227887887 30.7120684924937 30.8151186518646
-9999 -9999 -9999 -9999 -9999 -9999 -9999 -9999 -9999 -9999 -9999 -9999 -9999 -9999 -9999 -9999 -9999 -9999 -9999 -9999 30.9927777014422 31.1214975978002 31.1921495893813 31.3556372788523 31.5373058717345 31.664853626208 31.7014494212599 31.818276482819 -9999 -9999 31.1932056498524 31.0641915032578 30.980003103487 30.8352776229804 30.960660576834
-9999 -9999 -9999 -9999 -9999 -9999 -9999 -9999 -9999 -9999 -9999 -9999 -9999 -9999 -9999 -9999 -9999 -9999 -9999 31.3170827144742 31.4163356864188 31.5624817975035 31.7416317045906 31.9758366552796 31.8291625283713 31.7843832614139 31.8360670359487 31.736694178667 31.5286709338176 31.3970005472573 31.4908585945151 31.4884357186476 31.339498025174 31.1844682617228 31.2012340214152
-9999 -9999 -9999 -9999 -9999 -9999 -9999 -9999 -9999 -9999 -9999 -9999 -9999 -9999 -9999 -9999 -9999 -9999 -9999 31.2753220239835 31.6941978612175 32.0085909306072 32.1194761852681 32.1249008764811 32.0664215528257 32.0416484754059 32.030876749507 31.834203023075 31.5980912906719 31.5287883945299 31.5701247215452 31.654946837794 31.6186071929761 31.5957492479395 31.6711200957171
-9999 -9999 -9999 -9999 -9999 -9999 -9999 -9999 -9999 -9999 -9999 -9999 -9999 -9999 -9999 -9999 -9999 -9999 -9999 31.292172889169 31.5662725989354 31.8119851927068 31.9631306930814 32.0598475788155 32.1362935205707 32.1902791607233 32.223498082034 32.1133184153116 31.8476357349473 31.6993785197216 31.7738002525872 31.9146632689524 31.976727493924 32.081112607904 32.1030237104838
-9999 -9999 -9999 -9999 -9999 -9999 -9999 -9999 -9999 -9999 -9999 -9999 -9999 -9999 -9999 -9999 -9999 -9999 -9999 31.6475260468598 31.7579466457734 31.7526626446476 31.8743636577153 32.1424010496825 32.3276390157431 32.3486958039622 32.4059662861047 32.2043467783246 32.0293461825383 32.3958395618603 33.1064356467134 33.5113260449784 33.4483800765489 32.6512117509432 32.2511619249862
-9999 -9999 -9999 -9999 -9999 -9999 -9999 -9999 -9999 -9999 -9999 -9999 -9999 -9999 -9999 -9999 -9999 31.224695036589 31.7452510410701 32.076988413428 32.1635308750058 31.9395202555048 31.8948159554214 32.2576504055843 32.5375324120464 32.4840169004769 32.3610364441754 32.1939638448214 32.80670200047 33.5356375041195 34.3346700961374 34.9132478458612 35.4852922051558 35.4556477927703 34.365296390253
-9999 -9999 -9999 -9999 -9999 -9999 -9999 -9999 -9999 -9999 -9999 -9999 -9999 -9999 31.1240982971474 31.4147675906148 31.4312103784111 31.8428615735987 32.3509320836264 32.3560623268944 32.2109453375095 32.1118601698321 32.2660477055939 32.5497161790722 32.6825773656758 32.7162207947579 32.7517560280086 33.0490408529562 33.6482219274345 34.2485582019471 35.068623023839 35.8132068938785 36.4176426761673 36.657292563579 36.336718341018
-9999 -9999 -9999 -9999 -9999 -9999 -9999 -9999 -9999 -9999 -9999 -9999 31.3286277838131 31.338579574992 31.521734229548 31.8255907560508 32.1706791222412 32.6163335697983 32.6310857571401 32.6786909227056 32.6320022018201 32.728710200296 32.9759530807849 33.2381147689455 33.5436039324102 33.8306024246627 33.9198582686226 34.2655377494994 34.7474486732349 35.2036428080916 35.6029390857695 36.2038976870193 37.1083366563685 37.4841774634242 36.892039733607
-9999 -9999 -9999 -9999 -9999 -9999 -9999 -9999 -9999 -9999 -9999 -9999 31.5731175156429 31.50932062528 31.8388060929645 32.3628478565536 32.8527019071947 33.1614715246914 33.3070040876378 33.6345301664052 33.674555325693 33.9066584096237 34.2088166649177 34.2837675283708 34.8144861649937 35.071053610493 35.0565751735103 35.2027966364717 35.3051952839033 35.3563132103946 35.434842499874 35.8813254558768 36.7565060257042 37.0481212494066 36.5321069940542
-9999 -9999 -9999 -9999 -9999 -9999 -9999 -9999 -9999 31.0217417702919 31.7683918468557 31.9387549653131 31.7474554813211 31.7988669341656 32.5384241065506 33.8564691674115 34.2750519867106 34.2487711285814 34.2978807319057 34.5657992398578 34.5471170680171 34.6278981083681 34.894989626422 35.0877754396294 35.4680683847709 35.5267559184417 35.4766903721081 35.4682565518391 35.3858251965956 35.3019803997274 35.283030114397 35.5400877005727 35.9807156020618 36.07073779866 35.8529581981724
-9999 -9999 -9999 -9999 -9999 -9999 -9999 -9999 -9999 -9999 32.1010809263189 32.0289052350161 31.9237806635888 32.5221556094146 34.0886598119642 34.717446570504 35.006117760125 35.1511201139396 35.132644557103 35.3554898236927 35.3143632064596 35.0260409460242 35.00094834853 35.1788452058634 35.3585701138638 35.4204377070729 35.4325383980208 35.4334447387266 35.4552073093978 35.5359887803617 35.7958920035785 35.9726151351361 35.958375939121 35.7606285970146 35.5219308240484
-9999 -9999 -9999 -9999 -9999 -9999 -9999 11.8115676569193 13.7187992985112 -9999 31.8580608148475 32.049421822813 32.7336679220947 34.0015879208334 34.6880813065647 34.9756075020775 35.0882549330351 35.2147516756533 35.2364176106381 35.2827293346996 35.3638696952858 35.4663621599691 35.4616090302333 35.3649162400362 35.2580208652997 35.2959327164065 35.3974619324188 35.5110341251887 35.7572297875079 36.1088444973703 36.3098763058541 36.3225785642455 36.2535510161568 36.0999870922634 35.8484159734712
-9999 -9999 -9999 -9999 -9999 -9999 -9999 15.5820661522996 19.1524085716813 30.7158055321468 31.4826993563184 32.5314408102429 33.8417832957847 34.7433599455353 35.0447129682806 35.1336163469322 35.1705444234906 35.1537562558342 35.3566833925361 35.6711130693809 35.9315220507022 36.1161924717561 36.1878712197731 36.1061175189769 35.8824201876768 35.7745522396909 35.8134240260305 35.9872225507179 36.2367739679696 36.3616404010814 36.40259408233 36.416261392332 36.4077390643612 36.3171574695215 36.14654955774
-9999 -9999 -9999 -9999 -9999 -9999 -9999 21.5857002304504 -9999 31.3358903751596 31.5238225782835 33.1789356847101 34.2120811393239 34.8098132177786 35.0051189074207 35.1677536070828 35.3620518103007 35.7057407331366 36.0932464952405 36.2927828954199 36.3206147833461 36.3155507699388 36.3279131675016 36.3244283025057 36.2869003420524 36.2416518895674 36.2578094884768 36.352812448013 36.4229901495148 36.4520136544413 36.4868582665673 36.4987323679789 36.4997893212179 36.4501235526018 36.2664038025686
-9999 -9999 -9999 -9999 -9999 -9999 -9999 -9999 33.1891638578459 32.2891888261784 31.8176127843854 33.4872898614511 34.1493359893939 34.6446754020449 35.1803545225593 35.690526910077 36.0345386852061 36.3021435862966 36.3969117129453 36.4090842330619 36.3932925960202 36.3803298530957 36.3855052369282 36.3752015777686 36.3768545782899 36.3972747597922 36.4403587362938 36.4748219810768 36.4913642795478 36.4968649544713 36.5188264870434 36.5333153606857 36.5342663697575 36.5035383812611 36.3935739122866
-9999 -9999 -9999 -9999 -9999 -9999 -9999 -9999 -9999 32.5143119473617 32.1151664485596 33.5669074235383 34.3513582596689 35.3321052646717 36.0577253434312 36.2997553821387 36.4137057589362 36.4473927697912 36.4642019462554 36.4538057375359 36.4274471450741 36.4182374262453 36.4307822426648 36.4319119332497 36.4253702471517 36.47036471454 36.5136525171234 36.5261425571782 36.5285730861489 36.5510500904311 36.540120365849 36.5562175018899 36.5721612431827 36.5500475835545 36.5147702444526
-9999 -9999 -9999 -9999 -9999 -9999 -9999 -9999 -9999 35.2165898772462 33.7485363618918 34.8585963481744 35.9043662262364 36.2676174183837 36.3827000734673 36.4676085698419 36.5075215994308 36.5341661885581 36.5213869980349 36.4829425929016 36.4594530944768 36.450274139647 36.4487510580973 36.4776691071528 36.4734907435726 36.4952793321115 36.530752752972 36.549396755883 36.5508814256965 36.5613737616842 36.5788212699993 36.5872844899893 36.5890716834149 36.5935811453225 36.5782973617659
-9999 -9999 -9999 -9999 -9999 -9999 -9999 35.7626197912489 35.9024087448939 35.9761046711409 36.1395651198388 36.2947094692258 36.3670176739088 36.4513958551752 36.5197963397857 36.5356343609374 36.5261162723574 36.5245008357614 36.5107528321375 36.484289836861 36.473512985194 36.443022436067 36.4387086440858 36.4856451631948 36.4536514305862 36.4385931566802 36.4813117172936 36.5220905643736 36.5183321475567 36.5092832310896 36.5436972518644 36.572948199504 36.590284482273 36.6050157050756 36.5795469599098
-9999 -9999 -9999 -9999 -9999 -9999 35.7585425309266 35.8625246659242 36.0315888640104 36.2181090058853 36.3182633690837 36.4013685367961 36.487236689377 36.5554511720566 36.560426836056 36.5255845513856 36.5024281259362 36.5132412429827 36.5119026810363 36.5081190096497 36.486554832095 36.4431862393036 36.4362230892365 36.4682409428701 36.4291102106669 36.4420015241816 36.4721292558536 36.4904390200492 36.4914311935597 36.4591934590961 36.4829215264105 36.5234563045619 36.5587990391283 36.5847944774254 36.557055956016
-9999 -9999 -9999 -9999 35.6863876299756 35.798614442092 35.9023692008379 36.0312661508222 36.2195086732658 36.3035094485589 36.397007912653 36.4897949668161 36.5203494733486 36.541741378948 36.5277856012873 36.5017435857083 36.5019053217351 36.5231469407792 36.5323247177957 36.5436485134695 36.5089947942848 36.458750350461 36.4408997322095 36.4645003649603 36.4579660905004 36.4881807040089 36.5003902648765 36.5236876214488 36.5244315258789 36.4857673485749 36.4925776404831 36.498254175802 36.5251792789949 36.5508248544411 36.5260481952885
-9999 -9999 -9999 35.8152257449252 35.8724975604917 35.9465479132804 36.1062191637232 36.2488337265536 36.2990285895375 36.3652152346432 36.5130072364426 36.5417913354004 36.5374165305469 36.5274786253265 36.5149008676974 36.5080148684222 36.5260122558869 36.5488282664794 36.5409608737702 36.5405193775855 36.4963228102547 36.4590177610189 36.4566806991755 36.455746429003 36.4849613366305 36.5067975152635 36.5124631457488 36.5654543613992 36.572609721734 36.534873170287 36.4866887795098 36.4769956112716 36.5013398291819 36.5466813570841 36.5644723830831
-9999 -9999 35.926696489243 36.0029227898544 36.0535486620581 36.1346383055767 36.2586946788494 36.2995762988545 36.3601443052721 36.4657555308876 36.5896071410596 36.5974772918372 36.5527069409797 36.5357322750475 36.513683844541 36.5067773777424 36.5406460220216 36.5613480624163 36.5555567801848 36.5371946274464 36.4887100270979 36.4715173067509 36.4888901553895 36.5123572887774 36.5288372952816 36.540506945485 36.5491718465417 36.5824557233138 36.6022994296241 36.5887039608641 36.5587267384319 36.5523409610022 36.5786689866616 36.5915258457852 36.5891630222954
