NCOLS 35 
NROWS 26 
XLLCORNER -80 
YLLCORNER 33 
CELLSIZE 0.5 
NODATA_value -9999 
-9999.000000000000000 -9999 -9999 -9999 -9999 -9999 -9999 -9999 -9999 -9999 -9999 -9999 -9999 -9999 -9999 -9999 -9999 -9999 -9999 -9999 -9999 -9999 -9999 -9999 -9999 -9999 -9999 -9999 -9999 -9999 -9999 -9999 -9999 -9999 -9999
-9999 -9999 -9999 -9999 -9999 -9999 -9999 -9999 -9999 -9999 -9999 -9999 -9999 -9999 -9999 -9999 -9999 -9999 -9999 -9999 -9999 -9999 -9999 -9999 -9999 -9999 -9999 -9999 -9999 29.2263539992663 -9999 -9999 -9999 -9999 -9999
-9999 -9999 -9999 -9999 -9999 -9999 -9999 -9999 -9999 -9999 -9999 -9999 -9999 -9999 -9999 -9999 -9999 -9999 -9999 -9999 -9999 -9999 -9999 -9999 -9999 -9999 30.2214431967609 30.0711158544636 29.8241506018612 29.4491782168255 -9999 -9999 -9999 -9999 -9999
-9999 -9999 -9999 -9999 -9999 -9999 -9999 -9999 -9999 -9999 -9999 -9999 -9999 -9999 -9999 -9999 -9999 -9999 -9999 -9999 -9999 -9999 -9999 31.2248545608751 31.3509295630358 31.463304265198 31.3182380615353 30.9773870518266 -9999 -9999 -9999 30.9382717263098 30.8737345532401 30.9551945110181 31.0256826258789
-9999 -9999 -9999 -9999 -9999 -9999 -9999 -9999 -9999 -9999 -9999 -9999 -9999 -9999 -9999 -9999 -9999 -9999 -9999 -9999 31.170418224848 31.2002745121618 31.1635178044386 31.2031809741065 31.3995017302664 31.8158303062371 31.7351545715121 31.4234199550223 -9999 -9999 31.1283635798633 31.0045909562536 30.9413315306426 30.972980697877 31.0673535622061
-9999 -9999 -9999 -9999 -9999 -9999 -9999 -9999 -9999 -9999 -9999 -9999 -9999 -9999 -9999 -9999 -9999 -9999 -9999 31.2564670086034 31.184411014365 31.2247750002057 31.2065453997502 31.2070427924294 31.3828395067972 31.6789760148082 31.6313906829201 31.4401148879989 31.3144021759494 31.2054047318923 31.1061717285307 31.046320345008 30.9844785389333 31.0328009659348 31.2410845853165
-9999 -9999 -9999 -9999 -9999 -9999 -9999 -9999 -9999 -9999 -9999 -9999 -9999 -9999 -9999 -9999 -9999 -9999 -9999 31.2261021730469 31.2828291064506 31.4793922163652 31.5051740787551 31.407137988529 31.5024877174795 31.713652905255 31.6742742098272 31.528048050369 31.3699066277434 31.2504802014413 31.1549568483308 31.1416748267971 31.1572726625843 31.4775827129031 31.824267504335
-9999 -9999 -9999 -9999 -9999 -9999 -9999 -9999 -9999 -9999 -9999 -9999 -9999 -9999 -9999 -9999 -9999 -9999 -9999 31.3155120028195 31.4415973010466 31.4880967861183 31.5596924983016 31.5751199200735 31.6784908536793 31.7982802221934 31.8455158924516 31.7131432193178 31.4961288218262 31.4789040946056 31.3181183538078 31.6076879117609 31.8265381619263 32.0933991720014 32.4446021610126
-9999 -9999 -9999 -9999 -9999 -9999 -9999 -9999 -9999 -9999 -9999 -9999 -9999 -9999 -9999 -9999 -9999 -9999 -9999 31.3870260592585 31.5156217431847 31.472855975306 31.5346423691579 31.6729875548348 31.7697804390355 31.8496796017814 31.8958428677153 31.8758366285432 32.0979733680272 32.1532121196413 31.5191851143692 31.7876509325501 32.2239102898399 32.4340811000649 32.5460077898057
-9999 -9999 -9999 -9999 -9999 -9999 -9999 -9999 -9999 -9999 -9999 -9999 -9999 -9999 -9999 -9999 -9999 31.0529195957831 31.2124266456288 31.384448463591 31.4874690437328 31.5348937920412 31.5279131183131 31.662753013727 31.8749990383258 31.9351026938842 32.030192634526 32.4799601682484 32.838387430401 32.330472660016 31.5336319797862 31.7086901864696 32.2432283118066 32.6010604482687 32.9451278220854
-9999 -9999 -9999 -9999 -9999 -9999 -9999 -9999 -9999 -9999 -9999 -9999 -9999 -9999 31.2191719580569 31.370508792919 31.3820021540205 31.4875352723739 31.4784685518779 31.3840030923789 31.4243323139483 31.5124342993468 31.5163466300619 31.776479140517 32.2598661110779 32.6326798294379 33.2697278331186 33.4921374885654 32.775729960484 32.5917292912604 33.1329706790869 33.3467971264964 33.2981252672568 33.6392366477609 34.1415373713195
-9999 -9999 -9999 -9999 -9999 -9999 -9999 -9999 -9999 -9999 -9999 -9999 31.7300111612081 31.6142317079958 31.539874962787 31.5701204100512 31.7664882806522 32.043141545523 32.1700952260208 32.3846918237785 32.2015043849651 31.9999932266132 32.4880414628428 33.4327434721937 34.2529720812245 34.7687013473576 35.0494531702417 34.6831308649396 33.2355063807846 33.3078734036903 34.4086728373684 34.6453144703645 34.6045037619606 34.786105061947 35.2755155491938
-9999 -9999 -9999 -9999 -9999 -9999 -9999 -9999 -9999 -9999 -9999 -9999 32.0830639748128 31.6553351257958 31.5442204390176 31.9292242668874 32.467203350811 32.5832697227597 32.6763940970016 33.6159360233604 33.9079461431604 34.199364056315 34.7840982814739 35.3677837162567 35.5983140304799 35.7607828704274 35.8518168206752 35.7137936287488 35.2138727962402 34.989707636983 35.1987756182773 35.4363133780042 35.5564081999074 35.6584287397754 35.9718575946336
-9999 -9999 -9999 -9999 -9999 -9999 -9999 -9999 -9999 32.0086116969614 32.4152155220434 32.5654135950789 32.2762032124818 31.7807862412311 31.7643234236905 32.7688954442574 33.4127649438283 33.4177126300679 33.3821957401182 33.7771743449337 34.5016533520519 35.326340791777 35.5123044598213 35.6115607940803 35.6860738450335 35.7421952643803 35.877489213507 36.0893888483284 36.214658985649 36.2284903591334 36.1559194350234 36.0060270715983 35.8986938414348 35.9224933274273 36.05525549723
-9999 -9999 -9999 -9999 -9999 -9999 -9999 -9999 -9999 -9999 32.9983999636337 32.671441699509 32.2170696430819 32.2168473476006 32.7886269712343 33.8341654425308 34.218299514345 34.6513352933727 34.8327401520858 34.6941571138658 35.1229229067113 35.5516981287701 35.4734901073043 35.3810345284224 35.3941029083167 35.5296208002536 35.7431714609481 36.0115338703458 36.2429475270626 36.2900777025471 36.0052472425228 35.8332733678686 35.7599979611939 35.9381882187819 36.0297025531735
-9999 -9999 -9999 -9999 -9999 -9999 -9999 13.4096801554883 15.4094780185263 -9999 33.3514824407505 32.8209749935545 33.097995573839 33.8079981078909 34.4166552721143 34.7648737387077 34.9861010158784 35.0825596251439 35.1821137087128 35.1944109254468 35.224308004261 35.3786038076211 35.374517776282 35.2322595153726 35.2099705802311 35.4441582903099 35.7461762463147 35.9832525621543 36.0895863050968 36.0843482677705 35.9499366295447 35.7990665322238 35.7218300913174 35.8390224004097 36.1183090128868
-9999 -9999 -9999 -9999 -9999 -9999 -9999 17.9806791173468 21.4909558146713 33.2314889023717 33.38051234182 33.317334195278 34.1706571926619 34.6458153709954 34.7674495733446 34.9296932014486 35.1005472694906 35.4285636485698 35.6530891516058 35.6867142561675 35.6055182646984 35.4698804719099 35.3507446153546 35.2182124491367 35.2230005000961 35.5101651069431 35.8718787993895 36.0979413487087 36.1281806533683 36.0213353786217 35.9167397043657 35.8356392660144 35.7722243803518 35.8660608580663 36.0935955250366
-9999 -9999 -9999 -9999 -9999 -9999 -9999 25.1171919752583 -9999 33.9281185760738 33.394438604393 33.7693537642643 34.5112881273144 34.7928586833308 34.999296948386 35.2465647333201 35.7505918882875 36.0305363175101 36.1025402868615 36.0994804742748 36.0495086083627 35.9126781334443 35.6350360205745 35.3773052296171 35.3702472843645 35.6996662351131 36.043238449803 36.1653690038484 36.1082522719444 35.9731189682269 35.9547990893253 35.8919492307248 35.7825091046209 35.8970268802046 36.1073592198695
-9999 -9999 -9999 -9999 -9999 -9999 -9999 -9999 35.0244220873308 34.8530747757854 34.0084845646964 34.1428249774163 34.7751561569848 35.0122814432942 35.3322096674864 35.8443776583247 36.0949558926257 36.16600985901 36.1894388690784 36.183010988179 36.1506902312964 36.1057494308747 36.0385387402028 35.9104350793418 35.881026336923 36.0549466069873 36.1682306299055 36.195831734851 36.1604869827093 36.0180890999546 36.0285682559705 35.960350891807 35.8804632308502 36.0500832014682 36.1655379985853
-9999 -9999 -9999 -9999 -9999 -9999 -9999 -9999 -9999 35.621561101939 35.0274839604199 35.1821598057476 35.7147822607708 36.0012458017846 36.0992180647281 36.1255394943649 36.1651108749418 36.1888985532895 36.1961866349328 36.1870708607957 36.1835442813571 36.165017610377 36.1437221781457 36.1417984657016 36.1603093019351 36.1959488347072 36.1939585919125 36.1868824133596 36.2024025751805 36.1371184609974 36.0725426901382 35.9908837214783 36.0255581717858 36.1971580129298 36.2266918383102
-9999 -9999 -9999 -9999 -9999 -9999 -9999 -9999 -9999 35.8995232635985 35.9775549174172 36.0335364707706 36.0788400416958 36.1151998367788 36.1422218895627 36.1584172791064 36.1635066651329 36.1798017837996 36.1798220239433 36.173593842755 36.1802971414643 36.1828423153956 36.193777926361 36.2106118288544 36.2353137974765 36.2145036699117 36.1833301983731 36.1867759205301 36.2107849633768 36.1822564566003 36.0704279640203 35.9706673217892 36.0115628059172 36.1432340966302 36.2020248660343
-9999 -9999 -9999 -9999 -9999 -9999 -9999 35.8001017857126 35.9165115434544 35.9743660691314 36.0260185921292 36.0695819037427 36.1123567431705 36.1410141104964 36.1508993548549 36.1410015247973 36.1500594774261 36.1731588902754 36.1724003543999 36.1759094477387 36.1925371644994 36.2168164779243 36.2449407921959 36.2593084060744 36.256146567763 36.2141910852525 36.1782278094493 36.1813496155251 36.1997583133502 36.1911074494665 36.0906298972652 36.0018960861595 36.0240011979222 36.0951587273591 36.1984032633598
-9999 -9999 -9999 -9999 -9999 -9999 35.7881347595042 35.8859754414494 35.9730637330785 36.0063697495201 36.0626877080678 36.0950838570712 36.1165759774068 36.1308008625886 36.1170946981643 36.1165942885125 36.1348451352164 36.1524338174611 36.1617100156645 36.179734703445 36.2153692284986 36.2516096566362 36.2742830914599 36.2839002048896 36.2738855124165 36.2406385744433 36.1924835257038 36.1792916484689 36.1892256312224 36.1934374605281 36.1227835964978 36.0616993778772 36.082278069164 36.1143244827565 36.2097058047362
-9999 -9999 -9999 -9999 35.6792281469591 35.8523180922234 35.9288124064139 35.9618479265599 35.9996044653706 36.0621793917744 36.1044932112204 36.1088029747583 36.1230079712622 36.1127118069119 36.1131496757537 36.1227890522683 36.126259030939 36.1321164249815 36.146873680408 36.1783912706103 36.2119945333095 36.2427965067217 36.2799359846596 36.3090495694942 36.3112856922061 36.2817517474345 36.2216694977599 36.1897097352706 36.1950059509369 36.1978904719127 36.168502892571 36.1571650878953 36.1787058808937 36.1551754916906 36.1902961668749
-9999 -9999 -9999 35.7379888532838 35.8226271917639 35.9454442097094 35.9940638521147 36.0049079799912 36.0465810904961 36.1439502848878 36.131125465504 36.1461310007427 36.1850300672761 36.1901554463632 36.178855495371 36.1564095206995 36.1396056752488 36.1370783120537 36.1404559558003 36.1446525768272 36.1592339973463 36.1912193041634 36.2216483413901 36.258754006161 36.2788590153029 36.2858064111117 36.2459187621909 36.2120963765939 36.2067010998581 36.2290241137782 36.2246530677318 36.2544585091879 36.2696661909844 36.2269726045727 36.2112781371236
-9999 -9999 35.7981991830039 35.9272187255637 35.9709316013492 35.991291773401 35.9994259803833 36.0227738004848 36.1235613476318 36.1778390244318 36.1881589865121 36.2313375610027 36.2952790881497 36.3106841951899 36.3093403169862 36.2856841123772 36.2440883901049 36.2067884331003 36.2037286714896 36.205603362488 36.1966656641889 36.2036440399739 36.2111006582411 36.2211744010116 36.2586132755883 36.2930678511024 36.2725903015096 36.237160259189 36.2129350352945 36.2264741299956 36.2690996594604 36.3310953083352 36.3878372702603 36.389597940083 36.3078614047745
