NCOLS 70 
NROWS 52 
XLLCORNER -80 
YLLCORNER 33 
CELLSIZE 0.25 
NODATA_value -9999 
-9999.000000000000000 -9999 -9999 -9999 -9999 -9999 -9999 -9999 -9999 -9999 -9999 -9999 -9999 -9999 -9999 -9999 -9999 -9999 -9999 -9999 -9999 -9999 -9999 -9999 -9999 -9999 -9999 -9999 -9999 -9999 -9999 -9999 -9999 -9999 -9999 -9999 -9999 -9999 -9999 -9999 -9999 -9999 -9999 -9999 -9999 -9999 -9999 -9999 -9999 -9999 -9999 -9999 -9999 -9999 -9999 -9999 -9999 -9999 -9999 -9999 -9999 -9999 -9999 -9999 -9999 -9999 -9999 -9999 -9999 -9999
-9999 -9999 -9999 -9999 -9999 -9999 -9999 -9999 -9999 -9999 -9999 -9999 -9999 -9999 -9999 -9999 -9999 -9999 -9999 -9999 -9999 -9999 -9999 -9999 -9999 -9999 -9999 -9999 -9999 -9999 -9999 -9999 -9999 -9999 -9999 -9999 -9999 -9999 -9999 -9999 -9999 -9999 -9999 -9999 -9999 -9999 -9999 -9999 -9999 -9999 -9999 -9999 -9999 -9999 -9999 -9999 -9999 -9999 -9999 -9999 -9999 -9999 -9999 -9999 -9999 -9999 -9999 -9999 -9999 -9999
-9999 -9999 -9999 -9999 -9999 -9999 -9999 -9999 -9999 -9999 -9999 -9999 -9999 -9999 -9999 -9999 -9999 -9999 -9999 -9999 -9999 -9999 -9999 -9999 -9999 -9999 -9999 -9999 -9999 -9999 -9999 -9999 -9999 -9999 -9999 -9999 -9999 -9999 -9999 -9999 -9999 -9999 -9999 -9999 -9999 -9999 -9999 -9999 -9999 -9999 -9999 -9999 -9999 -9999 -9999 -9999 -9999 -9999 -9999 25.4620838165283 -9999 -9999 -9999 -9999 -9999 -9999 -9999 -9999 -9999 -9999
-9999 -9999 -9999 -9999 -9999 -9999 -9999 -9999 -9999 -9999 -9999 -9999 -9999 -9999 -9999 -9999 -9999 -9999 -9999 -9999 -9999 -9999 -9999 -9999 -9999 -9999 -9999 -9999 -9999 -9999 -9999 -9999 -9999 -9999 -9999 -9999 -9999 -9999 -9999 -9999 -9999 -9999 -9999 -9999 -9999 -9999 -9999 -9999 -9999 -9999 -9999 -9999 -9999 -9999 -9999 28.0903358459473 27.761604309082 27.3997955322266 26.8115882873535 26.2938556671143 -9999 -9999 -9999 -9999 -9999 -9999 -9999 -9999 -9999 -9999
-9999 -9999 -9999 -9999 -9999 -9999 -9999 -9999 -9999 -9999 -9999 -9999 -9999 -9999 -9999 -9999 -9999 -9999 -9999 -9999 -9999 -9999 -9999 -9999 -9999 -9999 -9999 -9999 -9999 -9999 -9999 -9999 -9999 -9999 -9999 -9999 -9999 -9999 -9999 -9999 -9999 -9999 -9999 -9999 -9999 -9999 -9999 -9999 -9999 -9999 -9999 -9999 30.1063270568848 29.7818088531494 29.2540950775146 28.5958003997803 28.0040321350098 27.4698333740234 -9999 -9999 -9999 -9999 -9999 -9999 -9999 -9999 -9999 -9999 -9999 -9999
-9999 -9999 -9999 -9999 -9999 -9999 -9999 -9999 -9999 -9999 -9999 -9999 -9999 -9999 -9999 -9999 -9999 -9999 -9999 -9999 -9999 -9999 -9999 -9999 -9999 -9999 -9999 -9999 -9999 -9999 -9999 -9999 -9999 -9999 -9999 -9999 -9999 -9999 -9999 -9999 -9999 -9999 -9999 -9999 -9999 -9999 -9999 -9999 -9999 -9999 30.8765316009521 30.8216934204102 30.5232772827148 30.0485992431641 29.3016948699951 28.402759552002 -9999 -9999 -9999 -9999 -9999 -9999 -9999 -9999 -9999 -9999 -9999 30.5455748240153 30.4272556304932 30.3244438171387
-9999 -9999 -9999 -9999 -9999 -9999 -9999 -9999 -9999 -9999 -9999 -9999 -9999 -9999 -9999 -9999 -9999 -9999 -9999 -9999 -9999 -9999 -9999 -9999 -9999 -9999 -9999 -9999 -9999 -9999 -9999 -9999 -9999 -9999 -9999 -9999 -9999 -9999 -9999 -9999 -9999 -9999 -9999 -9999 31.406530380249 -9999 -9999 31.3865571022034 31.3083305358887 31.2183227539062 31.0938625335693 30.9126777648926 30.4520702362061 29.8507194519043 29.0738010406494 -9999 -9999 -9999 -9999 -9999 -9999 -9999 -9999 30.8397312164307 30.7772045135498 30.7198238372803 30.6331615447998 30.5403919219971 30.463171005249 30.3810157775879
-9999 -9999 -9999 -9999 -9999 -9999 -9999 -9999 -9999 -9999 -9999 -9999 -9999 -9999 -9999 -9999 -9999 -9999 -9999 -9999 -9999 -9999 -9999 -9999 -9999 -9999 -9999 -9999 -9999 -9999 -9999 -9999 -9999 -9999 -9999 -9999 -9999 -9999 -9999 -9999 -9999 -9999 -9999 -9999 31.406120300293 31.3973045349121 31.4058570861816 31.4154148101807 31.4166259765625 31.3866119384766 31.3091640472412 31.1591663360596 30.7870006561279 30.2552280426025 29.9555902481079 -9999 -9999 -9999 -9999 -9999 -9999 -9999 30.9654788970947 30.9016227722168 30.8570213317871 30.8199310302734 30.778226852417 30.7579078674316 30.707649230957 30.601957321167
-9999 -9999 -9999 -9999 -9999 -9999 -9999 -9999 -9999 -9999 -9999 -9999 -9999 -9999 -9999 -9999 -9999 -9999 -9999 -9999 -9999 -9999 -9999 -9999 -9999 -9999 -9999 -9999 -9999 -9999 -9999 -9999 -9999 -9999 -9999 -9999 -9999 -9999 -9999 -9999 30.3986345926921 30.5878861745199 31.1213737487793 31.5787105560303 31.6507740020752 31.6660842895508 31.649471282959 31.6272716522217 31.6140766143799 31.575159072876 31.5121250152588 31.4189453125 31.1370410919189 30.6426124572754 30.6684608459473 -9999 -9999 -9999 -9999 -9999 31.0825538635254 31.0472469329834 30.9788188934326 30.9379234313965 30.9257736206055 30.9332332611084 30.9551391601562 30.9688148498535 30.9477977752686 30.8623714447021
-9999 -9999 -9999 -9999 -9999 -9999 -9999 -9999 -9999 -9999 -9999 -9999 -9999 -9999 -9999 -9999 -9999 -9999 -9999 -9999 -9999 -9999 -9999 -9999 -9999 -9999 -9999 -9999 -9999 -9999 -9999 -9999 -9999 -9999 -9999 -9999 -9999 -9999 -9999 30.3362636566162 30.3482456207275 30.5113945007324 30.9040184020996 31.1965789794922 31.337926864624 31.4445419311523 31.5062808990479 31.5382423400879 31.582555770874 31.6016807556152 31.5713653564453 31.4983463287354 31.2806663513184 30.8920135498047 30.7286605834961 30.8237895965576 -9999 -9999 -9999 31.1865706443787 31.1408443450928 31.0595703125 30.9976558685303 30.9704570770264 30.9687538146973 31.0025482177734 31.0485248565674 31.0471725463867 31.0133991241455 30.9672622680664
-9999 -9999 -9999 -9999 -9999 -9999 -9999 -9999 -9999 -9999 -9999 -9999 -9999 -9999 -9999 -9999 -9999 -9999 -9999 -9999 -9999 -9999 -9999 -9999 -9999 -9999 -9999 -9999 -9999 -9999 -9999 -9999 -9999 -9999 -9999 -9999 -9999 -9999 31.2669692993164 31.1256904602051 31.1470642089844 31.228479385376 31.2704563140869 31.2853374481201 31.2911033630371 31.3312835693359 31.3864688873291 31.4600925445557 31.5483894348145 31.5963020324707 31.5867195129395 31.5226726531982 31.3499279022217 31.071985244751 30.897876739502 30.8978881835938 30.9766807556152 31.0683600107829 31.2464923858643 31.2132225036621 31.1457233428955 31.0783367156982 31.0374088287354 31.0203285217285 31.0232639312744 31.0644779205322 31.0993194580078 31.0522575378418 30.9854011535645 30.9575901031494
-9999 -9999 -9999 -9999 -9999 -9999 -9999 -9999 -9999 -9999 -9999 -9999 -9999 -9999 -9999 -9999 -9999 -9999 -9999 -9999 -9999 -9999 -9999 -9999 -9999 -9999 -9999 -9999 -9999 -9999 -9999 -9999 -9999 -9999 -9999 -9999 -9999 31.6920299530029 31.6498355865479 31.53102684021 31.4253234863281 31.4056415557861 31.4016132354736 31.3348407745361 31.2668590545654 31.2632713317871 31.3139038085938 31.4206657409668 31.5410823822021 31.5971717834473 31.5906219482422 31.5536212921143 31.4647750854492 31.2847633361816 31.1055202484131 31.0361213684082 31.0399684906006 31.1201324462891 31.1901378631592 31.1791706085205 31.1218338012695 31.0642738342285 31.0494499206543 31.0668315887451 31.0846748352051 31.1225852966309 31.1370029449463 31.0603618621826 30.9640445709229 30.9308242797852
-9999 -9999 -9999 -9999 -9999 -9999 -9999 -9999 -9999 -9999 -9999 -9999 -9999 -9999 -9999 -9999 -9999 -9999 -9999 -9999 -9999 -9999 -9999 -9999 -9999 -9999 -9999 -9999 -9999 -9999 -9999 -9999 -9999 -9999 -9999 -9999 -9999 31.6005039215088 31.5712928771973 31.509147644043 31.4803829193115 31.5020332336426 31.5011138916016 31.4103927612305 31.2877292633057 31.242467880249 31.3011531829834 31.4371604919434 31.5595092773438 31.5989933013916 31.599630355835 31.6117095947266 31.6097583770752 31.5224781036377 31.3736152648926 31.2583026885986 31.191032409668 31.16770362854 31.162425994873 31.1455631256104 31.1111488342285 31.0979137420654 31.1553516387939 31.2196292877197 31.2127704620361 31.211446762085 31.21457862854 31.1572341918945 31.0699653625488 31.0390968322754
-9999 -9999 -9999 -9999 -9999 -9999 -9999 -9999 -9999 -9999 -9999 -9999 -9999 -9999 -9999 -9999 -9999 -9999 -9999 -9999 -9999 -9999 -9999 -9999 -9999 -9999 -9999 -9999 -9999 -9999 -9999 -9999 -9999 -9999 -9999 -9999 -9999 31.5295352935791 31.529296875 31.5250988006592 31.5550746917725 31.5941352844238 31.5778484344482 31.4709053039551 31.3385753631592 31.2954502105713 31.3775119781494 31.520076751709 31.6138248443604 31.6423492431641 31.6672554016113 31.707368850708 31.6903190612793 31.5833377838135 31.4733219146729 31.4345321655273 31.4423599243164 31.425085067749 31.3353328704834 31.2909679412842 31.3013610839844 31.4138870239258 31.6194190979004 31.745023727417 31.6384754180908 31.487491607666 31.3988265991211 31.3512649536133 31.3662815093994 31.4515686035156
-9999 -9999 -9999 -9999 -9999 -9999 -9999 -9999 -9999 -9999 -9999 -9999 -9999 -9999 -9999 -9999 -9999 -9999 -9999 -9999 -9999 -9999 -9999 -9999 -9999 -9999 -9999 -9999 -9999 -9999 -9999 -9999 -9999 -9999 -9999 -9999 31.498893737793 31.4985809326172 31.5034141540527 31.522346496582 31.57839012146 31.6320819854736 31.619234085083 31.5293674468994 31.4195022583008 31.3949337005615 31.4938926696777 31.6378746032715 31.7235012054443 31.7526321411133 31.7825527191162 31.8225727081299 31.797290802002 31.7007122039795 31.6505870819092 31.7398414611816 31.880407333374 31.9212455749512 31.7914905548096 31.774585723877 31.8692607879639 32.1304321289062 32.4835395812988 32.6315650939941 32.4524269104004 32.1562194824219 31.9434242248535 31.8214015960693 31.8667526245117 32.0911712646484
-9999 -9999 -9999 -9999 -9999 -9999 -9999 -9999 -9999 -9999 -9999 -9999 -9999 -9999 -9999 -9999 -9999 -9999 -9999 -9999 -9999 -9999 -9999 -9999 -9999 -9999 -9999 -9999 -9999 -9999 -9999 -9999 -9999 -9999 -9999 -9999 -9999 31.4090824127197 31.439811706543 31.4881572723389 31.5787754058838 31.6554622650146 31.6553325653076 31.5977306365967 31.5086860656738 31.4731006622314 31.5605144500732 31.7255764007568 31.850866317749 31.8970546722412 31.9147930145264 31.9592819213867 31.9916763305664 31.9627513885498 31.9454441070557 32.0682411193848 32.2232055664062 32.3027191162109 32.2851753234863 32.3808670043945 32.6212310791016 33.0053787231445 33.35302734375 33.4193077087402 33.3298759460449 33.1744537353516 33.0506629943848 32.8045845031738 32.5148735046387 32.6362457275391
-9999 -9999 -9999 -9999 -9999 -9999 -9999 -9999 -9999 -9999 -9999 -9999 -9999 -9999 -9999 -9999 -9999 -9999 -9999 -9999 -9999 -9999 -9999 -9999 -9999 -9999 -9999 -9999 -9999 -9999 -9999 -9999 -9999 -9999 -9999 -9999 -9999 -9999 31.3732242584229 -9999 31.6086006164551 31.6699562072754 31.6455020904541 31.6089172363281 31.5574817657471 31.5441703796387 31.6408634185791 31.8305549621582 31.998197555542 32.0758590698242 32.0802574157715 32.0887298583984 32.1130027770996 32.1261215209961 32.1149101257324 32.1956443786621 32.3020553588867 32.4995574951172 32.7414321899414 33.0043907165527 33.3035011291504 33.6842956542969 33.986572265625 33.9662055969238 34.0048980712891 34.1258735656738 34.2766036987305 34.068904876709 33.3195991516113 33.12548828125
-9999 -9999 -9999 -9999 -9999 -9999 -9999 -9999 -9999 -9999 -9999 -9999 -9999 -9999 -9999 -9999 -9999 -9999 -9999 -9999 -9999 -9999 -9999 -9999 -9999 -9999 -9999 -9999 -9999 -9999 -9999 -9999 -9999 -9999 -9999 -9999 -9999 -9999 -9999 -9999 31.7545852661133 31.6848068237305 31.6311626434326 31.6253681182861 31.6305351257324 31.6769351959229 31.7949886322021 31.9561958312988 32.0970077514648 32.1923789978027 32.203052520752 32.1847686767578 32.172607421875 32.1894226074219 32.1905632019043 32.2462425231934 32.3902320861816 32.7371368408203 33.1258430480957 33.5246734619141 33.9100875854492 34.3014945983887 34.6008033752441 34.5165977478027 34.4951591491699 34.6191253662109 34.8101539611816 34.8106651306152 34.2115936279297 33.8905563354492
-9999 -9999 -9999 -9999 -9999 -9999 -9999 -9999 -9999 -9999 -9999 -9999 -9999 -9999 -9999 -9999 -9999 -9999 -9999 -9999 -9999 -9999 -9999 -9999 -9999 -9999 -9999 -9999 -9999 -9999 -9999 -9999 -9999 -9999 32.1912469863892 32.0766754150391 32.0448989868164 -9999 31.9522743225098 31.8690948486328 31.7989158630371 31.7243881225586 31.7036037445068 31.7577590942383 31.8228340148926 31.8979740142822 31.9876918792725 32.0747261047363 32.1548767089844 32.210075378418 32.2143363952637 32.2077674865723 32.2374229431152 32.3000373840332 32.3462982177734 32.4490547180176 32.749683380127 33.1380424499512 33.529655456543 34.0938682556152 34.5499725341797 34.8556251525879 35.0963897705078 35.0574417114258 35.0066108703613 35.0362930297852 35.1007957458496 35.0507392883301 34.7875938415527 34.7033500671387
-9999 -9999 -9999 -9999 -9999 -9999 -9999 -9999 -9999 -9999 -9999 -9999 -9999 -9999 -9999 -9999 -9999 -9999 -9999 -9999 -9999 -9999 -9999 -9999 -9999 -9999 -9999 29.4842720031738 29.4842720031738 29.870626449585 30.3677749633789 31.2424049377441 32.0530815124512 32.2580871582031 32.2241630554199 32.2060623168945 32.2030029296875 32.1555595397949 32.0632171630859 31.9628772735596 31.9094085693359 31.8946094512939 31.9234523773193 32.0201950073242 32.1254463195801 32.196231842041 32.2289772033691 32.2355651855469 32.2409591674805 32.2370147705078 32.2346687316895 32.2764320373535 32.3575210571289 32.4325141906738 32.5475997924805 32.8179016113281 33.2317047119141 33.5994834899902 34.0577049255371 34.6893997192383 35.0145683288574 35.172794342041 35.2952346801758 35.3124885559082 35.3019828796387 35.307788848877 35.2808265686035 35.2016296386719 35.1506843566895 35.2090377807617
-9999 -9999 -9999 -9999 -9999 -9999 -9999 -9999 -9999 -9999 -9999 -9999 -9999 -9999 -9999 -9999 -9999 -9999 -9999 -9999 -9999 -9999 -9999 -9999 -9999 -9999 -9999 -9999 -9999 -9999 31.2056407928467 31.8224945068359 32.463695526123 32.5607528686523 32.4884719848633 32.4606857299805 32.4402732849121 32.3802604675293 32.2890129089355 32.1978569030762 32.1645278930664 32.2182579040527 32.3040809631348 32.4120330810547 32.4922904968262 32.5089569091797 32.4877738952637 32.4773902893066 32.508056640625 32.5619735717773 32.6302375793457 32.7031021118164 32.7109413146973 32.6839599609375 32.8997039794922 33.4232368469238 33.9229316711426 34.3043365478516 34.8052635192871 35.2067985534668 35.3161315917969 35.3446388244629 35.3727645874023 35.3808746337891 35.365535736084 35.3428153991699 35.3139495849609 35.296573638916 35.3097496032715 35.3461112976074
-9999 -9999 -9999 -9999 -9999 -9999 -9999 -9999 -9999 -9999 -9999 -9999 -9999 -9999 -9999 -9999 -9999 -9999 -9999 -9999 -9999 -9999 -9999 -9999 -9999 32.3873380025228 32.4031728108724 32.4466896057129 32.5509271621704 32.6311149597168 32.661937713623 32.6418418884277 32.6496543884277 32.7114868164062 32.7917251586914 32.8932342529297 32.9505424499512 32.9381942749023 32.8696250915527 32.7503547668457 32.6544647216797 32.6733207702637 32.7840690612793 32.892749786377 32.9183387756348 32.9147109985352 32.9642562866211 33.0989761352539 33.2852020263672 33.4931221008301 33.6499938964844 33.7045097351074 33.5593605041504 33.393611907959 33.6525268554688 34.2383079528809 34.6483840942383 34.9765090942383 35.303653717041 35.4521675109863 35.4608268737793 35.4402809143066 35.4249572753906 35.4047203063965 35.3846893310547 35.3830223083496 35.3996925354004 35.4100646972656 35.4288787841797 35.4563941955566
-9999 -9999 -9999 -9999 -9999 -9999 -9999 -9999 -9999 -9999 -9999 -9999 -9999 -9999 -9999 -9999 -9999 -9999 -9999 -9999 -9999 -9999 -9999 -9999 32.384349822998 32.3874473571777 32.3902168273926 32.4318542480469 32.5179977416992 32.6227416992188 32.7160835266113 32.8056182861328 32.9296760559082 33.1048126220703 33.3161315917969 33.5089569091797 33.6090240478516 33.6495666503906 33.6785430908203 33.6583099365234 33.5743255615234 33.5073585510254 33.5306396484375 33.612907409668 33.6596527099609 33.6818199157715 33.7454681396484 33.8760261535645 34.0266571044922 34.2407569885254 34.4814834594727 34.6159172058105 34.4879379272461 34.3134536743164 34.5183448791504 34.9235992431641 35.1264572143555 35.2602806091309 35.3997383117676 35.4898567199707 35.5187492370605 35.5091171264648 35.4959602355957 35.4797592163086 35.4735565185547 35.4686698913574 35.4787445068359 35.501838684082 35.5267181396484 35.5464096069336
-9999 -9999 -9999 -9999 -9999 -9999 -9999 -9999 -9999 -9999 -9999 -9999 -9999 -9999 -9999 -9999 -9999 -9999 -9999 -9999 -9999 -9999 -9999 -9999 32.5740089416504 32.5083351135254 32.4398002624512 32.4721031188965 32.6045684814453 32.7909507751465 33.0071983337402 33.2594947814941 33.5378341674805 33.8151741027832 34.0669860839844 34.2315902709961 34.2472038269043 34.1966133117676 34.2283935546875 34.3696556091309 34.5231704711914 34.5936431884766 34.6242790222168 34.7021865844727 34.7995071411133 34.845386505127 34.8252716064453 34.7983512878418 34.7677955627441 34.7797431945801 34.8951072692871 35.0561256408691 35.0364112854004 34.8750877380371 34.968936920166 35.2269248962402 35.3417778015137 35.3738975524902 35.4161224365234 35.4870414733887 35.5561714172363 35.5852813720703 35.6046257019043 35.6065368652344 35.6064949035645 35.5943145751953 35.5706748962402 35.5784339904785 35.596809387207 35.6157417297363
-9999 -9999 -9999 -9999 -9999 -9999 -9999 -9999 -9999 -9999 -9999 -9999 -9999 -9999 -9999 -9999 -9999 -9999 -9999 -9999 -9999 -9999 -9999 32.8322420120239 32.7674179077148 32.6026000976562 32.493049621582 32.5611457824707 32.7859115600586 33.1005439758301 33.4682083129883 33.8827209472656 34.2903671264648 34.6169586181641 34.8355369567871 34.9199066162109 34.8512153625488 34.6841773986816 34.5772590637207 34.7228775024414 35.0829010009766 35.3917007446289 35.548168182373 35.636833190918 35.713508605957 35.768913269043 35.785343170166 35.7706565856934 35.7086639404297 35.5862617492676 35.4674758911133 35.4480514526367 35.4328308105469 35.2746124267578 35.2242813110352 35.3327217102051 35.4152221679688 35.4604110717773 35.5036773681641 35.5716438293457 35.6476249694824 35.6989822387695 35.7355690002441 35.7479248046875 35.746395111084 35.724479675293 35.6730079650879 35.6531600952148 35.6541481018066 35.6781349182129
-9999 -9999 -9999 -9999 -9999 -9999 -9999 -9999 -9999 -9999 -9999 -9999 -9999 -9999 -9999 -9999 -9999 -9999 -9999 -9999 -9999 -9999 -9999 33.0865097045898 32.9010314941406 32.6628112792969 32.5484619140625 32.6466789245605 32.9076728820801 33.2590293884277 33.7040710449219 34.245044708252 34.7359313964844 35.056713104248 35.212459564209 35.2320556640625 35.1498069763184 35.0052375793457 34.9282531738281 35.1237869262695 35.4976196289062 35.7686462402344 35.8840446472168 35.9314460754395 35.9629516601562 35.9911231994629 36.0188827514648 36.03076171875 36.0122604370117 35.9520454406738 35.8259162902832 35.6950225830078 35.6366920471191 35.5449371337891 35.4457130432129 35.4322357177734 35.4736022949219 35.5500640869141 35.639705657959 35.7247314453125 35.7914848327637 35.8260765075684 35.8416213989258 35.8490333557129 35.8484573364258 35.8355674743652 35.7941284179688 35.7649803161621 35.7644462585449 35.7849197387695
-9999 -9999 -9999 -9999 -9999 -9999 -9999 -9999 -9999 -9999 -9999 -9999 -9999 -9999 -9999 -9999 -9999 -9999 -9999 -9999 -9999 -9999 33.3793106079102 33.2234268188477 32.9739875793457 32.7225151062012 32.6248741149902 32.7052459716797 32.9005889892578 33.2096519470215 33.7275276184082 34.391300201416 34.9259262084961 35.2250175476074 35.3546104431152 35.3766441345215 35.3160209655762 35.2168731689453 35.2337036132812 35.4482307434082 35.6901473999023 35.8218574523926 35.8750343322754 35.904842376709 35.9327392578125 35.9639282226562 36 36.0229568481445 36.0255279541016 36.0157089233398 35.9533996582031 35.8327674865723 35.7454605102539 35.6855239868164 35.6119651794434 35.5864562988281 35.6280822753906 35.7185211181641 35.8115196228027 35.8725700378418 35.898567199707 35.8960380554199 35.8875961303711 35.8932418823242 35.901798248291 35.9059257507324 35.8888473510742 35.8617858886719 35.8719787597656 35.9042930603027
-9999 -9999 -9999 -9999 -9999 -9999 -9999 -9999 -9999 -9999 -9999 -9999 -9999 -9999 23.0662163098653 -9999 -9999 -9999 -9999 33.6847724914551 -9999 33.4873313903809 33.3819122314453 33.2127265930176 32.9942779541016 32.8140411376953 32.766674041748 32.8251495361328 32.9782180786133 33.3370666503906 33.944694519043 34.5933265686035 35.0539894104004 35.3073196411133 35.440731048584 35.5156326293945 35.5242347717285 35.4739151000977 35.4721069335938 35.5718154907227 35.6850509643555 35.7628364562988 35.8193702697754 35.8650894165039 35.9074020385742 35.9458122253418 35.9809074401855 36.0037422180176 36.0092277526855 36.0058212280273 35.971321105957 35.8912467956543 35.8200721740723 35.7742195129395 35.7322235107422 35.7284393310547 35.775146484375 35.8504600524902 35.9068298339844 35.928539276123 35.9222831726074 35.891975402832 35.8668022155762 35.8720741271973 35.8944892883301 35.9145660400391 35.9155769348145 35.902660369873 35.9094009399414 35.9334411621094
-9999 -9999 -9999 -9999 -9999 -9999 -9999 -9999 -9999 -9999 -9999 -9999 -9999 -9999 23.1080784797668 -9999 -9999 -9999 -9999 33.6505851745605 33.5279983520508 33.4470367431641 33.3008804321289 33.1335220336914 32.9933204650879 32.9542617797852 33.0194702148438 33.1425285339355 33.4070739746094 33.8896331787109 34.425895690918 34.830638885498 35.1045227050781 35.303295135498 35.4607009887695 35.5853233337402 35.652515411377 35.6454925537109 35.6145706176758 35.6159515380859 35.6440277099609 35.7008247375488 35.7730293273926 35.8311386108398 35.8832511901855 35.9322853088379 35.9727096557617 36.0015869140625 36.0131988525391 36.0125846862793 35.9955749511719 35.9628067016602 35.9334411621094 35.910270690918 35.8852310180664 35.8656768798828 35.8636779785156 35.8863182067871 35.9152755737305 35.9282035827637 35.9222564697266 35.8950691223145 35.8642425537109 35.864875793457 35.8967971801758 35.9249839782715 35.9283447265625 35.9296951293945 35.9429626464844 35.9540977478027
-9999 -9999 -9999 -9999 -9999 -9999 -9999 -9999 -9999 -9999 -9999 -9999 -9999 -9999 22.91969871521 -9999 -9999 -9999 -9999 -9999 33.4634351730347 33.4044532775879 33.2859802246094 33.1747932434082 33.1745109558105 33.3212203979492 33.5332984924316 33.7991523742676 34.2049980163574 34.6521606445312 34.9687080383301 35.1866989135742 35.384391784668 35.5694160461426 35.7265472412109 35.8313217163086 35.885196685791 35.8924217224121 35.854362487793 35.7858505249023 35.7188758850098 35.7192611694336 35.7751502990723 35.8139038085938 35.8457908630371 35.8940925598145 35.9436721801758 35.9878349304199 36.0184211730957 36.0340156555176 36.0382385253906 36.0367736816406 36.0350112915039 36.0296669006348 36.016674041748 35.9964065551758 35.9717712402344 35.9541969299316 35.9522171020508 35.951301574707 35.9436492919922 35.9260063171387 35.9039916992188 35.9017562866211 35.9256935119629 35.9493141174316 35.9655570983887 35.9901580810547 36.0067329406738 36.0091934204102
-9999 -9999 -9999 -9999 -9999 -9999 -9999 -9999 -9999 -9999 -9999 -9999 -9999 -9999 22.9957723617554 -9999 23.6732177734375 -9999 -9999 -9999 33.5172348022461 33.4850158691406 33.5065536499023 33.5763244628906 33.7444877624512 33.9810981750488 34.2364311218262 34.5677833557129 34.9388427734375 35.2128448486328 35.430850982666 35.6562461853027 35.8138275146484 35.911247253418 35.991584777832 36.0368385314941 36.0594596862793 36.0719871520996 36.0578727722168 35.9996490478516 35.9049606323242 35.8254508972168 35.7933311462402 35.7884750366211 35.805103302002 35.8544769287109 35.9155769348145 35.9733924865723 36.0133781433105 36.0322074890137 36.0424499511719 36.0501556396484 36.0559387207031 36.059440612793 36.0614318847656 36.064525604248 36.0637664794922 36.0568733215332 36.048755645752 36.039981842041 36.0280685424805 36.0120544433594 35.9974594116211 35.991455078125 35.9982032775879 36.0129241943359 36.0377159118652 36.0579261779785 36.0605239868164 36.0532302856445
-9999 -9999 -9999 -9999 -9999 -9999 -9999 -9999 -9999 -9999 -9999 -9999 -9999 -9999 22.9957723617554 23.0718460083008 24.0889911651611 -9999 -9999 33.6647806167603 33.597972869873 33.6701965332031 33.8849945068359 34.1553497314453 34.405818939209 34.5959777832031 34.786205291748 35.0362205505371 35.2422676086426 35.3790397644043 35.590991973877 35.8276672363281 35.9365425109863 35.9800186157227 36.0325584411621 36.0725746154785 36.0982780456543 36.1188850402832 36.1304244995117 36.1218643188477 36.0860366821289 36.0248031616211 35.9519500732422 35.8873252868652 35.8540458679199 35.8739166259766 35.9283561706543 35.9822540283203 36.0102386474609 36.0197067260742 36.0314483642578 36.0479431152344 36.0632476806641 36.0745315551758 36.0823860168457 36.0891304016113 36.094409942627 36.0997314453125 36.1048469543457 36.1063575744629 36.1003723144531 36.0902366638184 36.0820808410645 36.0765953063965 36.0726699829102 36.0704116821289 36.0741996765137 36.071418762207 36.0652732849121 36.063591003418
-9999 -9999 -9999 -9999 -9999 -9999 -9999 -9999 -9999 -9999 -9999 -9999 -9999 -9999 -9999 25.1331466674805 24.7014465332031 -9999 31.6059150695801 33.7978591918945 33.7460556030273 33.8826179504395 34.194881439209 34.5458755493164 34.785774230957 34.9082832336426 35.0284690856934 35.1873397827148 35.3112182617188 35.4084396362305 35.5976600646973 35.793083190918 35.8788299560547 35.9475975036621 36.031867980957 36.0983810424805 36.1393623352051 36.1643180847168 36.1784286499023 36.1837501525879 36.1810646057129 36.1663513183594 36.1329231262207 36.0763130187988 36.0149421691895 35.985523223877 35.9976234436035 36.0190773010254 36.0247917175293 36.0313873291016 36.0485649108887 36.0641746520996 36.0741844177246 36.0797386169434 36.0798377990723 36.0786895751953 36.0790901184082 36.0836982727051 36.0901794433594 36.0893936157227 36.0817337036133 36.0769691467285 36.0793342590332 36.0824356079102 36.0785331726074 36.0671234130859 36.0591735839844 36.0570755004883 36.0582427978516 36.061580657959
-9999 -9999 -9999 -9999 -9999 -9999 -9999 -9999 -9999 -9999 -9999 -9999 -9999 -9999 -9999 26.580265045166 27.2231845855713 -9999 33.8346519470215 33.8781852722168 33.9248161315918 34.1190452575684 34.4480895996094 34.7774429321289 35.0001602172852 35.1354713439941 35.2751998901367 35.4419403076172 35.5596466064453 35.6276893615723 35.7191505432129 35.8305130004883 35.9145431518555 36.0035820007324 36.0898628234863 36.1487770080566 36.1787872314453 36.1921730041504 36.1969528198242 36.1967239379883 36.1948089599609 36.1911888122559 36.1845893859863 36.1665420532227 36.1290702819824 36.0880966186523 36.0660171508789 36.0555992126465 36.0471534729004 36.0538215637207 36.0710220336914 36.0794486999512 36.0786819458008 36.0748634338379 36.0677528381348 36.0637817382812 36.0643577575684 36.0677757263184 36.0635528564453 36.0461654663086 36.0353736877441 36.0409049987793 36.0521965026855 36.0621757507324 36.0652198791504 36.0598373413086 36.0556526184082 36.0620231628418 36.0631408691406 36.0515785217285
-9999 -9999 -9999 -9999 -9999 -9999 -9999 -9999 -9999 -9999 -9999 -9999 -9999 -9999 -9999 27.4164199829102 -9999 31.2628004891532 33.6477851867676 33.9467086791992 34.1619453430176 34.5281562805176 35.0106658935547 35.3916358947754 35.6080131530762 35.7205772399902 35.8129920959473 35.9077377319336 35.9639663696289 35.9898529052734 36.0102500915527 36.0443229675293 36.0862197875977 36.1298675537109 36.1631393432617 36.1777839660645 36.1779937744141 36.1728057861328 36.166675567627 36.1633110046387 36.1646766662598 36.1689682006836 36.1741981506348 36.1763153076172 36.1653213500977 36.1380233764648 36.1077117919922 36.0824165344238 36.0681610107422 36.0707817077637 36.082691192627 36.0827827453613 36.0713958740234 36.0594749450684 36.0512275695801 36.0525283813477 36.0568656921387 36.0547828674316 36.0361289978027 36.0229339599609 36.031307220459 36.0333366394043 36.0206832885742 36.0362396240234 36.0646820068359 36.0733032226562 36.0698013305664 36.0689430236816 36.0584869384766 36.044002532959
-9999 -9999 -9999 -9999 -9999 -9999 -9999 -9999 -9999 -9999 -9999 -9999 -9999 -9999 27.4164199829102 28.5970579783122 29.6876316070557 32.2471771240234 33.5120506286621 34.1435890197754 34.5928688049316 35.1489410400391 35.6564903259277 35.9154472351074 36.0087471008301 36.0467529296875 36.0760459899902 36.1045913696289 36.1233901977539 36.1349868774414 36.1436309814453 36.1532440185547 36.1633720397949 36.1711502075195 36.1727027893066 36.1683807373047 36.1626739501953 36.1567077636719 36.1491470336914 36.1435203552246 36.1407852172852 36.1406021118164 36.1452865600586 36.154468536377 36.1617164611816 36.1530380249023 36.1300010681152 36.1044807434082 36.0887794494629 36.0812339782715 36.0822067260742 36.0726013183594 36.0542030334473 36.0434188842773 36.0452270507812 36.0537796020508 36.0579948425293 36.0546646118164 36.0409545898438 36.0384712219238 36.0510139465332 36.0488090515137 36.0433197021484 36.0678062438965 36.088981628418 36.0889511108398 36.0787773132324 36.0676612854004 36.0561904907227 36.052303314209
-9999 -9999 -9999 -9999 -9999 -9999 -9999 -9999 -9999 -9999 -9999 -9999 -9999 -9999 -9999 -9999 31.8807406425476 32.5935134887695 33.841667175293 34.4906120300293 35.0379295349121 35.593090057373 35.9254493713379 36.0371475219727 36.0684471130371 36.0924911499023 36.1160850524902 36.1356964111328 36.1484870910645 36.1570320129395 36.1666030883789 36.1762542724609 36.1830635070801 36.1860656738281 36.1860961914062 36.1833534240723 36.1767921447754 36.1656227111816 36.152271270752 36.1439094543457 36.1374015808105 36.1254005432129 36.1193542480469 36.1258773803711 36.1415023803711 36.1511764526367 36.1443367004395 36.1230964660645 36.097282409668 36.0785636901855 36.0772247314453 36.067741394043 36.0523490905762 36.0525054931641 36.0635986328125 36.0691833496094 36.0716438293457 36.0728378295898 36.0660629272461 36.0605926513672 36.0684967041016 36.0781097412109 36.0876159667969 36.1006622314453 36.0983734130859 36.0893058776855 36.0767822265625 36.0676956176758 36.0664405822754 36.0697288513184
-9999 -9999 -9999 -9999 -9999 -9999 -9999 -9999 -9999 -9999 -9999 -9999 -9999 -9999 -9999 -9999 32.7940769195557 32.9946403503418 34.0229682922363 34.7055397033691 35.3139801025391 35.8005790710449 36.0017623901367 36.0491790771484 36.075439453125 36.1027221679688 36.128173828125 36.1474151611328 36.1613502502441 36.1760482788086 36.1907806396484 36.1978912353516 36.2009391784668 36.2036018371582 36.2023124694824 36.1953430175781 36.1801681518555 36.1606216430664 36.1511535644531 36.1555862426758 36.1532669067383 36.1346282958984 36.1168785095215 36.1126403808594 36.1245002746582 36.1424217224121 36.1477508544922 36.1295700073242 36.1013526916504 36.088207244873 36.0900497436523 36.0795669555664 36.0680236816406 36.0729331970215 36.0779457092285 36.0742645263672 36.0727081298828 36.0761222839355 36.0751419067383 36.0678291320801 36.0733947753906 36.0904426574707 36.102222442627 36.1017036437988 36.0980262756348 36.0950393676758 36.0880661010742 36.0836448669434 36.0814552307129 36.0763053894043
-9999 -9999 -9999 -9999 -9999 -9999 -9999 -9999 -9999 -9999 -9999 -9999 -9999 -9999 -9999 -9999 -9999 33.7449941635132 33.9733734130859 34.8368873596191 35.5282020568848 35.922534942627 36.0225677490234 36.0575637817383 36.0887222290039 36.1212425231934 36.14892578125 36.1689834594727 36.1876945495605 36.2051811218262 36.2149658203125 36.2205543518066 36.2272911071777 36.230354309082 36.2273368835449 36.2206573486328 36.2067985534668 36.192008972168 36.1889839172363 36.1915626525879 36.1839981079102 36.1609382629395 36.1353950500488 36.1198654174805 36.1192665100098 36.130256652832 36.1370697021484 36.1297836303711 36.1154441833496 36.1075477600098 36.1037864685059 36.0887985229492 36.0752868652344 36.0761222839355 36.0745735168457 36.0675735473633 36.0645294189453 36.0695114135742 36.0748519897461 36.0751533508301 36.0848236083984 36.0983276367188 36.104434967041 36.1007995605469 36.1004219055176 36.0993118286133 36.0891799926758 36.0728492736816 36.0495300292969 36.0250701904297
-9999 -9999 -9999 -9999 -9999 -9999 -9999 -9999 -9999 -9999 -9999 -9999 -9999 -9999 32.9444994926453 32.9946403503418 33.6774532794952 33.9811840057373 33.9889945983887 34.8783531188965 35.6666603088379 35.9775810241699 36.031494140625 36.0720748901367 36.1087532043457 36.1474456787109 36.1770210266113 36.1983337402344 36.2174034118652 36.2312126159668 36.2439994812012 36.256217956543 36.2603797912598 36.2548446655273 36.2490272521973 36.2455902099609 36.2416229248047 36.2349319458008 36.2244453430176 36.2124214172363 36.2014122009277 36.1806526184082 36.1524620056152 36.1289100646973 36.117603302002 36.1182403564453 36.1275901794434 36.1347427368164 36.1300926208496 36.1194877624512 36.107608795166 36.0917854309082 36.0765914916992 36.0700798034668 36.0652847290039 36.0579605102539 36.056095123291 36.0625762939453 36.0730590820312 36.0807685852051 36.0913276672363 36.097339630127 36.0978469848633 36.0946006774902 36.0941772460938 36.0894775390625 36.072826385498 36.0457420349121 36.0105094909668 35.9825286865234
-9999 -9999 -9999 -9999 -9999 -9999 -9999 -9999 -9999 -9999 -9999 -9999 -9999 -9999 -9999 -9999 -9999 -9999 34.7956609725952 35.023078918457 35.7621688842773 35.9740447998047 36.0531158447266 36.0946655273438 36.1361122131348 36.1753578186035 36.197624206543 36.2168273925781 36.2393684387207 36.2584419250488 36.2689628601074 36.272102355957 36.2663459777832 36.2531204223633 36.2423477172852 36.2350463867188 36.2307243347168 36.2270393371582 36.2222518920898 36.2163047790527 36.2101631164551 36.1939544677734 36.1647300720215 36.1357498168945 36.1196212768555 36.1171607971191 36.12646484375 36.1373901367188 36.1362228393555 36.1255722045898 36.1086463928223 36.0916137695312 36.0770645141602 36.0650253295898 36.0564346313477 36.0520286560059 36.0502586364746 36.0555305480957 36.0656089782715 36.072566986084 36.0784683227539 36.0821151733398 36.0839195251465 36.0834350585938 36.083309173584 36.0749473571777 36.054126739502 36.0248107910156 35.9912185668945 35.9673118591309
-9999 -9999 -9999 -9999 -9999 -9999 -9999 -9999 -9999 -9999 -9999 -9999 -9999 -9999 -9999 -9999 -9999 35.7365608215332 35.4532709121704 35.2922172546387 35.8194541931152 36.0299415588379 36.0860328674316 36.1191940307617 36.165111541748 36.2005462646484 36.2178802490234 36.2427215576172 36.2710304260254 36.2892761230469 36.2911758422852 36.2831802368164 36.2673492431641 36.2467575073242 36.2318420410156 36.221923828125 36.2153358459473 36.2161064147949 36.2226524353027 36.2271156311035 36.2244453430176 36.2048187255859 36.1703720092773 36.1385765075684 36.1211891174316 36.1166534423828 36.120792388916 36.1309814453125 36.1351776123047 36.1286888122559 36.1076316833496 36.0867614746094 36.0760917663574 36.0700454711914 36.0636367797852 36.0575141906738 36.0465240478516 36.0466499328613 36.0564765930176 36.0621223449707 36.0647048950195 36.0673370361328 36.0699195861816 36.0721282958984 36.075252532959 36.069652557373 36.0479583740234 36.0242919921875 36.0040588378906 35.9898376464844
-9999 -9999 -9999 -9999 -9999 -9999 -9999 -9999 -9999 -9999 -9999 -9999 -9999 35.9144821166992 35.9299363030328 -9999 35.9424819946289 35.8992309570312 35.7365608215332 35.7612266540527 36.0080718994141 36.0835418701172 36.108512878418 36.1501350402832 36.1999702453613 36.2235450744629 36.2417259216309 36.2772903442383 36.3070030212402 36.3165397644043 36.3115196228027 36.2978248596191 36.2753028869629 36.2490119934082 36.2335548400879 36.2286643981934 36.2267990112305 36.2292213439941 36.2356338500977 36.2404441833496 36.2344856262207 36.2084770202637 36.1725540161133 36.1445770263672 36.1228408813477 36.1102294921875 36.1083564758301 36.1181869506836 36.1259918212891 36.121997833252 36.1029357910156 36.088451385498 36.0888862609863 36.096061706543 36.0922508239746 36.0828895568848 36.0645523071289 36.0475616455078 36.0479278564453 36.0525207519531 36.0549278259277 36.0552749633789 36.0611572265625 36.0643501281738 36.0655326843262 36.0646934509277 36.0575141906738 36.0411148071289 36.0322952270508 36.0293350219727
-9999 -9999 -9999 -9999 -9999 -9999 -9999 -9999 -9999 -9999 -9999 -9999 -9999 -9999 35.9144821166992 35.943426767985 35.9319000244141 35.9530639648438 35.975399017334 36.0310859680176 36.0734825134277 36.0918006896973 36.1223297119141 36.1753883361816 36.2269592285156 36.245491027832 36.2693977355957 36.308723449707 36.3317260742188 36.333309173584 36.3273429870605 36.3135032653809 36.2896957397461 36.2578430175781 36.2326202392578 36.2215805053711 36.2193145751953 36.2215766906738 36.2285995483398 36.2377815246582 36.2376594543457 36.2174911499023 36.1861724853516 36.1551208496094 36.1231384277344 36.098991394043 36.0906600952148 36.0973663330078 36.1077995300293 36.106128692627 36.0932998657227 36.0918083190918 36.0994758605957 36.1178092956543 36.1206741333008 36.1045341491699 36.0854797363281 36.0661773681641 36.0542678833008 36.0523071289062 36.0503349304199 36.0472106933594 36.0518760681152 36.0629005432129 36.0812492370605 36.0818748474121 36.0793075561523 36.0737838745117 36.0696983337402 36.0668182373047
-9999 -9999 -9999 -9999 -9999 -9999 -9999 -9999 -9999 -9999 -9999 -9999 -9999 -9999 35.9119930267334 35.9144821166992 35.9838981628418 36.0240249633789 36.0548629760742 36.073371887207 36.0828170776367 36.1047630310059 36.147159576416 36.2099990844727 36.2603530883789 36.2710151672363 36.2901725769043 36.3223342895508 36.3422241210938 36.3446235656738 36.3425750732422 36.3327827453613 36.310863494873 36.2785453796387 36.246337890625 36.2209434509277 36.2048950195312 36.1994018554688 36.2014083862305 36.2079620361328 36.2141876220703 36.2113304138184 36.1976089477539 36.1721572875977 36.1397361755371 36.1110801696777 36.0945091247559 36.0902862548828 36.0947151184082 36.0936431884766 36.0864944458008 36.088005065918 36.0959091186523 36.1251258850098 36.1443405151367 36.1323394775391 36.1153526306152 36.0939483642578 36.0686721801758 36.0530052185059 36.0461769104004 36.0488777160645 36.0453834533691 36.0523452758789 36.0897941589355 36.1140022277832 36.1105041503906 36.1052780151367 36.1019325256348 36.0938034057617
-9999 -9999 -9999 -9999 -9999 -9999 -9999 -9999 -9999 -9999 -9999 35.6714859008789 35.7869148254395 35.8778038024902 35.8863067626953 35.9693794250488 36.0357475280762 36.0560874938965 36.0701446533203 36.0791893005371 36.0931968688965 36.1230888366699 36.1730270385742 36.241325378418 36.2877998352051 36.2897529602051 36.297492980957 36.3124694824219 36.3322639465332 36.3481140136719 36.3537330627441 36.3501014709473 36.3313865661621 36.3021087646484 36.2711067199707 36.2412109375 36.2133865356445 36.1926460266113 36.1796722412109 36.1726989746094 36.1717948913574 36.1711044311523 36.1728744506836 36.1748504638672 36.1631088256836 36.1331062316895 36.1035385131836 36.090404510498 36.0903625488281 36.0889739990234 36.0869560241699 36.0959854125977 36.1167793273926 36.1529502868652 36.1670227050781 36.1609420776367 36.1454200744629 36.121337890625 36.0911712646484 36.070198059082 36.0554008483887 36.055248260498 36.0401229858398 36.0439529418945 36.086311340332 36.0956192016602 36.0760803222656 36.0751914978027 36.0965232849121 36.1012992858887
-9999 -9999 -9999 -9999 -9999 -9999 -9999 -9999 -9999 35.610466003418 35.764347076416 35.8609962463379 35.9449729919434 35.9871063232422 35.9975051879883 36.0323753356934 36.0558090209961 36.0698356628418 36.0793724060059 36.0859832763672 36.0982322692871 36.1301307678223 36.183708190918 36.250904083252 36.3010177612305 36.3077201843262 36.307689666748 36.3061408996582 36.3120956420898 36.3358306884766 36.3656120300293 36.3712539672852 36.3533210754395 36.3267669677734 36.2974014282227 36.2691383361816 36.2402839660645 36.2128105163574 36.1903381347656 36.1739273071289 36.1620903015137 36.1527938842773 36.1465835571289 36.1402587890625 36.1293792724609 36.1110458374023 36.0895195007324 36.0787773132324 36.0819511413574 36.0839805603027 36.0936698913574 36.1129760742188 36.132007598877 36.1583251953125 36.1726951599121 36.1693382263184 36.1516494750977 36.1263885498047 36.0978469848633 36.0769844055176 36.0647850036621 36.0581321716309 36.0370063781738 36.0485305786133 36.0949020385742 36.0663681030273 36.0280418395996 36.0239677429199 36.0383911132812 36.0565528869629
-9999 -9999 -9999 -9999 -9999 -9999 -9999 -9999 -9999 35.7524795532227 35.9245147705078 35.9911994934082 36.0312957763672 36.0498847961426 36.0559921264648 36.0533142089844 36.0602531433105 36.0680122375488 36.079288482666 36.0902099609375 36.1075744628906 36.1390151977539 36.1836357116699 36.2263603210449 36.263298034668 36.2692222595215 36.2698402404785 36.2696762084961 36.27099609375 36.2802047729492 36.3129463195801 36.3543815612793 36.3711853027344 36.3597450256348 36.3337440490723 36.3022232055664 36.2723579406738 36.2434844970703 36.2148628234863 36.1908531188965 36.1738052368164 36.1579895019531 36.1417846679688 36.1247482299805 36.1088333129883 36.0957221984863 36.0846214294434 36.0798263549805 36.084415435791 36.0900001525879 36.0970344543457 36.0998611450195 36.1044540405273 36.115665435791 36.1388931274414 36.1675033569336 36.1654281616211 36.1408767700195 36.1206207275391 36.1045341491699 36.093017578125 36.0743255615234 36.0640068054199 36.0974769592285 36.0923347473145 36.0042724609375 35.9597702026367 35.9721984863281 35.9795722961426 36.006893157959
-9999 -9999 -9999 -9999 -9999 35.8229064941406 35.8181571960449 35.855037689209 35.8563499450684 35.9043045043945 35.984992980957 36.0305328369141 36.054386138916 36.0544815063477 36.0505828857422 36.0537300109863 36.0667343139648 36.0791358947754 36.0959091186523 36.1089363098145 36.1299247741699 36.1585655212402 36.1846351623535 36.208366394043 36.2379608154297 36.2429389953613 36.2426414489746 36.2442474365234 36.2429351806641 36.2407989501953 36.2503318786621 36.2799072265625 36.3222961425781 36.355094909668 36.3599853515625 36.3396759033203 36.3117904663086 36.2849960327148 36.2513961791992 36.2141952514648 36.1859397888184 36.1648330688477 36.1469535827637 36.1330184936523 36.1202621459961 36.1088409423828 36.0979156494141 36.0930328369141 36.0930328369141 36.0926094055176 36.0883102416992 36.0800018310547 36.0792274475098 36.0886344909668 36.1056022644043 36.1453819274902 36.1616325378418 36.153507232666 36.1452140808105 36.1432342529297 36.1432685852051 36.1266670227051 36.1245460510254 36.122673034668 36.031005859375 35.9455604553223 35.9362182617188 35.9764595031738 35.9575042724609 35.977165222168
-9999 -9999 -9999 -9999 35.6993064880371 35.8264846801758 35.9476776123047 35.9953880310059 35.9966239929199 36.0094261169434 36.024356842041 36.0485305786133 36.053352355957 36.0453987121582 36.050163269043 36.0624008178711 36.0784721374512 36.0953369140625 36.115161895752 36.1259078979492 36.1476631164551 36.1746406555176 36.1841049194336 36.2040901184082 36.2342834472656 36.2410583496094 36.2375183105469 36.2373161315918 36.2362022399902 36.2346305847168 36.2399063110352 36.2506866455078 36.2725677490234 36.308666229248 36.3409042358398 36.3541526794434 36.347297668457 36.329761505127 36.2986793518066 36.2548789978027 36.216854095459 36.1942443847656 36.1726379394531 36.1529083251953 36.1341934204102 36.1199340820312 36.1109962463379 36.1026573181152 36.0969467163086 36.090518951416 36.0851669311523 36.0850410461426 36.0886268615723 36.0952033996582 36.1020774841309 36.1319007873535 36.1588668823242 36.1763496398926 36.1917533874512 36.2073554992676 36.1986503601074 36.1769828796387 36.1398162841797 36.0875129699707 36.0291137695312 35.9639739990234 35.9496765136719 35.9923324584961 35.9748802185059 35.9779930114746
-9999 -9999 -9999 35.8006362915039 35.7676086425781 35.9637451171875 36.0327529907227 36.0538711547852 36.0604782104492 36.0671424865723 36.0570335388184 36.0534439086914 36.0433921813965 36.0427513122559 36.0540466308594 36.0732650756836 36.0967788696289 36.1226539611816 36.1415328979492 36.1464424133301 36.1652336120605 36.1916770935059 36.1953659057617 36.2101364135742 36.2383499145508 36.2492713928223 36.2442893981934 36.238697052002 36.2308731079102 36.2273063659668 36.2370414733887 36.2508087158203 36.2606010437012 36.2805976867676 36.3096046447754 36.3341789245605 36.3453826904297 36.3446807861328 36.3336982727051 36.301887512207 36.2544822692871 36.2254600524902 36.2033843994141 36.1822357177734 36.1602172851562 36.1343574523926 36.1180152893066 36.1068992614746 36.096622467041 36.0866355895996 36.0775451660156 36.0778198242188 36.0827980041504 36.0871238708496 36.091121673584 36.1211090087891 36.1661720275879 36.2002296447754 36.2190895080566 36.2214698791504 36.1945152282715 36.1547546386719 36.1317367553711 36.1287269592285 36.0991744995117 36.0331344604492 35.974910736084 35.9890441894531 35.9882583618164 35.9906845092773
-9999 -9999 -9999 35.7865753173828 35.9490547180176 36.0453720092773 36.0630035400391 36.0702285766602 36.0754661560059 36.072811126709 36.0571174621582 36.047737121582 36.0451431274414 36.052848815918 36.0752220153809 36.1052513122559 36.1325340270996 36.1529426574707 36.1670722961426 36.1639785766602 36.1701622009277 36.1945533752441 36.2021331787109 36.2122573852539 36.234992980957 36.2486763000488 36.2480735778809 36.2437171936035 36.2292327880859 36.2162017822266 36.2256546020508 36.2459297180176 36.2474746704102 36.2515754699707 36.2737274169922 36.2977447509766 36.312873840332 36.320987701416 36.3220634460449 36.3100929260254 36.2912864685059 36.2756309509277 36.2556953430176 36.2358856201172 36.2228775024414 36.2019462585449 36.1774215698242 36.1601486206055 36.1444129943848 36.1282234191895 36.109504699707 36.1011352539062 36.1064682006836 36.1124839782715 36.1189994812012 36.1402854919434 36.1769866943359 36.2120971679688 36.2268600463867 36.2104301452637 36.175609588623 36.1639747619629 36.1714706420898 36.1925315856934 36.1717758178711 36.1278915405273 36.0437622070312 36.0010948181152 36.009220123291 36.0122108459473
