NCOLS 35 
NROWS 26 
XLLCORNER -80 
YLLCORNER 33 
CELLSIZE 0.5 
NODATA_value -9999 
-9999.000000000000000 -9999 -9999 -9999 -9999 -9999 -9999 -9999 -9999 -9999 -9999 -9999 -9999 -9999 -9999 -9999 -9999 -9999 -9999 -9999 -9999 -9999 -9999 -9999 -9999 -9999 -9999 -9999 -9999 -9999 -9999 -9999 -9999 -9999 -9999
-9999 -9999 -9999 -9999 -9999 -9999 -9999 -9999 -9999 -9999 -9999 -9999 -9999 -9999 -9999 -9999 -9999 -9999 -9999 -9999 -9999 -9999 -9999 -9999 -9999 -9999 -9999 -9999 -9999 28.7047137554605 -9999 -9999 -9999 -9999 -9999
-9999 -9999 -9999 -9999 -9999 -9999 -9999 -9999 -9999 -9999 -9999 -9999 -9999 -9999 -9999 -9999 -9999 -9999 -9999 -9999 -9999 -9999 -9999 -9999 -9999 -9999 29.4667956942167 29.4320233464139 29.2100463475157 28.7489122961123 -9999 -9999 -9999 -9999 -9999
-9999 -9999 -9999 -9999 -9999 -9999 -9999 -9999 -9999 -9999 -9999 -9999 -9999 -9999 -9999 -9999 -9999 -9999 -9999 -9999 -9999 -9999 -9999 31.6081315513471 31.6417206886084 31.5364343761717 30.7769734530596 30.6786284025388 -9999 -9999 -9999 30.6076628944052 30.6673714830749 30.6865644968471 30.6713032921012
-9999 -9999 -9999 -9999 -9999 -9999 -9999 -9999 -9999 -9999 -9999 -9999 -9999 -9999 -9999 -9999 -9999 -9999 -9999 -9999 31.0314739636548 31.17696164585 31.3235371924568 31.7709069302657 32.1699019398919 32.1719409693745 31.469275127921 31.2656380825453 -9999 -9999 30.7854333976892 30.8701621910897 30.8880309673071 30.8182071517335 30.7611812724259
-9999 -9999 -9999 -9999 -9999 -9999 -9999 -9999 -9999 -9999 -9999 -9999 -9999 -9999 -9999 -9999 -9999 -9999 -9999 31.2366181074683 31.2449981703088 31.28576496023 31.4410931973866 31.7253047286245 31.9473280184002 31.9450108841374 31.6205304801733 31.4568260926696 31.2251336832411 30.9987542847203 31.0483982812305 31.0730118615418 30.9661047395268 30.9457212365776 30.9717713372141
-9999 -9999 -9999 -9999 -9999 -9999 -9999 -9999 -9999 -9999 -9999 -9999 -9999 -9999 -9999 -9999 -9999 -9999 -9999 31.1756148099367 31.1499219395204 31.2105416395978 31.2499496153556 31.4137540874726 31.6335648376308 31.5982473536097 31.5865260660883 31.6438370191279 31.7784397072473 31.6647640667914 31.8526531361943 31.9214481345825 31.8552113546085 31.7250263340862 31.5672279395067
-9999 -9999 -9999 -9999 -9999 -9999 -9999 -9999 -9999 -9999 -9999 -9999 -9999 -9999 -9999 -9999 -9999 -9999 -9999 31.105388507745 31.0138110886052 31.0194392152982 31.0265105618655 31.0332508329106 31.209245436001 31.3141264656984 31.4053188975597 31.6124124520254 32.8854961517087 33.6443465422258 34.1503912926212 34.4086941278855 34.2687641059519 33.7071014178346 32.6394583633157
-9999 -9999 -9999 -9999 -9999 -9999 -9999 -9999 -9999 -9999 -9999 -9999 -9999 -9999 -9999 -9999 -9999 -9999 -9999 30.9716771333239 30.970639913136 31.004976297816 31.0481896701146 31.046922758921 31.0640158782556 31.1399499823509 31.2450272507592 31.8226128578264 34.05781026858 34.8281539767066 34.9582105686338 35.3370084301073 35.5251454681007 35.2875807944021 33.8468454794229
-9999 -9999 -9999 -9999 -9999 -9999 -9999 -9999 -9999 -9999 -9999 -9999 -9999 -9999 -9999 -9999 -9999 30.9462230858128 30.94309148233 30.9843450793878 30.9837947791377 31.0755098585527 31.1743125482481 31.152660187628 31.1604463863459 31.4457744939292 32.2550335205338 33.8072887276084 34.8010922994949 34.5778674993558 34.605778444307 35.2449592343557 35.7855436036132 35.8794236845641 34.8067045232594
-9999 -9999 -9999 -9999 -9999 -9999 -9999 -9999 -9999 -9999 -9999 -9999 -9999 -9999 31.1260930812113 31.6475472414819 31.9808054455715 32.3230521964568 32.1119896327029 31.5818845549501 31.3922772733433 31.4555202385164 31.7160652693406 32.0263932410765 32.3569135531843 32.9095384899139 33.7186147649766 34.3809304941026 34.6033036440462 34.5716697870425 34.8849796706898 35.7067557411996 36.1474303246056 36.2311656706964 35.5807321682837
-9999 -9999 -9999 -9999 -9999 -9999 -9999 -9999 -9999 -9999 -9999 -9999 31.4895210657621 31.9102983990475 32.2484793064201 32.8755271819994 33.7600370374804 34.4813968235412 34.3467864823187 33.7700066832921 33.4481606276732 33.4331877398614 34.080441299444 34.8307759070367 35.3265149270382 35.6054823950534 35.7023579944758 35.5187538727029 35.270181871554 35.3353596874211 35.8012395466826 36.134382363271 36.2552198822786 36.1660916432494 35.6838866230348
-9999 -9999 -9999 -9999 -9999 -9999 -9999 -9999 -9999 -9999 -9999 -9999 32.3033863368689 32.5683875091286 33.3851927301855 34.4947412530791 34.9749240283205 35.1509651738147 35.2137373141803 35.2776143587352 35.3527479308031 35.5875257306828 35.9804809314925 36.1971163226337 36.3789787698408 36.5733190617723 36.6050115746804 36.5610311830314 36.3560096073069 36.1522854170168 36.0851636579522 36.1107123857593 36.1033784659856 35.9136362872011 35.6139224974402
-9999 -9999 -9999 -9999 -9999 -9999 -9999 -9999 -9999 30.7862366283719 31.8159979608426 32.55772268655 32.9103380976664 33.6368539932765 34.715413856676 35.0490433448918 34.986121411633 34.9970452592221 35.0985404729198 35.198630244196 35.2646323334786 35.4520195471218 35.8063412970652 36.1052631724209 36.2530713818964 36.4376394418574 36.49832779852 36.4274868540146 36.1882588933803 35.9518146487374 35.8991374987323 35.9572259372943 35.9114020975517 35.6692146343115 35.4532370867453
-9999 -9999 -9999 -9999 -9999 -9999 -9999 -9999 -9999 -9999 32.4756372596172 33.1484837941504 33.8854246972211 34.7146969292667 35.0009426177576 34.8566949041811 34.789784327836 34.8853915082491 35.0211126641907 35.144996610568 35.1391996163447 35.1784395055428 35.4591838148369 35.826590462231 35.9980734597401 36.0385386945927 36.0393440693374 35.9353540969446 35.7855279566728 35.6373622875851 35.5635065811789 35.4985811849096 35.4318860880218 35.3687829499394 35.5386746600485
-9999 -9999 -9999 -9999 -9999 -9999 -9999 11.8358221552468 14.4661313063322 -9999 32.6722693118508 33.6123702246189 34.6299856106341 34.9550331799681 34.9432503081069 34.9183752572798 34.9378695581815 35.0250995164107 35.0671456704189 35.1063936983333 35.2085306606135 35.4229127166035 35.5865480719095 35.7013290646066 35.8041082557168 35.8196956669177 35.936318833309 36.0273232617618 35.9248370268788 35.721599768462 35.5047126029716 35.3282071643016 35.2986111670161 35.578429798272 36.0023683463431
-9999 -9999 -9999 -9999 -9999 -9999 -9999 16.1479781286777 20.212042101079 31.8042699869324 32.9647334276802 34.3306878371208 34.9430652398411 35.1249796449783 35.2408311532058 35.2922920701821 35.2507211329639 35.3058393317705 35.455192600147 35.7074586046065 35.9695280235751 36.1463008258514 36.1685986670318 36.0592486530314 35.9667647274847 35.9938154073012 36.1568361775104 36.2281164745266 36.2106241449175 36.1783972777262 36.0287270434398 35.8925059540693 35.889947639069 36.1147546434948 36.2747645796358
-9999 -9999 -9999 -9999 -9999 -9999 -9999 21.6886396239483 -9999 32.5040003225357 33.7567292294737 34.7572093282939 35.0925008988028 35.5161453919805 35.7985973493792 35.9408384743132 36.0440372097447 36.1653314090692 36.2529599564709 36.2872208668899 36.3218537140971 36.3434813164926 36.3631054357554 36.3582244260869 36.3307973678654 36.3497724959332 36.3562171801227 36.3164418969999 36.2714137680311 36.2542890744478 36.2415057092608 36.2216242552434 36.2290570080362 36.2589518197612 36.2774956173263
-9999 -9999 -9999 -9999 -9999 -9999 -9999 -9999 31.6642622673737 33.3396145409682 34.3159125536394 35.3120800503649 35.9460414307806 36.2392317757926 36.3327256547322 36.3673969056268 36.3690197055677 36.3571968645201 36.3483232356395 36.3368598543402 36.3067539283109 36.2926640140877 36.29003943569 36.3007647023564 36.3150189604298 36.3392403302724 36.3396298390146 36.2960621863947 36.267060084669 36.2537053016429 36.2736677444063 36.2798033237174 36.2792067532606 36.279268336259 36.3072770464167
-9999 -9999 -9999 -9999 -9999 -9999 -9999 -9999 -9999 34.5256561637569 35.4208475270569 36.1708083493119 36.3455331463101 36.3786358061853 36.379680777388 36.3259791874236 36.3077908882371 36.3123080810532 36.314868008504 36.3013622950156 36.297639036863 36.2911710834838 36.2755438278536 36.2692458538525 36.3192909601629 36.3511496332756 36.3213877212751 36.3129577765215 36.3116596586427 36.3210843847303 36.308402775632 36.3012611130774 36.3040479412861 36.310265555692 36.3604618419787
-9999 -9999 -9999 -9999 -9999 -9999 -9999 -9999 -9999 35.1629754407959 36.063102750406 36.3268490601875 36.3672345900836 36.3907662939302 36.3577964707302 36.3051638361632 36.2827474664581 36.2756273211295 36.3006675180076 36.3231732177375 36.3088927942344 36.2988090333439 36.3136724663538 36.3386454487301 36.3562573169931 36.3832549093594 36.3830550057444 36.3798406863286 36.3848270002816 36.3568683149914 36.3139471034264 36.3014863396771 36.3456189670416 36.3738747496859 36.3658882864968
-9999 -9999 -9999 -9999 -9999 -9999 -9999 35.5320199908233 35.7505058471899 35.9638097748051 36.3000280713926 36.3491586808417 36.3842272961441 36.4157512838308 36.3843061049965 36.3359641971249 36.2968355951807 36.2709277523839 36.2769105513415 36.3025154063765 36.2824326106851 36.2789247286964 36.3049048540799 36.3331595501311 36.3273507388727 36.3619616677535 36.4046753547957 36.4242375784969 36.4283710818804 36.4186741360545 36.4084865894268 36.4057868483001 36.425124419552 36.422524344499 36.3553869398355
-9999 -9999 -9999 -9999 -9999 -9999 35.6730534692125 35.8867763751605 36.1639370284336 36.2904989237097 36.3387161228906 36.3490037112044 36.3945068691571 36.4341259109262 36.43066237535 36.3832127804016 36.3325945458741 36.2864297935882 36.2741745797135 36.2742527540493 36.2766250148012 36.2943830714197 36.3337567577875 36.3432998420329 36.3203011603868 36.3224478792929 36.3801111071518 36.4732595138815 36.5497612810331 36.5391290616129 36.4912952084475 36.4810191433862 36.4741928436814 36.4075588978377 36.3654327169196
-9999 -9999 -9999 -9999 35.3584975358178 35.8154613689463 36.0268788083293 36.1452694971953 36.288346385494 36.3422479287078 36.346661668472 36.3364266484584 36.4065051708411 36.4552850173111 36.4374109460881 36.3846512270819 36.3438005696138 36.2951488847859 36.2809015809082 36.2735348554136 36.2800722729447 36.3102116646995 36.3158790283679 36.3111793469386 36.3217131532207 36.3154650270127 36.3563602589438 36.4391429392437 36.5847283119554 36.6187830326173 36.5416259304451 36.4872284205378 36.4882723400257 36.4272710485794 36.4097061908942
-9999 -9999 -9999 35.7099516019477 35.874274734456 36.1365603331307 36.2676740097613 36.328031941516 36.3521671686736 36.3469491192942 36.3212482201623 36.3162745978848 36.4078347046747 36.4636367904119 36.4279317172963 36.3838593140182 36.3390405889757 36.2771558758889 36.2863103421301 36.3283159890213 36.3103244503786 36.3387314170236 36.3346819985056 36.3258976312346 36.3105257437596 36.2985937698637 36.3453402746962 36.3998472662348 36.4539831057469 36.5052848006166 36.5053697923179 36.4668067204881 36.4716745770143 36.4760452259847 36.4775676046026
-9999 -9999 35.5044879295545 36.0992957494262 36.2176838548778 36.2714974504547 36.3405653762083 36.3547846983018 36.3394727444842 36.307945876655 36.2849690650424 36.2979005731108 36.387594091399 36.4566735779663 36.4176665376173 36.3839723532357 36.3447907711591 36.3158960483058 36.329796680026 36.3482304580293 36.3477677712674 36.3646648121971 36.3875683619479 36.3855799160562 36.3483633805588 36.2844356658879 36.2640602037275 36.3146551791264 36.3608182820713 36.3696399483268 36.3939119077971 36.4140592799837 36.4598503180299 36.4905032685543 36.4766566525836
