NCOLS 35 
NROWS 26 
XLLCORNER -80 
YLLCORNER 33 
CELLSIZE 0.5 
NODATA_value -9999 
-9999.000000000000000 -9999 -9999 -9999 -9999 -9999 -9999 -9999 -9999 -9999 -9999 -9999 -9999 -9999 -9999 -9999 -9999 -9999 -9999 -9999 -9999 -9999 -9999 -9999 -9999 -9999 -9999 -9999 -9999 -9999 -9999 -9999 -9999 -9999 -9999
-9999 -9999 -9999 -9999 -9999 -9999 -9999 -9999 -9999 -9999 -9999 -9999 -9999 -9999 -9999 -9999 -9999 -9999 -9999 -9999 -9999 -9999 -9999 -9999 -9999 -9999 -9999 -9999 -9999 29.0499212616435 -9999 -9999 -9999 -9999 -9999
-9999 -9999 -9999 -9999 -9999 -9999 -9999 -9999 -9999 -9999 -9999 -9999 -9999 -9999 -9999 -9999 -9999 -9999 -9999 -9999 -9999 -9999 -9999 -9999 -9999 -9999 28.6090382281989 28.8278586016904 29.3478531045207 29.310349055724 -9999 -9999 -9999 -9999 -9999
-9999 -9999 -9999 -9999 -9999 -9999 -9999 -9999 -9999 -9999 -9999 -9999 -9999 -9999 -9999 -9999 -9999 -9999 -9999 -9999 -9999 -9999 -9999 31.1032780335997 30.9168463673748 30.6841936407664 30.5574749935944 30.4745729069992 -9999 -9999 -9999 30.6692992446184 30.6306852736754 30.6659114450321 30.5685692715346
-9999 -9999 -9999 -9999 -9999 -9999 -9999 -9999 -9999 -9999 -9999 -9999 -9999 -9999 -9999 -9999 -9999 -9999 -9999 -9999 30.9942300316791 31.2540833806705 31.4505500979966 31.7343170246459 32.0356512797607 31.6480173828443 31.4113765721711 31.3573538155489 -9999 -9999 30.9735112985424 30.7785173781911 30.8666882870574 31.0973901421331 31.1908980287331
-9999 -9999 -9999 -9999 -9999 -9999 -9999 -9999 -9999 -9999 -9999 -9999 -9999 -9999 -9999 -9999 -9999 -9999 -9999 31.2434789090407 31.5673597445892 31.7577722735009 31.7773479991273 31.9317049132872 32.1165692858407 31.9479614015575 31.5747967954614 31.3818570388434 31.3420096891112 31.1933129751541 31.105416178774 30.9787148414099 30.918908193327 31.2150815945268 31.4746131747381
-9999 -9999 -9999 -9999 -9999 -9999 -9999 -9999 -9999 -9999 -9999 -9999 -9999 -9999 -9999 -9999 -9999 -9999 -9999 31.2659828369181 31.7648074204209 31.9631619319618 32.0440400104411 32.0610770119381 32.0801022681668 31.915072364541 31.5526250768841 31.2951304374821 31.2356026722336 31.1914439934646 31.2394681466403 31.3564575042911 31.5340546162027 32.0251634229512 32.6212476360431
-9999 -9999 -9999 -9999 -9999 -9999 -9999 -9999 -9999 -9999 -9999 -9999 -9999 -9999 -9999 -9999 -9999 -9999 -9999 31.1739692860274 31.5872213136616 31.9689840023387 32.1840111887645 32.1941834774789 32.2046474225332 32.1910531101228 31.94342110187 31.5974668672124 31.5797950740116 32.0254278983663 32.4925174281709 32.9588129401408 33.4043892683625 33.980823733351 34.4953733886666
-9999 -9999 -9999 -9999 -9999 -9999 -9999 -9999 -9999 -9999 -9999 -9999 -9999 -9999 -9999 -9999 -9999 -9999 -9999 31.4341062310395 31.4794231813174 31.7512928196742 32.2070544341417 32.4734743732792 32.5417578640099 32.5750965708056 32.4821283359654 32.121499830739 32.6748335320149 34.1792095830413 34.5717134680845 34.5423323237885 34.658269628601 35.1255431119073 35.1471375289451
-9999 -9999 -9999 -9999 -9999 -9999 -9999 -9999 -9999 -9999 -9999 -9999 -9999 -9999 -9999 -9999 -9999 31.5115060548269 31.921104558321 31.9838275864882 31.8026667365814 31.6775376606895 32.1628781874431 32.6635855912702 32.7064682220733 32.7219652247053 32.5576768739075 33.2926766803863 34.9963243650774 35.4468313696619 35.3420972419834 35.1727713530883 35.2403307140416 35.3329342439743 35.2884101627319
-9999 -9999 -9999 -9999 -9999 -9999 -9999 -9999 -9999 -9999 -9999 -9999 -9999 -9999 29.6607232426535 30.3478145570881 31.2233652087289 32.0965132538759 32.3826836763444 32.2314204174506 32.0974635533086 32.0594418449581 32.4746358554313 32.7402205988804 32.7192706334932 32.7788532998634 33.4157152774666 34.7751265842138 35.4658083234744 35.5210746986993 35.4851250549441 35.4276807527866 35.3953123508095 35.3776514463445 35.3585372464352
-9999 -9999 -9999 -9999 -9999 -9999 -9999 -9999 -9999 -9999 -9999 -9999 30.1277279220625 30.345418029373 30.7407314148591 31.7632274966381 32.8050384599957 33.4919712062868 33.6906761105603 33.5655340611007 33.306531807332 33.099123744535 33.2198295349241 33.3481738372504 33.5469739364684 33.9654616574091 34.6882315260463 35.2420015856654 35.4443303543369 35.4820630785616 35.4760558285767 35.5038062354364 35.50314070388 35.4830010847362 35.5688801475166
-9999 -9999 -9999 -9999 -9999 -9999 -9999 -9999 -9999 -9999 -9999 -9999 30.6899923011516 30.8857485449981 32.0008294498697 33.1685857313192 34.088336290276 34.6215847704775 34.7551985945 34.8038921440155 34.6868577920208 34.5015559020915 34.5351354918177 34.5288442654255 34.464751136409 34.5141276700438 34.8954082867127 35.2605425862595 35.404707209002 35.4036561917808 35.4010760429669 35.4355289584083 35.5391665500056 35.7102535353118 35.9544846950191
-9999 -9999 -9999 -9999 -9999 -9999 -9999 -9999 -9999 29.8161050715533 30.6831350017431 30.9999602662128 31.1257064493537 31.7552195148816 33.2929428326425 34.0651860262119 34.5994890597572 34.8657299820133 34.9568540685111 34.9805819131411 34.9358276311173 34.8682899577571 34.8923447984901 34.91812821833 34.735410650537 34.3718164759536 34.907702534767 35.1960285365704 35.2825149472013 35.2935173259579 35.3043830059388 35.4962878832551 35.8880948234699 36.2168017807468 36.3762332241204
-9999 -9999 -9999 -9999 -9999 -9999 -9999 -9999 -9999 -9999 31.1767830477466 31.3048628438039 31.7858061134713 33.0297497221561 34.045197030333 34.514487135158 34.7835872728443 34.9240385053092 34.9320034633455 34.9263504064861 34.8651161320435 34.932843904193 35.0606013630828 35.1654895991729 35.2279375497968 35.117177555172 35.0579535463493 35.1189660739729 35.2137398294421 35.3756826013847 35.6595327679829 36.0811384852162 36.3552615416277 36.4544602623067 36.4584386364177
-9999 -9999 -9999 -9999 -9999 -9999 -9999 10.5010337890781 12.8935014785361 -9999 31.4170343791863 31.9201913796805 33.0841428870325 34.1553498286939 34.6135720841753 34.6527518619708 34.714402241198 34.664734092809 34.6277615584958 34.8044027367885 35.132963177049 35.4498398896891 35.7131152391743 35.9206055409701 36.0429512941049 36.0393999577832 35.94579842564 35.8651870199084 35.9178106035574 36.1065136156927 36.3454280244659 36.4649553925825 36.482968229791 36.4748321279781 36.4459805502484
-9999 -9999 -9999 -9999 -9999 -9999 -9999 13.1546646966475 17.725772978937 29.799039504876 31.4832257489597 32.8950155361516 34.3204087014279 34.7755195566391 34.7360941658796 34.586036283474 34.7008639741858 34.9701439443689 35.3395633780105 35.7709658050711 36.0972975771849 36.295550941666 36.4076917304885 36.4600788875801 36.4761848894157 36.4504898699598 36.401590008613 36.3931000262378 36.4538156952895 36.5276106826059 36.5559782689712 36.5538815494446 36.535456611748 36.5054294261561 36.4564664015558
-9999 -9999 -9999 -9999 -9999 -9999 -9999 18.6466786884613 -9999 28.9206635259499 31.2699144016722 33.4035321342257 34.2681910957844 34.6439078729348 34.7646492378448 35.1714022323882 35.646096089375 35.996715001067 36.2317609412659 36.3627687528762 36.4275712661996 36.4682183658804 36.4967951871465 36.5019882100067 36.5165820807362 36.5199165196637 36.5227288103703 36.5540533773724 36.5757488851282 36.5920866908053 36.6021866137618 36.5907007413272 36.563135685784 36.4868194912919 36.4596820168345
-9999 -9999 -9999 -9999 -9999 -9999 -9999 -9999 30.1341218937162 30.1011411656825 31.0248269851515 33.0321299780868 34.4272887806899 35.3208418916222 35.8556773919983 36.1604442299667 36.3410060708628 36.417939919742 36.4112130969632 36.3739807488534 36.4229999422673 36.4693506750205 36.5011061647174 36.5324081399736 36.5429504766822 36.5582616557992 36.5721653776023 36.6009475287414 36.6209874201037 36.6305747058825 36.6092905353166 36.5934871657525 36.5734763293527 36.5025047267242 36.5511672130923
-9999 -9999 -9999 -9999 -9999 -9999 -9999 -9999 -9999 31.3496082264962 31.9518287003674 34.7973864147584 36.011536835001 36.2173953248406 36.3125437711419 36.4233466258273 36.4878388980446 36.4927603651956 36.4339065532706 36.4018437723666 36.4312969242473 36.4624142940459 36.4801352066201 36.5425399953521 36.569497570239 36.5928603437394 36.5991504875629 36.5905689617326 36.6011215647337 36.599777459821 36.5948157954333 36.6002121305913 36.5855268679932 36.5599387196622 36.6259565511298
-9999 -9999 -9999 -9999 -9999 -9999 -9999 -9999 -9999 33.9532347559624 34.8207377267139 36.1019492754686 36.211956682309 36.3244032183031 36.3772593999457 36.4467125638623 36.4989006034422 36.5022051395963 36.499204779749 36.4864663606129 36.498946870844 36.5194956647233 36.493745455729 36.5021639362549 36.5422280425266 36.5812150707823 36.5928999225571 36.5704874940994 36.580957198097 36.5762093698623 36.5749874328905 36.5888673676954 36.5937307732145 36.6176993934571 36.6467071468083
-9999 -9999 -9999 -9999 -9999 -9999 -9999 35.6383189226268 35.755791503175 35.607149533708 36.014465843244 36.1696611592125 36.2557401792668 36.3725772810801 36.3854572819535 36.4262907618606 36.4942248096215 36.5243976831995 36.5179953291887 36.5066128440738 36.5147117709885 36.5059600873642 36.484189560417 36.4909776522895 36.5180710553363 36.5582309481421 36.5762627685343 36.5764548688011 36.5836882813976 36.5739405259424 36.5740466860867 36.5735516865953 36.5854650059684 36.6468940314284 36.6460861052021
-9999 -9999 -9999 -9999 -9999 -9999 35.5747971740704 35.7105135582615 35.7842122051322 35.9793879664124 36.1180644824915 36.1996799377935 36.2677913349848 36.3602793949511 36.3823130410842 36.3887970907972 36.4338955733145 36.5005805219595 36.5307447014514 36.5296999354941 36.5191508471522 36.5144606687172 36.5216729034803 36.5400982825214 36.5670351397003 36.5850251973568 36.591769278185 36.6031654731534 36.6091052068052 36.6055155928945 36.6061237966046 36.5988824720007 36.592800247093 36.6072950835825 36.6104272820491
-9999 -9999 -9999 -9999 34.9684827145818 35.2048593469762 35.3927436654651 35.6745670168084 36.004895121973 36.134113619289 36.1832995336431 36.2368793527425 36.2718062293552 36.3356385492022 36.3748579648402 36.3643401609887 36.3749277187502 36.4616793761431 36.5250871922432 36.5351651673609 36.5617295525039 36.5657349398555 36.563718139921 36.5866806903348 36.6199277825774 36.6141735880484 36.6138747320232 36.633379689586 36.6338544368605 36.6126311450197 36.6115044164071 36.6064805009675 36.6017430624407 36.5903924024298 36.5867264546842
-9999 -9999 -9999 34.8182918137315 35.0192627984906 35.377475415582 35.7606220492851 36.0828673581056 36.1597929475359 36.2095002723008 36.2728371875315 36.2864740568295 36.2909609202838 36.3601886107697 36.3923932671935 36.3729496981155 36.3497473580717 36.424100808623 36.5182637673149 36.5457525037794 36.55807272275 36.5697713340127 36.5827722069642 36.5673562105173 36.6098725910362 36.6064444622968 36.6101026764509 36.6318234267031 36.6303313398857 36.6116755615251 36.6322225833186 36.6305214239187 36.6097666871132 36.6069694946845 36.6010181358283
-9999 -9999 35.28368227523 35.3755339447191 35.4324788627809 35.7619460421647 36.1043080772225 36.1666103660191 36.2497124148069 36.3243059896857 36.3118934753645 36.3073868493307 36.3504277450995 36.388529882131 36.4066042392887 36.3638567565186 36.359990923268 36.4213623592945 36.4933135235757 36.5134288788277 36.5394301438124 36.5492035381692 36.5466698935271 36.5446791329238 36.5790190916483 36.5871273223486 36.5809043004652 36.6114782489651 36.6189396408638 36.618717875935 36.640827606389 36.6340166947203 36.6120303489231 36.6102894765582 36.6286823879297
