NCOLS 35 
NROWS 26 
XLLCORNER -80 
YLLCORNER 33 
CELLSIZE 0.5 
NODATA_value -9999 
-9999.000000000000000 -9999 -9999 -9999 -9999 -9999 -9999 -9999 -9999 -9999 -9999 -9999 -9999 -9999 -9999 -9999 -9999 -9999 -9999 -9999 -9999 -9999 -9999 -9999 -9999 -9999 -9999 -9999 -9999 -9999 -9999 -9999 -9999 -9999 -9999
-9999 -9999 -9999 -9999 -9999 -9999 -9999 -9999 -9999 -9999 -9999 -9999 -9999 -9999 -9999 -9999 -9999 -9999 -9999 -9999 -9999 -9999 -9999 -9999 -9999 -9999 -9999 -9999 -9999 30.3056172254879 -9999 -9999 -9999 -9999 -9999
-9999 -9999 -9999 -9999 -9999 -9999 -9999 -9999 -9999 -9999 -9999 -9999 -9999 -9999 -9999 -9999 -9999 -9999 -9999 -9999 -9999 -9999 -9999 -9999 -9999 -9999 27.9761481645576 29.650829698554 30.7487462642864 30.7678252556995 -9999 -9999 -9999 -9999 -9999
-9999 -9999 -9999 -9999 -9999 -9999 -9999 -9999 -9999 -9999 -9999 -9999 -9999 -9999 -9999 -9999 -9999 -9999 -9999 -9999 -9999 -9999 -9999 30.1038590420159 30.3981255879613 30.6499216157968 30.7506325818866 30.9675103097236 -9999 -9999 -9999 30.4986153157893 30.8131216570103 31.1310934617218 31.3304514361624
-9999 -9999 -9999 -9999 -9999 -9999 -9999 -9999 -9999 -9999 -9999 -9999 -9999 -9999 -9999 -9999 -9999 -9999 -9999 -9999 30.8550914519523 31.2638438545601 31.1513470864144 31.3853541734917 31.6495615228363 31.4827917838041 31.196112238817 31.0205668839107 -9999 -9999 30.728178926697 31.1391470466158 31.4524032697921 31.6131270841744 31.6924832870881
-9999 -9999 -9999 -9999 -9999 -9999 -9999 -9999 -9999 -9999 -9999 -9999 -9999 -9999 -9999 -9999 -9999 -9999 -9999 31.1331087335632 31.5826505896594 31.7052909141548 31.7926124587661 31.978302423403 32.0145064694529 31.6769207078928 31.3331780255287 31.0212984230158 30.8364292265257 30.9863525068777 31.151312780009 31.3820658015457 31.5586242565678 31.9472707790912 32.0713689546731
-9999 -9999 -9999 -9999 -9999 -9999 -9999 -9999 -9999 -9999 -9999 -9999 -9999 -9999 -9999 -9999 -9999 -9999 -9999 31.3298703892306 31.8434740056316 32.0863673344952 32.2399766015155 32.2419607231692 32.16234305913 31.9476907741475 31.7370301881268 31.386004443911 31.1884554466281 31.3394509341078 31.6106717178321 31.8165724976063 31.9355932718808 32.3218948031142 32.6927449002101
-9999 -9999 -9999 -9999 -9999 -9999 -9999 -9999 -9999 -9999 -9999 -9999 -9999 -9999 -9999 -9999 -9999 -9999 -9999 31.1518056552488 31.7257588108582 32.1793280664772 32.3865877556594 32.4287333678131 32.4650544922555 32.2674616918566 32.1195309911451 31.8438971236369 31.6074247013548 32.2869220441025 32.6662442511296 32.7017412148402 32.5275158602918 32.9880867505037 33.8393405070927
-9999 -9999 -9999 -9999 -9999 -9999 -9999 -9999 -9999 -9999 -9999 -9999 -9999 -9999 -9999 -9999 -9999 -9999 -9999 31.2505557619939 31.5483825471695 32.1205443746844 32.4907188282008 32.7555823246979 32.8056580729333 32.5350509446651 32.2315615189406 32.0776502192872 32.6711105837426 33.7894036294779 34.0403069295024 33.4590862540554 33.4603089435935 33.9989897721355 34.4000961609628
-9999 -9999 -9999 -9999 -9999 -9999 -9999 -9999 -9999 -9999 -9999 -9999 -9999 -9999 -9999 -9999 -9999 31.7295142523651 31.8709954637513 31.8253603711217 31.7430495595392 31.914080510301 32.4457729114013 32.7690087678671 32.7010571682743 32.3664409717086 32.4689665935787 33.8666568870892 34.730811348845 35.1613074700781 35.7590358688726 35.0252810311145 34.3490434609104 34.1626812264986 34.2647394309023
-9999 -9999 -9999 -9999 -9999 -9999 -9999 -9999 -9999 -9999 -9999 -9999 -9999 -9999 29.9409961619968 30.9304606348031 31.5944780279347 32.2863806859891 32.3075669813476 32.1996594719832 32.1364316413078 32.2581658021718 32.555672619428 32.5388681072652 32.5171138107992 33.2224909756568 34.5245450740358 35.4832625297639 35.6851764345131 35.8160681228596 35.9904398562525 35.5076706205669 35.0682976482352 35.0578460903421 35.4257460577035
-9999 -9999 -9999 -9999 -9999 -9999 -9999 -9999 -9999 -9999 -9999 -9999 30.4106797069251 30.8433796929662 31.5691622938557 32.5361811906198 32.7805442305321 32.9708554970172 33.1003504477601 33.0469328355445 33.0268016314605 33.2729038561648 33.7520157563611 34.1660746406011 34.6054940413113 35.3321996896106 35.9431493304827 36.1686223641513 36.0812067219204 35.8876211990084 35.8455237578066 35.8386516400934 35.8196836808569 35.9524444380887 36.0803849208394
-9999 -9999 -9999 -9999 -9999 -9999 -9999 -9999 -9999 -9999 -9999 -9999 31.2846896178432 31.6823741696761 32.2985784579924 33.3197696581862 33.7440132263506 34.12133616247 34.4189944467775 34.4773303763657 34.7238456687599 35.0526012544309 35.421842600832 35.6774592036021 35.8658254805408 35.9110259820754 35.9383578560843 35.9772816191346 35.8382418120605 35.6933013484416 35.8007244358287 35.9206146093272 36.0841669636779 36.4226125248814 36.5297607914141
-9999 -9999 -9999 -9999 -9999 -9999 -9999 -9999 -9999 29.5250759762117 30.77352427229 31.4573660315046 32.2701874776805 32.5461588436835 33.2883804657251 34.3549743918167 34.8426013559077 35.2198932463189 35.2887685372286 35.4941215171362 35.4737162152517 35.4540311797026 35.5042300671052 35.6100349303156 35.6673902069628 35.6285145732788 35.6503205003555 35.7116656971713 35.6476699483586 35.6076594138089 35.8044714461013 35.974748998707 36.3106458887593 36.5747509325522 36.6798621670555
-9999 -9999 -9999 -9999 -9999 -9999 -9999 -9999 -9999 -9999 31.6709086849472 32.5249255042103 33.1197984665039 33.6642462013725 35.015444848446 35.414628622154 35.6045496434283 35.6575105954492 35.5768891984271 35.5643783091999 35.5680761048545 35.5793542743505 35.5463226508335 35.5798786467335 35.6863877725071 35.6934376783124 35.7097002018694 35.7573718937611 35.8450308885742 35.9184324352912 36.072674530099 36.3472351816918 36.5526031646329 36.6874989391023 36.7547497907911
-9999 -9999 -9999 -9999 -9999 -9999 -9999 11.7685292410031 13.8441064936865 -9999 32.3470920958642 33.2407727500195 34.1622144314757 35.1682102471555 35.511450724977 35.532285453814 35.5647605860614 35.62785397566 35.6702230906206 35.7056226204685 35.7246483167003 35.7277097792987 35.8424063276156 36.0615614597025 36.1968667952516 36.2538680236523 36.2895098852214 36.3241760519335 36.3673786964731 36.4168046191173 36.4841554937117 36.5778701214143 36.7023453635767 36.7725583297193 36.7434241854704
-9999 -9999 -9999 -9999 -9999 -9999 -9999 14.0507704501617 18.8073384814667 31.2515341358785 32.9742730629986 34.0433492170866 35.0894854017748 35.4002902376295 35.5517959771481 35.7332847248717 35.8664927908903 35.9535148302036 35.9888415864857 36.0051336573258 36.0447920458378 36.1012443435104 36.2161441907102 36.3195333093232 36.3992784052431 36.4417545536469 36.4709748124099 36.507115836061 36.5604613441059 36.5923672102368 36.624857619178 36.7180160654912 36.7812713131906 36.7664153079164 36.7376740220675
-9999 -9999 -9999 -9999 -9999 -9999 -9999 17.8207370674501 -9999 31.6094655277406 33.4968021924292 34.7237784341361 35.2505141705182 35.5067126572994 35.9854691718007 36.2362807928814 36.3565841937051 36.4053954038124 36.3998767115659 36.3789414500635 36.367073566379 36.3854144259174 36.4259565620478 36.4886664647763 36.5158921276649 36.5222536740687 36.5539021866644 36.5878990415494 36.6417567118906 36.6873212958893 36.745540363062 36.7910730669561 36.7858174777979 36.752007899243 36.7154859093495
-9999 -9999 -9999 -9999 -9999 -9999 -9999 -9999 28.7758779018454 32.0226481772813 33.6861653648632 34.9163164383883 35.324237867938 35.9591422018806 36.3190474117257 36.5215828047915 36.5936031052345 36.5675324505496 36.5633329225508 36.5814507206268 36.5803238605498 36.5792442431255 36.5915686407843 36.6155559866477 36.5812229130331 36.5881673924798 36.6187816629734 36.637797186816 36.6596352770479 36.7132336218887 36.7510374790577 36.7477992291061 36.7363221366118 36.7075096762331 36.6843053883706
-9999 -9999 -9999 -9999 -9999 -9999 -9999 -9999 -9999 32.3465510208016 34.0053776959218 35.2583364119312 35.8952717774947 36.3125855902194 36.5479216641864 36.6916322265086 36.6888675634574 36.6503787005693 36.6729555439752 36.7118248941999 36.6948941668724 36.6757884638528 36.6563695711696 36.6471511153275 36.6460696091093 36.6494646799309 36.6564177904145 36.6664354475428 36.682576024502 36.6970869304958 36.6851630872674 36.6681990686059 36.6707590483741 36.6708467672898 36.6572559158797
-9999 -9999 -9999 -9999 -9999 -9999 -9999 -9999 -9999 32.275032100187 34.7525594235596 35.9190315880834 36.2390381033195 36.4083310724686 36.6649825545404 36.6607393991585 36.6572882118408 36.6851693787755 36.6930612775125 36.7132312716281 36.71073405133 36.6786822463577 36.6624631516457 36.6787935336116 36.6734985185635 36.6718856146685 36.6668446075221 36.6685322569481 36.6732715051218 36.668553209414 36.6584637808003 36.6554010048999 36.6425529766926 36.6372516352581 36.6715546129272
-9999 -9999 -9999 -9999 -9999 -9999 -9999 34.5030955692773 33.7608668669852 33.9916286223274 35.7620160288203 36.2516830056937 36.3440012848199 36.478562736061 36.67379007161 36.6628931903099 36.6711045930235 36.6988656632516 36.6935772978849 36.6881033048583 36.6798298402405 36.6675905416008 36.6720374787959 36.6950962584298 36.684240094858 36.6776940932416 36.6648768424481 36.6650012989418 36.6668612806893 36.6616666413542 36.6458064107765 36.6221602913611 36.6023152677244 36.6045772594005 36.6384971888611
-9999 -9999 -9999 -9999 -9999 -9999 35.0566479151175 35.2470951263504 35.5328119121875 35.9966346468377 36.2942751163846 36.3703739989674 36.4090429022806 36.5157188294828 36.6792010583354 36.6744588508723 36.6832261546075 36.700740626569 36.6929069008062 36.6885887933066 36.6842640991748 36.6832942544814 36.6961489994437 36.705742509657 36.6894733337356 36.6636638302958 36.6510254783339 36.6592452800096 36.6574760582969 36.6461369564169 36.6415565037613 36.6199960219645 36.5994314832173 36.5855854635313 36.5979892052902
-9999 -9999 -9999 -9999 34.7118966360234 35.3496631584355 35.7575970459966 35.9735972281191 36.1752504598874 36.2947495980474 36.3939884207186 36.422000840049 36.4490113507997 36.5741016462332 36.6795320895891 36.6948152091165 36.7119028525585 36.7097340556908 36.6890993807137 36.6749090102892 36.6811364308623 36.6942137583811 36.7028157913083 36.6964474007095 36.6881020948497 36.6630294182288 36.6481994965544 36.6458265865295 36.6350068332164 36.6320091429002 36.6269349745427 36.6059379006501 36.5920641406451 36.5791021341893 36.5556754287714
-9999 -9999 -9999 34.9368481284876 35.2809096266528 35.9033303220494 36.1551358055551 36.2030832546493 36.276708045269 36.3855095162269 36.4931850419924 36.4494361147923 36.4985085499258 36.629285330383 36.683781241355 36.6968560791 36.7070554239822 36.7003043996901 36.6844404129881 36.6639014373493 36.6596215269502 36.6918773404447 36.707836206845 36.6918773726401 36.6770390224912 36.6660156604148 36.6553471420783 36.6253189597719 36.6021476573876 36.6047462273079 36.588581986766 36.5627189867267 36.5587856311062 36.5448864300669 36.5264509242465
-9999 -9999 35.1208359041149 35.6807741227568 35.9107107540438 36.087882533849 36.1980801260037 36.2566685355558 36.3259034277392 36.4604505889398 36.5457998161886 36.5171852847767 36.553705885575 36.6151030597721 36.6711307624777 36.6977676730139 36.7025462893941 36.7001217581489 36.6955468900451 36.686103809254 36.6556374462134 36.6575847618739 36.682694193512 36.6874841386313 36.6763242273533 36.6477689387402 36.6200844827148 36.5945615708837 36.5798598195709 36.5717851639262 36.5583588367944 36.5741277680651 36.5781430219502 36.5306405729679 36.508470250864
