NCOLS 35 
NROWS 26 
XLLCORNER -80 
YLLCORNER 33 
CELLSIZE 0.5 
NODATA_value -9999 
-9999.000000000000000 -9999 -9999 -9999 -9999 -9999 -9999 -9999 -9999 -9999 -9999 -9999 -9999 -9999 -9999 -9999 -9999 -9999 -9999 -9999 -9999 -9999 -9999 -9999 -9999 -9999 -9999 -9999 -9999 -9999 -9999 -9999 -9999 -9999 -9999
-9999 -9999 -9999 -9999 -9999 -9999 -9999 -9999 -9999 -9999 -9999 -9999 -9999 -9999 -9999 -9999 -9999 -9999 -9999 -9999 -9999 -9999 -9999 -9999 -9999 -9999 -9999 -9999 -9999 29.6611801008452 -9999 -9999 -9999 -9999 -9999
-9999 -9999 -9999 -9999 -9999 -9999 -9999 -9999 -9999 -9999 -9999 -9999 -9999 -9999 -9999 -9999 -9999 -9999 -9999 -9999 -9999 -9999 -9999 -9999 -9999 -9999 28.8468951118471 29.8540464163372 30.8402537427451 30.4603211648386 -9999 -9999 -9999 -9999 -9999
-9999 -9999 -9999 -9999 -9999 -9999 -9999 -9999 -9999 -9999 -9999 -9999 -9999 -9999 -9999 -9999 -9999 -9999 -9999 -9999 -9999 -9999 -9999 30.6586769297579 30.6251962996579 31.2611526980755 31.3655078655964 31.3868304575524 -9999 -9999 -9999 30.6600102187742 30.8318123186893 31.0250736626488 31.1280908814646
-9999 -9999 -9999 -9999 -9999 -9999 -9999 -9999 -9999 -9999 -9999 -9999 -9999 -9999 -9999 -9999 -9999 -9999 -9999 -9999 30.8244162152202 31.3288173532426 31.468014783308 31.4059333793924 31.6785671593432 32.1823760673946 32.0486225692093 31.6071189800438 -9999 -9999 30.8906198070476 31.0425541756071 31.2293420555711 31.2458949261904 31.2703075873917
-9999 -9999 -9999 -9999 -9999 -9999 -9999 -9999 -9999 -9999 -9999 -9999 -9999 -9999 -9999 -9999 -9999 -9999 -9999 31.2067979722759 31.545434682642 31.8017715316254 31.9280514103862 32.0396972453273 32.2511889851784 32.3646387725667 32.0092373059299 31.4904566315381 31.2790913791709 31.2229935670649 31.2285518367876 31.2372072643623 31.3400703511903 31.5923641456033 31.7605399897446
-9999 -9999 -9999 -9999 -9999 -9999 -9999 -9999 -9999 -9999 -9999 -9999 -9999 -9999 -9999 -9999 -9999 -9999 -9999 31.4969819167879 32.1468358894746 32.2500926677574 32.3124074879235 32.3758509348865 32.4423069249541 32.4908501718167 32.2748930723225 31.8780586443256 31.5637438941507 31.4541484214557 31.4918629338438 31.6559992380738 31.98119315674 32.3513241854358 32.5599233246195
-9999 -9999 -9999 -9999 -9999 -9999 -9999 -9999 -9999 -9999 -9999 -9999 -9999 -9999 -9999 -9999 -9999 -9999 -9999 31.3701721358593 32.0856940949519 32.5236985380565 32.6921069775084 32.7100462872435 32.742938197695 32.7957229780987 32.7591775795023 32.3609764883837 31.6390062610359 31.5692138305632 31.8219685282499 32.0943678026618 32.2909557593383 32.3900252197089 32.5951811841929
-9999 -9999 -9999 -9999 -9999 -9999 -9999 -9999 -9999 -9999 -9999 -9999 -9999 -9999 -9999 -9999 -9999 -9999 -9999 31.5432239885917 31.7739570105882 32.2092595688286 32.6022363525965 32.8708949350734 32.9944668414295 32.9517752725932 32.6033233722685 32.1507213169498 31.8318671444107 32.0623706560045 32.3997082423872 32.4677833352963 32.3654100967037 32.4171357292187 33.1171197583314
-9999 -9999 -9999 -9999 -9999 -9999 -9999 -9999 -9999 -9999 -9999 -9999 -9999 -9999 -9999 -9999 -9999 32.0916157245779 32.2569182723557 32.2164881803544 31.9264339275562 31.9919808797037 32.4376300767357 32.8273679907914 33.0394239300157 32.8065059441994 32.2250350759997 32.0665128749378 32.7802975926828 34.0042870743949 34.5267066819501 34.786484268177 34.3832514569292 33.4604912994009 34.1327873900245
-9999 -9999 -9999 -9999 -9999 -9999 -9999 -9999 -9999 -9999 -9999 -9999 -9999 -9999 30.5385937662211 31.2255298410998 31.4484290770523 32.2502325914342 32.5028276565236 32.35491330166 32.2197303714925 32.2297318652133 32.5164104765353 32.7069879972286 32.7109706224673 32.5120591233117 32.4366025057786 33.1667793172692 34.4221144284501 35.1225544564114 35.4028957845506 35.5600635298946 35.5427848311931 35.2946989181309 35.2490929738385
-9999 -9999 -9999 -9999 -9999 -9999 -9999 -9999 -9999 -9999 -9999 -9999 30.9551785991011 31.0358940161966 31.1731538644085 31.5007137375623 32.0573950496885 32.614791258234 32.8090224387807 32.9185661896449 33.0228760188219 33.1086972252157 33.2140656952046 33.2476146671523 33.0773810021754 33.2522963406489 33.9138646305636 34.8102741210523 35.4359300158911 35.5949923274965 35.7065962923842 35.90095213467 35.9911183357057 35.8508194435911 36.0254196486068
-9999 -9999 -9999 -9999 -9999 -9999 -9999 -9999 -9999 -9999 -9999 -9999 31.3696880954882 31.7258089775719 31.9304945009095 32.2293704670367 32.7537248005288 33.143562793832 33.3329113978698 33.5533897199647 33.9342610934829 34.1640408871315 34.167342278873 34.0803742257968 34.1906540267671 34.7987168755497 35.4056637261618 35.6279102169131 35.8227308567685 35.8731421690946 35.9271329672107 35.9563507979077 35.9435295897689 35.9523252522421 36.0629124718593
-9999 -9999 -9999 -9999 -9999 -9999 -9999 -9999 -9999 30.7963986036305 31.5614940253657 31.7522938173938 31.9835084048919 32.3077722682935 32.4940936387566 32.8814389432573 33.1467973198547 33.3531033961661 33.5285999653533 33.4526005972578 33.8502477499298 34.0872023324657 34.1093793927882 34.2858339104868 34.8229525065912 35.422332567117 35.6020092505066 35.6069017109881 35.6933456237561 35.8476098783555 35.8740792134331 35.7764492367013 35.628757256466 35.6026470940614 35.8184798591358
-9999 -9999 -9999 -9999 -9999 -9999 -9999 -9999 -9999 -9999 32.0257861387157 32.1743252738706 32.4878275783968 32.6787995498186 33.3479270169607 33.7926933571122 33.9260574766783 34.3828721822841 34.634322323022 34.8391678720084 34.3828659135811 34.1672689043275 34.1100302419232 34.7176458570414 35.2975345692474 35.4852909911227 35.4967976698028 35.497302077044 35.5758920011004 35.6105317542103 35.5588654134579 35.4259621663116 35.3411299702351 35.3598173952839 35.614177169371
-9999 -9999 -9999 -9999 -9999 -9999 -9999 11.6030004471951 13.6688393777449 -9999 32.0536867704228 32.6592863234166 33.227860081597 33.7693484345923 34.2718029915607 34.7310097540347 34.8339004899615 35.1284316210821 35.25690886606 35.3641155966665 35.1837564872103 34.9324165417673 34.762512398887 35.0172986768571 35.3850724250293 35.601615196854 35.7304999947266 35.8166878297002 35.8549733695588 35.8199045369378 35.7125109539066 35.6658098740308 35.6740206596669 35.7345364908358 35.870629681493
-9999 -9999 -9999 -9999 -9999 -9999 -9999 14.4896226637032 18.4608349603391 30.2194500150835 31.9809699893012 33.6680642775156 34.4929196401407 34.8359964649706 34.8265881585118 35.268841725328 35.6973227435899 35.9194256551506 36.0172656622766 36.0051943254397 35.8402558499023 35.5911107151704 35.4582977518362 35.6298110518776 36.0646480480891 36.2615647903935 36.2288793849453 36.1847861807877 36.1638933017816 36.1779640745273 36.2291586219287 36.2827767843492 36.2772868774291 36.2309173922256 36.2077818011925
-9999 -9999 -9999 -9999 -9999 -9999 -9999 19.5271756245555 -9999 30.2022693081145 32.6118788534016 34.6161500879739 35.0653533431763 35.4876553908433 35.6250887304094 35.8832983333042 36.231153294267 36.4013012283912 36.436936531499 36.3957512597029 36.3147666991258 36.1623412792945 36.0897978634287 36.2751737087613 36.4168536955634 36.4666345826801 36.4871716346467 36.4759197218006 36.4530633838485 36.4255288937663 36.4069895767208 36.4056800241267 36.3978741339275 36.3858800578832 36.3713402216839
-9999 -9999 -9999 -9999 -9999 -9999 -9999 -9999 29.8524731083636 30.8773812497139 32.9793979658628 34.7656394689026 35.3369012383703 35.7983076891511 35.9977885308871 36.2836428553788 36.4490615567661 36.5044206894791 36.5041443058087 36.4398229426101 36.4119268477645 36.3473087950196 36.2995937346491 36.4147620427801 36.4864777778891 36.5259787499172 36.5188846237978 36.5227587453391 36.4898231632359 36.4516739680042 36.4436731309326 36.4317075799689 36.4072065264324 36.3874310286554 36.3889610348885
-9999 -9999 -9999 -9999 -9999 -9999 -9999 -9999 -9999 32.1692684064896 33.6669110682272 35.2536907449099 35.865242000177 36.0927766537326 36.3482866308673 36.4386480484115 36.5153780685259 36.554773976393 36.538345112874 36.4883124755546 36.4628185509417 36.4314674791172 36.4205125898442 36.4950010690375 36.5697502634972 36.5818739768038 36.5387323142828 36.5294008004426 36.5140338415392 36.5257439156883 36.5176587428956 36.4563729022332 36.4109249821119 36.3889257930528 36.3514517839583
-9999 -9999 -9999 -9999 -9999 -9999 -9999 -9999 -9999 34.1954528289323 35.0949710897626 35.9109596435555 36.2310056316329 36.3809628834456 36.4441154051715 36.5049952342916 36.5535530817458 36.5712389939493 36.5849648927821 36.5762394027586 36.5248778674638 36.5042867514546 36.5187928549753 36.5482860189694 36.5758744362639 36.6186662560561 36.6099909371206 36.5624473961392 36.4882400467475 36.5259431244202 36.555905346502 36.5525075685881 36.4773270409427 36.3861897624 36.3497152660145
-9999 -9999 -9999 -9999 -9999 -9999 -9999 35.470100069773 35.73073869075 35.6194039266013 36.1031305362978 36.3198115241042 36.4093038523048 36.4819349924522 36.512389038759 36.5373865888708 36.5569545701739 36.5612311765251 36.569532401584 36.5792632115529 36.5520700887734 36.5379842432377 36.5471609497588 36.5539948153711 36.5469252073527 36.5810779199301 36.6336957473187 36.589060227236 36.5099738844097 36.5211451197316 36.5525319659565 36.5639573433273 36.5213369852407 36.4580747444428 36.4543567609618
-9999 -9999 -9999 -9999 -9999 -9999 35.4298890276648 35.7317053137649 36.1210487634441 36.2482931062503 36.3132863166599 36.4111242646249 36.5056629940346 36.5566662312966 36.5538447515003 36.5468857264625 36.55923215379 36.565172242932 36.5722487407554 36.5875739758259 36.5760341023979 36.5544904292571 36.557024471646 36.5397082224339 36.5436857098312 36.5652814455369 36.5978029350648 36.5887093918173 36.5445524422069 36.5524142315836 36.5675525659364 36.5428465447245 36.5217862244071 36.5094235920865 36.5459153921315
-9999 -9999 -9999 -9999 35.0312534782608 35.5953090713926 36.0008625283837 36.163765423132 36.2522723563431 36.2849891764047 36.3986456955052 36.5026997715242 36.5805583339225 36.5963247955416 36.5615009400265 36.5524381191923 36.5582259551798 36.5797299475509 36.6077911267399 36.6063740363088 36.5695324539014 36.5498722785288 36.5409256627883 36.5242763885575 36.5530028135691 36.5715783825794 36.5919968107767 36.5806383125394 36.5607378619236 36.559618970196 36.5935563844149 36.5749079761067 36.5729697556327 36.5886148179748 36.6175320581222
-9999 -9999 -9999 35.1657239813254 35.4242330707377 36.0193218491982 36.272444347912 36.2723628735528 36.2778321821559 36.3683823986021 36.5227052863008 36.5911148258537 36.6265130719119 36.6079131779726 36.5938364155502 36.6000275533047 36.6157625520173 36.6325678167463 36.6359747716767 36.5907417058864 36.5694258805835 36.5492217875671 36.5337016767222 36.5542691854906 36.5781539435521 36.6141896347477 36.6388594911905 36.637185602594 36.610114521657 36.5693958771996 36.6015176507177 36.6120601577934 36.6663396395452 36.7008547067695 36.7070155366258
-9999 -9999 35.3217536079017 35.929886968235 36.1553327096365 36.2083637945336 36.2603223067514 36.2717015877583 36.3249538158114 36.4244341223929 36.555549418852 36.6080518842627 36.6195515819175 36.6228547625133 36.6248045988015 36.6295567083471 36.6319999001516 36.6265293775155 36.6294597875977 36.6451003010051 36.6085485954736 36.5600382730522 36.5644862438522 36.612222619557 36.6266247971567 36.625185114309 36.6351425708268 36.6409067881709 36.6235436987481 36.5688295120184 36.5778365443465 36.6259377691671 36.64587248838 36.6585826044491 36.7076976816538
