NCOLS 35 
NROWS 26 
XLLCORNER -80 
YLLCORNER 33 
CELLSIZE 0.5 
NODATA_value -9999 
-9999.000000000000000 -9999 -9999 -9999 -9999 -9999 -9999 -9999 -9999 -9999 -9999 -9999 -9999 -9999 -9999 -9999 -9999 -9999 -9999 -9999 -9999 -9999 -9999 -9999 -9999 -9999 -9999 -9999 -9999 -9999 -9999 -9999 -9999 -9999 -9999
-9999 -9999 -9999 -9999 -9999 -9999 -9999 -9999 -9999 -9999 -9999 -9999 -9999 -9999 -9999 -9999 -9999 -9999 -9999 -9999 -9999 -9999 -9999 -9999 -9999 -9999 -9999 -9999 -9999 30.5858223559524 -9999 -9999 -9999 -9999 -9999
-9999 -9999 -9999 -9999 -9999 -9999 -9999 -9999 -9999 -9999 -9999 -9999 -9999 -9999 -9999 -9999 -9999 -9999 -9999 -9999 -9999 -9999 -9999 -9999 -9999 -9999 31.5595760126189 31.5707342040144 31.4627146944033 30.82216359 -9999 -9999 -9999 -9999 -9999
-9999 -9999 -9999 -9999 -9999 -9999 -9999 -9999 -9999 -9999 -9999 -9999 -9999 -9999 -9999 -9999 -9999 -9999 -9999 -9999 -9999 -9999 -9999 32.0820251887142 32.2017752390095 32.2691398762327 32.187165817625 32.1730950214434 -9999 -9999 -9999 31.0015460981819 30.9265347791569 30.9868077714934 30.9426741847231
-9999 -9999 -9999 -9999 -9999 -9999 -9999 -9999 -9999 -9999 -9999 -9999 -9999 -9999 -9999 -9999 -9999 -9999 -9999 -9999 31.5433182681922 31.7794528535841 31.9567318883256 32.0019598692535 32.0864873788844 32.2478324910942 32.3574298539246 32.2597194672179 -9999 -9999 31.3201977625086 31.0931093245453 31.2064726181357 31.5567210914648 31.6286147193008
-9999 -9999 -9999 -9999 -9999 -9999 -9999 -9999 -9999 -9999 -9999 -9999 -9999 -9999 -9999 -9999 -9999 -9999 -9999 31.5005310861642 31.6179605010658 31.6678291352691 31.7716864467197 31.8383451467637 31.9226436338055 32.0542427962014 32.262207179901 32.2136351235655 31.9174386181772 31.5817536070688 31.3532939354797 31.3026849705302 31.4635527008127 31.7361007888426 31.8622551178092
-9999 -9999 -9999 -9999 -9999 -9999 -9999 -9999 -9999 -9999 -9999 -9999 -9999 -9999 -9999 -9999 -9999 -9999 -9999 31.568114074947 31.6084905861206 31.6089242802986 31.6556334693783 31.752189045674 31.8532767426968 32.001452721004 32.1648912151557 32.1981706905551 31.9544534840105 31.6797002612938 31.5960422605084 31.5703490413092 31.8222759536042 32.1281933702326 32.1967459993384
-9999 -9999 -9999 -9999 -9999 -9999 -9999 -9999 -9999 -9999 -9999 -9999 -9999 -9999 -9999 -9999 -9999 -9999 -9999 31.5167465464761 31.6166520180339 31.6375535129125 31.6730214404413 31.7231533843197 31.8029737878476 31.9289233208474 32.0425698164621 32.1365937757521 32.122265308737 31.9749531679068 31.9743197914569 32.0225730091864 32.0949661264237 32.1524469407918 32.2388204530598
-9999 -9999 -9999 -9999 -9999 -9999 -9999 -9999 -9999 -9999 -9999 -9999 -9999 -9999 -9999 -9999 -9999 -9999 -9999 31.333048602006 31.6049246502042 31.7391198850425 31.8008095493049 31.9112999025024 31.9159932186426 31.9022646113759 31.9920769868497 32.1509119804992 32.4173293507159 32.662679297516 33.2687873210725 33.3621246581685 33.1443402176465 33.1039672493029 32.7377671723081
-9999 -9999 -9999 -9999 -9999 -9999 -9999 -9999 -9999 -9999 -9999 -9999 -9999 -9999 -9999 -9999 -9999 31.2183646461991 31.3260297316262 31.4121953689624 31.5786814121991 31.8440597275967 31.9786748900729 31.9752777976516 31.9385545103527 32.0265558141824 32.3762406274105 33.1219839405633 34.1497859234433 35.1287038099666 35.6098609909095 35.6946372730523 35.4088788544857 35.1048901083854 34.5742834834117
-9999 -9999 -9999 -9999 -9999 -9999 -9999 -9999 -9999 -9999 -9999 -9999 -9999 -9999 30.8090361167683 31.2373520920406 31.7771493672287 32.3393004386929 32.4758258358346 32.1366439844014 31.9493572135448 32.1007468391898 32.3611038344102 32.375051276158 32.518459742798 33.2976404133252 34.1263693273655 34.9080767413274 35.7572747778274 35.9507529761966 35.7765169032795 35.7875646600414 35.8663353274548 35.8021360731723 35.3054574184481
-9999 -9999 -9999 -9999 -9999 -9999 -9999 -9999 -9999 -9999 -9999 -9999 30.8543087939155 31.2111136798804 31.6986490213695 32.3359336152671 33.0769948940671 33.6302239980147 33.6402303425017 33.2001854786904 32.9859469361588 33.2213022803846 33.7789105717778 34.1562026191413 34.5231005075559 35.1441469229475 35.4836632652932 35.7763123849976 35.8782987387691 35.7345366719346 35.6571800068816 35.6879849140951 35.7727674488433 35.8545732081799 35.6766924270583
-9999 -9999 -9999 -9999 -9999 -9999 -9999 -9999 -9999 -9999 -9999 -9999 31.0886461405721 31.60363115002 32.323783232137 33.2604390331184 33.9899680915936 34.3946557074427 34.6247914139851 34.6839073094789 34.70045785935 34.816388621799 35.0672138990742 35.2507229573671 35.5561039270145 35.7077619237121 35.8171025594752 35.8649569036398 35.8056015283962 35.7284516487144 35.7467707696837 35.8435333996452 35.9720778108319 36.0638994739917 36.0704510467452
-9999 -9999 -9999 -9999 -9999 -9999 -9999 -9999 -9999 30.1455039644572 30.6479639502254 30.9834738803341 31.4124957912182 32.0990635106483 33.3462310879638 34.2919139259885 34.5864132038341 34.7484757089443 34.8467490856118 35.0621073019498 35.3082963628806 35.4621435481762 35.6254681123724 35.7024356952716 35.7215782056259 35.7147109453862 35.7927248033998 35.8565177912601 35.8033860415627 35.7109205210248 35.878182379406 36.1603595682678 36.3410434375916 36.4221635821805 36.4400124337121
-9999 -9999 -9999 -9999 -9999 -9999 -9999 -9999 -9999 -9999 30.9782551387546 31.5360207017527 32.0295307531175 33.1829033297205 34.314700911131 34.465371814476 34.8040768675227 34.9533478244609 34.9701247545985 35.0085448388273 35.2858502594277 35.5755848668458 35.8032254645685 35.8804439874208 35.8792558032498 35.7832097693537 35.8147281617568 35.87060233825 35.742175124847 35.7632707527323 36.1816756471091 36.4134256499954 36.4834051877727 36.5047230494315 36.5051336823482
-9999 -9999 -9999 -9999 -9999 -9999 -9999 13.6826458729987 15.8932116726472 -9999 31.3121742456129 32.3168005301018 33.3823056054107 34.0848947414414 34.336486391477 34.6115169784809 34.7656153653167 34.9668632515549 35.1716292471714 35.3760612026104 35.5745419373649 35.8325743142449 36.0296254909188 36.13319055444 36.1548985392357 36.0988239963193 36.0016871906514 35.7571358012306 35.5778483515812 35.8811986840008 36.2720980037447 36.432779127092 36.4761745278787 36.4815455226128 36.4767563233525
-9999 -9999 -9999 -9999 -9999 -9999 -9999 17.2053997227915 20.5642065008594 30.5152703345682 31.8670857672419 33.1969180302387 34.3061424385132 34.5487899183135 34.7770729407212 35.1142954233595 35.1024216935358 35.1987063580293 35.2742289196893 35.472177192979 35.814781674454 36.1388508391557 36.3034970318853 36.3493828530437 36.3427091177152 36.3080587897741 36.2546842656694 35.973898001809 35.726738611913 35.9611613882955 36.2408615822467 36.3873229341071 36.4438364311168 36.4538919499775 36.4505564150666
-9999 -9999 -9999 -9999 -9999 -9999 -9999 21.6782330637529 -9999 31.0874912757876 32.5226164389072 34.1298712505314 34.8016393816733 35.1311097712019 35.3531436854433 35.4123383991799 35.4487535944125 35.3842143853983 35.4080313051732 35.7803073853242 36.1527279823554 36.3320443675761 36.3909284565455 36.399714728708 36.4127686287434 36.3936820511035 36.3426523465802 36.147372473585 35.9116243527889 36.0505309918439 36.2502385773856 36.3305771650818 36.4011461205821 36.401055396767 36.4212005642429
-9999 -9999 -9999 -9999 -9999 -9999 -9999 -9999 29.8814984578154 31.534432393764 33.117799509501 35.0317020825752 35.4373838331683 35.712097442189 35.8385461131243 35.8281196743121 35.791465189819 35.7763152557497 35.9017895759839 36.1654209416564 36.3580052307495 36.4031866712951 36.3966721808781 36.3988359740518 36.435343752381 36.4199502121913 36.3729314192052 36.2536800189024 36.0932332186827 36.1149912135897 36.1976898787806 36.2440322876942 36.3776950003567 36.413470884463 36.414375529547
-9999 -9999 -9999 -9999 -9999 -9999 -9999 -9999 -9999 32.4745547700993 34.1595458527655 35.5053672135967 35.9702496515055 36.2101671292324 36.3126205208333 36.3491688424993 36.3314787972176 36.3108633348159 36.3417213844801 36.4144457891924 36.4153453527769 36.4066141990546 36.402143063029 36.4137110081198 36.4158747181222 36.4031603757425 36.3657207217701 36.3302144240907 36.2326904693315 36.1447177616805 36.1170697185967 36.1827806908116 36.3694964543198 36.4469219651057 36.4679246637944
-9999 -9999 -9999 -9999 -9999 -9999 -9999 -9999 -9999 33.1854683341798 34.77663206698 35.8912774277824 36.2198575554999 36.3752566734038 36.4212960945556 36.4466531205133 36.4523136614502 36.4543504265266 36.4485070334372 36.4078817997653 36.3949442108 36.3884223503306 36.3888096872281 36.3864830754589 36.3869609845851 36.3760003390517 36.3552504275244 36.3185384582327 36.2462226943496 36.196490715995 36.1732527196004 36.2381805935703 36.3669804077905 36.432723226573 36.4660733600353
-9999 -9999 -9999 -9999 -9999 -9999 -9999 34.7301656454325 34.5149381555964 34.7097474389793 35.7198325281049 36.1441766758861 36.3025883717728 36.3983810014301 36.4245129681359 36.4779528568511 36.489641597556 36.4818276960804 36.4573874810248 36.4177292843434 36.3991122530874 36.3789070412826 36.3754832200129 36.365989740754 36.3492851334472 36.3465246557915 36.3369076255331 36.3084254156708 36.2645027529684 36.2547608208473 36.263738660712 36.3247961236548 36.4210540418607 36.4646926785214 36.4595327390669
-9999 -9999 -9999 -9999 -9999 -9999 35.1626544066032 35.3527777033369 35.680738145794 35.9145521241938 36.0890619917386 36.2353708919064 36.3551244095561 36.4172606515027 36.4299731533815 36.4758204796323 36.5214261730693 36.5212922605328 36.4931207988532 36.4717315493702 36.4288783907276 36.3898715301359 36.4016279441264 36.4125147214522 36.380279938229 36.3646140428121 36.3478698781511 36.3300989970514 36.3243761460377 36.306753973921 36.3055036741868 36.3502782245253 36.4734251187162 36.528017325982 36.5042726378178
-9999 -9999 -9999 -9999 34.9444370049198 35.4834185541343 35.7170135601292 35.8548458149624 35.9869266392259 36.0382278498239 36.1688196934797 36.3290506050927 36.3900514350723 36.417905536449 36.4211797083631 36.4405203086609 36.504851385465 36.5467909446917 36.5425098766016 36.5227641085479 36.4934329046066 36.4215114103532 36.4017102233693 36.411757088388 36.4269766288053 36.4873623438061 36.470634374748 36.4208281244024 36.3911929641559 36.3905742996397 36.3781314217492 36.4115214546412 36.5217678797646 36.5751024118779 36.601083940442
-9999 -9999 -9999 35.1476927820353 35.419810902499 35.8115860994396 35.9685361545789 35.9977523017273 36.0254464485533 36.0873754852476 36.2069382038592 36.3387247767326 36.3672624927209 36.3834652549998 36.3924796942708 36.3762472451956 36.4499594461923 36.5608389432513 36.5810969768947 36.5578197196115 36.5240639542437 36.4927676762231 36.4359145370449 36.4307523600135 36.488147656823 36.5556867736081 36.5308428462948 36.4773856901398 36.4260389338524 36.4062547393063 36.405372940848 36.4473806281196 36.5669734856038 36.672808825738 36.5991906566287
-9999 -9999 35.2421937169612 35.7455100835953 35.8493835403435 35.9175995865098 35.9853675626034 36.0263745553283 36.0817760785863 36.1440308490576 36.1868082325888 36.2480852061151 36.3172739120559 36.3436062009162 36.3377472896678 36.3378502141793 36.4534068760443 36.576073947498 36.5905041659065 36.5796669835062 36.5374798427039 36.5244939747981 36.4612642271578 36.4606389585704 36.5623246030719 36.5690812119159 36.5195809756951 36.4523412253655 36.4313931179183 36.4123456167145 36.4476796578655 36.5925644221863 36.7021213275343 36.7390302029196 36.6470262677944
