NCOLS 35 
NROWS 26 
XLLCORNER -80 
YLLCORNER 33 
CELLSIZE 0.5 
NODATA_value -9999 
-9999.000000000000000 -9999 -9999 -9999 -9999 -9999 -9999 -9999 -9999 -9999 -9999 -9999 -9999 -9999 -9999 -9999 -9999 -9999 -9999 -9999 -9999 -9999 -9999 -9999 -9999 -9999 -9999 -9999 -9999 -9999 -9999 -9999 -9999 -9999 -9999
-9999 -9999 -9999 -9999 -9999 -9999 -9999 -9999 -9999 -9999 -9999 -9999 -9999 -9999 -9999 -9999 -9999 -9999 -9999 -9999 -9999 -9999 -9999 -9999 -9999 -9999 -9999 -9999 -9999 32.3698399374574 -9999 -9999 -9999 -9999 -9999
-9999 -9999 -9999 -9999 -9999 -9999 -9999 -9999 -9999 -9999 -9999 -9999 -9999 -9999 -9999 -9999 -9999 -9999 -9999 -9999 -9999 -9999 -9999 -9999 -9999 -9999 32.3704870468491 32.4556144448701 32.4312463205704 32.3492281465095 -9999 -9999 -9999 -9999 -9999
-9999 -9999 -9999 -9999 -9999 -9999 -9999 -9999 -9999 -9999 -9999 -9999 -9999 -9999 -9999 -9999 -9999 -9999 -9999 -9999 -9999 -9999 -9999 32.659998949878 32.8287509443879 32.8318898343026 32.6100820784975 32.4568527652509 -9999 -9999 -9999 31.096043138554 30.9080662944625 30.8449237967384 30.9990783969481
-9999 -9999 -9999 -9999 -9999 -9999 -9999 -9999 -9999 -9999 -9999 -9999 -9999 -9999 -9999 -9999 -9999 -9999 -9999 -9999 32.490079973246 32.6902612274473 32.83090359566 32.9722602326442 33.0800802187862 33.0247178101963 32.5554603930425 32.1749780419826 -9999 -9999 31.2352385481134 30.9579201735442 30.9573454779219 31.1225927243109 31.3734819187474
-9999 -9999 -9999 -9999 -9999 -9999 -9999 -9999 -9999 -9999 -9999 -9999 -9999 -9999 -9999 -9999 -9999 -9999 -9999 32.6826084323811 32.8821728456651 32.9178077543799 33.0056299232788 33.1290833105004 33.1591758848495 32.9356179245392 32.335516638525 31.865884757248 31.6892661022861 31.3723438399323 31.1886533823022 31.0903045129034 31.1686568849067 31.4931193413043 31.7071673624827
-9999 -9999 -9999 -9999 -9999 -9999 -9999 -9999 -9999 -9999 -9999 -9999 -9999 -9999 -9999 -9999 -9999 -9999 -9999 32.6410707158654 32.9035328094523 33.0100015300608 33.0167694542291 33.0444408832107 33.0382930079587 32.7224741312468 32.3889059510274 31.9492829160658 31.6049300352213 31.5150580473728 31.4368423513403 31.3347946117669 31.5150671331691 31.7753073746333 31.743801635003
-9999 -9999 -9999 -9999 -9999 -9999 -9999 -9999 -9999 -9999 -9999 -9999 -9999 -9999 -9999 -9999 -9999 -9999 -9999 32.3687795719882 32.692989634626 32.9329544863533 32.8660651307686 32.811602268324 32.8344727856451 32.7004047388841 32.5508225910771 32.3710455507552 32.2249982243965 32.1253763924195 31.848524279673 31.6335042701275 31.7737327563761 31.9330919882612 32.1242791547481
-9999 -9999 -9999 -9999 -9999 -9999 -9999 -9999 -9999 -9999 -9999 -9999 -9999 -9999 -9999 -9999 -9999 -9999 -9999 32.0656854257732 32.4973082332936 32.7143861051412 32.682779488087 32.6058042601335 32.6517654371929 32.7136706573766 32.6601253302295 32.6642741505511 33.0129120179283 33.2800657280092 32.6697726160686 32.3465997524892 32.6140973075733 32.8384346274435 33.3526340952718
-9999 -9999 -9999 -9999 -9999 -9999 -9999 -9999 -9999 -9999 -9999 -9999 -9999 -9999 -9999 -9999 -9999 31.9991940916079 32.0868179927164 32.0966079821097 32.317591742002 32.4941589577571 32.5333511938118 32.5327383070196 32.5635606158201 32.6735946334593 32.8924032335727 33.7235820098917 34.6770593999864 35.0032056718803 34.5726712663509 33.8174443485215 33.9791679935419 34.2269658682168 35.0433608963602
-9999 -9999 -9999 -9999 -9999 -9999 -9999 -9999 -9999 -9999 -9999 -9999 -9999 -9999 31.6081745709318 32.0284945394033 32.231075028412 32.4653274216331 32.4721542391465 32.2975009694856 32.3214355820476 32.453133805513 32.5088448441401 32.6297650247105 32.8002850029406 33.3082838461178 34.294153465432 35.2840514233584 35.4903114267815 35.5188711040234 35.551802078167 35.3054478778925 35.0820871986177 34.7397151796475 34.815707576108
-9999 -9999 -9999 -9999 -9999 -9999 -9999 -9999 -9999 -9999 -9999 -9999 31.9951862519402 32.4264834332958 32.6291659054551 32.6099764328161 32.6463240043976 32.7435013346216 32.7555816861568 32.7292237308946 32.7483692796851 32.9140004972161 33.2684678962428 33.6746615207155 34.0809172607514 34.7806210105563 35.399931704839 35.5567636634078 35.5955916734608 35.8086272635458 35.9573504501299 36.0718721361071 35.9883885589997 35.6520707281527 35.1364203111163
-9999 -9999 -9999 -9999 -9999 -9999 -9999 -9999 -9999 -9999 -9999 -9999 32.3143956080346 32.7423855980383 32.774554937504 32.75853713349 33.2284960739192 33.7087120640307 33.9167841827638 33.9168404307243 33.9058642844711 34.0818950067205 34.3632048407631 34.6070050120434 34.897653657539 35.1722732641847 35.4117401223695 35.5105216422804 35.6902286241779 36.0055183434728 36.1532452543221 36.165367561765 36.0968973406836 35.9141923277358 35.5541274343175
-9999 -9999 -9999 -9999 -9999 -9999 -9999 -9999 -9999 31.3154078484198 31.6929256015712 32.1523790407973 32.623845087175 32.7863854678745 32.8059680215982 33.4502818693251 34.0692237672079 34.3026180805538 34.5883349630936 34.585535365404 34.5899619859914 34.5929881141925 34.7153777817856 34.7815060848915 34.8175526178714 35.0005188035279 35.2661953399461 35.4617008003973 35.6219946472135 35.8113591289251 35.947111251428 35.9112959186269 35.770221775884 35.7115167936746 35.5771673689395
-9999 -9999 -9999 -9999 -9999 -9999 -9999 -9999 -9999 -9999 32.2719313925061 32.7210924946041 32.8281621481394 32.8564723100724 33.5418757852576 33.9740765376226 34.3833388310864 34.6756086828531 34.6829822605915 34.5843677715011 34.7300668058738 34.7390587137653 34.8075062666369 34.8612364648532 34.9472790545268 35.0702502117379 35.1116967890485 35.2104800770207 35.222718602972 35.2129767714613 35.3632242120425 35.5908464141468 35.6923484867957 35.8163378179459 35.9047138890716
-9999 -9999 -9999 -9999 -9999 -9999 -9999 14.5283990543525 16.2464762604172 -9999 32.4835525496178 32.8103189737213 32.9261306549586 33.3965297111968 33.7754094011783 33.8517429610377 34.2330474129977 34.7416670764381 34.9021624607833 34.8065600828432 34.7453148485667 34.5986736749413 34.6809361816685 35.0831757945204 35.6365106682437 35.8033725221984 35.713169368949 35.4566784933838 35.2191073578101 35.0658296787547 35.0766903456511 35.4461621423475 35.9384731690985 36.2765930367692 36.3115738929116
-9999 -9999 -9999 -9999 -9999 -9999 -9999 16.6797626544262 20.651433854535 31.6015934585958 32.8110725072442 32.8780743158227 33.2662846289063 33.861713093804 34.1909690207117 34.5023506590779 35.0008088393684 35.4819778011266 35.5991085527086 35.5254013379668 35.3843528186986 35.2803073951802 35.4881978355497 36.0696553708499 36.4297825005639 36.5076731201412 36.4715672873498 36.3196405319141 36.0736703121718 35.8490915258304 35.824682313556 36.0432463564446 36.3818057899204 36.5244617492643 36.4708918610891
-9999 -9999 -9999 -9999 -9999 -9999 -9999 20.6122624017528 -9999 32.7548966710475 33.2141431384376 33.4232830428037 34.5136115584512 35.2827050607467 35.7354906456617 36.0584639530676 36.296880525134 36.4178068120892 36.4406328260454 36.3946215114347 36.3066342206314 36.3049369152832 36.4241489943311 36.5206442083689 36.5504872996045 36.5589040160934 36.5554185675568 36.5332206044029 36.4962101104299 36.4786870865784 36.4826038052514 36.5158016989738 36.5534213759322 36.5663880265674 36.5437628847696
-9999 -9999 -9999 -9999 -9999 -9999 -9999 -9999 30.5406467332244 33.2292384463872 33.8355723525237 34.6532515512516 35.5899890908623 36.1092831482908 36.4189714493857 36.5110673015662 36.5377907625952 36.5539480516243 36.5652833544529 36.575635730544 36.5757659285419 36.5781489626631 36.5805925951415 36.5659711906799 36.5507853480629 36.5483421582706 36.5486810666534 36.5514757505276 36.557907968409 36.5586747436113 36.5608205637306 36.567512721507 36.5632678141615 36.5565378281895 36.5539500946876
-9999 -9999 -9999 -9999 -9999 -9999 -9999 -9999 -9999 34.0330037308006 34.6078195423409 35.4228690905619 36.1768172345523 36.4506961281321 36.5110408128415 36.5291889322304 36.5415732561685 36.5419806172326 36.5548202250142 36.5988759256128 36.5937640578412 36.5641642601628 36.5453875292359 36.5362413761025 36.5429484202042 36.5382232829843 36.5401019849868 36.5681022814262 36.5871712575997 36.577713466887 36.5775287688678 36.5764572552815 36.5464120791959 36.5207271959095 36.4929346694824
-9999 -9999 -9999 -9999 -9999 -9999 -9999 -9999 -9999 34.3880390109021 35.788954454181 36.3436507431838 36.4413174668839 36.4842751893179 36.499595039716 36.5105771662556 36.5192592207268 36.524802969005 36.5557850593062 36.5866213113765 36.5625306788039 36.5543446889537 36.5518249627641 36.555578699182 36.5533020639872 36.5391904903419 36.5337837802322 36.5582392223472 36.5718896552781 36.5627540206341 36.5578512804454 36.5371014494065 36.4893402665133 36.4706172535289 36.4581661738727
-9999 -9999 -9999 -9999 -9999 -9999 -9999 35.6537163767316 35.5285521956222 35.5813656557259 36.3009691025887 36.4255649968276 36.4753704557042 36.4951755825941 36.5024594104267 36.4987348429965 36.501882417426 36.5278431759646 36.5617044548866 36.5656628289775 36.5608237296067 36.5708466439674 36.5724542879471 36.5801856029825 36.5812577041339 36.5592333302617 36.5332682052288 36.5282391318257 36.534190564463 36.5302710072332 36.5143910891986 36.4834163394373 36.4520283502774 36.4300512230823 36.4419365620128
-9999 -9999 -9999 -9999 -9999 -9999 35.9120218374371 36.1521501032244 36.327796613625 36.3323868456184 36.3892967492242 36.4593761744182 36.5025294809244 36.5030545133121 36.5042161550995 36.4951268643212 36.5000136892749 36.5426636684256 36.5713097029881 36.5680460535878 36.5668270638321 36.5788527919305 36.5835921085194 36.5775204007596 36.5976499937346 36.5989335217536 36.5704531389774 36.5411709108717 36.5158554987462 36.4990958467801 36.4898865612471 36.4637560902837 36.438356500731 36.4755400849578 36.4939255417642
-9999 -9999 -9999 -9999 35.601465978782 36.1094330344163 36.3005236501671 36.3353472985121 36.3123960253364 36.3258255377957 36.4032584226584 36.4757424863954 36.5223974665535 36.5155289386218 36.5084195358086 36.5031790087086 36.5116339424202 36.5535626732773 36.577925589979 36.5699633363521 36.5692736971855 36.5849367848995 36.5991956053224 36.5977989361339 36.5983267346388 36.6202044546645 36.6082961081315 36.5969546680642 36.5847831983208 36.5748258954017 36.5615690452663 36.5345371058268 36.5341687776009 36.6113853714152 36.609254249815
-9999 -9999 -9999 35.7891488242201 36.055861576047 36.3182715480442 36.327220802462 36.2957827374587 36.2964716294249 36.3314072189043 36.3950065181937 36.4683891179469 36.4986426301464 36.522732074174 36.5312102381726 36.5287254345481 36.5357038961874 36.5516126344267 36.5670228464422 36.5628503209522 36.5784663471125 36.5951293848558 36.5953019935208 36.5976563576822 36.6064811864601 36.6062372261908 36.6102125243043 36.6202339053615 36.6216708858118 36.6200376733579 36.6200033075041 36.6403373691265 36.6570466729301 36.6250910394945 36.642610940397
-9999 -9999 35.8985464979837 36.2457386198138 36.3017708976129 36.305467111671 36.2837167007813 36.2934831275276 36.3364686030247 36.3887597690077 36.4261878708859 36.4334650705007 36.4504686934679 36.4959869839061 36.5348296019287 36.5323529584841 36.529482414315 36.5287388003138 36.5430364033901 36.5639821330766 36.5877803466819 36.6025297947359 36.59725173054 36.5991981132061 36.601327596197 36.6008035021697 36.6142393946743 36.627088788501 36.6316637344103 36.6461687801796 36.6488820567683 36.6820147274055 36.698876566073 36.6812765986871 36.6532599168264
