NCOLS 70 
NROWS 52 
XLLCORNER -80 
YLLCORNER 33 
CELLSIZE 0.25 
NODATA_value -9999 
-9999.000000000000000 -9999 -9999 -9999 -9999 -9999 -9999 -9999 -9999 -9999 -9999 -9999 -9999 -9999 -9999 -9999 -9999 -9999 -9999 -9999 -9999 -9999 -9999 -9999 -9999 -9999 -9999 -9999 -9999 -9999 -9999 -9999 -9999 -9999 -9999 -9999 -9999 -9999 -9999 -9999 -9999 -9999 -9999 -9999 -9999 -9999 -9999 -9999 -9999 -9999 -9999 -9999 -9999 -9999 -9999 -9999 -9999 -9999 -9999 -9999 -9999 -9999 -9999 -9999 -9999 -9999 -9999 -9999 -9999 -9999
-9999 -9999 -9999 -9999 -9999 -9999 -9999 -9999 -9999 -9999 -9999 -9999 -9999 -9999 -9999 -9999 -9999 -9999 -9999 -9999 -9999 -9999 -9999 -9999 -9999 -9999 -9999 -9999 -9999 -9999 -9999 -9999 -9999 -9999 -9999 -9999 -9999 -9999 -9999 -9999 -9999 -9999 -9999 -9999 -9999 -9999 -9999 -9999 -9999 -9999 -9999 -9999 -9999 -9999 -9999 -9999 -9999 -9999 -9999 -9999 -9999 -9999 -9999 -9999 -9999 -9999 -9999 -9999 -9999 -9999
-9999 -9999 -9999 -9999 -9999 -9999 -9999 -9999 -9999 -9999 -9999 -9999 -9999 -9999 -9999 -9999 -9999 -9999 -9999 -9999 -9999 -9999 -9999 -9999 -9999 -9999 -9999 -9999 -9999 -9999 -9999 -9999 -9999 -9999 -9999 -9999 -9999 -9999 -9999 -9999 -9999 -9999 -9999 -9999 -9999 -9999 -9999 -9999 -9999 -9999 -9999 -9999 -9999 -9999 -9999 -9999 -9999 -9999 -9999 28.8661270141602 -9999 -9999 -9999 -9999 -9999 -9999 -9999 -9999 -9999 -9999
-9999 -9999 -9999 -9999 -9999 -9999 -9999 -9999 -9999 -9999 -9999 -9999 -9999 -9999 -9999 -9999 -9999 -9999 -9999 -9999 -9999 -9999 -9999 -9999 -9999 -9999 -9999 -9999 -9999 -9999 -9999 -9999 -9999 -9999 -9999 -9999 -9999 -9999 -9999 -9999 -9999 -9999 -9999 -9999 -9999 -9999 -9999 -9999 -9999 -9999 -9999 -9999 -9999 -9999 -9999 30.5152912139893 30.375171661377 30.2017402648926 29.9507255554199 29.4409923553467 -9999 -9999 -9999 -9999 -9999 -9999 -9999 -9999 -9999 -9999
-9999 -9999 -9999 -9999 -9999 -9999 -9999 -9999 -9999 -9999 -9999 -9999 -9999 -9999 -9999 -9999 -9999 -9999 -9999 -9999 -9999 -9999 -9999 -9999 -9999 -9999 -9999 -9999 -9999 -9999 -9999 -9999 -9999 -9999 -9999 -9999 -9999 -9999 -9999 -9999 -9999 -9999 -9999 -9999 -9999 -9999 -9999 -9999 -9999 -9999 -9999 -9999 30.9817638397217 30.9193496704102 30.8055515289307 30.6369132995605 30.3663482666016 30.0936679840088 -9999 -9999 -9999 -9999 -9999 -9999 -9999 -9999 -9999 -9999 -9999 -9999
-9999 -9999 -9999 -9999 -9999 -9999 -9999 -9999 -9999 -9999 -9999 -9999 -9999 -9999 -9999 -9999 -9999 -9999 -9999 -9999 -9999 -9999 -9999 -9999 -9999 -9999 -9999 -9999 -9999 -9999 -9999 -9999 -9999 -9999 -9999 -9999 -9999 -9999 -9999 -9999 -9999 -9999 -9999 -9999 -9999 -9999 -9999 -9999 -9999 -9999 31.621118927002 31.4576892852783 31.3944911956787 31.3274822235107 31.191385269165 30.6863288879395 -9999 -9999 -9999 -9999 -9999 -9999 -9999 -9999 -9999 -9999 -9999 29.9733594258626 29.9518051147461 29.8788261413574
-9999 -9999 -9999 -9999 -9999 -9999 -9999 -9999 -9999 -9999 -9999 -9999 -9999 -9999 -9999 -9999 -9999 -9999 -9999 -9999 -9999 -9999 -9999 -9999 -9999 -9999 -9999 -9999 -9999 -9999 -9999 -9999 -9999 -9999 -9999 -9999 -9999 -9999 -9999 -9999 -9999 -9999 -9999 -9999 31.5275160471598 -9999 -9999 31.9343113899231 31.8983325958252 31.895055770874 31.8806495666504 31.8381729125977 31.8031406402588 31.6681308746338 31.4731483459473 -9999 -9999 -9999 -9999 -9999 -9999 -9999 -9999 30.0628490447998 30.02392578125 30.0102958679199 29.9955005645752 29.9694347381592 29.9551429748535 30.0038166046143
-9999 -9999 -9999 -9999 -9999 -9999 -9999 -9999 -9999 -9999 -9999 -9999 -9999 -9999 -9999 -9999 -9999 -9999 -9999 -9999 -9999 -9999 -9999 -9999 -9999 -9999 -9999 -9999 -9999 -9999 -9999 -9999 -9999 -9999 -9999 -9999 -9999 -9999 -9999 -9999 -9999 -9999 -9999 -9999 31.4924182891846 31.5869617462158 31.7949104309082 31.9663887023926 32.0776138305664 32.1227874755859 32.0750885009766 31.9423522949219 31.7769298553467 31.5836811065674 31.5211048126221 -9999 -9999 -9999 -9999 -9999 -9999 -9999 30.1842308044434 30.1229991912842 30.0320320129395 29.9928855895996 29.9888668060303 30.0044193267822 30.0437431335449 30.1090488433838
-9999 -9999 -9999 -9999 -9999 -9999 -9999 -9999 -9999 -9999 -9999 -9999 -9999 -9999 -9999 -9999 -9999 -9999 -9999 -9999 -9999 -9999 -9999 -9999 -9999 -9999 -9999 -9999 -9999 -9999 -9999 -9999 -9999 -9999 -9999 -9999 -9999 -9999 -9999 -9999 31.572135925293 31.8396937052409 32.0091648101807 32.1224632263184 32.1593208312988 32.2625885009766 32.3361701965332 32.3983345031738 32.4190826416016 32.3396987915039 32.1280326843262 31.8041744232178 31.5261497497559 31.3594589233398 31.2166736602783 -9999 -9999 -9999 -9999 -9999 30.1414165496826 30.1698207855225 30.0809898376465 29.9840717315674 29.9435691833496 29.9616012573242 30.0019836425781 30.0563640594482 30.1194667816162 30.1882839202881
-9999 -9999 -9999 -9999 -9999 -9999 -9999 -9999 -9999 -9999 -9999 -9999 -9999 -9999 -9999 -9999 -9999 -9999 -9999 -9999 -9999 -9999 -9999 -9999 -9999 -9999 -9999 -9999 -9999 -9999 -9999 -9999 -9999 -9999 -9999 -9999 -9999 -9999 -9999 31.3908462524414 31.5102996826172 31.8152618408203 32.1935195922852 32.4114112854004 32.5171051025391 32.5914688110352 32.626277923584 32.6383857727051 32.5955848693848 32.4378814697266 32.0937080383301 31.638484954834 31.2978858947754 31.126220703125 31.0485916137695 30.9654159545898 -9999 -9999 -9999 30.1918439865112 30.1791706085205 30.0752582550049 29.9774303436279 29.9207401275635 29.9041805267334 29.9196739196777 29.9687252044678 30.0421981811523 30.0909671783447 30.1510963439941
-9999 -9999 -9999 -9999 -9999 -9999 -9999 -9999 -9999 -9999 -9999 -9999 -9999 -9999 -9999 -9999 -9999 -9999 -9999 -9999 -9999 -9999 -9999 -9999 -9999 -9999 -9999 -9999 -9999 -9999 -9999 -9999 -9999 -9999 -9999 -9999 -9999 -9999 31.9856845855713 31.9822864532471 32.1283187866211 32.3338432312012 32.4737854003906 32.5935516357422 32.6780815124512 32.7284545898438 32.7248306274414 32.6630210876465 32.5221214294434 32.227912902832 31.7415466308594 31.2565002441406 30.9937858581543 30.9220695495605 30.8953094482422 30.799129486084 30.6448249816895 30.4875634511312 30.3072948455811 30.2034683227539 30.0774421691895 29.9884796142578 29.9427242279053 29.9234886169434 29.9337387084961 29.9994087219238 30.1520748138428 30.2847366333008 30.250301361084 30.2131481170654
-9999 -9999 -9999 -9999 -9999 -9999 -9999 -9999 -9999 -9999 -9999 -9999 -9999 -9999 -9999 -9999 -9999 -9999 -9999 -9999 -9999 -9999 -9999 -9999 -9999 -9999 -9999 -9999 -9999 -9999 -9999 -9999 -9999 -9999 -9999 -9999 -9999 32.1070137023926 32.1825714111328 32.2657051086426 32.3398895263672 32.4321060180664 32.531909942627 32.6344337463379 32.7160110473633 32.7611198425293 32.733699798584 32.6011352539062 32.3267211914062 31.8747253417969 31.3286476135254 30.9331588745117 30.780933380127 30.746618270874 30.6984405517578 30.6031036376953 30.5039730072021 30.3733100891113 30.22412109375 30.1106147766113 30.0795269012451 30.1147193908691 30.1511650085449 30.1440448760986 30.1596183776855 30.2764339447021 30.4798679351807 30.6011199951172 30.4679012298584 30.3537788391113
-9999 -9999 -9999 -9999 -9999 -9999 -9999 -9999 -9999 -9999 -9999 -9999 -9999 -9999 -9999 -9999 -9999 -9999 -9999 -9999 -9999 -9999 -9999 -9999 -9999 -9999 -9999 -9999 -9999 -9999 -9999 -9999 -9999 -9999 -9999 -9999 -9999 32.2345695495605 32.311767578125 32.4002380371094 32.4456939697266 32.496036529541 32.5594520568848 32.6334838867188 32.7057609558105 32.7552528381348 32.7291831970215 32.572826385498 32.2515754699707 31.78196144104 31.2861061096191 30.9587535858154 30.8511924743652 30.8038520812988 30.6778316497803 30.5247192382812 30.4070949554443 30.2876434326172 30.184175491333 30.1441860198975 30.185209274292 30.2960872650146 30.4272327423096 30.4238471984863 30.3680038452148 30.4270401000977 30.5865840911865 30.7366561889648 30.6494731903076 30.5260772705078
-9999 -9999 -9999 -9999 -9999 -9999 -9999 -9999 -9999 -9999 -9999 -9999 -9999 -9999 -9999 -9999 -9999 -9999 -9999 -9999 -9999 -9999 -9999 -9999 -9999 -9999 -9999 -9999 -9999 -9999 -9999 -9999 -9999 -9999 -9999 -9999 -9999 32.1205825805664 32.3111152648926 32.4211654663086 32.4594459533691 32.501277923584 32.5625953674316 32.6333847045898 32.6997184753418 32.736442565918 32.6953430175781 32.541862487793 32.2692337036133 31.9032077789307 31.5213680267334 31.2695503234863 31.229024887085 31.2365646362305 31.0875072479248 30.9151039123535 30.7838516235352 30.6306190490723 30.4376068115234 30.3150863647461 30.3085327148438 30.4865131378174 30.7508640289307 30.7734355926514 30.7236328125 30.7283535003662 30.7620811462402 30.8769187927246 30.8374156951904 30.7547931671143
-9999 -9999 -9999 -9999 -9999 -9999 -9999 -9999 -9999 -9999 -9999 -9999 -9999 -9999 -9999 -9999 -9999 -9999 -9999 -9999 -9999 -9999 -9999 -9999 -9999 -9999 -9999 -9999 -9999 -9999 -9999 -9999 -9999 -9999 -9999 -9999 31.7195110321045 32.0084838867188 32.2815132141113 32.3750190734863 32.4055519104004 32.4521026611328 32.5314674377441 32.6222152709961 32.6929740905762 32.7142524719238 32.6567916870117 32.5214576721191 32.3203887939453 32.0828895568848 31.8573608398438 31.734375 31.7598495483398 31.8046493530273 31.7014427185059 31.5768127441406 31.4204730987549 31.2284355163574 30.9164085388184 30.6693630218506 30.6387023925781 30.9845352172852 31.4241104125977 31.5118732452393 31.6258964538574 31.4983558654785 31.0978031158447 31.0769157409668 31.0756492614746 31.1271686553955
-9999 -9999 -9999 -9999 -9999 -9999 -9999 -9999 -9999 -9999 -9999 -9999 -9999 -9999 -9999 -9999 -9999 -9999 -9999 -9999 -9999 -9999 -9999 -9999 -9999 -9999 -9999 -9999 -9999 -9999 -9999 -9999 -9999 -9999 -9999 -9999 -9999 32.0661392211914 32.1493682861328 32.2443313598633 32.3113784790039 32.3996353149414 32.5048789978027 32.6105346679688 32.6869621276855 32.712516784668 32.6785888671875 32.6061592102051 32.4945678710938 32.3628005981445 32.2540092468262 32.2032318115234 32.1999435424805 32.1942253112793 32.0917930603027 31.8976402282715 31.5167045593262 31.2318725585938 31.0208892822266 30.8858089447021 31.049295425415 31.5951271057129 32.0399169921875 32.2391014099121 32.5409393310547 32.3885955810547 31.5362815856934 31.3124446868896 31.3579559326172 31.5006732940674
-9999 -9999 -9999 -9999 -9999 -9999 -9999 -9999 -9999 -9999 -9999 -9999 -9999 -9999 -9999 -9999 -9999 -9999 -9999 -9999 -9999 -9999 -9999 -9999 -9999 -9999 -9999 -9999 -9999 -9999 -9999 -9999 -9999 -9999 -9999 -9999 -9999 -9999 31.908712387085 -9999 32.2279663085938 32.3706130981445 32.5036125183105 32.611385345459 32.6852111816406 32.7140617370605 32.6875991821289 32.6367340087891 32.5425796508789 32.4159049987793 32.3333969116211 32.303337097168 32.2951202392578 32.3040962219238 32.2171401977539 32.0341148376465 31.6058177947998 31.3113822937012 31.1588344573975 31.1349639892578 31.3555107116699 31.8400859832764 32.1549873352051 32.4171600341797 32.8842849731445 33.1869697570801 32.2978134155273 31.6537647247314 31.5646190643311 31.7222862243652
-9999 -9999 -9999 -9999 -9999 -9999 -9999 -9999 -9999 -9999 -9999 -9999 -9999 -9999 -9999 -9999 -9999 -9999 -9999 -9999 -9999 -9999 -9999 -9999 -9999 -9999 -9999 -9999 -9999 -9999 -9999 -9999 -9999 -9999 -9999 -9999 -9999 -9999 -9999 -9999 32.0194664001465 32.3191795349121 32.4883003234863 32.606086730957 32.6769065856934 32.6851196289062 32.6221885681152 32.5385055541992 32.4315147399902 32.3312797546387 32.2799224853516 32.2715797424316 32.2799110412598 32.3158645629883 32.3012046813965 32.1399116516113 31.8690605163574 31.6977233886719 31.5602321624756 31.4861736297607 31.6409473419189 31.9404792785645 32.1794548034668 32.5578155517578 33.1663703918457 33.718563079834 32.9687690734863 32.1475257873535 32.0678977966309 32.2782325744629
-9999 -9999 -9999 -9999 -9999 -9999 -9999 -9999 -9999 -9999 -9999 -9999 -9999 -9999 -9999 -9999 -9999 -9999 -9999 -9999 -9999 -9999 -9999 -9999 -9999 -9999 -9999 -9999 -9999 -9999 -9999 -9999 -9999 -9999 31.0958933830261 30.6903228759766 30.7015686035156 -9999 30.7488746643066 31.0504951477051 31.63303565979 32.13623046875 32.4063568115234 32.5622444152832 32.6342697143555 32.6034851074219 32.5030059814453 32.4071197509766 32.3258857727051 32.2723541259766 32.2661018371582 32.2931175231934 32.316349029541 32.3488655090332 32.3318367004395 32.1360855102539 31.9968318939209 31.9694423675537 32.0045204162598 32.1564750671387 32.3446769714355 32.5550727844238 32.8290061950684 33.2593193054199 33.9677696228027 34.4363403320312 33.7462196350098 32.8537178039551 32.7958183288574 32.8564453125
-9999 -9999 -9999 -9999 -9999 -9999 -9999 -9999 -9999 -9999 -9999 -9999 -9999 -9999 -9999 -9999 -9999 -9999 -9999 -9999 -9999 -9999 -9999 -9999 -9999 -9999 -9999 25.0654010772705 25.0654010772705 25.9440021514893 27.2791709899902 29.423246383667 30.9938526153564 31.2353019714355 31.1839447021484 31.2740039825439 31.3674335479736 31.2649574279785 31.12180519104 31.1785907745361 31.5748329162598 32.0477676391602 32.3573760986328 32.5206985473633 32.5732269287109 32.517822265625 32.4178428649902 32.3365364074707 32.2870292663574 32.2730598449707 32.3130111694336 32.3790168762207 32.4219551086426 32.4391098022461 32.4168739318848 32.2696495056152 32.1760673522949 32.1917953491211 32.4960136413574 33.146068572998 33.3845977783203 33.6496467590332 34.0052452087402 34.3642082214355 34.9507141113281 35.1952247619629 34.4998817443848 33.6241455078125 33.468074798584 33.3832664489746
-9999 -9999 -9999 -9999 -9999 -9999 -9999 -9999 -9999 -9999 -9999 -9999 -9999 -9999 -9999 -9999 -9999 -9999 -9999 -9999 -9999 -9999 -9999 -9999 -9999 -9999 -9999 -9999 -9999 -9999 29.2605724334717 30.8740463256836 32.0692825317383 32.2348899841309 32.170841217041 32.0900535583496 31.9565887451172 31.7797622680664 31.6041927337646 31.5765800476074 31.8167877197266 32.1588592529297 32.3948974609375 32.5024566650391 32.5171890258789 32.4744758605957 32.4015617370605 32.3452110290527 32.3310241699219 32.3267211914062 32.3787803649902 32.4687728881836 32.6514282226562 32.9408073425293 33.1987762451172 33.1673049926758 33.0108222961426 32.7801856994629 32.9478950500488 33.6631965637207 34.2209663391113 34.6158447265625 34.8673248291016 35.0572776794434 35.3228912353516 35.4833946228027 34.9715003967285 34.2619285583496 34.0582962036133 33.9777069091797
-9999 -9999 -9999 -9999 -9999 -9999 -9999 -9999 -9999 -9999 -9999 -9999 -9999 -9999 -9999 -9999 -9999 -9999 -9999 -9999 -9999 -9999 -9999 -9999 -9999 31.6322504679362 31.8198000590007 31.9890848795573 32.1625752449036 32.1239471435547 32.2653694152832 32.3446083068848 32.3816184997559 32.360466003418 32.3078880310059 32.2472534179688 32.1622848510742 32.0597839355469 31.9740886688232 31.9609375 32.1035499572754 32.3160514831543 32.4502868652344 32.4959106445312 32.5331268310547 32.5702819824219 32.5219612121582 32.5394134521484 32.5911750793457 32.5479316711426 32.6062355041504 32.9664039611816 33.6469116210938 34.3753433227539 34.7924919128418 34.7982788085938 34.6025238037109 34.1492233276367 33.6103744506836 33.6362915039062 34.1581764221191 34.6028175354004 34.8771476745605 35.0253677368164 35.1907348632812 35.3462905883789 35.1167488098145 34.7114143371582 34.5755844116211 34.534912109375
-9999 -9999 -9999 -9999 -9999 -9999 -9999 -9999 -9999 -9999 -9999 -9999 -9999 -9999 -9999 -9999 -9999 -9999 -9999 -9999 -9999 -9999 -9999 -9999 31.3975811004639 31.6659164428711 31.8332538604736 31.9602298736572 32.173770904541 32.3923530578613 32.4965934753418 32.519603729248 32.4909439086914 32.4589424133301 32.4673652648926 32.5219879150391 32.5308685302734 32.4398345947266 32.3502616882324 32.3252182006836 32.3759231567383 32.4746017456055 32.5689888000488 32.6681823730469 32.8467750549316 33.0024223327637 33.124153137207 33.4969291687012 33.7846565246582 33.7524147033691 33.9329452514648 34.5817337036133 35.3310623168945 35.7878227233887 35.9372329711914 35.9371147155762 35.8195877075195 35.629207611084 35.1523284912109 34.5204849243164 34.2869567871094 34.3040008544922 34.540340423584 34.8061370849609 35.0162048339844 35.1623878479004 35.1709022521973 35.0701522827148 35.0376014709473 35.0504684448242
-9999 -9999 -9999 -9999 -9999 -9999 -9999 -9999 -9999 -9999 -9999 -9999 -9999 -9999 -9999 -9999 -9999 -9999 -9999 -9999 -9999 -9999 -9999 -9999 31.8616771697998 32.244255065918 32.4222755432129 32.5016326904297 32.6108169555664 32.6897850036621 32.6958808898926 32.6536293029785 32.604663848877 32.6078681945801 32.7036628723145 32.8848075866699 32.9745063781738 32.8487205505371 32.7003746032715 32.6584892272949 32.664680480957 32.7718658447266 33.0088958740234 33.3025703430176 33.6417388916016 33.9645309448242 34.4235000610352 35.0336303710938 35.3985862731934 35.4521102905273 35.636417388916 35.9447479248047 36.1216201782227 36.1731300354004 36.1762733459473 36.1769218444824 36.1673164367676 36.1405754089355 36.086181640625 35.7184181213379 35.2862701416016 34.8961906433105 34.7131385803223 34.7922286987305 34.9697341918945 35.0966911315918 35.1435508728027 35.2013244628906 35.2931175231934 35.3967819213867
-9999 -9999 -9999 -9999 -9999 -9999 -9999 -9999 -9999 -9999 -9999 -9999 -9999 -9999 -9999 -9999 -9999 -9999 -9999 -9999 -9999 -9999 -9999 32.071789264679 32.0856094360352 32.4644813537598 32.6433563232422 32.7257843017578 32.8041152954102 32.8539924621582 32.8695449829102 32.855827331543 32.8941955566406 33.0330543518066 33.1769332885742 33.3178634643555 33.3566246032715 33.1821823120117 33.0714797973633 33.1642951965332 33.324089050293 33.5953178405762 33.9394035339355 34.3145866394043 34.7249336242676 35.1071701049805 35.4992256164551 35.7774505615234 35.9041748046875 35.9886322021484 36.0565757751465 36.0891265869141 36.1340751647949 36.1743698120117 36.1742820739746 36.1570816040039 36.1508140563965 36.1507415771484 36.1646194458008 36.0432548522949 35.8429183959961 35.6511611938477 35.4722785949707 35.3285064697266 35.2658309936523 35.2485771179199 35.194408416748 35.1846809387207 35.2911567687988 35.4369850158691
-9999 -9999 -9999 -9999 -9999 -9999 -9999 -9999 -9999 -9999 -9999 -9999 -9999 -9999 -9999 -9999 -9999 -9999 -9999 -9999 -9999 -9999 -9999 32.0030517578125 32.3368186950684 32.6247673034668 32.7364120483398 32.8087730407715 32.9030303955078 33.0208129882812 33.1457214355469 33.2562942504883 33.4540328979492 33.749755859375 33.9491539001465 33.9970893859863 33.9235458374023 33.8017463684082 33.8842620849609 34.1852607727051 34.5042495727539 34.7768402099609 34.9782791137695 35.2216491699219 35.4945526123047 35.6753768920898 35.7566108703613 35.7928428649902 35.8320808410645 35.901180267334 35.9840812683105 36.0488739013672 36.1061477661133 36.1602973937988 36.1742630004883 36.1548805236816 36.1349296569824 36.128246307373 36.1422004699707 36.1264991760254 36.0848579406738 36.0252876281738 35.9490852355957 35.8331604003906 35.6912841796875 35.5657615661621 35.4472923278809 35.3369750976562 35.3511619567871 35.4448547363281
-9999 -9999 -9999 -9999 -9999 -9999 -9999 -9999 -9999 -9999 -9999 -9999 -9999 -9999 -9999 -9999 -9999 -9999 -9999 -9999 -9999 -9999 32.3229713439941 32.4262580871582 32.6512222290039 32.809139251709 32.8689002990723 32.9359512329102 33.0644302368164 33.296142578125 33.5965881347656 33.8235931396484 34.0117492675781 34.2339172363281 34.3807411193848 34.3735008239746 34.292366027832 34.3022422790527 34.5507278442383 34.9371109008789 35.2361183166504 35.3887786865234 35.4821891784668 35.5880470275879 35.6683311462402 35.7079620361328 35.7303924560547 35.761360168457 35.818473815918 35.9114952087402 36.0076866149902 36.0809059143066 36.1335792541504 36.1699409484863 36.184196472168 36.1812744140625 36.180606842041 36.1891822814941 36.2103958129883 36.2345695495605 36.2593193054199 36.2672843933105 36.2497749328613 36.1906089782715 36.0795059204102 35.9281997680664 35.7805671691895 35.653190612793 35.6084480285645 35.6066017150879
-9999 -9999 -9999 -9999 -9999 -9999 -9999 -9999 -9999 -9999 -9999 -9999 -9999 -9999 18.8290319972568 -9999 -9999 -9999 -9999 32.235668182373 -9999 32.5703468322754 32.5958213806152 32.7820701599121 32.9316520690918 33.010139465332 33.0513534545898 33.1456718444824 33.369140625 33.7556266784668 34.1651268005371 34.3475227355957 34.3634262084961 34.3905258178711 34.3901672363281 34.3680229187012 34.369312286377 34.3930473327637 34.563117980957 34.8515357971191 35.0943794250488 35.2896728515625 35.4611015319824 35.578010559082 35.642391204834 35.6963500976562 35.7488288879395 35.8095550537109 35.9080696105957 36.0267944335938 36.1110649108887 36.1593894958496 36.1882209777832 36.2021484375 36.2067375183105 36.2117805480957 36.2379302978516 36.2781257629395 36.3100433349609 36.3269653320312 36.3469123840332 36.3782730102539 36.3969764709473 36.3811073303223 36.3355407714844 36.2376251220703 36.105884552002 35.9904937744141 35.9260292053223 35.8496437072754
-9999 -9999 -9999 -9999 -9999 -9999 -9999 -9999 -9999 -9999 -9999 -9999 -9999 -9999 18.8392262458801 -9999 -9999 -9999 -9999 32.3394985198975 32.6520141601562 32.8660621643066 32.9878158569336 33.1086845397949 33.2040977478027 33.2630996704102 33.3261909484863 33.544620513916 33.9637832641602 34.3599624633789 34.5744438171387 34.5809020996094 34.4951820373535 34.4845504760742 34.5502052307129 34.6634750366211 34.7509384155273 34.7564888000488 34.803050994873 34.9117088317871 35.0188446044922 35.1550636291504 35.322826385498 35.5045433044434 35.6765441894531 35.7956581115723 35.8548736572266 35.9062919616699 36.0029907226562 36.1118240356445 36.1816101074219 36.223258972168 36.2478828430176 36.2635345458984 36.2706756591797 36.2793273925781 36.3150100708008 36.3663444519043 36.4060173034668 36.4159317016602 36.4142646789551 36.4209289550781 36.4298706054688 36.4366226196289 36.4398536682129 36.4135818481445 36.3372611999512 36.2394371032715 36.1649284362793 36.0718154907227
-9999 -9999 -9999 -9999 -9999 -9999 -9999 -9999 -9999 -9999 -9999 -9999 -9999 -9999 18.7933521270752 -9999 -9999 -9999 -9999 -9999 33.095666885376 33.1446647644043 33.2681617736816 33.3939476013184 33.5311050415039 33.6516952514648 33.8174133300781 34.1699981689453 34.6061668395996 34.8030967712402 34.768009185791 34.6891822814941 34.6758880615234 34.8129920959473 35.0313568115234 35.2187919616699 35.3303756713867 35.3742179870605 35.4139785766602 35.465030670166 35.49755859375 35.5072822570801 35.5054740905762 35.5583801269531 35.6958236694336 35.8341941833496 35.907600402832 35.9451370239258 36.0251808166504 36.1375770568848 36.2231826782227 36.2750129699707 36.3026924133301 36.3174591064453 36.3258285522461 36.3467636108398 36.3923835754395 36.4358558654785 36.4637031555176 36.4675598144531 36.4539756774902 36.4415702819824 36.4386558532715 36.4477081298828 36.462272644043 36.4702072143555 36.4513816833496 36.3942070007324 36.3273506164551 36.2524375915527
-9999 -9999 -9999 -9999 -9999 -9999 -9999 -9999 -9999 -9999 -9999 -9999 -9999 -9999 18.8720817565918 -9999 18.9768486022949 -9999 -9999 -9999 33.0951271057129 33.2768135070801 33.4771423339844 33.6775741577148 33.894702911377 34.1192398071289 34.3842391967773 34.680835723877 34.9064025878906 34.9630432128906 34.9046211242676 34.9062652587891 35.0457572937012 35.2608489990234 35.441837310791 35.5748405456543 35.6904754638672 35.7871131896973 35.8692512512207 35.9351844787598 35.9668273925781 35.9551467895508 35.9070472717285 35.8526077270508 35.8355903625488 35.8682518005371 35.9060478210449 35.9454383850098 36.0452003479004 36.1764373779297 36.2725486755371 36.3262710571289 36.3523025512695 36.3622932434082 36.3755149841309 36.404411315918 36.4393424987793 36.4669227600098 36.4873466491699 36.491626739502 36.4820823669434 36.4701232910156 36.4626960754395 36.463508605957 36.4722862243652 36.486026763916 36.4901237487793 36.4700241088867 36.4311599731445 36.3795394897461
-9999 -9999 -9999 -9999 -9999 -9999 -9999 -9999 -9999 -9999 -9999 -9999 -9999 -9999 18.8720817565918 18.9508113861084 19.232889175415 -9999 -9999 32.9860029220581 33.0696754455566 33.3905906677246 33.7298278808594 34.0360832214355 34.2742309570312 34.478458404541 34.6705131530762 34.8062438964844 34.9012718200684 34.9538383483887 34.9641876220703 35.0521240234375 35.2567939758301 35.4774436950684 35.6545600891113 35.794864654541 35.9129638671875 36.0138854980469 36.0869941711426 36.1269950866699 36.1406517028809 36.1400146484375 36.1321449279785 36.1100654602051 36.0724754333496 36.0470886230469 36.0461044311523 36.0851516723633 36.1799583435059 36.2807121276855 36.3462371826172 36.3832321166992 36.4006767272949 36.4070434570312 36.4223403930664 36.4403648376465 36.4577369689941 36.4815673828125 36.504711151123 36.520938873291 36.528133392334 36.5191192626953 36.5032806396484 36.4968070983887 36.4992828369141 36.5064315795898 36.5059852600098 36.4960975646973 36.4796524047852 36.4481658935547
-9999 -9999 -9999 -9999 -9999 -9999 -9999 -9999 -9999 -9999 -9999 -9999 -9999 -9999 -9999 20.4954551696777 19.6666297912598 -9999 29.0392746925354 32.6810836791992 33.0981254577637 33.5688056945801 34.0436820983887 34.3816375732422 34.5319976806641 34.6062049865723 34.6850318908691 34.7578582763672 34.8431739807129 34.9227752685547 34.9854507446289 35.1286392211914 35.3959159851074 35.6955337524414 35.934497833252 36.0673065185547 36.1319198608398 36.1791496276855 36.2090187072754 36.2203598022461 36.2229957580566 36.2273254394531 36.237548828125 36.2540626525879 36.2686195373535 36.2780532836914 36.2913208007812 36.3216705322266 36.3679161071777 36.4091796875 36.4341888427734 36.4461364746094 36.4481925964355 36.4493179321289 36.4617080688477 36.4626655578613 36.4629287719727 36.4764366149902 36.4966850280762 36.5285987854004 36.5609512329102 36.5708808898926 36.551815032959 36.5292625427246 36.5218200683594 36.5178184509277 36.5117683410645 36.501407623291 36.4939575195312 36.4747924804688
-9999 -9999 -9999 -9999 -9999 -9999 -9999 -9999 -9999 -9999 -9999 -9999 -9999 -9999 -9999 21.9324417114258 22.6945037841797 -9999 31.6014862060547 32.4583435058594 33.1591987609863 33.8586463928223 34.372730255127 34.5823211669922 34.6188850402832 34.6092948913574 34.6396331787109 34.7505302429199 34.9564399719238 35.1642074584961 35.3008308410645 35.4529457092285 35.6982231140137 35.9682006835938 36.1520347595215 36.2304916381836 36.2588729858398 36.2779426574707 36.2902526855469 36.2977638244629 36.3089294433594 36.3266868591309 36.3515548706055 36.3795051574707 36.4055442810059 36.4254112243652 36.4391784667969 36.4534530639648 36.4686584472656 36.4824714660645 36.4939346313477 36.4997749328613 36.4906158447266 36.4816741943359 36.4858894348145 36.4709129333496 36.4506340026855 36.4389343261719 36.4405708312988 36.4756202697754 36.5323524475098 36.5801048278809 36.5842590332031 36.5516319274902 36.527904510498 36.5199012756348 36.5136795043945 36.5050239562988 36.5012168884277 36.4850921630859
-9999 -9999 -9999 -9999 -9999 -9999 -9999 -9999 -9999 -9999 -9999 -9999 -9999 -9999 -9999 22.9761734008789 -9999 28.075403213501 31.2486267089844 32.3947372436523 33.3853988647461 34.2570343017578 34.7205810546875 34.7982788085938 34.833667755127 34.8632354736328 34.9532165527344 35.1508483886719 35.3667030334473 35.5192222595215 35.631046295166 35.7803497314453 35.9719696044922 36.1447830200195 36.248104095459 36.3008079528809 36.3378448486328 36.3693351745605 36.3879203796387 36.4001007080078 36.4163589477539 36.4333534240723 36.4519424438477 36.4686546325684 36.4795532226562 36.4845886230469 36.4874649047852 36.4921073913574 36.4983673095703 36.5052108764648 36.5168838500977 36.5295600891113 36.5210189819336 36.5081481933594 36.5056381225586 36.4736404418945 36.4292373657227 36.396915435791 36.3787117004395 36.4020462036133 36.4561958312988 36.5290832519531 36.5814933776855 36.5692596435547 36.5344314575195 36.5265655517578 36.5201148986816 36.5111656188965 36.5017013549805 36.476936340332
-9999 -9999 -9999 -9999 -9999 -9999 -9999 -9999 -9999 -9999 -9999 -9999 -9999 -9999 22.9761734008789 24.437447865804 25.8588829040527 29.3767986297607 31.2702369689941 32.6257057189941 33.6796264648438 34.5270538330078 34.9401016235352 35.06005859375 35.2320518493652 35.3839912414551 35.5054779052734 35.6440238952637 35.7366638183594 35.8076858520508 35.9191474914551 36.0502281188965 36.1605682373047 36.2466278076172 36.3065643310547 36.3530769348145 36.3957023620605 36.4297637939453 36.4465103149414 36.4493598937988 36.4510917663574 36.4540061950684 36.4652290344238 36.4796714782715 36.4800453186035 36.4732513427734 36.4750328063965 36.4817008972168 36.4908294677734 36.5041694641113 36.5236320495605 36.5426712036133 36.5414619445801 36.5288925170898 36.5319480895996 36.5080947875977 36.4540519714355 36.397705078125 36.3649559020996 36.3781623840332 36.4191398620605 36.4832153320312 36.5530052185059 36.5768241882324 36.5470352172852 36.5152282714844 36.5094528198242 36.5008201599121 36.4804878234863 36.4445114135742
-9999 -9999 -9999 -9999 -9999 -9999 -9999 -9999 -9999 -9999 -9999 -9999 -9999 -9999 -9999 -9999 29.3896913528442 30.4486694335938 32.3429489135742 33.2435531616211 33.9446601867676 34.5968933105469 35.0542106628418 35.3199996948242 35.572208404541 35.7398452758789 35.8450393676758 35.9297866821289 35.9632225036621 36.0185508728027 36.1163902282715 36.1993865966797 36.2669143676758 36.3250427246094 36.3723640441895 36.4141387939453 36.4493789672852 36.472957611084 36.4792366027832 36.4678688049316 36.4572486877441 36.4571304321289 36.4696197509766 36.4791679382324 36.4730491638184 36.4663887023926 36.4673156738281 36.4682197570801 36.4767150878906 36.4971542358398 36.5224914550781 36.5451965332031 36.5530052185059 36.5452156066895 36.552562713623 36.5479278564453 36.5090103149414 36.4490661621094 36.4004402160645 36.4025497436523 36.4373321533203 36.4867744445801 36.5410385131836 36.5755386352539 36.5725593566895 36.5352172851562 36.4981575012207 36.4799537658691 36.4580612182617 36.4209785461426
-9999 -9999 -9999 -9999 -9999 -9999 -9999 -9999 -9999 -9999 -9999 -9999 -9999 -9999 -9999 -9999 31.1615419387817 31.8744144439697 33.3584022521973 33.9687690734863 34.2345581054688 34.5717239379883 35.0952415466309 35.4522476196289 35.6654777526855 35.8380966186523 35.954288482666 36.0184173583984 36.0503616333008 36.1159400939941 36.2080612182617 36.2905120849609 36.3597145080566 36.4113960266113 36.4490013122559 36.4762687683105 36.4944763183594 36.5037956237793 36.4968872070312 36.4726257324219 36.4489631652832 36.4453620910645 36.4645881652832 36.4860725402832 36.4835090637207 36.4669876098633 36.4577674865723 36.4592361450195 36.4709815979004 36.490665435791 36.5174827575684 36.541748046875 36.5560836791992 36.5585823059082 36.5631332397461 36.5618705749512 36.543285369873 36.5125122070312 36.4693069458008 36.4544067382812 36.4742736816406 36.5085563659668 36.5447845458984 36.5762786865234 36.5921592712402 36.5816688537598 36.5408248901367 36.4971313476562 36.4628067016602 36.4249229431152
-9999 -9999 -9999 -9999 -9999 -9999 -9999 -9999 -9999 -9999 -9999 -9999 -9999 -9999 -9999 -9999 -9999 33.1555905342102 33.664234161377 34.4205665588379 34.609489440918 34.8770942687988 35.3710594177246 35.7104415893555 35.8650360107422 35.9596176147461 36.0347480773926 36.0907783508301 36.1604843139648 36.2494201660156 36.3399238586426 36.4128837585449 36.4599571228027 36.4840888977051 36.4961090087891 36.505931854248 36.5161285400391 36.5156517028809 36.4884490966797 36.4499855041504 36.4159622192383 36.4116058349609 36.4324226379395 36.4622077941895 36.4724769592285 36.4541244506836 36.4422035217285 36.4564590454102 36.4766273498535 36.4935264587402 36.5275726318359 36.5555534362793 36.5642890930176 36.5657119750977 36.56982421875 36.573600769043 36.5698204040527 36.5617866516113 36.5398445129395 36.5237083435059 36.5260047912598 36.5442886352539 36.566837310791 36.5898590087891 36.6026382446289 36.6063346862793 36.5883255004883 36.551628112793 36.5118064880371 36.4733848571777
-9999 -9999 -9999 -9999 -9999 -9999 -9999 -9999 -9999 -9999 -9999 -9999 -9999 -9999 31.6961963176727 31.8744144439697 33.1125222444534 33.6947727203369 33.7253112792969 34.5401573181152 35.1105346679688 35.6006355285645 35.909309387207 36.0901832580566 36.1221885681152 36.1379547119141 36.1701278686523 36.2265853881836 36.3120155334473 36.3977546691895 36.4574012756348 36.4854545593262 36.4947853088379 36.498477935791 36.5046806335449 36.5158424377441 36.5240058898926 36.5082702636719 36.4630851745605 36.4150848388672 36.3786544799805 36.3751831054688 36.3945121765137 36.4262466430664 36.4584465026855 36.4568405151367 36.4395446777344 36.464225769043 36.5141830444336 36.5463562011719 36.5637435913086 36.5713195800781 36.5693473815918 36.5668907165527 36.5698661804199 36.5767478942871 36.5820846557617 36.582893371582 36.5756530761719 36.5659027099609 36.5639381408691 36.5740852355957 36.5899085998535 36.6050109863281 36.6116180419922 36.6166648864746 36.6115226745605 36.5932807922363 36.5663452148438 36.5371971130371
-9999 -9999 -9999 -9999 -9999 -9999 -9999 -9999 -9999 -9999 -9999 -9999 -9999 -9999 -9999 -9999 -9999 -9999 34.6375274658203 34.9277153015137 35.6210861206055 35.998405456543 36.1413879394531 36.2170486450195 36.228946685791 36.2514991760254 36.2965240478516 36.3664169311523 36.4370803833008 36.4828224182129 36.5014038085938 36.5083656311035 36.5143852233887 36.5169219970703 36.5224609375 36.5318183898926 36.5261840820312 36.4912910461426 36.4356422424316 36.3735198974609 36.3262901306152 36.3202972412109 36.3466262817383 36.3833084106445 36.4360618591309 36.4740562438965 36.477108001709 36.5016059875488 36.5518379211426 36.5842628479004 36.5847969055176 36.5765609741211 36.5722007751465 36.5698165893555 36.5714111328125 36.5727920532227 36.5766220092773 36.5788192749023 36.5770645141602 36.5724220275879 36.572509765625 36.5806312561035 36.5937995910645 36.6037521362305 36.6182823181152 36.6291961669922 36.6249656677246 36.6119804382324 36.5949592590332 36.5756072998047
-9999 -9999 -9999 -9999 -9999 -9999 -9999 -9999 -9999 -9999 -9999 -9999 -9999 -9999 -9999 -9999 -9999 35.3451347351074 35.3576965332031 35.3569259643555 35.8798027038574 36.1003913879395 36.1926078796387 36.2481994628906 36.2914733886719 36.3433418273926 36.4005737304688 36.4540367126465 36.4890365600586 36.5074577331543 36.515266418457 36.5150032043457 36.5153160095215 36.5143661499023 36.5131149291992 36.5119743347168 36.4983520507812 36.4595909118652 36.3979988098145 36.3247566223145 36.2732543945312 36.2622947692871 36.2901611328125 36.3285026550293 36.3849754333496 36.4521865844727 36.4913101196289 36.5077285766602 36.5419883728027 36.5697326660156 36.5695838928223 36.5625534057617 36.5625495910645 36.5650253295898 36.5674934387207 36.5681838989258 36.5704460144043 36.5750160217285 36.5769157409668 36.5758361816406 36.5771293640137 36.5841407775879 36.5913963317871 36.599666595459 36.612117767334 36.6167793273926 36.6118507385254 36.6049652099609 36.5926055908203 36.5798797607422
-9999 -9999 -9999 -9999 -9999 -9999 -9999 -9999 -9999 -9999 -9999 -9999 -9999 35.7681655883789 35.8186806572808 -9999 35.8125743865967 35.6899404525757 35.3451347351074 35.8010101318359 36.1302947998047 36.2303924560547 36.2890663146973 36.333251953125 36.3820533752441 36.4313163757324 36.4740600585938 36.4973487854004 36.5095291137695 36.5209884643555 36.5208969116211 36.509162902832 36.5079498291016 36.5033111572266 36.4936332702637 36.4818305969238 36.4595184326172 36.421012878418 36.3585243225098 36.2906684875488 36.2398872375488 36.2324867248535 36.2677116394043 36.3056106567383 36.3535385131836 36.4172248840332 36.474063873291 36.5033836364746 36.5282936096191 36.5516967773438 36.5556182861328 36.5609130859375 36.5643272399902 36.5695419311523 36.5734786987305 36.5764198303223 36.5785598754883 36.5822563171387 36.5853157043457 36.5866050720215 36.589168548584 36.595775604248 36.5926284790039 36.5834541320801 36.5823860168457 36.5833168029785 36.5870704650879 36.5890846252441 36.5878944396973 36.5868377685547
-9999 -9999 -9999 -9999 -9999 -9999 -9999 -9999 -9999 -9999 -9999 -9999 -9999 -9999 35.7681655883789 35.8730951944987 35.8147811889648 35.8103675842285 35.789478302002 36.1471748352051 36.2695121765137 36.3132209777832 36.3552703857422 36.4041709899902 36.4548683166504 36.4940567016602 36.5128326416016 36.5183601379395 36.5239372253418 36.5229110717773 36.5138664245605 36.5114669799805 36.5165710449219 36.5090980529785 36.4931373596191 36.4712181091309 36.4344482421875 36.3969192504883 36.3594245910645 36.3206901550293 36.2790794372559 36.2661056518555 36.2942962646484 36.3297653198242 36.3737907409668 36.4216995239258 36.4652519226074 36.4973602294922 36.513786315918 36.5327644348145 36.5436706542969 36.5620384216309 36.5757179260254 36.5822868347168 36.5839576721191 36.5864639282227 36.5899238586426 36.5932693481445 36.5953788757324 36.5963897705078 36.5979347229004 36.5980415344238 36.5876159667969 36.5788688659668 36.5800628662109 36.5827713012695 36.5862808227539 36.5880241394043 36.5895233154297 36.5894622802734
-9999 -9999 -9999 -9999 -9999 -9999 -9999 -9999 -9999 -9999 -9999 -9999 -9999 -9999 35.8499670028687 35.7681655883789 36.0363388061523 36.1217269897461 36.1893768310547 36.289379119873 36.3229141235352 36.3542404174805 36.4110565185547 36.4721488952637 36.5147743225098 36.5247917175293 36.5232734680176 36.5227737426758 36.5305061340332 36.5309143066406 36.5214996337891 36.5235061645508 36.5332717895508 36.5310325622559 36.5161170959473 36.4916915893555 36.444766998291 36.4000091552734 36.3847198486328 36.3759346008301 36.361442565918 36.3579978942871 36.3722457885742 36.3953399658203 36.4268493652344 36.4555702209473 36.477783203125 36.4919853210449 36.5009613037109 36.5164413452148 36.5269889831543 36.5456886291504 36.5708808898926 36.5856056213379 36.5902557373047 36.5959434509277 36.6027145385742 36.6051254272461 36.6044883728027 36.6025733947754 36.5996398925781 36.5949325561523 36.5890998840332 36.5887260437012 36.5907211303711 36.5904426574707 36.589168548584 36.5875434875488 36.5858535766602 36.5834197998047
-9999 -9999 -9999 -9999 -9999 -9999 -9999 -9999 -9999 -9999 -9999 35.3476371765137 35.5677719116211 35.8280410766602 35.763557434082 36.0401039123535 36.2355766296387 36.2636260986328 36.279354095459 36.303050994873 36.348258972168 36.4171180725098 36.4936065673828 36.5363388061523 36.5443801879883 36.538631439209 36.5385665893555 36.5352897644043 36.5383110046387 36.530818939209 36.5201225280762 36.527229309082 36.5396957397461 36.5465927124023 36.5375785827637 36.5179862976074 36.4852523803711 36.4438629150391 36.4304847717285 36.43359375 36.4366760253906 36.443546295166 36.4479522705078 36.4556770324707 36.4735832214355 36.4865646362305 36.4998664855957 36.4995536804199 36.4914894104004 36.496883392334 36.511474609375 36.5329246520996 36.562442779541 36.5851554870605 36.5948638916016 36.6005973815918 36.6045875549316 36.6051025390625 36.6032333374023 36.6004676818848 36.5973815917969 36.593864440918 36.5906639099121 36.5887298583984 36.5852508544922 36.5822296142578 36.5807075500488 36.580696105957 36.581371307373 36.5803260803223
-9999 -9999 -9999 -9999 -9999 -9999 -9999 -9999 -9999 35.1797866821289 35.5584373474121 35.8089332580566 36.0613479614258 36.1507186889648 36.0882949829102 36.1962776184082 36.2605972290039 36.2716102600098 36.2872009277344 36.3287811279297 36.3935775756836 36.4627571105957 36.5111427307129 36.5309143066406 36.5324897766113 36.5409698486328 36.5479011535645 36.5454177856445 36.5465927124023 36.5361137390137 36.5252532958984 36.5335845947266 36.544116973877 36.5508499145508 36.5466232299805 36.5380821228027 36.5260124206543 36.5076560974121 36.4960632324219 36.4985618591309 36.5087890625 36.5073852539062 36.504940032959 36.5137634277344 36.524486541748 36.532096862793 36.5319709777832 36.5200004577637 36.5046424865723 36.5043907165527 36.5177192687988 36.5377159118652 36.5654983520508 36.5874061584473 36.5954895019531 36.5985412597656 36.6002388000488 36.600959777832 36.6000823974609 36.598575592041 36.5965270996094 36.5929069519043 36.5876274108887 36.5822296142578 36.5774536132812 36.5754127502441 36.5755844116211 36.5773277282715 36.5800628662109 36.5818824768066
-9999 -9999 -9999 -9999 -9999 -9999 -9999 -9999 -9999 35.5828742980957 35.9310646057129 36.1640548706055 36.2452812194824 36.2624816894531 36.2507133483887 36.2625579833984 36.2628555297852 36.2741966247559 36.3147468566895 36.3862686157227 36.4587821960449 36.5158233642578 36.5492553710938 36.5456047058105 36.5384979248047 36.5445404052734 36.5500335693359 36.5493583679199 36.5529975891113 36.5500869750977 36.5455932617188 36.5529975891113 36.5618515014648 36.5679626464844 36.5679740905762 36.5667762756348 36.5658836364746 36.5627746582031 36.5557403564453 36.5577163696289 36.5508460998535 36.5390815734863 36.5498695373535 36.5658149719238 36.5672607421875 36.5615463256836 36.5444374084473 36.5233192443848 36.5135803222656 36.5162582397461 36.5260963439941 36.5439529418945 36.5718231201172 36.5895767211914 36.595157623291 36.5977592468262 36.5984001159668 36.5986938476562 36.5989761352539 36.5982437133789 36.5963249206543 36.591724395752 36.5843696594238 36.5783386230469 36.5754203796387 36.5751304626465 36.5754508972168 36.576343536377 36.5794296264648 36.5833740234375
-9999 -9999 -9999 -9999 -9999 35.515157699585 35.5735969543457 35.7103843688965 35.7130088806152 35.7761878967285 36.0274124145508 36.222843170166 36.2760314941406 36.2797050476074 36.2649154663086 36.2509346008301 36.2639656066895 36.299747467041 36.3647384643555 36.4408149719238 36.4936180114746 36.5330505371094 36.5453720092773 36.5340843200684 36.5285911560059 36.5306701660156 36.5336837768555 36.5327835083008 36.5405349731445 36.550365447998 36.5612373352051 36.5773811340332 36.5921287536621 36.599536895752 36.5983772277832 36.5991477966309 36.6033134460449 36.6112213134766 36.616512298584 36.6021957397461 36.5684432983398 36.548583984375 36.5511283874512 36.5603294372559 36.5630874633789 36.5529441833496 36.536750793457 36.5259590148926 36.523567199707 36.5270538330078 36.5361061096191 36.5549087524414 36.5794372558594 36.5913391113281 36.5970878601074 36.602855682373 36.6043701171875 36.6022148132324 36.5997314453125 36.5981369018555 36.5948829650879 36.5886306762695 36.5803756713867 36.5757217407227 36.5757141113281 36.5768852233887 36.5780792236328 36.5810165405273 36.5870018005371 36.5925979614258
-9999 -9999 -9999 -9999 35.0969848632812 35.4755592346191 35.9144897460938 36.0675582885742 36.118335723877 36.1288681030273 36.2268905639648 36.2774047851562 36.2730979919434 36.2551727294922 36.2402000427246 36.251953125 36.2873725891113 36.3413772583008 36.4167175292969 36.4857559204102 36.525806427002 36.5560760498047 36.5479888916016 36.5372581481934 36.5266494750977 36.5224189758301 36.5225257873535 36.5204734802246 36.5278282165527 36.5442733764648 36.5653686523438 36.5913391113281 36.6168746948242 36.6267471313477 36.6262474060059 36.6257209777832 36.6281890869141 36.6342430114746 36.6376304626465 36.6289138793945 36.6060562133789 36.5797843933105 36.5674018859863 36.5683364868164 36.5663719177246 36.5597991943359 36.5540771484375 36.5475692749023 36.5420417785645 36.544677734375 36.5533561706543 36.5680503845215 36.5832290649414 36.5914115905762 36.5973892211914 36.6045722961426 36.6125679016113 36.6152954101562 36.6092300415039 36.6028251647949 36.5965843200684 36.5877075195312 36.5780906677246 36.5742568969727 36.5753173828125 36.5777931213379 36.5820159912109 36.5909538269043 36.600902557373 36.6052513122559
-9999 -9999 -9999 35.429817199707 35.5086326599121 35.9225921630859 36.1230964660645 36.2209815979004 36.2612838745117 36.2740592956543 36.2795066833496 36.2667541503906 36.244800567627 36.2359809875488 36.2410583496094 36.2769737243652 36.3273277282715 36.3861274719238 36.4706497192383 36.5354080200195 36.562614440918 36.5713729858398 36.5511207580566 36.5366363525391 36.5227127075195 36.5149421691895 36.5172080993652 36.5212593078613 36.531494140625 36.546070098877 36.5665817260742 36.5986099243164 36.6267547607422 36.6360549926758 36.6410789489746 36.6418495178223 36.6383171081543 36.6363563537598 36.6368026733398 36.6342391967773 36.6270599365234 36.6193199157715 36.613639831543 36.6110382080078 36.6052284240723 36.600513458252 36.595817565918 36.5853233337402 36.5736999511719 36.5693511962891 36.5715255737305 36.5760650634766 36.5828628540039 36.588939666748 36.5962982177734 36.6047210693359 36.6153831481934 36.6242980957031 36.6240005493164 36.6141700744629 36.6027870178223 36.589786529541 36.5773658752441 36.5721206665039 36.5732002258301 36.581226348877 36.5943336486816 36.6070442199707 36.612434387207 36.6106796264648
-9999 -9999 -9999 35.363956451416 35.7496948242188 36.0685997009277 36.2316551208496 36.291431427002 36.2954902648926 36.2779731750488 36.2512397766113 36.2286148071289 36.2304306030273 36.2371482849121 36.2629089355469 36.3203239440918 36.3675079345703 36.4451789855957 36.5476531982422 36.5898094177246 36.5960273742676 36.5809097290039 36.5587158203125 36.5381927490234 36.5216217041016 36.5104904174805 36.514217376709 36.5263595581055 36.5432739257812 36.5586013793945 36.5778388977051 36.6108360290527 36.6369972229004 36.6471862792969 36.6499443054199 36.6495208740234 36.6471900939941 36.6465339660645 36.6477890014648 36.6458320617676 36.64111328125 36.6375579833984 36.6364097595215 36.6355972290039 36.6335029602051 36.6317367553711 36.6288070678711 36.6215782165527 36.6107635498047 36.601505279541 36.5953712463379 36.590892791748 36.5898551940918 36.5905723571777 36.5944709777832 36.6031684875488 36.6172943115234 36.6298866271973 36.6344184875488 36.6253471374512 36.6098785400391 36.5921325683594 36.5766868591309 36.571174621582 36.5785064697266 36.5946617126465 36.6056976318359 36.6114273071289 36.6113700866699 36.6077690124512
