NCOLS 35 
NROWS 26 
XLLCORNER -80 
YLLCORNER 33 
CELLSIZE 0.5 
NODATA_value -9999 
-9999.000000000000000 -9999 -9999 -9999 -9999 -9999 -9999 -9999 -9999 -9999 -9999 -9999 -9999 -9999 -9999 -9999 -9999 -9999 -9999 -9999 -9999 -9999 -9999 -9999 -9999 -9999 -9999 -9999 -9999 -9999 -9999 -9999 -9999 -9999 -9999
-9999 -9999 -9999 -9999 -9999 -9999 -9999 -9999 -9999 -9999 -9999 -9999 -9999 -9999 -9999 -9999 -9999 -9999 -9999 -9999 -9999 -9999 -9999 -9999 -9999 -9999 -9999 -9999 -9999 27.3055889638057 -9999 -9999 -9999 -9999 -9999
-9999 -9999 -9999 -9999 -9999 -9999 -9999 -9999 -9999 -9999 -9999 -9999 -9999 -9999 -9999 -9999 -9999 -9999 -9999 -9999 -9999 -9999 -9999 -9999 -9999 -9999 28.9927519383176 28.3367875299051 27.8772635419461 27.4190878916219 -9999 -9999 -9999 -9999 -9999
-9999 -9999 -9999 -9999 -9999 -9999 -9999 -9999 -9999 -9999 -9999 -9999 -9999 -9999 -9999 -9999 -9999 -9999 -9999 -9999 -9999 -9999 -9999 30.9777619149809 30.8441282538724 30.7025915086888 29.9578594435781 29.0655775642287 -9999 -9999 -9999 30.6447343706777 30.2896851384956 30.0959259147647 30.141252036401
-9999 -9999 -9999 -9999 -9999 -9999 -9999 -9999 -9999 -9999 -9999 -9999 -9999 -9999 -9999 -9999 -9999 -9999 -9999 -9999 31.1364165217739 31.2460840063163 31.2789350881121 31.3841634534887 31.497745948678 31.4386661938067 30.9363813049947 29.9758319798732 -9999 -9999 31.0137352190221 30.7563109221014 30.4138737196195 30.3388858583426 30.3810747745844
-9999 -9999 -9999 -9999 -9999 -9999 -9999 -9999 -9999 -9999 -9999 -9999 -9999 -9999 -9999 -9999 -9999 -9999 -9999 31.2430659449357 31.3188543663526 31.3719261870878 31.4322228953588 31.5975860584248 31.6144769936405 31.5785702488485 31.2924721988453 30.6728665750287 30.5883743524645 30.8396687280716 31.018964851685 31.0074366369984 30.7665134060303 30.6648174288335 30.7573328146036
-9999 -9999 -9999 -9999 -9999 -9999 -9999 -9999 -9999 -9999 -9999 -9999 -9999 -9999 -9999 -9999 -9999 -9999 -9999 31.3859237878504 31.5076120193638 31.5781484039011 31.6800601355572 31.6989354674284 31.6095669129118 31.6142038254807 31.5921372166744 31.6326042893449 31.6256450054028 31.4497987316586 31.3642279178968 31.2366312157586 31.0738821434549 31.1678612076699 31.5399183030948
-9999 -9999 -9999 -9999 -9999 -9999 -9999 -9999 -9999 -9999 -9999 -9999 -9999 -9999 -9999 -9999 -9999 -9999 -9999 31.4690376165203 31.5117098614972 31.6486932249617 31.7511468459545 31.766881552226 31.7685218181447 31.8757383455281 31.9549560789217 31.9042882233101 31.8345752281577 31.8423600169875 31.8433752437106 31.6458238411666 31.4946011121948 31.7384873993306 31.8762445235136
-9999 -9999 -9999 -9999 -9999 -9999 -9999 -9999 -9999 -9999 -9999 -9999 -9999 -9999 -9999 -9999 -9999 -9999 -9999 31.2563999983262 31.3443253529262 31.6823051200393 31.8533709476342 31.9631007446979 32.0064464559853 32.0442165040118 32.0684743136254 32.0794225867539 32.389021934778 32.7161931134637 32.2509764891569 31.8869732149604 31.8393664195053 32.3095427067221 32.4454727018299
-9999 -9999 -9999 -9999 -9999 -9999 -9999 -9999 -9999 -9999 -9999 -9999 -9999 -9999 -9999 -9999 -9999 30.6769203507728 30.8789645115284 31.0380836172975 31.1714449630633 31.6824600266273 31.9974761028811 32.0532142540179 31.9950198659229 32.0035174973768 32.2589616806296 33.0935861925204 33.832990161988 33.9928359554998 33.2569574064381 33.0220995018431 33.543496652136 34.4045705674994 34.6088816790313
-9999 -9999 -9999 -9999 -9999 -9999 -9999 -9999 -9999 -9999 -9999 -9999 -9999 -9999 30.8316519573676 31.0099961418146 30.9185254979258 30.9820130659339 31.0344972866418 31.0895044477085 31.5078862794825 32.0310738132238 32.2473427032252 32.3310125666557 32.449195938519 32.7207449551844 33.338013047642 34.0790970295301 34.5570654353849 35.0269020697015 34.8225724592577 34.5562620419957 34.8825915523862 35.0922207066908 35.1677975939806
-9999 -9999 -9999 -9999 -9999 -9999 -9999 -9999 -9999 -9999 -9999 -9999 31.0804577349151 31.1766865099877 31.0702715878101 31.027216842004 31.1461210047186 31.468207243019 31.7089645150034 31.8258004296132 32.0847131803071 32.5446361149411 33.2150926531086 33.9892766682679 34.583679222952 34.8308754912806 34.8443031833612 35.0440557498321 35.2246582132119 35.3827289187499 35.4448146247277 35.2272793641463 35.0831994339566 35.0083334776919 35.0188239530566
-9999 -9999 -9999 -9999 -9999 -9999 -9999 -9999 -9999 -9999 -9999 -9999 31.1945646125736 31.2012578432917 31.0056148939371 31.2622023475053 31.9563612248777 33.0079131840084 33.4111995039289 33.5315332555779 33.7985204244759 34.2294680170864 34.9377513972203 35.6831960260565 36.2348490522243 36.2314845307661 35.7459368363215 35.373814549336 35.1491011435019 35.10776159561 35.1854036080557 35.1379063975252 35.1005673097549 35.0565655081977 35.1540052399197
-9999 -9999 -9999 -9999 -9999 -9999 -9999 -9999 -9999 30.5420844224667 31.1397464044415 31.2086484161508 31.1929009296665 31.2803177738572 31.7616473488294 32.5780173705757 33.2240677979541 33.9990582610366 34.5220986003177 34.9052186084659 35.1714984146567 35.3938780318414 35.6039103202288 36.0193759467776 36.457271752154 36.4106157699157 35.995459933738 35.6649753624938 35.4880232924808 35.180190005659 35.0955748585632 35.1296887583039 35.2189884831853 35.3660189911614 35.5411580403702
-9999 -9999 -9999 -9999 -9999 -9999 -9999 -9999 -9999 -9999 31.3790762083602 31.3249503266018 31.5187580215796 32.2994340682159 33.6602912949892 34.0693385959503 34.2350894473798 34.1947256184914 34.451952499894 34.6365562577914 34.9635038813527 35.1455344942665 35.1456606477235 35.2050964858556 35.3471525666705 35.4188524670329 35.4013502011337 35.451871023262 35.4961993473823 35.5022036045411 35.534471743489 35.5877954740622 35.6865731372383 35.7763173390572 35.8246740943513
-9999 -9999 -9999 -9999 -9999 -9999 -9999 11.4447095264929 13.6327888823892 -9999 31.4001567889435 31.7607232215339 32.6958354674055 33.9043686440918 34.5732554818418 34.5477517537446 34.3288575542427 34.1810674117248 34.2214116712059 34.4813783957274 34.6591977508029 34.5836895710743 34.5512963370915 34.7261653330408 35.0919845014765 35.3301362466619 35.5158597749518 35.767976465424 35.9139017365255 35.9375778874956 35.9198487838877 35.8894863212802 35.8484565651009 35.8454949174798 35.8941413048311
-9999 -9999 -9999 -9999 -9999 -9999 -9999 15.2934223465011 19.3527938841937 30.9701053923937 31.3505350447865 32.3310428906516 33.3600630785257 34.2513611466118 34.9376919109441 34.7165970022746 34.3770950418604 34.3505958536439 34.4669799373615 34.6709793335087 34.8432455835323 34.8866170430513 35.0287724559132 35.3496450877888 35.6606561898646 35.8250538344875 35.9409819958204 36.031801380154 36.0755851011379 36.0931506751696 36.0758357526743 36.0398193907623 35.9930230864297 35.9448830434065 35.9764132716255
-9999 -9999 -9999 -9999 -9999 -9999 -9999 21.0544110033418 -9999 31.325789080547 31.9217621559593 32.8868800353185 33.6344814575226 34.4547879967411 35.0909450718986 35.0969033312916 35.0485477860061 35.1483044293064 35.3242001188894 35.5203261997244 35.6581737593058 35.7584749198883 35.8351967959204 35.8922113612452 35.9558121227401 36.0107870119923 36.081807044477 36.1327434093129 36.1471142937024 36.1263352869684 36.0882466109472 36.0508050212293 36.0492992983394 36.046057072262 36.0720053577851
-9999 -9999 -9999 -9999 -9999 -9999 -9999 -9999 31.3977503434365 33.0475768606067 33.3822387692043 34.388680475734 34.9551469811423 35.4126380091128 35.6640328476286 35.7579008915428 35.8001491894259 35.8406843794094 35.8962827249191 35.9479534080194 35.9798490091993 35.9959088522924 36.0028293810811 35.9974051929205 36.0320320061823 36.1179351188897 36.1420101581808 36.1420953940301 36.135113702124 36.1232834628531 36.1004282182015 36.0803043063644 36.0602851300273 36.0327661782262 36.0380294231706
-9999 -9999 -9999 -9999 -9999 -9999 -9999 -9999 -9999 34.6071876871214 34.8539568143673 35.673113107611 35.8566318567044 35.8850091352117 35.9117716183471 35.9282262220489 35.9602410104168 35.99931391038 36.0034586204285 35.9754371528631 35.9879362961533 36.0315268074721 36.0412070170817 36.0491552751213 36.0791515518352 36.1321717245206 36.1425936036663 36.1406195792795 36.1482301630915 36.1277884120457 36.1058164106187 36.0852166783288 36.0473388831956 36.0259979173482 36.0454495433127
-9999 -9999 -9999 -9999 -9999 -9999 -9999 -9999 -9999 35.2029198005437 35.7501656728212 35.8587457081819 35.8847028152311 35.9194935766087 35.9484420113679 35.98302693982 36.0170551207812 36.0049387533805 35.9742825041741 35.9432297397124 35.9389679807837 35.9177371874262 35.9239122315298 35.9764295664973 36.0625039678603 36.1988915259742 36.2375433053852 36.1962466993838 36.1591350663997 36.1371953287385 36.1244935251064 36.1027503789635 36.0780580568733 36.0321344263001 36.0191200420332
-9999 -9999 -9999 -9999 -9999 -9999 -9999 35.3020076457136 35.4942576678329 35.6373256629825 35.8494624511479 35.8689265997623 35.9080786855318 35.9593210899804 35.9876076446726 35.9970344513847 35.9798286751524 35.9231710744363 35.896300574558 35.9005922201624 35.8995395113438 35.8916941040347 35.9299687202791 36.0232977737796 36.1318487353972 36.2373104860487 36.2760003552425 36.2392957935644 36.1876787975527 36.1787483331464 36.1771270007769 36.1553393767571 36.1101815447938 36.0500859313657 36.0215271998623
-9999 -9999 -9999 -9999 -9999 -9999 35.3927012279139 35.5465377149008 35.7531699444036 35.834026105898 35.8608841582488 35.8738935884561 35.9160730593868 35.9759870910374 36.0022450555894 35.9795507072025 35.9325886504731 35.8593697359069 35.8386133732362 35.829791780091 35.8395399420125 35.8938127110338 35.9673014628824 36.0580189797851 36.1521973694402 36.229545498701 36.2861574007999 36.2503590617779 36.2329440466204 36.262886098315 36.3000098193118 36.2932287540745 36.2252368955372 36.1534812328275 36.0928837207125
-9999 -9999 -9999 -9999 35.2891516011994 35.5939530183158 35.7107291092835 35.7584047191511 35.8266404844156 35.8496599763314 35.8596094423656 35.8681747645442 35.897275770387 35.9572217398254 35.9799712348235 35.9795556277252 35.9367039728738 35.8623628974104 35.8273932358597 35.7989128691812 35.8190737292076 35.9135652266963 36.0027488725825 36.0909921191063 36.1710873595863 36.2269100114452 36.2610438025468 36.2599492048941 36.3040769586873 36.3412085876671 36.3678906414507 36.4006597856644 36.3500917732009 36.2515477221719 36.1330611009596
-9999 -9999 -9999 35.5202852727264 35.6267651114626 35.837327751178 35.8523597818488 35.8400962441345 35.8394479759934 35.8441826282809 35.8546014488683 35.8364841216493 35.8545492199608 35.9153389047821 35.9530294504146 35.9537418463282 35.9656505335953 35.9272294727742 35.8855773335157 35.8751263444072 35.902565832717 35.9540497814422 36.0322833177234 36.1463607628625 36.2225931099298 36.2552482852852 36.2473489118611 36.2447895813658 36.2963356885813 36.3488134098528 36.3779464970211 36.4371850608252 36.3696234247338 36.2811352292751 36.1827409765051
-9999 -9999 35.6727177867332 35.8485551922039 35.8528651422065 35.8512959683172 35.8347316401775 35.8305985419188 35.8344846683014 35.8462413331472 35.8295209809725 35.856991002548 35.8779810296832 35.8861423022237 35.9386560091776 35.9174798218177 35.9203989071853 35.9479995721278 35.9564649720113 35.9589494624019 35.9547529486927 35.9821576680361 36.0833174826442 36.1596361159342 36.2216034838764 36.2620478574832 36.2675170057803 36.2580114975335 36.2830012033822 36.3499153131671 36.4035824071547 36.4663236782157 36.406650851449 36.2806527235919 36.2207683727009
