NCOLS 35 
NROWS 26 
XLLCORNER -80 
YLLCORNER 33 
CELLSIZE 0.5 
NODATA_value -9999 
-9999.000000000000000 -9999 -9999 -9999 -9999 -9999 -9999 -9999 -9999 -9999 -9999 -9999 -9999 -9999 -9999 -9999 -9999 -9999 -9999 -9999 -9999 -9999 -9999 -9999 -9999 -9999 -9999 -9999 -9999 -9999 -9999 -9999 -9999 -9999 -9999
-9999 -9999 -9999 -9999 -9999 -9999 -9999 -9999 -9999 -9999 -9999 -9999 -9999 -9999 -9999 -9999 -9999 -9999 -9999 -9999 -9999 -9999 -9999 -9999 -9999 -9999 -9999 -9999 -9999 28.1590828655383 -9999 -9999 -9999 -9999 -9999
-9999 -9999 -9999 -9999 -9999 -9999 -9999 -9999 -9999 -9999 -9999 -9999 -9999 -9999 -9999 -9999 -9999 -9999 -9999 -9999 -9999 -9999 -9999 -9999 -9999 -9999 29.9547843102398 29.1684652892195 28.5470456140121 28.2025788647224 -9999 -9999 -9999 -9999 -9999
-9999 -9999 -9999 -9999 -9999 -9999 -9999 -9999 -9999 -9999 -9999 -9999 -9999 -9999 -9999 -9999 -9999 -9999 -9999 -9999 -9999 -9999 -9999 31.1886286506914 31.2986155865723 31.1334822766332 30.3327352574012 29.273553878318 -9999 -9999 -9999 31.0362596340836 30.8321595594765 30.6791015278234 30.549609939544
-9999 -9999 -9999 -9999 -9999 -9999 -9999 -9999 -9999 -9999 -9999 -9999 -9999 -9999 -9999 -9999 -9999 -9999 -9999 -9999 31.0483490966722 31.1386159204548 31.1751940573012 31.2074249452073 31.2385886166127 31.2026735251762 30.810988440339 30.0049727369876 -9999 -9999 31.1485335859992 31.0844285927665 30.823768282818 30.6641861517887 30.5589518988507
-9999 -9999 -9999 -9999 -9999 -9999 -9999 -9999 -9999 -9999 -9999 -9999 -9999 -9999 -9999 -9999 -9999 -9999 -9999 31.095590649092 31.1460274329564 31.1520472002253 31.1857582368608 31.2084297439878 31.1576873910178 31.1572525954905 31.1307992306483 30.7748432084873 30.6641467272404 30.9039414306807 30.9741893703643 31.0034431257067 30.9637113103318 30.7257173237059 30.6709533368054
-9999 -9999 -9999 -9999 -9999 -9999 -9999 -9999 -9999 -9999 -9999 -9999 -9999 -9999 -9999 -9999 -9999 -9999 -9999 31.1256026984948 31.2047074074272 31.2145262408262 31.2400586536394 31.1870082589101 31.0892738136314 31.1404407105925 31.3500532038031 31.4310089562487 31.333249921771 31.1619898126743 30.9413762164478 30.9757817027718 31.1626174127417 31.399685019739 31.5057100709767
-9999 -9999 -9999 -9999 -9999 -9999 -9999 -9999 -9999 -9999 -9999 -9999 -9999 -9999 -9999 -9999 -9999 -9999 -9999 31.1227836921413 31.2006942181856 31.2430433906928 31.2413975241246 31.1925679626674 31.1209413496548 31.2107856213308 31.3152877587029 31.299810756091 31.1796581234114 30.9595282556207 30.8593838595662 31.0514919740578 31.5648422787815 31.9931000035062 32.2805898088825
-9999 -9999 -9999 -9999 -9999 -9999 -9999 -9999 -9999 -9999 -9999 -9999 -9999 -9999 -9999 -9999 -9999 -9999 -9999 30.9453517518244 31.0676261985302 31.2551358610945 31.23215882009 31.3011768370134 31.3382902675712 31.398148983585 31.4646779766101 31.3374092981432 31.2494441389604 31.332491786996 31.5367018292735 31.3648760492077 31.8365716752647 33.1273131873179 33.7412491548888
-9999 -9999 -9999 -9999 -9999 -9999 -9999 -9999 -9999 -9999 -9999 -9999 -9999 -9999 -9999 -9999 -9999 30.4813113412934 30.5403667483698 30.6657880162761 30.8485251451837 31.2879729361566 31.4932131974587 31.4874548564369 31.471368575595 31.5515312425296 31.5673903811483 31.6046422986654 32.2528302652506 32.9602209702636 33.0147952313043 32.3633428640939 32.7507621105832 34.0415866638359 34.3680051058337
-9999 -9999 -9999 -9999 -9999 -9999 -9999 -9999 -9999 -9999 -9999 -9999 -9999 -9999 30.53034211357 30.7252197101779 30.8700649501872 31.074753886232 31.0965054608495 30.9774220344226 31.1414493372687 31.6423152468558 31.9024355485657 31.9797716515215 31.8964294361498 32.0334045205099 32.4540825703006 33.0874318768567 34.0983646751635 34.294254553467 33.689254424243 33.8754684768706 34.321800184482 34.6319903212145 34.6561929144604
-9999 -9999 -9999 -9999 -9999 -9999 -9999 -9999 -9999 -9999 -9999 -9999 30.6762994853694 30.7022143998198 30.7020530474542 30.9148894583196 31.4375376139615 31.9194413876462 32.1209335789122 32.1183245374541 32.2160438240885 32.7722161907705 33.4502312018921 34.0073314680916 34.0086107422999 33.893278417638 34.3584599704762 34.593495333161 34.4287660791096 34.4218866047588 34.7059399776783 34.6880187577058 34.5810697388078 34.6901980797703 34.8279577849472
-9999 -9999 -9999 -9999 -9999 -9999 -9999 -9999 -9999 -9999 -9999 -9999 30.8354055219304 30.8138186987342 30.8295696099989 31.431455727105 32.3559579978607 32.6302623583649 32.7548878978144 33.2011128416187 33.7393242217044 34.3919811189336 34.8345719052182 35.0463443093798 35.0992668657621 34.9782032320996 35.1239839138815 35.123232199396 34.7562283829119 34.6914346763584 35.1790943925113 35.2244087180252 35.0675188829478 34.9733293255304 35.011053503231
-9999 -9999 -9999 -9999 -9999 -9999 -9999 -9999 -9999 29.800621402527 30.5457309626289 30.7612850165774 30.9784054092121 31.2559612841524 31.980216347119 32.6316312765026 33.263470614407 33.133785602436 32.9789679969552 33.3980696201831 33.9370199264928 34.4680483789747 34.7738829046486 34.9939758336403 35.1263661095821 35.4538216979708 35.6021875000653 35.4801181574303 35.1619902932207 35.0770334367465 35.3284342099386 35.6274103492163 35.6877368650162 35.6556714534838 35.6273724740692
-9999 -9999 -9999 -9999 -9999 -9999 -9999 -9999 -9999 -9999 30.728837925139 31.1624362951138 31.7169187278415 32.58043708325 33.2035029654243 33.3482179448807 33.4740040569637 33.3435205841996 33.3444107990591 33.7075539409268 34.231745726801 34.6994344174466 34.9465350132665 34.995180842565 35.1388694959512 35.6647106201256 35.9305885277302 35.8726043055182 35.3503183985468 35.0508125089211 35.4546912984156 35.8800084366443 35.9818855408593 35.9560171172449 36.0067117218271
-9999 -9999 -9999 -9999 -9999 -9999 -9999 12.2950458584001 14.396335245163 -9999 30.9328298774528 31.9368035393795 32.7466736028851 33.0970629120926 33.1755916260801 33.3626529396037 33.6711515594438 33.7577091083848 34.0412525699995 34.4352213569109 34.7136629836302 34.8887760176542 35.0931406539566 35.1908261542535 35.4398983638332 35.7440465144805 35.9499927742118 36.0883942869961 35.7657939587027 34.8439900339419 34.8647711293492 35.6696573659927 36.082033270474 36.1172872277025 36.1063336101459
-9999 -9999 -9999 -9999 -9999 -9999 -9999 16.3493310928268 19.91848357708 30.2165695854783 31.0249415187698 32.3587000155072 33.2874381145196 33.8998849183427 34.1610968262206 34.4401333210675 34.4249209253351 34.3022404492131 34.5998105437479 34.8171542849202 34.9607143192221 35.2428108211693 35.5502329706806 35.7545674332321 35.9615942910044 36.004879158445 36.0176424337332 36.071034875892 36.090234145308 35.5491759463436 34.9780909467899 35.542956205703 36.0628440835687 36.1497687453611 36.1270631406748
-9999 -9999 -9999 -9999 -9999 -9999 -9999 22.0856941095144 -9999 30.7524849460241 31.1352021796042 32.8988336055873 34.5467571749731 35.0110893540954 35.1498352511551 34.9739432707447 34.8313109857153 34.6789957209347 34.9334003833894 35.1513357087636 35.5456297196923 35.8352464102972 35.9998869138401 36.06319987573 36.0836142030444 36.0834217888729 36.0722396057904 36.0720860607973 36.1037574387993 36.0739012950319 35.9217727029186 35.9669740562886 36.1065852570552 36.1330950362006 36.0727803669483
-9999 -9999 -9999 -9999 -9999 -9999 -9999 -9999 31.2265135196271 31.5355093564134 31.681494147328 33.9686516223836 35.3105620878759 35.402309865389 35.5492459014746 35.4610616462234 35.2792419799299 35.1014634002659 35.3105040892932 35.7276263048034 35.9771783418156 36.0678822736219 36.0992868661924 36.113152930167 36.1187405942449 36.091252372906 36.0775250521119 36.0708708137511 36.0860245522377 36.1043727576819 36.1185889836559 36.1264974603154 36.141494105613 36.1108937086326 36.0485333830213
-9999 -9999 -9999 -9999 -9999 -9999 -9999 -9999 -9999 33.3435175323486 33.0399141511806 34.4023771505787 35.4743713946614 35.8898555791469 36.0242256464676 36.045215492504 36.0144612929677 35.9723477554321 35.9860490838465 36.0357292585405 36.0745210045555 36.0945753100445 36.1228478664665 36.1391909642544 36.1476836725026 36.1458724600039 36.1230850388828 36.093816654778 36.0831172490269 36.0939471693635 36.123026600297 36.1511071168184 36.1466352134704 36.1321198779329 36.1122635242157
-9999 -9999 -9999 -9999 -9999 -9999 -9999 -9999 -9999 34.4651314170422 34.8232044392343 35.630388282319 35.9954481475567 36.0904634808393 36.1223954694728 36.1304676809539 36.1233450445101 36.1074476095217 36.0897478586833 36.094748441884 36.1042851662061 36.0898380874949 36.1131001472311 36.1272660384574 36.1605392236902 36.1796799646416 36.174294891149 36.163267023065 36.14432472084 36.1454189951977 36.1721315232222 36.1714160298476 36.133554021168 36.1354469401007 36.1446457245835
-9999 -9999 -9999 -9999 -9999 -9999 -9999 35.0027161981674 35.2771848926612 35.3985392211045 35.7533525846033 35.9725732691071 36.0955422517905 36.1246691453782 36.1258738658862 36.1326658533961 36.1330412404527 36.1086257178895 36.080083253087 36.0613090025435 36.0331436163949 36.0146272787808 36.0403267827808 36.0851042535059 36.1285728879835 36.1641150298198 36.1579133118683 36.134069368121 36.1649123879223 36.2130272877181 36.237885191838 36.2098828644085 36.1535079080169 36.1402284875993 36.1570086265401
-9999 -9999 -9999 -9999 -9999 -9999 35.3568907141501 35.5026065421857 35.7317719820539 35.7984410879034 35.9034388861132 36.0690071053918 36.1118348766589 36.1243889371684 36.1108637106146 36.1074507150316 36.0972793385188 36.0492791427084 36.0175928475274 35.9898297235042 35.9513655289621 35.926157307232 35.9358603218816 35.9997996443178 36.0540236910418 36.0953085269597 36.0891818322239 36.0796509285529 36.1659057204655 36.2438081932977 36.2312831488479 36.1781293225303 36.1321333744921 36.1303905730891 36.1435813771456
-9999 -9999 -9999 -9999 35.1205299027633 35.5005462277997 35.6705317114606 35.710077423536 35.7757011710222 35.9107177357397 36.0497987461551 36.1030118588695 36.1110746639422 36.1202319942282 36.1153714500709 36.0920600979114 36.0408277813393 36.0114048743076 35.9979836695902 35.982335413201 35.959565910134 35.9424200628639 35.9719889181273 36.0105673873836 36.0268885292838 36.0534094359472 36.0862957779446 36.1396080684365 36.2055420082107 36.2980436962006 36.2773898716972 36.1923056866357 36.1372006946303 36.1267190300599 36.1126048915184
-9999 -9999 -9999 35.2265081567174 35.4285943723246 35.6853594664228 35.6976518994643 35.7723219725084 35.9565233555967 36.0673401294053 36.097071842167 36.1141802878299 36.1149649354762 36.1220625816206 36.1255088430497 36.0867050734127 36.0475198532615 36.0280122489726 36.0238361900429 36.0332854033776 36.0205335104873 36.0562043747014 36.0946807578667 36.0796931956824 36.0752777482231 36.0778114471949 36.1104917295579 36.1716103878134 36.2206284651218 36.2945608702435 36.3415656220323 36.3251318929909 36.2627290856144 36.2093364408932 36.1346450330635
-9999 -9999 35.266638635775 35.5727229127986 35.6414021494499 35.6476884566608 35.7656158935965 35.9659126761889 36.0670631420721 36.0957875924355 36.0990488969411 36.128884033913 36.1567139881059 36.1648120041605 36.1591120862975 36.1577666291801 36.1314695439235 36.1139572310627 36.095735002001 36.0857777124966 36.0805598066548 36.1326521904942 36.1217580873847 36.0808054055333 36.1052757245832 36.141695050211 36.1770672274255 36.2017553943032 36.2144452869971 36.248893250391 36.3250851802201 36.3670787531841 36.3190338776052 36.2592897488687 36.173535165387
