NCOLS 35 
NROWS 26 
XLLCORNER -80 
YLLCORNER 33 
CELLSIZE 0.5 
NODATA_value -9999 
-9999.000000000000000 -9999 -9999 -9999 -9999 -9999 -9999 -9999 -9999 -9999 -9999 -9999 -9999 -9999 -9999 -9999 -9999 -9999 -9999 -9999 -9999 -9999 -9999 -9999 -9999 -9999 -9999 -9999 -9999 -9999 -9999 -9999 -9999 -9999 -9999
-9999 -9999 -9999 -9999 -9999 -9999 -9999 -9999 -9999 -9999 -9999 -9999 -9999 -9999 -9999 -9999 -9999 -9999 -9999 -9999 -9999 -9999 -9999 -9999 -9999 -9999 -9999 -9999 -9999 29.276456621595 -9999 -9999 -9999 -9999 -9999
-9999 -9999 -9999 -9999 -9999 -9999 -9999 -9999 -9999 -9999 -9999 -9999 -9999 -9999 -9999 -9999 -9999 -9999 -9999 -9999 -9999 -9999 -9999 -9999 -9999 -9999 29.3644116939435 28.9664456683536 28.8940666298748 29.0839366965027 -9999 -9999 -9999 -9999 -9999
-9999 -9999 -9999 -9999 -9999 -9999 -9999 -9999 -9999 -9999 -9999 -9999 -9999 -9999 -9999 -9999 -9999 -9999 -9999 -9999 -9999 -9999 -9999 30.4264961319577 30.5552024462031 30.7186545754691 30.6803401583613 30.325491168844 -9999 -9999 -9999 30.5902180664738 30.6154432888679 30.7200025848772 30.8903529496532
-9999 -9999 -9999 -9999 -9999 -9999 -9999 -9999 -9999 -9999 -9999 -9999 -9999 -9999 -9999 -9999 -9999 -9999 -9999 -9999 30.5801641560705 30.6214219024161 30.5234122522952 30.3693227561474 30.612620520776 30.9599166469159 31.0036808467854 30.8271769126519 -9999 -9999 30.8989791968907 30.7293479554111 31.0089988533383 31.3298444733148 31.4721370678827
-9999 -9999 -9999 -9999 -9999 -9999 -9999 -9999 -9999 -9999 -9999 -9999 -9999 -9999 -9999 -9999 -9999 -9999 -9999 30.8946028764405 30.9519053356235 30.7749610287144 30.7190561512714 31.0257129354685 31.0281146549663 31.2750606715174 31.3374045224995 31.1642390925527 30.9371195859702 30.9434420700234 30.9869180638215 30.8855387520446 30.9382240018633 31.4782263864993 31.9032619723624
-9999 -9999 -9999 -9999 -9999 -9999 -9999 -9999 -9999 -9999 -9999 -9999 -9999 -9999 -9999 -9999 -9999 -9999 -9999 30.9006894453876 31.2116237561862 31.3013061979323 31.6571871230964 31.9144874031911 31.701023805432 31.6617997080535 31.7270084676769 31.5539620143069 31.2187462356777 31.2463235978937 31.6482320855888 31.5745796391629 31.3814157680262 31.8075347636576 32.3188062427624
-9999 -9999 -9999 -9999 -9999 -9999 -9999 -9999 -9999 -9999 -9999 -9999 -9999 -9999 -9999 -9999 -9999 -9999 -9999 30.7267660509161 31.0750641126401 31.5328053762322 32.0556750882038 32.1556226633481 32.0412672864789 32.0561410689526 32.0716247051481 31.7069425960082 31.5771382734337 32.1798132168743 33.1413111717418 33.1650829442447 32.5973786308983 32.5288475270674 32.7666815913379
-9999 -9999 -9999 -9999 -9999 -9999 -9999 -9999 -9999 -9999 -9999 -9999 -9999 -9999 -9999 -9999 -9999 -9999 -9999 30.9693735389053 31.1318059353888 31.5842774153606 32.1167014558038 32.4230088654462 32.5291059135368 32.399203662096 32.2312411886166 31.8801136735561 32.3754434893096 33.6701964776601 34.2431962111794 34.3315870854591 34.5472627962473 34.8792840810893 34.969318768142
-9999 -9999 -9999 -9999 -9999 -9999 -9999 -9999 -9999 -9999 -9999 -9999 -9999 -9999 -9999 -9999 -9999 31.2248992288929 31.5446686736443 31.6435814076782 31.4972826514239 31.5296015940863 32.0316305473001 32.4663025517299 32.6443150708604 32.4387591596333 32.1924831591825 32.6304875245983 34.0850818809414 34.7865343534108 35.2145145206762 35.5201120402764 35.7883463832767 35.8887035852328 35.7730568971186
-9999 -9999 -9999 -9999 -9999 -9999 -9999 -9999 -9999 -9999 -9999 -9999 -9999 -9999 30.2680268863573 30.3761599304971 30.8067289793535 31.732289774213 31.9837187290687 31.9355587960262 31.8776085144211 31.9797347100396 32.3632151451379 32.474325358104 32.4391217879407 32.4986830309879 32.8044047763485 33.7009462302135 34.6718521011711 35.287484173472 35.4414908491686 35.5591056618716 35.7301825378377 35.9086580247687 35.8823527196366
-9999 -9999 -9999 -9999 -9999 -9999 -9999 -9999 -9999 -9999 -9999 -9999 30.5299193747169 30.9637635915568 31.5513572333668 31.7210279197109 32.0333324056074 32.3921389182585 32.6322807694084 32.7876913341009 32.7255862854247 33.0807629493672 33.5201701346248 33.7996145405398 33.6290066944905 33.853058921848 34.3156994257841 34.5906160224661 34.8707789789725 35.3864222137628 35.5010103938709 35.5778434350829 35.7103481762279 35.9007031935116 35.993209586047
-9999 -9999 -9999 -9999 -9999 -9999 -9999 -9999 -9999 -9999 -9999 -9999 30.9676369067938 31.4692554833912 32.1392793375098 32.6445886656085 33.1947575397714 33.6901316912057 34.1516776511481 34.3595288359949 34.3025295098028 34.8605828509424 35.3229923438475 35.5148800409198 35.2964278460208 35.0352165565619 35.2033101321921 35.0849596074342 34.7869235039797 35.3711651671035 35.6167603432064 35.8063244817019 36.028304944954 36.2091457599047 36.298914231652
-9999 -9999 -9999 -9999 -9999 -9999 -9999 -9999 -9999 29.6275809950343 30.8884103841484 31.361911277296 31.5871589891203 31.9628743040652 32.6996025863574 33.7150333796609 34.1734574932833 34.4338289844603 34.8552636947473 35.1110248975689 35.2157469533323 35.3374617366197 35.4774665014012 35.597805868456 35.6866907790495 35.5856957134164 35.4150633908518 35.1500689290343 35.184143220445 35.470501791201 35.8594081248381 36.1571575944275 36.3664006969656 36.4976012218959 36.5613162044461
-9999 -9999 -9999 -9999 -9999 -9999 -9999 -9999 -9999 -9999 31.5489604115867 31.9749521094847 32.3108595958317 33.1744675415107 34.8296122946256 35.2587780623851 35.221653097843 34.7593314714157 34.8809185116006 35.2589308615192 35.3487632893305 35.3523721627683 35.4311563938146 35.580930444692 35.6839930179368 35.7468798944832 35.7158070562204 35.6190560796343 35.7585526890992 36.0652887422739 36.3277125810769 36.4814737752739 36.5981840609425 36.6616162838014 36.7132981118589
-9999 -9999 -9999 -9999 -9999 -9999 -9999 11.518389040545 13.7160411593782 -9999 31.9684848670862 32.6467396396668 33.6309025418587 34.6743356062498 35.2307844478224 35.389215019575 35.3609468725745 35.1749555862853 35.2356739543805 35.3541692361422 35.4133319530661 35.5516744396994 35.7798260983692 35.9839604614506 36.0702086613651 36.0930511915362 36.1427557984769 36.2107576067191 36.3278673655909 36.4348643273904 36.4864806459583 36.5795980794192 36.6624541302402 36.6950589788967 36.7100094050855
-9999 -9999 -9999 -9999 -9999 -9999 -9999 14.2741320419735 18.4087750425763 30.5368672399774 32.2714026992387 33.5637074391024 34.5102627724706 34.8343380059959 35.1871650800791 35.3666179735865 35.6480737384218 35.8551212776825 35.9845247131412 36.0497214598745 36.1054756925889 36.1961184840829 36.2824810942002 36.3498903496971 36.3956433314973 36.4333187251929 36.4655535701239 36.5170944160825 36.5433019573495 36.5518596384982 36.5497213400177 36.6121575634852 36.6542693946672 36.6781353077169 36.6855559081063
-9999 -9999 -9999 -9999 -9999 -9999 -9999 18.7829056430869 -9999 30.0310719229389 32.5877394167019 33.8892615110583 34.4269641442378 34.8220177306835 35.4789268020172 35.9294492885409 36.2086048847216 36.3429510121162 36.4283601059488 36.4738389765338 36.477351744167 36.4777321054052 36.472384638765 36.4702865482531 36.505176750337 36.5291854470837 36.5371138607142 36.5754159650806 36.6154544519021 36.6149066681333 36.6129410816113 36.6157209891611 36.648037441257 36.7027009411023 36.6735119252441
-9999 -9999 -9999 -9999 -9999 -9999 -9999 -9999 29.5710778023724 30.5255024212682 32.292109479728 34.0840666327547 35.1478453101918 35.7888302364694 36.1590735491335 36.3188678609382 36.3905058858611 36.4673911264682 36.5563677589328 36.5991807109483 36.5621305965719 36.5108407925184 36.5071981488408 36.5037060707448 36.5310529813239 36.5664721785066 36.6032526836509 36.639998248791 36.6648923056067 36.6755223451333 36.670684611382 36.6728151011484 36.6872771010632 36.715435459235 36.6951223862983
-9999 -9999 -9999 -9999 -9999 -9999 -9999 -9999 -9999 32.1166585420844 33.5045064539798 35.5409894641728 36.0848117761846 36.2565307441503 36.3614510427852 36.4067648907346 36.4535778601856 36.5393175720982 36.6097193961676 36.607154202094 36.5178284781256 36.4746132398381 36.4906449093164 36.5293433907665 36.5719145141132 36.6174803403158 36.6495900325286 36.6676543568101 36.6738592929553 36.676048219966 36.7057854730109 36.7074807849303 36.7063612439297 36.7251753120731 36.7106629237517
-9999 -9999 -9999 -9999 -9999 -9999 -9999 -9999 -9999 34.3222320259692 35.3116918052902 36.0772883787236 36.2603630962485 36.3394412131627 36.4016726768831 36.4556010951659 36.5015658713972 36.5586216092095 36.6008018286822 36.5712730593132 36.5097296840167 36.5103761089739 36.5464985840786 36.5928283858295 36.6218221274958 36.6225208014827 36.6219121953307 36.6299725092882 36.6485888577346 36.6634980926552 36.6660702690954 36.6734679155413 36.6756884852158 36.6938521160564 36.7241960475567
-9999 -9999 -9999 -9999 -9999 -9999 -9999 34.9754235857178 35.3744523162081 35.6335301072538 36.0663036819218 36.2410185050686 36.3466522365757 36.378955556993 36.4478850393852 36.4917188549931 36.5062245346084 36.5346077679141 36.5501147430559 36.5446459831152 36.5420662890606 36.5647886970371 36.5971009691033 36.6125759004809 36.612822679185 36.6116995577931 36.6219595520085 36.6116158471985 36.6077883257444 36.6101937624637 36.6145403977269 36.644350468606 36.6692714219542 36.6755399855025 36.7072559969922
-9999 -9999 -9999 -9999 -9999 -9999 34.9890217368733 35.3485301450659 35.841653546659 36.0757706174555 36.1975491891228 36.3146819649874 36.3982292888891 36.4294427886388 36.4870272519139 36.5129420006134 36.5136055400824 36.5170978435459 36.5177747105486 36.5427138529284 36.5599201617255 36.58272742189 36.596360918725 36.5948198614378 36.5965684177598 36.6048412478609 36.6225557602676 36.6143976261031 36.6051451518487 36.613532302274 36.6084582345269 36.6469371986862 36.6679318203662 36.6673937153247 36.6794112537308
-9999 -9999 -9999 -9999 34.6336711566286 35.2512461958701 35.6743830157719 35.8740876007302 36.0631193283286 36.1748634342116 36.2660536741061 36.3577801879316 36.4063547246506 36.4675709039646 36.4966906314039 36.5149601433623 36.5330121274343 36.5451842625482 36.5459977585702 36.5637623079176 36.5728556512857 36.5778474102774 36.5781527778121 36.5794448094281 36.5720569369541 36.5736278232336 36.6046359032316 36.5841764407185 36.5780671274477 36.6087729078596 36.593547407278 36.5996969499809 36.5922535029658 36.6013303878022 36.6208181771943
-9999 -9999 -9999 34.8694848009998 35.2055077076789 35.7843882332118 36.0242514027481 36.0887890891905 36.1504836390974 36.2626091284209 36.3481124432886 36.3765404670344 36.4111216152158 36.4568180110044 36.4860960644462 36.5257183311163 36.5664405881602 36.5778095820818 36.5859317325761 36.5776190634116 36.5640140956816 36.5473719554039 36.5310887020654 36.5251992951126 36.527627508701 36.5529747928822 36.5632055000603 36.5319344068527 36.5512421920395 36.5750595142562 36.5602369626342 36.5355973470159 36.5150652504504 36.5170723636088 36.5339625127212
-9999 -9999 35.1763621183327 35.7592801430466 35.9196008038947 35.9959506499063 36.0868362184905 36.12816448929 36.2476439627982 36.3673131427148 36.3967621870052 36.3994146157228 36.4218571884189 36.4587388500134 36.4905499591908 36.5321589613745 36.5606286552943 36.5690830021115 36.5777719061435 36.5684972291704 36.5415973926204 36.5206710277667 36.5080789230845 36.5070715097706 36.5140192067401 36.5197654315784 36.5133952132227 36.5107164869403 36.5188111372393 36.5248299071231 36.5178506533441 36.5038099483729 36.484642109668 36.4858593098988 36.494466010481
