NCOLS 35 
NROWS 26 
XLLCORNER -80 
YLLCORNER 33 
CELLSIZE 0.5 
NODATA_value -9999 
-9999.000000000000000 -9999 -9999 -9999 -9999 -9999 -9999 -9999 -9999 -9999 -9999 -9999 -9999 -9999 -9999 -9999 -9999 -9999 -9999 -9999 -9999 -9999 -9999 -9999 -9999 -9999 -9999 -9999 -9999 -9999 -9999 -9999 -9999 -9999 -9999
-9999 -9999 -9999 -9999 -9999 -9999 -9999 -9999 -9999 -9999 -9999 -9999 -9999 -9999 -9999 -9999 -9999 -9999 -9999 -9999 -9999 -9999 -9999 -9999 -9999 -9999 -9999 -9999 -9999 29.0331275525489 -9999 -9999 -9999 -9999 -9999
-9999 -9999 -9999 -9999 -9999 -9999 -9999 -9999 -9999 -9999 -9999 -9999 -9999 -9999 -9999 -9999 -9999 -9999 -9999 -9999 -9999 -9999 -9999 -9999 -9999 -9999 30.0819286657191 29.677616523722 29.2187766618113 28.9925509433974 -9999 -9999 -9999 -9999 -9999
-9999 -9999 -9999 -9999 -9999 -9999 -9999 -9999 -9999 -9999 -9999 -9999 -9999 -9999 -9999 -9999 -9999 -9999 -9999 -9999 -9999 -9999 -9999 31.2719155049806 31.3157879642273 31.1943730946525 30.8379577422866 30.3573209496479 -9999 -9999 -9999 31.2909558374722 31.1758541374809 30.9412068389439 30.7888569722491
-9999 -9999 -9999 -9999 -9999 -9999 -9999 -9999 -9999 -9999 -9999 -9999 -9999 -9999 -9999 -9999 -9999 -9999 -9999 -9999 31.1392025144038 31.2012932425739 31.1636549488658 31.0981325048211 31.2398409084342 31.3031754479163 31.1037365594051 30.5950830185561 -9999 -9999 31.0930131317392 31.200990990716 31.1038794302979 30.977320400408 30.8524429658767
-9999 -9999 -9999 -9999 -9999 -9999 -9999 -9999 -9999 -9999 -9999 -9999 -9999 -9999 -9999 -9999 -9999 -9999 -9999 31.1940837309149 31.1581166851645 31.0963690639051 30.9917449624959 30.9316867332358 31.1355476115698 31.2961758594197 31.1827074295819 30.8245670025155 30.5821025680397 30.7032592502899 30.9745361505103 31.0676784656114 31.0674864833941 30.9858880688228 30.9600152854214
-9999 -9999 -9999 -9999 -9999 -9999 -9999 -9999 -9999 -9999 -9999 -9999 -9999 -9999 -9999 -9999 -9999 -9999 -9999 31.0881536622606 31.2627367487401 31.2936580327558 31.2480545903104 31.3243718606638 31.4429719852433 31.5907409687085 31.6716926752717 31.5562127107808 31.346176620659 31.282362277891 31.2601193592958 31.1711641300321 31.2486122070758 31.4692578041394 31.8105622869906
-9999 -9999 -9999 -9999 -9999 -9999 -9999 -9999 -9999 -9999 -9999 -9999 -9999 -9999 -9999 -9999 -9999 -9999 -9999 31.1801589500863 31.5270427365477 31.6356944460495 31.7978053206496 31.8345226155889 31.9115890221169 32.0476579227235 32.1039580665105 32.0593322117404 31.9328659768998 32.3604775945963 32.8211932163239 32.3469061677144 31.9915226996201 32.5731884395698 33.1627795278842
-9999 -9999 -9999 -9999 -9999 -9999 -9999 -9999 -9999 -9999 -9999 -9999 -9999 -9999 -9999 -9999 -9999 -9999 -9999 31.5192565762527 31.8206774765322 31.7471442877693 31.9974937097135 32.1327081376656 32.2591009040575 32.3710431213477 32.3941334148639 32.4960459111596 33.7840008391521 35.5484265432159 36.1587575812795 35.2611960204129 33.2350063158913 32.9369563845338 33.5626039179717
-9999 -9999 -9999 -9999 -9999 -9999 -9999 -9999 -9999 -9999 -9999 -9999 -9999 -9999 -9999 -9999 -9999 31.0681519643404 31.40194467837 31.7196218567362 31.9209062288432 31.925324772727 31.9690807694895 32.1292957403795 32.3896710882912 32.4951046492302 32.7330052223877 34.3382520086519 36.1197434270995 37.1009175114772 37.295436667362 36.4419185473727 34.4341888546993 33.8415683690142 34.2903526379479
-9999 -9999 -9999 -9999 -9999 -9999 -9999 -9999 -9999 -9999 -9999 -9999 -9999 -9999 31.388015156433 31.5871997747694 31.49231220923 31.559870196515 31.5563234212012 31.4584120275926 31.682981592649 31.9543347274353 32.148497711522 32.3549679022917 32.5884649778309 33.025196214326 34.0574439914662 35.1993973708642 35.6479892511143 36.2430690967066 36.3370299557923 35.7405246221483 35.2838778837111 35.3561281448118 35.686783517757
-9999 -9999 -9999 -9999 -9999 -9999 -9999 -9999 -9999 -9999 -9999 -9999 32.0423656073334 31.9753801520371 31.7305140557469 31.6047535510409 31.696157075743 32.055077005907 32.4053478174436 32.4268682737122 32.4125292868662 32.6530051231932 33.2350112323897 33.8796491169304 34.4093380590445 34.946678691726 35.258768503049 35.2632109369194 35.1831619209141 35.2052872781864 35.3384150798544 35.4591376171917 35.5309780247716 35.6073563254366 35.7246731688281
-9999 -9999 -9999 -9999 -9999 -9999 -9999 -9999 -9999 -9999 -9999 -9999 32.4148327426819 32.2501169363444 31.9290776975537 31.807468533797 32.1986595165881 32.75071938467 33.2883769778954 33.6760764553996 33.8196363689689 34.0238531212941 34.3390060103488 34.655277506739 35.041604865351 35.2987147354347 35.3669273333448 35.4894099100124 35.494639977648 35.2621392610149 35.1451716942506 35.1692210644569 35.2508336422996 35.2955462903691 35.4221320370341
-9999 -9999 -9999 -9999 -9999 -9999 -9999 -9999 -9999 31.9524190898817 32.4013699410191 32.6288735247199 32.6024565084285 32.4644603834016 32.1734825941047 32.4456735391101 32.8366864668561 33.4332133566287 33.7572193325889 33.6905578852084 34.093889245083 34.3329031093187 34.5636420534383 34.9364800846539 35.1597746561422 35.2087283548226 35.3676592020796 35.50235983248 35.5176649816761 35.3728319150395 35.1924509717697 35.211904270551 35.3212355978333 35.2556941743836 35.2033254612034
-9999 -9999 -9999 -9999 -9999 -9999 -9999 -9999 -9999 -9999 32.8981179914801 32.7229758381029 32.6585523794231 32.5751019125509 32.8094915706494 33.1898888099462 33.5671304876836 33.7628441058329 33.7556410923547 34.242627685556 34.2577697599353 34.5019333080648 35.1544895653109 35.3131581505833 35.1413652245313 35.0941081577797 35.1940521216788 35.2506912047025 35.2251986779043 35.2166550875874 35.1886989913399 35.2288056464505 35.3320301958458 35.3981285948369 35.4479332971227
-9999 -9999 -9999 -9999 -9999 -9999 -9999 11.2588274089922 13.9041478230705 -9999 32.9312275223798 32.6378287755217 32.8688557298578 33.3276107540013 33.4795367313827 33.7777198253935 34.1722660694551 34.40210410181 34.4127092704283 34.5829269289501 34.4653865103121 34.7656659804323 35.1296364650057 35.0737970393691 34.9872182146672 35.2134939092807 35.6068463913269 35.8567291134927 35.9484398073278 35.968153371982 35.9185182560227 35.8470034480725 35.8152559750179 35.8488050502591 35.8972695513185
-9999 -9999 -9999 -9999 -9999 -9999 -9999 15.8933187708164 19.999160152657 32.4767011815034 32.6066154528464 32.6325394496604 33.4302481715434 33.9967088670324 33.9759460411451 34.4710754958414 35.0709529302657 35.2939433106909 35.3652803278661 35.3462804549883 35.2382463682614 35.1200661958111 35.1566876961676 35.1908707823753 35.3176567935115 35.7543671043701 36.1270482141053 36.2269700584571 36.2469878262476 36.2493463986096 36.2423363895512 36.2264382730946 36.2053287462082 36.1836961669481 36.1537841266862
-9999 -9999 -9999 -9999 -9999 -9999 -9999 24.201300862464 -9999 33.1922217098698 32.6684310599545 32.8184123630357 33.7499457227557 34.1272907864714 34.7101607331449 35.4922597015952 35.8774137677273 36.0461681328069 36.1417056626034 36.1737494402017 36.1303479947379 36.0082937302588 35.8627703027431 35.8049294370372 35.9249340113482 36.1323065318196 36.2561059721089 36.3281705961593 36.3681882163692 36.3494666602244 36.3162216673869 36.2882796847763 36.2839373368606 36.2647663939873 36.2293822548586
-9999 -9999 -9999 -9999 -9999 -9999 -9999 -9999 34.3183224762442 34.4072875532608 33.6869801902848 33.2165499126054 33.9547932691954 34.9085675031058 35.8065740211572 36.1240787497214 36.2291373018992 36.2665843581193 36.2796492622573 36.287425379806 36.2885236946802 36.2736453364423 36.2517202677877 36.2485503819801 36.2823779496872 36.3475013916314 36.433480223779 36.4972104535107 36.5180444324643 36.4970976195385 36.433237810228 36.3733973194656 36.3584966780206 36.2947851511048 36.2392211660831
-9999 -9999 -9999 -9999 -9999 -9999 -9999 -9999 -9999 35.1549956815887 35.2471752349734 35.5822724797119 35.9035523210652 36.1810187264676 36.2486350477035 36.2661649318476 36.3200055118235 36.3384484051354 36.3554560216676 36.3835919074847 36.3900256626941 36.3742463551302 36.3605323833334 36.3919473347579 36.450564497441 36.5072746543842 36.5070138693612 36.5384415164856 36.5564299804723 36.544993020824 36.531279031588 36.4756499797627 36.4025711069229 36.2790334014195 36.28038041867
-9999 -9999 -9999 -9999 -9999 -9999 -9999 -9999 -9999 35.7001024406451 35.8556365709766 36.130431777772 36.2392300345607 36.2445333372287 36.247171075476 36.3218871825056 36.367545805099 36.4063090340822 36.4412680215327 36.4753949858784 36.4874857660242 36.4879940917079 36.4884887665629 36.5373413463543 36.571583214565 36.5645808975123 36.5184619766495 36.477965830236 36.4824709015026 36.4901303699301 36.519094061261 36.4863082546119 36.3776185833505 36.2490802839146 36.3111987432958
-9999 -9999 -9999 -9999 -9999 -9999 -9999 35.7595271025141 35.9438838605832 36.0081530539574 36.1744912438851 36.2528901810972 36.2472694483698 36.2339755695568 36.2886036518334 36.3528648244825 36.3920855936667 36.4124972487671 36.4242071136464 36.4324048199212 36.4453819595333 36.4749099401162 36.5257278676474 36.5835726517958 36.6218766006876 36.6206939688731 36.5896187414469 36.5330805546277 36.4685987405334 36.4390998269862 36.4423862277677 36.4124937743522 36.3065069886301 36.270510864179 36.3401053562945
-9999 -9999 -9999 -9999 -9999 -9999 35.8623345977082 35.9411858090708 36.0566244381728 36.2023153150485 36.2619549349939 36.2481392527185 36.2609566980256 36.2419588521135 36.3055279950912 36.313912174154 36.3430954552153 36.3664648193723 36.3938188209774 36.4084940587482 36.4110629794335 36.4267070088415 36.467676068736 36.5544277757633 36.6362784449312 36.6354643117096 36.6012664236894 36.5728199466418 36.5456721025986 36.4894614417642 36.425417035045 36.3571542794616 36.2927959881958 36.3352763716297 36.4316077448696
-9999 -9999 -9999 -9999 35.7331592495292 35.921713352802 35.9777059817934 36.0559963436267 36.2131015261722 36.2764807179227 36.2259845990186 36.2655077791312 36.3085105388364 36.2683493541922 36.3022775283455 36.3063998089664 36.3030057992499 36.3336898652392 36.3478675359394 36.3523235160036 36.3496360895985 36.358849015889 36.3881105853114 36.4243492467291 36.5651299020215 36.6115987689065 36.5911214580959 36.5732477289485 36.5591370916513 36.535993430317 36.4780756123572 36.4141155185539 36.3988138223092 36.4774823660704 36.5871077401973
-9999 -9999 -9999 35.7428841161023 35.9333187793175 36.0493758159561 36.1339901957294 36.2389451861961 36.2818886541386 36.2416034409306 36.2220212869658 36.2977053512364 36.3600786703547 36.3731934008221 36.3390232504379 36.3264735926426 36.3132257773274 36.3214170579469 36.3342513964228 36.3371829279764 36.3328998906039 36.3367168734466 36.3608209811149 36.3687096308044 36.4776368004599 36.5450666556153 36.5263042985709 36.5503266515122 36.535710484161 36.5369116001312 36.5741315651042 36.6053854029454 36.6074709439779 36.6207581382313 36.6340455980963
-9999 -9999 35.8111282707928 35.9617786040209 36.0262588137135 36.1185727283575 36.2391823539172 36.2835967670636 36.2632926229707 36.2445068806993 36.3085686950421 36.3561529510689 36.3928922555548 36.4213855573861 36.4170130471221 36.3495586919756 36.3427368855344 36.4193162810423 36.4731965250194 36.4557202508293 36.4436472572732 36.4539611330908 36.4345832626502 36.3884289892802 36.4911188262191 36.4933554828372 36.5077858018562 36.5761081684728 36.5830148478949 36.5794704758299 36.6241734988311 36.6433942063262 36.6339765913866 36.6233112664264 36.638063846149
