NCOLS 35 
NROWS 26 
XLLCORNER -80 
YLLCORNER 33 
CELLSIZE 0.5 
NODATA_value -9999 
-9999.000000000000000 -9999 -9999 -9999 -9999 -9999 -9999 -9999 -9999 -9999 -9999 -9999 -9999 -9999 -9999 -9999 -9999 -9999 -9999 -9999 -9999 -9999 -9999 -9999 -9999 -9999 -9999 -9999 -9999 -9999 -9999 -9999 -9999 -9999 -9999
-9999 -9999 -9999 -9999 -9999 -9999 -9999 -9999 -9999 -9999 -9999 -9999 -9999 -9999 -9999 -9999 -9999 -9999 -9999 -9999 -9999 -9999 -9999 -9999 -9999 -9999 -9999 -9999 -9999 29.9860476945895 -9999 -9999 -9999 -9999 -9999
-9999 -9999 -9999 -9999 -9999 -9999 -9999 -9999 -9999 -9999 -9999 -9999 -9999 -9999 -9999 -9999 -9999 -9999 -9999 -9999 -9999 -9999 -9999 -9999 -9999 -9999 31.5219568610754 31.125515683517 30.6077381491771 30.0292661454967 -9999 -9999 -9999 -9999 -9999
-9999 -9999 -9999 -9999 -9999 -9999 -9999 -9999 -9999 -9999 -9999 -9999 -9999 -9999 -9999 -9999 -9999 -9999 -9999 -9999 -9999 -9999 -9999 32.2141313189686 32.3693047029094 32.3839213553095 32.0894582322438 31.5055554108843 -9999 -9999 -9999 31.7420462379715 31.6412452201375 31.4990232965312 31.3850032999126
-9999 -9999 -9999 -9999 -9999 -9999 -9999 -9999 -9999 -9999 -9999 -9999 -9999 -9999 -9999 -9999 -9999 -9999 -9999 -9999 31.9730369024027 32.0514089945878 32.1264896649288 32.2592158236436 32.3806487088418 32.507268484651 32.4258198643144 32.07910393029 -9999 -9999 32.006683355553 31.8099744685151 31.6848329688476 31.4539653680824 31.3723652994749
-9999 -9999 -9999 -9999 -9999 -9999 -9999 -9999 -9999 -9999 -9999 -9999 -9999 -9999 -9999 -9999 -9999 -9999 -9999 32.0147883918901 32.0731771099549 32.1216211320884 32.2116328142217 32.4402770429754 32.4716293060278 32.4751799890522 32.4424490526709 32.3315075205371 32.2648730823728 32.2280109593317 32.0979114670997 31.8321647703052 31.6323891036702 31.3226044995741 31.3459449268182
-9999 -9999 -9999 -9999 -9999 -9999 -9999 -9999 -9999 -9999 -9999 -9999 -9999 -9999 -9999 -9999 -9999 -9999 -9999 32.1008046647225 32.1555722575023 32.167919610446 32.2320599257733 32.3483914787519 32.460076510191 32.4882582435289 32.562245835506 32.6032780935323 32.5104405087664 32.4690194100514 32.4915794944359 32.4779420456216 32.4775250058302 32.3467689229591 32.2715148825965
-9999 -9999 -9999 -9999 -9999 -9999 -9999 -9999 -9999 -9999 -9999 -9999 -9999 -9999 -9999 -9999 -9999 -9999 -9999 32.1940901812436 32.2799765093249 32.2282214283876 32.2348559645353 32.2845686176307 32.4165976255186 32.480284388844 32.5561297799921 32.6700624520297 32.732083877307 32.8410033576397 33.1813474183034 33.2075171474726 33.3917550749667 33.5255732858068 33.5298992073863
-9999 -9999 -9999 -9999 -9999 -9999 -9999 -9999 -9999 -9999 -9999 -9999 -9999 -9999 -9999 -9999 -9999 -9999 -9999 32.124867385652 32.3322293900758 32.4309597742364 32.510887008645 32.5843866586198 32.5712543883937 32.5686263704593 32.6340495900206 32.8978233490215 33.7063753603605 34.1550116219015 34.0221828908943 33.5989895806774 33.9259190165485 33.8485199864384 33.8230662268668
-9999 -9999 -9999 -9999 -9999 -9999 -9999 -9999 -9999 -9999 -9999 -9999 -9999 -9999 -9999 -9999 -9999 32.0244343800291 32.1432901191477 32.1807893022828 32.3351961421022 32.8036111341261 32.9165142122654 32.6743992569792 32.6216309069361 32.748942373024 33.2910446028184 34.5395967881392 34.9567498709418 34.610675838726 34.2655803211432 34.1407974403323 34.7763834907022 35.1411607746646 34.9423655986523
-9999 -9999 -9999 -9999 -9999 -9999 -9999 -9999 -9999 -9999 -9999 -9999 -9999 -9999 31.8344472550885 32.2013983022733 32.4964327852489 32.7769442215476 32.6914362557932 32.4494020155925 32.5619498623062 33.0071331590778 33.2451492800072 33.3300744804029 33.4024559295086 33.8638864624116 34.4713103327533 34.9473695100473 35.2265768226929 35.1223819268933 35.1370545367186 35.1195850376375 35.3991713459018 35.5982242778912 35.7110346830552
-9999 -9999 -9999 -9999 -9999 -9999 -9999 -9999 -9999 -9999 -9999 -9999 32.0245310144135 32.1613234015218 32.3106191140017 32.7153102297538 33.5115163758425 34.1715606612741 34.1490616715918 33.7940693246902 33.8670624277745 34.2720698118705 34.8080858231923 35.3459996431157 35.5838560697402 35.9086903636569 36.0619042798204 35.6886432580394 35.4683984904082 35.553810375846 35.514986802044 35.4047288429362 35.3746552973808 35.5876802871465 35.813655287917
-9999 -9999 -9999 -9999 -9999 -9999 -9999 -9999 -9999 -9999 -9999 -9999 32.1529178640793 32.1903145621942 32.4946991393987 33.5460809997602 34.6127525931108 35.1132262197896 35.2395720976777 35.227037233646 35.353435174099 35.5213885859287 35.6037586063464 35.6288195410547 35.7774167861345 36.193391629105 36.3716291950778 36.1153671426013 35.7298684721923 35.6440365729176 35.6911402154088 35.6383907492803 35.5234812099384 35.6127751155101 35.8497251692335
-9999 -9999 -9999 -9999 -9999 -9999 -9999 -9999 -9999 32.0229553964017 32.2328872604301 32.2498236206025 32.2612076913385 32.4276798755743 33.3949080796788 34.4771424574699 34.9555186523187 35.285856046542 35.4445025498282 35.4755336910876 35.4858220735534 35.4735303005166 35.4855612643839 35.5552494396039 35.620282906275 35.7381816189213 35.8408327852196 35.8276300098585 35.7479129440158 35.7174791646823 35.7021735553609 35.7162909536817 35.7512746309417 35.910833364 36.0364984457111
-9999 -9999 -9999 -9999 -9999 -9999 -9999 -9999 -9999 -9999 32.4086362478736 32.3626824234273 32.4273635361323 33.4251551635399 34.6025123842798 34.9450467898912 35.1053857987354 35.2662541018269 35.4479730744784 35.4326015156643 35.4518426108651 35.4700683344638 35.5325156411807 35.558393665717 35.5770384694874 35.6746524303737 35.8211715044733 35.8972294828631 35.9418094834052 35.9883731575489 36.0350944507389 36.061121742311 36.0526077193992 36.0724980056745 36.1355689765772
-9999 -9999 -9999 -9999 -9999 -9999 -9999 14.3968761404682 16.5119669562167 -9999 32.4770793953481 32.5809815066291 33.3909453954353 34.5673802891364 35.088718157057 35.2445425970062 35.3759266206789 35.449467184237 35.5813913184532 35.6636620336534 35.6477003515014 35.6270867470398 35.6070026434123 35.5892494496333 35.7117703736465 35.9124109925225 36.0028211940718 36.0740859018309 36.1190082355361 36.1562961944067 36.1348975036372 36.1125593847317 36.1249709486194 36.1557552830038 36.1703759040452
-9999 -9999 -9999 -9999 -9999 -9999 -9999 18.2501075439808 21.5775523975405 31.8672542159995 32.7032523881346 33.2794603172458 34.3012109827547 35.0019784441392 35.1484760962574 35.3979275617017 35.6177239098064 35.7287441300601 35.8373104703235 35.888258880245 35.8996294275922 35.8639319981895 35.8006755123105 35.7665002281094 35.8357753503956 35.9901975218483 36.1009406394021 36.1908390073159 36.2131584985281 36.1971059329257 36.1541412106858 36.1651176762097 36.2062887243681 36.239619985989 36.2334808182378
-9999 -9999 -9999 -9999 -9999 -9999 -9999 23.2390572062634 -9999 32.4404234359054 33.1707786371387 33.919851380159 34.5540383547381 35.1317305646356 35.5105503699235 35.7429326412031 35.8800147429086 35.9775075902518 36.0067513449134 36.0224884457141 36.0244553804164 36.0266780736426 36.0153180447847 36.0044362040793 36.0295755478811 36.1057105965744 36.1878692209784 36.2256537917909 36.2097381946004 36.1759429563914 36.1657624981067 36.2061452672516 36.2722981474833 36.3027566662609 36.2838797474272
-9999 -9999 -9999 -9999 -9999 -9999 -9999 -9999 31.7538338497957 33.0827489195706 33.3945248356152 34.4364966442616 35.2713551264727 35.7057804796385 35.8501101518459 35.924099953229 36.0268893972168 36.0542413584415 36.0209638670806 36.0488873293157 36.0871708422087 36.0870990546256 36.0887940325183 36.1217991391397 36.2117473763101 36.2389345992916 36.2373875952549 36.1834529511962 36.1759924527185 36.1852835560278 36.1952371725792 36.2184522834455 36.2873967071633 36.3287165608908 36.3109367187518
-9999 -9999 -9999 -9999 -9999 -9999 -9999 -9999 -9999 34.2352863058512 34.2107843548693 35.3251351335794 35.8048092477689 35.8828484596211 35.9339409088583 35.9819404728349 36.0619966442569 36.0316482711397 35.9563003384029 36.0181416159373 36.0995407238491 36.1343734344271 36.136631071682 36.2003130687539 36.2640281653292 36.2601135997203 36.2070298090221 36.149348396156 36.1525268029996 36.1756765921824 36.1872567969944 36.2019857446589 36.2368117411648 36.2986489728168 36.3076912758223
-9999 -9999 -9999 -9999 -9999 -9999 -9999 -9999 -9999 35.0087164667006 35.6287644601757 35.8433266545183 35.8842259551368 35.9630090915412 35.9888687808252 36.0067561956796 36.0198337324682 35.9647441392306 35.9410616323617 36.0444830992532 36.1225994082384 36.158035788348 36.1563105937773 36.1813206356851 36.1835797405114 36.2048542538136 36.2015800497041 36.173793125268 36.1447014976625 36.1158724580197 36.1494945603649 36.195292490899 36.2277870825529 36.2901345313654 36.3088499985646
-9999 -9999 -9999 -9999 -9999 -9999 -9999 35.6122963597469 35.7869273592873 35.7348076515688 35.8529173248333 35.8738799510422 35.9537982633143 36.0071391794973 36.0079122891349 36.0238626908409 35.9953692541915 36.0090397837285 36.0813450197319 36.1408682588507 36.1532070089285 36.1657470725094 36.1773024721452 36.1938566144808 36.1818774462253 36.1797851146568 36.1943172829967 36.1926907296145 36.1668548957438 36.121418328508 36.1499549096102 36.1963944720187 36.2349408223883 36.273730204728 36.2797653493013
-9999 -9999 -9999 -9999 -9999 -9999 35.7087834544102 35.8565449904989 35.912661666864 35.8551954477215 35.843459685707 35.9450282095596 36.0140773835336 36.0162001236109 36.017003397609 36.0295436543619 36.0625309904912 36.1584471376111 36.2245496455338 36.2213598509264 36.1983989518658 36.2107692238748 36.2186759525951 36.2126701111568 36.2021274350555 36.1858126222246 36.1867388422179 36.1985100593623 36.1847664544281 36.1751055955658 36.1922267543678 36.2252011184538 36.2490123570907 36.2561346796298 36.2742463015644
-9999 -9999 -9999 -9999 35.4226865130761 35.8282873101369 35.9190715421636 35.9025448629286 35.8639904743365 35.8290327733586 35.8889496838101 36.0107961112032 36.0735780805411 36.0835695199222 36.0612705465387 36.1303098003203 36.2198805040775 36.2859638463763 36.349517420219 36.3901788548798 36.2750844511761 36.2080076542601 36.2159292867448 36.2185001364683 36.2084171402174 36.207404803027 36.2075538017682 36.2110475325588 36.2064325356334 36.1975987042306 36.2310112430142 36.2500734407248 36.2402137903286 36.2336352633592 36.2632834654057
-9999 -9999 -9999 35.7089499281258 35.8734989955315 35.9469075755911 35.8857159412075 35.8460428192982 35.8221021580347 35.8451496505153 35.9647011222177 36.0675799015962 36.1487796787019 36.1880963712503 36.2371732761717 36.3162395773922 36.3847943971232 36.4184332866609 36.4366805489491 36.4474019119293 36.4066396870405 36.3231373185801 36.2726413297989 36.2651753768922 36.2421414078004 36.2466685932485 36.2241182372258 36.2141133951885 36.2053087072853 36.2198967010218 36.2411596320466 36.2371736893453 36.2290084131789 36.2358305851715 36.2865266157394
-9999 -9999 35.7487115108145 36.0135400572171 35.9573857469659 35.8755989869106 35.8246247610131 35.8008662496409 35.8357781406593 35.9372357159799 36.0393946059769 36.1452846171701 36.2573903419021 36.3167296939221 36.352800248658 36.4055711045726 36.4625672058637 36.4949562423777 36.452490722464 36.4073126718205 36.3540403377709 36.3339381403563 36.3289377308764 36.3101481627241 36.2957014482228 36.2644535671922 36.2057261374454 36.1956436737592 36.2082956718546 36.239520282354 36.2433316564983 36.2108595646994 36.2282765156023 36.258190551976 36.2925420943193
