NCOLS 35 
NROWS 26 
XLLCORNER -80 
YLLCORNER 33 
CELLSIZE 0.5 
NODATA_value -9999 
-9999.000000000000000 -9999 -9999 -9999 -9999 -9999 -9999 -9999 -9999 -9999 -9999 -9999 -9999 -9999 -9999 -9999 -9999 -9999 -9999 -9999 -9999 -9999 -9999 -9999 -9999 -9999 -9999 -9999 -9999 -9999 -9999 -9999 -9999 -9999 -9999
-9999 -9999 -9999 -9999 -9999 -9999 -9999 -9999 -9999 -9999 -9999 -9999 -9999 -9999 -9999 -9999 -9999 -9999 -9999 -9999 -9999 -9999 -9999 -9999 -9999 -9999 -9999 -9999 -9999 31.9703358326721 -9999 -9999 -9999 -9999 -9999
-9999 -9999 -9999 -9999 -9999 -9999 -9999 -9999 -9999 -9999 -9999 -9999 -9999 -9999 -9999 -9999 -9999 -9999 -9999 -9999 -9999 -9999 -9999 -9999 -9999 -9999 32.14026419368 32.0601850699321 32.1087142370301 32.0614262924318 -9999 -9999 -9999 -9999 -9999
-9999 -9999 -9999 -9999 -9999 -9999 -9999 -9999 -9999 -9999 -9999 -9999 -9999 -9999 -9999 -9999 -9999 -9999 -9999 -9999 -9999 -9999 -9999 32.3833393966028 32.5535197168533 32.5135067304636 32.336862220064 32.1777158474041 -9999 -9999 -9999 30.5724746165052 30.2433966936332 30.307690971679 30.56666215906
-9999 -9999 -9999 -9999 -9999 -9999 -9999 -9999 -9999 -9999 -9999 -9999 -9999 -9999 -9999 -9999 -9999 -9999 -9999 -9999 31.8767206207334 31.995140101472 32.1372455169666 32.3233700025052 32.47827849106 32.508901124296 32.2670652946508 31.9429165370057 -9999 -9999 30.7062159631439 30.4199253414343 30.6955833796727 31.2225661536632 31.6013924610704
-9999 -9999 -9999 -9999 -9999 -9999 -9999 -9999 -9999 -9999 -9999 -9999 -9999 -9999 -9999 -9999 -9999 -9999 -9999 31.9115999417066 31.9462165839207 32.0039398815964 32.094559586341 32.2352978846253 32.4502819561107 32.4511027323063 31.9804792114251 31.5581274487709 31.3926159724563 31.0366848936432 30.9183438437088 30.9292274632073 31.0597865226058 31.5091505291939 31.64994503117
-9999 -9999 -9999 -9999 -9999 -9999 -9999 -9999 -9999 -9999 -9999 -9999 -9999 -9999 -9999 -9999 -9999 -9999 -9999 32.0070052586129 32.0463944349688 32.0184430030228 32.0538044511367 32.1985052606144 32.4557935425751 32.3722204355635 32.1649298777474 31.9916384217835 31.7964588641349 31.6733093191933 31.6098803467234 31.603084171135 31.6871512420209 31.8277363950711 31.7992528598335
-9999 -9999 -9999 -9999 -9999 -9999 -9999 -9999 -9999 -9999 -9999 -9999 -9999 -9999 -9999 -9999 -9999 -9999 -9999 32.0898162864524 32.0910650321193 32.0179299499885 32.0040910266944 32.1165112349405 32.3385454107692 32.3306799927082 32.3274437496001 32.3611481298467 32.4945744964403 32.312473132902 32.2605245663645 32.4459407967401 32.8875428168554 33.3668194137092 33.310722006728
-9999 -9999 -9999 -9999 -9999 -9999 -9999 -9999 -9999 -9999 -9999 -9999 -9999 -9999 -9999 -9999 -9999 -9999 -9999 32.0423869180395 32.1068414325337 32.1012460307842 32.1212008767864 32.2371314514291 32.2773525221084 32.2730516860729 32.3102569055754 32.4225135211962 32.8731905990618 32.7506925793576 33.1759630826209 34.0984749066781 34.7127908853628 35.1238212589457 35.2319076778736
-9999 -9999 -9999 -9999 -9999 -9999 -9999 -9999 -9999 -9999 -9999 -9999 -9999 -9999 -9999 -9999 -9999 31.9212574353012 32.0392210617825 32.0945488663259 32.1439755508048 32.1941764266972 32.2251074270014 32.3259534147463 32.2945204607549 32.3222326852702 32.3976876621819 32.8535649840566 33.5773428488778 34.0600095544448 34.5505836004438 34.998466895905 35.277486502949 35.6774585315242 36.0931485221056
-9999 -9999 -9999 -9999 -9999 -9999 -9999 -9999 -9999 -9999 -9999 -9999 -9999 -9999 31.5129813071694 31.837556001088 32.1634938591331 32.4875809083521 32.4168784950746 32.2681258390128 32.3129808737035 32.3424588347847 32.3325138600019 32.3616945372643 32.4446705412544 32.6117786185433 33.0193444839822 33.7285498665185 34.2946387996109 34.5483841616511 34.7972301653559 35.3166550351768 35.4721691656049 35.6522860104135 36.1196260079728
-9999 -9999 -9999 -9999 -9999 -9999 -9999 -9999 -9999 -9999 -9999 -9999 31.6743987201433 31.7540707244049 31.8540972734028 32.4291723232479 32.9558427486784 33.0074042291739 32.8033649845729 32.6308362445142 32.6112968285359 32.6630177672371 32.7254011017923 32.8713868894213 33.0500907500475 33.467919775578 33.8891183168705 34.2581644306653 34.754815817269 35.1509161698081 35.3870133928399 35.5958586520644 35.7196478233783 35.846901839546 35.9847554974634
-9999 -9999 -9999 -9999 -9999 -9999 -9999 -9999 -9999 -9999 -9999 -9999 31.9488120653757 32.1258653391851 32.5031085448602 33.1339754074427 33.357292608238 33.4652018252975 33.4276751057067 33.3299257687369 33.3067059855204 33.3540887080426 33.4517459797243 33.7171619484381 33.9065639363917 34.1896616252061 34.5221146926272 34.8720381713309 35.1173020841052 35.2602620104862 35.5289192461243 35.787210410574 35.9463123747782 36.0650216094009 36.11972024913
-9999 -9999 -9999 -9999 -9999 -9999 -9999 -9999 -9999 31.9539766811759 31.9406217121086 31.9866850758695 32.2279650863229 32.5644430139168 33.1744303344172 33.5448055957014 33.7812174088944 34.0534767073121 34.0944477405133 34.0231240897745 33.7544143247389 33.6418615145753 33.8721734866379 34.2501095926003 34.5874586445523 34.7738390170198 34.896162295117 35.0088719127358 35.1568411244524 35.0467768217201 35.2801579027769 35.7998787753101 36.0914211798367 36.2309307465888 36.2475193741694
-9999 -9999 -9999 -9999 -9999 -9999 -9999 -9999 -9999 -9999 32.0308450370867 32.3118615218506 32.8267859645843 33.2388075874029 33.7174336879292 34.0287821315474 34.3039057698219 34.2487796268125 34.2492535343249 34.1441073222561 33.9073461653623 33.8147156476769 34.045242223215 34.4145449379788 34.8895376684299 35.0501399239 35.1644808262761 35.1618903709256 35.1919390375238 35.0951443879447 35.3162178987793 35.8522517020568 36.2223163680861 36.3009756919038 36.2879678017074
-9999 -9999 -9999 -9999 -9999 -9999 -9999 15.0187907653928 17.209352376171 -9999 31.9735468266985 33.0173615736787 33.8515302369658 34.1420170713121 34.5554310799961 34.6780772962406 34.6070984322191 34.5039053041445 34.6623111981608 34.7348756107611 34.7903137790355 34.7921868736811 34.7517769464165 34.8929154919338 35.164528679299 35.3276176459681 35.482642141455 35.5829882454056 35.690328668547 35.8237820510641 35.9142308387411 36.054295399679 36.2157159590101 36.2839918650528 36.3020548331052
-9999 -9999 -9999 -9999 -9999 -9999 -9999 18.2762860447061 21.5569572551841 31.0791809012736 32.2881058456815 33.9312774524129 34.6192704278198 34.6471044594198 35.0144479797801 34.9807318026204 34.8638161911031 35.0069594082981 35.4002004810164 35.7948649772594 35.9595530869941 35.9590282813153 35.8409044882899 35.7250254745011 35.7807551542363 35.9622544714252 36.1129219325507 36.180583030812 36.2178304302481 36.2261308463988 36.2276671280423 36.2276415381045 36.247882011867 36.2671142761515 36.2766250107768
-9999 -9999 -9999 -9999 -9999 -9999 -9999 22.8869594195857 -9999 31.7204419120121 33.1179290300551 34.7541968697021 35.1354758229444 35.0417558950822 35.2757389527318 35.4898566674539 35.4966134788604 35.651269888928 35.957659968182 36.2183821364838 36.3181754891912 36.3400169290811 36.3254139363356 36.3138540682534 36.3279174535077 36.3584326964686 36.3672678451979 36.3715478615733 36.3534295054445 36.3343484412584 36.3097725697515 36.2816523322162 36.2818203248728 36.2955775994163 36.2905425618245
-9999 -9999 -9999 -9999 -9999 -9999 -9999 -9999 30.9627841647221 32.2534903531098 33.4123543498144 34.7937610023007 35.3857568445247 35.8048319629302 36.0376354500065 36.132990182651 36.1743711149831 36.2305293215424 36.3268206209611 36.4016233053129 36.4297318183747 36.4301573201774 36.431170733229 36.4110140103052 36.3951180656933 36.3943130907075 36.3781144145552 36.3652562193245 36.3264640453796 36.3208048727451 36.3019205033706 36.2937850454647 36.3011518018132 36.3167877139684 36.3172975394188
-9999 -9999 -9999 -9999 -9999 -9999 -9999 -9999 -9999 33.2415430895154 33.8584731884748 35.1645622402691 36.0602103697402 36.2580337371427 36.3576549761886 36.417529030604 36.4426834847571 36.453226077687 36.4495489112032 36.439239654077 36.4393666808328 36.437468760889 36.4200902136735 36.3786266331933 36.3916447306573 36.3923609564762 36.3560799071964 36.3293662711153 36.2679635707204 36.2754038263714 36.327403006683 36.3222237889208 36.3305879706464 36.3209190441657 36.3169465457063
-9999 -9999 -9999 -9999 -9999 -9999 -9999 -9999 -9999 34.1370951237388 35.1760745075254 36.1266719711891 36.3043286310847 36.4082024131401 36.4369625158299 36.440858605332 36.4473167485195 36.4478101221458 36.4429042764472 36.4493797890264 36.4381322788945 36.438246977514 36.4278713335748 36.374861742428 36.3657714857892 36.3600521454102 36.3470104635104 36.3471789592193 36.3500555816024 36.3533623097234 36.3727314874193 36.3506633868951 36.3506669163104 36.3380068163892 36.314482006372
-9999 -9999 -9999 -9999 -9999 -9999 -9999 35.2850640782263 35.5620414235997 35.4926124332734 36.1003396045233 36.2940103042598 36.4189984089674 36.4362959848762 36.4494348806372 36.4434929885555 36.4442614298672 36.4444061345535 36.443076549744 36.4476495156392 36.4449141892597 36.4339484595438 36.4119171422077 36.3798872515374 36.3579436853124 36.3576194110579 36.3402322971962 36.3496250009831 36.3716652699682 36.3835921798037 36.3791244283144 36.3688583344215 36.3706957445453 36.3667161349378 36.3619162897482
-9999 -9999 -9999 -9999 -9999 -9999 35.574787351153 35.8179742838799 36.1298674858372 36.1885662033679 36.2514042637139 36.3999752494609 36.4545101154657 36.4429932684208 36.4620552903985 36.4721749598367 36.4683765054183 36.4695314599631 36.4750565242061 36.4719332666566 36.4490410241812 36.4222977214259 36.3809066140216 36.3642205686759 36.3516298188814 36.3471654640015 36.3530663351821 36.3740841173925 36.3811947624097 36.3746632044324 36.3697568476327 36.3758859771418 36.3759557404422 36.3772567076095 36.4019248992843
-9999 -9999 -9999 -9999 35.2776799031032 35.8500535064741 36.0884678566968 36.1476714103318 36.1795979993033 36.2092981378163 36.3188235386722 36.4485911263516 36.447537575088 36.4395846742105 36.4514335814188 36.4565292079775 36.4627449295651 36.4677738285767 36.4617401059647 36.4664549138429 36.4625512825799 36.4184273573504 36.3880112022884 36.3785489780076 36.3656819022261 36.3497320438166 36.3680009547952 36.3960119950915 36.4192569483648 36.4383266073479 36.4518436321362 36.437867501648 36.4084089355826 36.3669377261458 36.3738584266431
-9999 -9999 -9999 35.6346804591466 35.7842228148418 36.1382970187586 36.1959308401891 36.1813609442641 36.201807648028 36.2190590142183 36.3386483248481 36.4048982861352 36.4090865672249 36.4085038568665 36.4001967762782 36.4100081725513 36.4053916611029 36.3879554372582 36.4017081534766 36.4254443621903 36.4309390206076 36.417711952513 36.3936131530531 36.3850707982328 36.3797791999163 36.3714124626848 36.3621103606389 36.3864160836416 36.4367054171745 36.4651254108632 36.4558949877411 36.437183060689 36.4041495577684 36.3694095469952 36.3867157378432
-9999 -9999 35.7916203964303 36.1228400282401 36.1748622362763 36.1712958513111 36.1738002129403 36.2011520601399 36.2213445648422 36.221623334993 36.3075135246207 36.3447167366089 36.3284488511845 36.3399682684916 36.3570413535985 36.3815622857518 36.379689550621 36.3581578454311 36.3669280038207 36.3867063086299 36.4083804279411 36.4032020459165 36.38219023259 36.3849948232419 36.3830308860609 36.3737346844838 36.3621636882128 36.3696880602539 36.3878976747747 36.3975639914197 36.3948132106012 36.3947857472964 36.3870870582245 36.394175894916 36.4425089309563
