NCOLS 35 
NROWS 26 
XLLCORNER -80 
YLLCORNER 33 
CELLSIZE 0.5 
NODATA_value -9999 
-9999.000000000000000 -9999 -9999 -9999 -9999 -9999 -9999 -9999 -9999 -9999 -9999 -9999 -9999 -9999 -9999 -9999 -9999 -9999 -9999 -9999 -9999 -9999 -9999 -9999 -9999 -9999 -9999 -9999 -9999 -9999 -9999 -9999 -9999 -9999 -9999
-9999 -9999 -9999 -9999 -9999 -9999 -9999 -9999 -9999 -9999 -9999 -9999 -9999 -9999 -9999 -9999 -9999 -9999 -9999 -9999 -9999 -9999 -9999 -9999 -9999 -9999 -9999 -9999 -9999 9.832505877116 -9999 -9999 -9999 -9999 -9999
-9999 -9999 -9999 -9999 -9999 -9999 -9999 -9999 -9999 -9999 -9999 -9999 -9999 -9999 -9999 -9999 -9999 -9999 -9999 -9999 -9999 -9999 -9999 -9999 -9999 -9999 10.0426701486617 9.87736824837094 9.67079033866537 9.78126222419939 -9999 -9999 -9999 -9999 -9999
-9999 -9999 -9999 -9999 -9999 -9999 -9999 -9999 -9999 -9999 -9999 -9999 -9999 -9999 -9999 -9999 -9999 -9999 -9999 -9999 -9999 -9999 -9999 11.0041163134389 10.5586044034819 10.4114205283282 10.1302122278545 10.0455063421221 -9999 -9999 -9999 8.70406510753902 8.33451723382911 8.15342468034157 8.18411633967279
-9999 -9999 -9999 -9999 -9999 -9999 -9999 -9999 -9999 -9999 -9999 -9999 -9999 -9999 -9999 -9999 -9999 -9999 -9999 -9999 12.089936618724 11.6864971579143 11.4391195139897 11.30062688182 10.9359477496651 10.6267377002012 10.2896363864283 10.4279842826855 -9999 -9999 8.91811917037805 8.56297893951335 8.16525910799503 8.19322720522041 8.25417844818924
-9999 -9999 -9999 -9999 -9999 -9999 -9999 -9999 -9999 -9999 -9999 -9999 -9999 -9999 -9999 -9999 -9999 -9999 -9999 13.0113165378725 13.1915868009808 12.5715832831966 12.0127019515272 11.6222286168918 11.1191293914372 10.605189561297 9.88262710954271 9.53800886587186 9.67207114102597 9.01942119643632 8.49490180666452 8.45215963006386 8.43449299804601 8.60178447963763 9.01434773009844
-9999 -9999 -9999 -9999 -9999 -9999 -9999 -9999 -9999 -9999 -9999 -9999 -9999 -9999 -9999 -9999 -9999 -9999 -9999 13.9277497980579 13.4962316881659 12.6488535606117 12.0551969843822 11.4801595003405 10.866319406392 10.2114916246947 9.523068543228 9.00407516343764 8.41475187792778 8.32209972571799 8.56048076425884 8.93448609784841 8.89540546885473 9.22688761861861 9.7709196335979
-9999 -9999 -9999 -9999 -9999 -9999 -9999 -9999 -9999 -9999 -9999 -9999 -9999 -9999 -9999 -9999 -9999 -9999 -9999 14.2380067130266 13.6480669239268 12.9415293078565 12.4055865157376 11.6172607223282 10.9330111486316 10.3487556592145 9.98672565093601 9.54298654395866 9.18278148405697 10.3087778198481 11.0970963918404 11.0048488952657 10.7338056200705 10.4226304282195 10.9899324383914
-9999 -9999 -9999 -9999 -9999 -9999 -9999 -9999 -9999 -9999 -9999 -9999 -9999 -9999 -9999 -9999 -9999 -9999 -9999 15.3512459133191 14.2448377094515 12.9678127936629 12.3164196248485 11.801632778175 11.4328769692665 10.9946265230883 10.4888537873469 9.90134326234185 10.8649999829717 12.7842506936372 12.8924577197827 12.8919575456935 13.1330747318636 12.7859255788407 12.3767490204152
-9999 -9999 -9999 -9999 -9999 -9999 -9999 -9999 -9999 -9999 -9999 -9999 -9999 -9999 -9999 -9999 -9999 14.7880004112761 14.6991669058281 14.4532710862435 14.2617932081113 13.0572691201102 12.2944843207554 12.033147021699 11.9044971262559 11.3252178622713 10.5288390322878 11.3655680215504 13.6124920709073 15.3743660816422 15.9491407820808 16.5544071298836 16.7348457110408 15.3280138757907 14.847385876948
-9999 -9999 -9999 -9999 -9999 -9999 -9999 -9999 -9999 -9999 -9999 -9999 -9999 -9999 15.9102164036548 15.4754379104013 15.1332417906021 14.6820047921254 14.2292286768826 13.8404263640088 13.1507957547068 12.5879387872482 12.1819443651221 12.0913896711075 12.3511789861543 13.3225570732952 14.6072728528175 16.9934565938346 19.9390744645549 20.6766324114814 19.3532341783203 18.6088077274477 18.3423326782408 17.5975466877218 17.6048564450458
-9999 -9999 -9999 -9999 -9999 -9999 -9999 -9999 -9999 -9999 -9999 -9999 16.8649935158256 16.4047686732668 15.88855025904 15.1651888648501 14.715396048709 14.5934628097724 14.5076852502934 14.4085002377508 14.0015136643826 13.8598780839837 14.3457386270356 15.7293685106788 17.1682750277369 18.3299644060996 19.2522395539782 20.3829929466404 21.3112418606953 20.8683415610806 19.6046467969331 18.2985882771167 17.9461885601469 18.4296193722436 18.6266872537972
-9999 -9999 -9999 -9999 -9999 -9999 -9999 -9999 -9999 -9999 -9999 -9999 16.8712140812465 16.0080117462935 15.2136117752043 14.9166789436348 15.2787510054803 15.8445299469806 16.4034071937039 16.9056861473031 16.8060240614793 17.1580930375438 18.3905757981668 19.0721280003145 19.4945352181187 20.3909870328836 21.1039459186897 21.4150603675728 21.3079272926845 20.578469339251 19.602155324954 18.4050762202813 18.8812887845429 19.9640145562146 20.7471398990281
-9999 -9999 -9999 -9999 -9999 -9999 -9999 -9999 -9999 19.8029314852254 18.7790082894871 17.5799958276091 16.6006226729107 15.5471088149672 15.0402090520013 15.4631186203004 16.0115648406424 16.5419212635804 17.2721566497358 18.151039365078 18.7099562687465 19.616353876378 20.5608402502315 20.5361197205605 20.0005513661646 19.8211504694899 20.4357615480755 20.4077764381829 20.3673611773293 20.2575321481314 19.3145880255834 19.6414335245802 21.0261129727904 22.3252801100007 22.5972587013416
-9999 -9999 -9999 -9999 -9999 -9999 -9999 -9999 -9999 -9999 18.1569481133877 17.1409406985642 15.9925296074501 15.3476431119143 15.8060547161405 16.6360479023216 17.4871001845382 18.4702227846581 19.0466249600709 19.4921543551983 20.1205628865151 21.414735904117 21.9431858645578 22.4392679613814 22.7209727481854 21.6609792295064 20.9873169635744 20.5620295658008 19.8024221449165 18.9309623960537 18.9002689424367 20.4330172724081 22.3865918880962 23.2495942248493 23.1685475892752
-9999 -9999 -9999 -9999 -9999 -9999 -9999 20.2680014783813 20.7708226770892 -9999 18.2747899742497 16.8694453613678 15.7174772738284 16.0481801950137 17.2046456890727 18.4495353163353 19.5968858900242 20.3879358891634 20.7369234662489 20.8319576906364 21.6313756335816 22.2018534890814 23.0910115237869 23.9478520825307 24.6063370995897 24.5167087591791 23.7940962018007 22.9130380562753 21.6592862453645 19.8918485953663 20.1569404498902 21.5271258712703 23.1635084863228 23.1865210352576 22.6259015719061
-9999 -9999 -9999 -9999 -9999 -9999 -9999 20.9878687242739 20.7810327947503 19.4593204106121 18.1548888813762 16.6280533080357 16.3151316729509 17.8354922210425 20.6215584864332 22.1740408123355 22.8431294904655 23.4306319647012 23.449205665952 22.9355290096224 22.3619997122734 22.2608452521814 23.5607958774151 24.5878862139429 24.5340863084998 23.7727242609675 23.3770265745518 23.6991246211947 23.8218456481657 23.0484444235712 22.7248747957054 23.1650328048179 23.301371002791 22.9295300544476 22.7112364775093
-9999 -9999 -9999 -9999 -9999 -9999 -9999 21.7279425520847 -9999 19.4654645035398 17.7966766969367 16.8923683634422 17.8137362566427 20.8398398754995 23.1015874775392 23.5663719672644 24.091386665764 24.3636388924729 24.5745000458695 24.7358574317519 24.6224431984942 24.5037786182862 24.5955291087942 24.5921169714855 23.9992391003382 23.0953059972162 22.6621463822602 22.8870740867871 23.2073793488524 23.4292621008251 23.3534434441595 23.1878737827975 22.8638241499418 22.6541946103663 22.9557499183777
-9999 -9999 -9999 -9999 -9999 -9999 -9999 -9999 20.7497587738048 19.3998367867308 17.8943338282467 17.8792474790827 20.1786659072636 22.5633603093901 23.3129933311948 24.2080373997463 24.5282671978414 24.4868124154384 24.2969484451303 24.1772599948208 24.3353154995923 24.6919007531591 24.6606464945247 24.2918972058186 23.8159178704721 22.9711688468015 22.5759181747998 22.695144517515 22.8744839397432 23.0621444171127 23.014012643519 23.1277290958208 22.9584145987676 22.7091006012461 23.2914497144496
-9999 -9999 -9999 -9999 -9999 -9999 -9999 -9999 -9999 20.0467291794603 18.7341309899944 19.8176170258953 22.0204911029041 23.5801183877893 25.076874987331 25.3219206237842 24.8050984430641 24.0654267496705 23.6749429695756 24.0835820581739 23.9168771159874 23.5930248000649 23.6190868314398 23.7711720278156 23.4353866049892 22.6058749266769 22.44066657313 22.6412581353601 22.7027993632804 22.8531818319133 22.9771777921935 23.009518980031 22.8401233139915 22.5634090827707 23.0085118734046
-9999 -9999 -9999 -9999 -9999 -9999 -9999 -9999 -9999 21.6347830684093 21.3107682651559 23.7348246932992 25.3361872065598 25.961856158223 25.4152033753803 24.4823110611251 23.8008443163844 23.2808057203311 23.1222833192288 23.331244187772 23.2336814216786 23.0224727053061 22.8931595199615 23.0347026539867 22.64938928365 22.2069769734721 22.3173880604822 22.4096814631195 22.487046363314 22.612143090359 22.7226586255255 22.7273499530126 22.5980953355182 22.5902677076085 22.8356059386278
-9999 -9999 -9999 -9999 -9999 -9999 -9999 23.5527513434721 23.3286915826452 23.8412415410947 25.4435264128243 26.2041785940853 25.6765874735983 24.8015884331773 23.9044655217824 23.4968042858271 23.3238065807789 23.0682952313173 22.9007726882016 22.726775341341 22.6085681707819 22.67995624431 22.716624144713 22.7160918287175 22.2707986122432 22.2712476878036 22.4601603073935 22.3920493187612 22.3466641949201 22.4552713931762 22.4700378744488 22.5515059870848 22.6401612011298 22.7304617025487 22.8679492751829
-9999 -9999 -9999 -9999 -9999 -9999 23.7610851537082 23.7725849433705 25.0354246092519 26.3787600541094 26.378168503176 25.2789042245724 24.6212028082206 23.9888368566002 23.3233638818296 23.0713091217973 22.9544561997253 22.8143295935175 22.7296684097531 22.6139488960241 22.6241608620204 22.6389659422987 22.6663283876711 22.5609889544007 22.3752824888417 22.6722038524273 22.8013767890294 22.8612882187591 22.6370397524224 22.5342802034274 22.4405618268445 22.502584788645 22.6322854746541 22.776179423035 22.9599443833893
-9999 -9999 -9999 -9999 24.1351103013699 24.0408571400519 24.4548509631109 25.3935703054491 26.5272460569015 26.7294394492211 25.6628759161308 24.6469555845795 24.4109417343058 23.8721381084038 23.4015491472461 23.1221472088766 22.8875840656484 22.7654162468798 22.7225877159097 22.6685254563495 22.6706706113128 22.7146168425143 22.6520263082337 22.5426607781133 22.5402023939399 22.9394068069604 23.1932113108939 23.3514977954133 23.2458042841157 23.0398120928337 22.709400190574 22.6087231959025 22.7548777459789 22.9068991659407 22.9257650123104
-9999 -9999 -9999 24.4028739915394 24.2859190874748 24.8505261993446 26.0392007676197 26.7521126391992 26.8998456120574 26.3198707681665 25.196239913645 24.3283935133736 24.1738846793347 23.9173724923254 23.743471016136 23.3881541357537 23.1151684287717 22.8497023902242 22.7255700826341 22.6510274867588 22.6149179142629 22.7576879828368 22.6766131473551 22.5644716484641 22.6411122086455 22.9407783958634 23.275827088618 23.5634022230492 23.482435678561 23.2546632643264 22.8912959526178 22.7187005799882 22.8489349754076 23.0235884384016 23.1158151032966
-9999 -9999 24.5776326812014 24.7997302331205 25.3306428964191 25.9688900609536 26.8101255969958 27.0416046423088 26.6863179650288 25.9474177147341 25.249457206228 24.6674636719989 24.7237294979032 24.6484115517013 24.4956298984178 24.1165603691416 23.5992189273186 23.1218408932961 22.897217722659 22.7866392339916 22.7877559770552 22.8633528399504 22.7482854952047 22.5996728626254 22.7165469663405 22.8530831332025 23.179677788886 23.8093287477982 23.8496194461281 23.409374848586 23.0273638567783 22.7953352706352 22.9364850946669 23.1720863264294 23.2941863095942
