NCOLS 70 
NROWS 52 
XLLCORNER -80 
YLLCORNER 33 
CELLSIZE 0.25 
NODATA_value -9999 
-9999.000000000000000 -9999 -9999 -9999 -9999 -9999 -9999 -9999 -9999 -9999 -9999 -9999 -9999 -9999 -9999 -9999 -9999 -9999 -9999 -9999 -9999 -9999 -9999 -9999 -9999 -9999 -9999 -9999 -9999 -9999 -9999 -9999 -9999 -9999 -9999 -9999 -9999 -9999 -9999 -9999 -9999 -9999 -9999 -9999 -9999 -9999 -9999 -9999 -9999 -9999 -9999 -9999 -9999 -9999 -9999 -9999 -9999 -9999 -9999 -9999 -9999 -9999 -9999 -9999 -9999 -9999 -9999 -9999 -9999 -9999
-9999 -9999 -9999 -9999 -9999 -9999 -9999 -9999 -9999 -9999 -9999 -9999 -9999 -9999 -9999 -9999 -9999 -9999 -9999 -9999 -9999 -9999 -9999 -9999 -9999 -9999 -9999 -9999 -9999 -9999 -9999 -9999 -9999 -9999 -9999 -9999 -9999 -9999 -9999 -9999 -9999 -9999 -9999 -9999 -9999 -9999 -9999 -9999 -9999 -9999 -9999 -9999 -9999 -9999 -9999 -9999 -9999 -9999 -9999 -9999 -9999 -9999 -9999 -9999 -9999 -9999 -9999 -9999 -9999 -9999
-9999 -9999 -9999 -9999 -9999 -9999 -9999 -9999 -9999 -9999 -9999 -9999 -9999 -9999 -9999 -9999 -9999 -9999 -9999 -9999 -9999 -9999 -9999 -9999 -9999 -9999 -9999 -9999 -9999 -9999 -9999 -9999 -9999 -9999 -9999 -9999 -9999 -9999 -9999 -9999 -9999 -9999 -9999 -9999 -9999 -9999 -9999 -9999 -9999 -9999 -9999 -9999 -9999 -9999 -9999 -9999 -9999 -9999 -9999 8.10312366485596 -9999 -9999 -9999 -9999 -9999 -9999 -9999 -9999 -9999 -9999
-9999 -9999 -9999 -9999 -9999 -9999 -9999 -9999 -9999 -9999 -9999 -9999 -9999 -9999 -9999 -9999 -9999 -9999 -9999 -9999 -9999 -9999 -9999 -9999 -9999 -9999 -9999 -9999 -9999 -9999 -9999 -9999 -9999 -9999 -9999 -9999 -9999 -9999 -9999 -9999 -9999 -9999 -9999 -9999 -9999 -9999 -9999 -9999 -9999 -9999 -9999 -9999 -9999 -9999 -9999 7.90010690689087 7.93865394592285 8.08164691925049 8.11474227905273 8.18156337738037 -9999 -9999 -9999 -9999 -9999 -9999 -9999 -9999 -9999 -9999
-9999 -9999 -9999 -9999 -9999 -9999 -9999 -9999 -9999 -9999 -9999 -9999 -9999 -9999 -9999 -9999 -9999 -9999 -9999 -9999 -9999 -9999 -9999 -9999 -9999 -9999 -9999 -9999 -9999 -9999 -9999 -9999 -9999 -9999 -9999 -9999 -9999 -9999 -9999 -9999 -9999 -9999 -9999 -9999 -9999 -9999 -9999 -9999 -9999 -9999 -9999 -9999 7.40334033966064 7.46274042129517 7.63787984848022 7.8166971206665 7.94064140319824 8.0496187210083 -9999 -9999 -9999 -9999 -9999 -9999 -9999 -9999 -9999 -9999 -9999 -9999
-9999 -9999 -9999 -9999 -9999 -9999 -9999 -9999 -9999 -9999 -9999 -9999 -9999 -9999 -9999 -9999 -9999 -9999 -9999 -9999 -9999 -9999 -9999 -9999 -9999 -9999 -9999 -9999 -9999 -9999 -9999 -9999 -9999 -9999 -9999 -9999 -9999 -9999 -9999 -9999 -9999 -9999 -9999 -9999 -9999 -9999 -9999 -9999 -9999 -9999 7.60527191162109 7.1767635345459 7.18732261657715 7.22118663787842 7.37414264678955 7.50223255157471 -9999 -9999 -9999 -9999 -9999 -9999 -9999 -9999 -9999 -9999 -9999 10.8854869206746 10.8914785385132 10.6145992279053
-9999 -9999 -9999 -9999 -9999 -9999 -9999 -9999 -9999 -9999 -9999 -9999 -9999 -9999 -9999 -9999 -9999 -9999 -9999 -9999 -9999 -9999 -9999 -9999 -9999 -9999 -9999 -9999 -9999 -9999 -9999 -9999 -9999 -9999 -9999 -9999 -9999 -9999 -9999 -9999 -9999 -9999 -9999 -9999 9.10863971710205 -9999 -9999 9.52385210990906 8.66722679138184 8.24991130828857 7.76874685287476 7.40258693695068 7.18038606643677 7.12527275085449 7.23629808425903 -9999 -9999 -9999 -9999 -9999 -9999 -9999 -9999 10.3591756820679 10.5710554122925 10.7234907150269 10.7839469909668 10.8728914260864 10.9996223449707 11.0788011550903
-9999 -9999 -9999 -9999 -9999 -9999 -9999 -9999 -9999 -9999 -9999 -9999 -9999 -9999 -9999 -9999 -9999 -9999 -9999 -9999 -9999 -9999 -9999 -9999 -9999 -9999 -9999 -9999 -9999 -9999 -9999 -9999 -9999 -9999 -9999 -9999 -9999 -9999 -9999 -9999 -9999 -9999 -9999 -9999 9.08444595336914 9.17672443389893 9.47843837738037 9.91274356842041 10.0369997024536 9.99972915649414 9.82766056060791 9.25449752807617 8.38728332519531 7.66078329086304 7.53641104698181 -9999 -9999 -9999 -9999 -9999 -9999 -9999 10.4364738464355 10.4436140060425 10.5264482498169 10.6887826919556 10.8552055358887 11.0074424743652 11.180287361145 11.2984771728516
-9999 -9999 -9999 -9999 -9999 -9999 -9999 -9999 -9999 -9999 -9999 -9999 -9999 -9999 -9999 -9999 -9999 -9999 -9999 -9999 -9999 -9999 -9999 -9999 -9999 -9999 -9999 -9999 -9999 -9999 -9999 -9999 -9999 -9999 -9999 -9999 -9999 -9999 -9999 -9999 9.50182787577311 9.75017261505127 9.77229251861572 9.76561164855957 9.80393695831299 10.0044136047363 10.2920188903809 10.5324926376343 10.6516971588135 10.6670627593994 10.5873975753784 10.1366596221924 9.12245082855225 8.12329006195068 8.24674100875854 -9999 -9999 -9999 -9999 -9999 10.6641502380371 10.651668548584 10.5952911376953 10.6175308227539 10.705078125 10.8671360015869 11.053484916687 11.2352361679077 11.4046573638916 11.4996147155762
-9999 -9999 -9999 -9999 -9999 -9999 -9999 -9999 -9999 -9999 -9999 -9999 -9999 -9999 -9999 -9999 -9999 -9999 -9999 -9999 -9999 -9999 -9999 -9999 -9999 -9999 -9999 -9999 -9999 -9999 -9999 -9999 -9999 -9999 -9999 -9999 -9999 -9999 -9999 9.3021240234375 9.45072460174561 9.75263500213623 10.047158241272 10.2313089370728 10.4652519226074 10.7703523635864 10.9670104980469 11.0276308059692 10.998553276062 10.9102783203125 10.797004699707 10.431001663208 9.51796627044678 8.5502233505249 8.31589603424072 8.58351230621338 -9999 -9999 -9999 10.1042377948761 10.5759315490723 10.7648506164551 10.8908433914185 10.9505252838135 10.9801349639893 11.0479612350464 11.1781730651855 11.3834075927734 11.5917901992798 11.7001094818115
-9999 -9999 -9999 -9999 -9999 -9999 -9999 -9999 -9999 -9999 -9999 -9999 -9999 -9999 -9999 -9999 -9999 -9999 -9999 -9999 -9999 -9999 -9999 -9999 -9999 -9999 -9999 -9999 -9999 -9999 -9999 -9999 -9999 -9999 -9999 -9999 -9999 -9999 9.86044540405273 9.8461446762085 10.099796295166 10.5658149719238 10.9254093170166 11.1993713378906 11.4355697631836 11.490140914917 11.3403520584106 11.1703748703003 11.0301494598389 10.8812847137451 10.7530555725098 10.4829025268555 9.74063968658447 8.84198951721191 8.48137187957764 8.6361608505249 8.93504619598389 9.19670788447062 9.62982940673828 9.92452526092529 10.2866649627686 10.7018575668335 11.0669145584106 11.2098274230957 11.1936464309692 11.1574373245239 11.1993865966797 11.3800115585327 11.6154584884644 11.7707204818726
-9999 -9999 -9999 -9999 -9999 -9999 -9999 -9999 -9999 -9999 -9999 -9999 -9999 -9999 -9999 -9999 -9999 -9999 -9999 -9999 -9999 -9999 -9999 -9999 -9999 -9999 -9999 -9999 -9999 -9999 -9999 -9999 -9999 -9999 -9999 -9999 -9999 9.87330532073975 9.99929237365723 10.2813606262207 10.6337223052979 10.9794473648071 11.2731103897095 11.541449546814 11.7190942764282 11.6489934921265 11.3899202346802 11.1510047912598 10.9734935760498 10.7916479110718 10.6240234375 10.3872604370117 9.80609798431396 9.06507778167725 8.67669677734375 8.71946239471436 8.98744201660156 9.29760360717773 9.57319927215576 9.85265731811523 10.1921968460083 10.7003707885742 11.2019062042236 11.4274158477783 11.426194190979 11.361273765564 11.3337602615356 11.4545202255249 11.6727199554443 11.8626108169556
-9999 -9999 -9999 -9999 -9999 -9999 -9999 -9999 -9999 -9999 -9999 -9999 -9999 -9999 -9999 -9999 -9999 -9999 -9999 -9999 -9999 -9999 -9999 -9999 -9999 -9999 -9999 -9999 -9999 -9999 -9999 -9999 -9999 -9999 -9999 -9999 -9999 10.145899772644 10.2718095779419 10.5439357757568 10.8735685348511 11.2622890472412 11.6407241821289 11.9031171798706 11.9462661743164 11.6595430374146 11.2625293731689 11.0210475921631 10.8867702484131 10.7366371154785 10.5548286437988 10.3165168762207 9.87100028991699 9.33104991912842 9.00834465026855 8.94772434234619 9.09136867523193 9.38243198394775 9.72719478607178 9.98139667510986 10.2491140365601 10.7280740737915 11.280837059021 11.7233953475952 11.9472055435181 12.0019836425781 12.0019836425781 12.0250263214111 12.0964860916138 12.3181476593018
-9999 -9999 -9999 -9999 -9999 -9999 -9999 -9999 -9999 -9999 -9999 -9999 -9999 -9999 -9999 -9999 -9999 -9999 -9999 -9999 -9999 -9999 -9999 -9999 -9999 -9999 -9999 -9999 -9999 -9999 -9999 -9999 -9999 -9999 -9999 -9999 -9999 9.92034912109375 10.2577304840088 10.6292858123779 11.0836992263794 11.7080678939819 12.2327127456665 12.3645992279053 12.0702276229858 11.4935874938965 11.0721979141235 10.924952507019 10.8311901092529 10.7009801864624 10.539231300354 10.314510345459 9.9804515838623 9.68726921081543 9.62531089782715 9.69347381591797 9.87840366363525 10.2838106155396 10.7028131484985 10.6730680465698 10.5903310775757 10.9751977920532 11.6223306655884 12.2897129058838 12.8598890304565 13.29714012146 13.5889835357666 13.3927354812622 13.0239763259888 13.2011165618896
-9999 -9999 -9999 -9999 -9999 -9999 -9999 -9999 -9999 -9999 -9999 -9999 -9999 -9999 -9999 -9999 -9999 -9999 -9999 -9999 -9999 -9999 -9999 -9999 -9999 -9999 -9999 -9999 -9999 -9999 -9999 -9999 -9999 -9999 -9999 -9999 9.26966285705566 9.77760887145996 10.2978944778442 10.7139463424683 11.3139686584473 12.1118459701538 12.6105442047119 12.5250215530396 12.0136604309082 11.3961534500122 11.101710319519 11.0685567855835 10.9763164520264 10.776927947998 10.5968608856201 10.4393739700317 10.3273820877075 10.4261283874512 10.7364902496338 10.9938488006592 11.4421768188477 12.0898208618164 12.3176403045654 11.7846374511719 11.1929168701172 11.4204397201538 12.1893539428711 13.0092763900757 13.9724006652832 15.2456188201904 15.8125677108765 14.9966707229614 13.8890104293823 13.7428874969482
-9999 -9999 -9999 -9999 -9999 -9999 -9999 -9999 -9999 -9999 -9999 -9999 -9999 -9999 -9999 -9999 -9999 -9999 -9999 -9999 -9999 -9999 -9999 -9999 -9999 -9999 -9999 -9999 -9999 -9999 -9999 -9999 -9999 -9999 -9999 -9999 -9999 10.2222766876221 10.3555202484131 10.679178237915 11.4679565429688 12.4382438659668 12.845645904541 12.6212558746338 12.1154680252075 11.6458492279053 11.5253782272339 11.6343374252319 11.5987329483032 11.3619480133057 11.1823482513428 11.1324367523193 11.2028179168701 11.4377746582031 11.7753667831421 12.2566766738892 13.0526828765869 13.3783025741577 13.114972114563 12.3733377456665 11.7519502639771 11.8607625961304 12.4696807861328 13.2247791290283 14.1561889648438 15.8029050827026 16.721586227417 15.5266885757446 14.2005968093872 13.9158954620361
-9999 -9999 -9999 -9999 -9999 -9999 -9999 -9999 -9999 -9999 -9999 -9999 -9999 -9999 -9999 -9999 -9999 -9999 -9999 -9999 -9999 -9999 -9999 -9999 -9999 -9999 -9999 -9999 -9999 -9999 -9999 -9999 -9999 -9999 -9999 -9999 -9999 -9999 10.2997894287109 -9999 11.842866897583 12.852614402771 13.1483240127563 12.9100484848022 12.5669565200806 12.4345283508301 12.5216588973999 12.6220436096191 12.5242652893066 12.2927350997925 12.1812925338745 12.1793069839478 12.1955137252808 12.2495613098145 12.4024677276611 13.0235824584961 13.9032392501831 14.0728435516357 13.9377965927124 12.8767175674438 12.0195560455322 12.0402498245239 12.6981935501099 13.4654779434204 13.9902486801147 15.175968170166 16.4698619842529 15.5467853546143 14.5562019348145 14.6727428436279
-9999 -9999 -9999 -9999 -9999 -9999 -9999 -9999 -9999 -9999 -9999 -9999 -9999 -9999 -9999 -9999 -9999 -9999 -9999 -9999 -9999 -9999 -9999 -9999 -9999 -9999 -9999 -9999 -9999 -9999 -9999 -9999 -9999 -9999 -9999 -9999 -9999 -9999 -9999 -9999 12.3020420074463 13.0625476837158 13.4971361160278 13.5410757064819 13.4816122055054 13.5978307723999 13.606348991394 13.4488468170166 13.2445631027222 13.034273147583 12.9533796310425 12.8769187927246 12.7375392913818 12.6335020065308 12.7068996429443 13.416729927063 14.3677082061768 15.0326919555664 15.5034971237183 14.6353816986084 13.4381837844849 13.2508430480957 13.6024990081787 14.1599235534668 14.2622308731079 15.0725011825562 16.4129447937012 16.0458297729492 16.2267036437988 17.6158123016357
-9999 -9999 -9999 -9999 -9999 -9999 -9999 -9999 -9999 -9999 -9999 -9999 -9999 -9999 -9999 -9999 -9999 -9999 -9999 -9999 -9999 -9999 -9999 -9999 -9999 -9999 -9999 -9999 -9999 -9999 -9999 -9999 -9999 -9999 13.4987235069275 12.4418592453003 11.954047203064 -9999 11.1184663772583 10.9530935287476 11.6508626937866 12.7544813156128 13.5334396362305 13.9728889465332 14.1856212615967 14.2430257797241 14.0283336639404 13.6790399551392 13.4284372329712 13.2858991622925 13.1701288223267 12.9923801422119 12.7659578323364 12.7059688568115 12.9291515350342 13.7121620178223 14.5750303268433 15.3984518051147 16.1571464538574 16.2232265472412 15.8508005142212 15.8377513885498 15.6915550231934 15.6713695526123 15.2136211395264 15.292592048645 16.5695514678955 17.0345211029053 18.402774810791 19.6894416809082
-9999 -9999 -9999 -9999 -9999 -9999 -9999 -9999 -9999 -9999 -9999 -9999 -9999 -9999 -9999 -9999 -9999 -9999 -9999 -9999 -9999 -9999 -9999 -9999 -9999 -9999 -9999 11.5222949981689 11.5222949981689 11.5326957702637 11.7190675735474 12.694356918335 13.7968616485596 13.9228792190552 13.8629236221313 13.7672319412231 13.4387226104736 12.9001922607422 12.143238067627 11.5073575973511 11.7627534866333 12.6325531005859 13.4401788711548 14.0343589782715 14.3665533065796 14.3489151000977 14.1282567977905 13.8232097625732 13.5356731414795 13.3837394714355 13.2563371658325 13.0522413253784 12.7273731231689 12.716495513916 13.1099987030029 13.8208513259888 14.4105415344238 15.0717763900757 16.1586151123047 17.2692031860352 17.9758644104004 18.3048076629639 18.2889175415039 17.9808216094971 17.7160511016846 16.9200649261475 17.455680847168 18.031229019165 19.0523490905762 19.6345233917236
-9999 -9999 -9999 -9999 -9999 -9999 -9999 -9999 -9999 -9999 -9999 -9999 -9999 -9999 -9999 -9999 -9999 -9999 -9999 -9999 -9999 -9999 -9999 -9999 -9999 -9999 -9999 -9999 -9999 -9999 12.8793058395386 13.7371692657471 14.8675117492676 15.1161546707153 15.0596609115601 14.8942785263062 14.5211362838745 14.004825592041 13.2406435012817 12.4981241226196 12.5206775665283 13.0940570831299 13.6848430633545 14.1843938827515 14.3610877990723 14.2071571350098 14.0845613479614 13.9629440307617 13.7505159378052 13.5807580947876 13.4866237640381 13.331729888916 12.9718112945557 12.9120254516602 13.4188070297241 14.1041488647461 14.5742998123169 15.3568115234375 16.9482364654541 18.4465713500977 19.3776702880859 19.874324798584 20.2516593933105 20.2213249206543 20.3342571258545 19.8740787506104 19.6634006500244 19.4467906951904 19.4209747314453 19.584939956665
-9999 -9999 -9999 -9999 -9999 -9999 -9999 -9999 -9999 -9999 -9999 -9999 -9999 -9999 -9999 -9999 -9999 -9999 -9999 -9999 -9999 -9999 -9999 -9999 -9999 14.1073811848958 14.3085228602091 14.5042136510213 14.7359349727631 14.6960258483887 14.9476194381714 15.187370300293 15.4280662536621 15.5767440795898 15.584080696106 15.5239458084106 15.2886362075806 14.8844470977783 14.3243770599365 13.7353248596191 13.681736946106 13.9919290542603 14.3566846847534 14.6975183486938 14.5899534225464 14.2752227783203 14.1855897903442 14.1802053451538 14.1226243972778 14.0678520202637 14.0728282928467 14.1190986633301 14.0801382064819 14.1410074234009 14.6262836456299 15.3599348068237 16.1867446899414 17.3930797576904 18.9649963378906 20.0531101226807 20.595890045166 20.951753616333 21.3061199188232 21.5124111175537 21.6879005432129 21.8372993469238 21.9720668792725 21.6294708251953 21.1729526519775 20.836462020874
-9999 -9999 -9999 -9999 -9999 -9999 -9999 -9999 -9999 -9999 -9999 -9999 -9999 -9999 -9999 -9999 -9999 -9999 -9999 -9999 -9999 -9999 -9999 -9999 13.8725070953369 14.1386594772339 14.3109769821167 14.4759321212769 14.7257318496704 15.0460500717163 15.3904304504395 15.6881875991821 15.9176750183105 16.1331157684326 16.33420753479 16.4948196411133 16.4703998565674 16.2048606872559 15.7950191497803 15.3943910598755 15.3069534301758 15.3719005584717 15.597318649292 15.8530988693237 15.6621017456055 15.3231658935547 15.1168489456177 15.0282430648804 15.1076688766479 15.2707872390747 15.4171276092529 15.5651502609253 15.6740274429321 15.7892570495605 16.3208847045898 17.2204513549805 18.3007049560547 19.4167652130127 20.3786144256592 20.8941841125488 21.1885547637939 21.4993686676025 21.8700084686279 22.2235832214355 22.4101448059082 22.7101573944092 23.0349082946777 22.9653282165527 22.5100841522217 22.1616153717041
-9999 -9999 -9999 -9999 -9999 -9999 -9999 -9999 -9999 -9999 -9999 -9999 -9999 -9999 -9999 -9999 -9999 -9999 -9999 -9999 -9999 -9999 -9999 -9999 14.3337669372559 14.7085065841675 14.9540386199951 15.0579662322998 15.1801099777222 15.4199295043945 15.7535171508789 16.0662574768066 16.324535369873 16.5900440216064 16.8514633178711 17.103515625 17.2735843658447 17.2391815185547 17.0625438690186 16.8621826171875 16.8028106689453 16.8991985321045 17.1581134796143 17.4861831665039 17.5819511413574 17.5460872650146 17.3815612792969 17.1579780578613 16.943286895752 16.7221145629883 16.6250743865967 16.6185874938965 16.6688480377197 16.9308109283447 17.6910076141357 18.6360473632812 19.3693180084229 19.9252662658691 20.4348831176758 20.8477802276611 21.3567924499512 21.8776473999023 22.3140087127686 22.618257522583 22.8080959320068 23.1495132446289 23.5433864593506 23.6920547485352 23.5280170440674 23.1889305114746
-9999 -9999 -9999 -9999 -9999 -9999 -9999 -9999 -9999 -9999 -9999 -9999 -9999 -9999 -9999 -9999 -9999 -9999 -9999 -9999 -9999 -9999 -9999 14.4718098640442 14.5074415206909 14.8961791992188 15.1671648025513 15.2930335998535 15.4320430755615 15.6682300567627 15.9391498565674 16.2300319671631 16.5750026702881 16.9286022186279 17.2531204223633 17.5564594268799 17.7861766815186 17.8635635375977 17.8604869842529 17.8667278289795 18.00146484375 18.3984317779541 18.9504489898682 19.4266223907471 19.6704044342041 19.7783355712891 19.767032623291 19.6353015899658 19.2317943572998 18.5255184173584 17.8511028289795 17.4351253509521 17.347412109375 17.5635204315186 18.2395992279053 18.9928379058838 19.5433311462402 20.0331478118896 20.5318927764893 21.1275081634521 21.8409118652344 22.3451633453369 22.626989364624 22.8291969299316 23.0282764434814 23.3097438812256 23.6295433044434 23.8795108795166 23.9238090515137 23.7079524993896
-9999 -9999 -9999 -9999 -9999 -9999 -9999 -9999 -9999 -9999 -9999 -9999 -9999 -9999 -9999 -9999 -9999 -9999 -9999 -9999 -9999 -9999 -9999 14.3495759963989 14.6964550018311 15.0647478103638 15.2666759490967 15.4156637191772 15.6054048538208 15.8358135223389 16.1083526611328 16.4697818756104 16.9196605682373 17.3817138671875 17.785213470459 18.1034679412842 18.3353443145752 18.4714469909668 18.5655956268311 18.7210750579834 19.0490322113037 19.6296787261963 20.3096218109131 20.7655506134033 20.9014472961426 20.8950004577637 20.8755359649658 20.8303813934326 20.6296157836914 20.142297744751 19.3507881164551 18.4583339691162 17.7896575927734 17.6255207061768 18.3071231842041 19.2159118652344 19.9129314422607 20.4623584747314 20.8450527191162 21.4783821105957 22.184024810791 22.5477886199951 22.7296924591064 22.8747749328613 23.0265865325928 23.2341918945312 23.4595146179199 23.6500816345215 23.7440509796143 23.6970558166504
-9999 -9999 -9999 -9999 -9999 -9999 -9999 -9999 -9999 -9999 -9999 -9999 -9999 -9999 -9999 -9999 -9999 -9999 -9999 -9999 -9999 -9999 14.5643663406372 14.6926374435425 15.0597848892212 15.356333732605 15.4678230285645 15.5596704483032 15.7101259231567 15.9406604766846 16.3055839538574 16.7661666870117 17.3032779693604 17.8847827911377 18.3176937103271 18.5198841094971 18.6101608276367 18.6837730407715 18.7662525177002 18.9130611419678 19.2707958221436 19.913444519043 20.6150569915771 21.0372009277344 21.1263542175293 21.0436859130859 20.9952182769775 21.0449371337891 21.0738754272461 20.9384155273438 20.5359916687012 19.6408042907715 18.4717063903809 17.89919090271 18.5599212646484 19.6623153686523 20.4135570526123 20.787841796875 20.9917888641357 21.5142269134521 22.1249561309814 22.4546318054199 22.6307010650635 22.7613372802734 22.8710308074951 23.0015678405762 23.1487331390381 23.3088645935059 23.4815902709961 23.6425304412842
-9999 -9999 -9999 -9999 -9999 -9999 -9999 -9999 -9999 -9999 -9999 -9999 -9999 -9999 14.814560757743 -9999 -9999 -9999 -9999 14.3930568695068 -9999 14.7508201599121 14.8748826980591 15.1829414367676 15.4965505599976 15.6614408493042 15.677059173584 15.7083435058594 15.8206748962402 16.0686721801758 16.5400619506836 17.1822967529297 17.9164695739746 18.5970687866211 18.9570808410645 18.96994972229 18.9167747497559 18.9172954559326 18.8831539154053 18.8320350646973 19.0291690826416 19.6931228637695 20.5804290771484 21.1857604980469 21.3785495758057 21.3875331878662 21.4040603637695 21.4924144744873 21.6024856567383 21.5453701019287 21.3175868988037 20.7037830352783 19.4905548095703 18.6389198303223 19.0540790557861 20.0845336914062 20.7286071777344 20.898754119873 21.0123386383057 21.3653659820557 21.8633117675781 22.2652015686035 22.5207767486572 22.6966457366943 22.8435001373291 22.9771480560303 23.1113433837891 23.2493133544922 23.4434356689453 23.7231712341309
-9999 -9999 -9999 -9999 -9999 -9999 -9999 -9999 -9999 -9999 -9999 -9999 -9999 -9999 14.8183958530426 -9999 -9999 -9999 -9999 14.4811878204346 14.9291933059692 15.2160024642944 15.4524240493774 15.6922378540039 15.89417552948 15.9826135635376 16.0012397766113 16.0522785186768 16.1589031219482 16.5394954681396 17.3454532623291 18.3275852203369 19.1539325714111 19.6554012298584 19.7660942077637 19.6355037689209 19.5687675476074 19.5952968597412 19.5498657226562 19.4049129486084 19.3443832397461 19.6272811889648 20.361349105835 21.1462287902832 21.5327053070068 21.6777763366699 21.8451232910156 22.0572338104248 22.2601222991943 22.2343044281006 21.9319477081299 21.504415512085 20.6372222900391 19.7391605377197 19.7413368225098 20.4523334503174 20.9542655944824 21.0362281799316 21.2082290649414 21.6703777313232 22.2431030273438 22.723274230957 23.0431575775146 23.2325820922852 23.3546295166016 23.4565372467041 23.5537128448486 23.6326599121094 23.7629146575928 24.0304145812988
-9999 -9999 -9999 -9999 -9999 -9999 -9999 -9999 -9999 -9999 -9999 -9999 -9999 -9999 14.8011379241943 -9999 -9999 -9999 -9999 -9999 15.6486611366272 15.7167682647705 15.891357421875 16.0235710144043 16.180025100708 16.3013286590576 16.3727245330811 16.4511756896973 16.7528400421143 17.5466766357422 18.6505756378174 19.6469440460205 20.2355346679688 20.4121780395508 20.3747615814209 20.3137283325195 20.3615665435791 20.4161567687988 20.4847087860107 20.6015548706055 20.5779914855957 20.5428066253662 20.8413009643555 21.370943069458 21.7717361450195 22.0200614929199 22.3069381713867 22.7024688720703 23.1152019500732 23.28395652771 23.0673370361328 22.6128444671631 21.8983879089355 21.0488433837891 20.7136573791504 21.1520862579346 21.6183757781982 21.8120937347412 22.2739887237549 23.0191173553467 23.6840572357178 24.0473289489746 24.17160987854 24.167839050293 24.1181163787842 24.0753269195557 24.0275001525879 23.9648532867432 23.9656257629395 24.1378917694092
-9999 -9999 -9999 -9999 -9999 -9999 -9999 -9999 -9999 -9999 -9999 -9999 -9999 -9999 14.8249936103821 -9999 14.8701696395874 -9999 -9999 -9999 15.7371845245361 15.9246892929077 16.0925426483154 16.1592540740967 16.27952003479 16.4205417633057 16.5413246154785 16.7847747802734 17.4401378631592 18.4664821624756 19.4304046630859 20.1117935180664 20.4554004669189 20.6109409332275 20.7554893493652 20.8772735595703 21.0915699005127 21.3193778991699 21.5269660949707 21.7875576019287 21.8977031707764 21.9539165496826 22.1125907897949 22.3337440490723 22.5756168365479 22.8116149902344 23.1108360290527 23.5680313110352 24.0737991333008 24.3463439941406 24.2744064331055 23.9142322540283 23.2848300933838 22.3937110900879 21.7351131439209 21.8494911193848 22.2888450622559 22.7774620056152 23.5716667175293 24.3385009765625 24.7279834747314 24.7301120758057 24.5429973602295 24.3622074127197 24.2421188354492 24.1630821228027 24.0759010314941 23.9376907348633 23.8408336639404 23.960542678833
-9999 -9999 -9999 -9999 -9999 -9999 -9999 -9999 -9999 -9999 -9999 -9999 -9999 -9999 14.8249936103821 14.8488492965698 14.9390735626221 -9999 -9999 15.8912806510925 15.8519802093506 16.0624504089355 16.1299800872803 16.1037292480469 16.2029762268066 16.4281005859375 16.7839431762695 17.4111328125 18.3676662445068 19.3668975830078 20.098560333252 20.5675525665283 20.8944873809814 21.2187728881836 21.5005149841309 21.6907062530518 21.9433555603027 22.2245960235596 22.4421825408936 22.6619625091553 22.8438396453857 23.0176372528076 23.1883201599121 23.3202590942383 23.4394836425781 23.5763092041016 23.7867431640625 24.1735858917236 24.6218852996826 24.8406810760498 24.7818946838379 24.5845718383789 24.2693729400635 23.5851497650146 22.7833194732666 22.558744430542 22.9143085479736 23.6576347351074 24.3877143859863 24.7115383148193 24.6036720275879 24.2930335998535 24.071605682373 23.9868907928467 23.975414276123 23.9622535705566 23.9310970306396 23.8395595550537 23.747673034668 23.8314876556396
-9999 -9999 -9999 -9999 -9999 -9999 -9999 -9999 -9999 -9999 -9999 -9999 -9999 -9999 -9999 14.9978042602539 15.0056352615356 -9999 15.6170222759247 15.9259777069092 16.0499801635742 16.1390132904053 16.1097850799561 16.2202415466309 16.7212886810303 17.4731674194336 18.3660926818848 19.3211269378662 20.2390880584717 21.0363807678223 21.5762271881104 21.90549659729 22.2390995025635 22.6134395599365 22.9420757293701 23.1888942718506 23.3815307617188 23.5077171325684 23.5662746429443 23.6076927185059 23.6690902709961 23.7852058410645 23.9445838928223 24.0628147125244 24.1022243499756 24.1019191741943 24.1772193908691 24.42307472229 24.6899375915527 24.8040199279785 24.7591285705566 24.6348552703857 24.5511875152588 24.2337055206299 23.5707836151123 23.2813396453857 23.6117496490479 24.2151050567627 24.4680881500244 24.3313751220703 24.0343151092529 23.7921485900879 23.7172679901123 23.7445125579834 23.7958889007568 23.8076553344727 23.8269519805908 23.8187561035156 23.7573890686035 23.7952880859375
-9999 -9999 -9999 -9999 -9999 -9999 -9999 -9999 -9999 -9999 -9999 -9999 -9999 -9999 -9999 15.0994596481323 15.0960035324097 -9999 15.5919637680054 15.9000701904297 16.1311302185059 16.2922019958496 16.57546043396 17.3545913696289 18.574239730835 19.705587387085 20.6057567596436 21.3660011291504 21.9650974273682 22.4706935882568 22.9769344329834 23.4663162231445 23.9095802307129 24.2464408874512 24.4540386199951 24.5511131286621 24.5512561798096 24.4886360168457 24.4349479675293 24.4226570129395 24.4553108215332 24.5150451660156 24.5545310974121 24.5432052612305 24.4881153106689 24.4350967407227 24.4621238708496 24.5196857452393 24.5210304260254 24.5198612213135 24.5404987335205 24.5484294891357 24.5709037780762 24.4230442047119 24.0072040557861 23.9154930114746 24.1704845428467 24.3320274353027 24.2148017883301 24.0131015777588 23.8234519958496 23.6971092224121 23.646068572998 23.6384315490723 23.6421241760254 23.6510448455811 23.7479724884033 23.8329181671143 23.773962020874 23.7661838531494
-9999 -9999 -9999 -9999 -9999 -9999 -9999 -9999 -9999 -9999 -9999 -9999 -9999 -9999 -9999 15.1572675704956 -9999 15.2459665025984 15.4877281188965 15.8422822952271 16.2379264831543 16.8077735900879 17.8811359405518 19.578634262085 21.2980670928955 22.5586357116699 23.3856582641602 23.9044876098633 24.2170658111572 24.4322509765625 24.6828689575195 24.9553451538086 25.1572799682617 25.2350120544434 25.1686840057373 24.9947319030762 24.7889995574951 24.6555233001709 24.6473979949951 24.753324508667 24.884838104248 24.9358501434326 24.8703994750977 24.7119045257568 24.5985317230225 24.6376514434814 24.6256408691406 24.4035224914551 24.1721820831299 24.1535129547119 24.2622871398926 24.3566436767578 24.4314041137695 24.351921081543 24.2235622406006 24.291202545166 24.2902717590332 24.1494941711426 24.0181274414062 23.8961925506592 23.8042068481445 23.7836456298828 23.7837142944336 23.7493724822998 23.6697273254395 23.5950946807861 23.6973114013672 23.8426036834717 23.7733192443848 23.7344818115234
-9999 -9999 -9999 -9999 -9999 -9999 -9999 -9999 -9999 -9999 -9999 -9999 -9999 -9999 15.1572675704956 15.075990041097 14.999418258667 15.0908689498901 15.3844985961914 15.7822017669678 16.4637088775635 17.7878856658936 19.989652633667 22.3421249389648 23.8786563873291 24.8014068603516 25.2905426025391 25.4973564147949 25.5335445404053 25.4811706542969 25.4044170379639 25.305606842041 25.1449718475342 24.9263534545898 24.6801738739014 24.4381313323975 24.2896137237549 24.2840919494629 24.3615589141846 24.4892978668213 24.6291160583496 24.7259407043457 24.7914180755615 24.7773551940918 24.7134323120117 24.7327442169189 24.5782241821289 24.1550922393799 23.8078842163086 23.7932109832764 24.0956058502197 24.3686828613281 24.462926864624 24.3992671966553 24.2935771942139 24.2583694458008 24.1380844116211 23.9807834625244 23.8757629394531 23.7762756347656 23.7664527893066 23.8684692382812 23.9318161010742 23.8830394744873 23.7757472991943 23.6623725891113 23.7165794372559 23.8303203582764 23.7361030578613 23.6985168457031
-9999 -9999 -9999 -9999 -9999 -9999 -9999 -9999 -9999 -9999 -9999 -9999 -9999 -9999 -9999 -9999 15.1516768932343 15.1576404571533 15.4673185348511 15.9038343429565 16.9515209197998 19.2107257843018 22.2091426849365 24.349365234375 25.3378658294678 25.7214488983154 25.8101272583008 25.7003688812256 25.4769020080566 25.2158164978027 24.936840057373 24.6454524993896 24.372766494751 24.1436920166016 23.9565296173096 23.8473243713379 23.8547859191895 23.9442672729492 24.0352935791016 24.0906372070312 24.1669044494629 24.2984161376953 24.476318359375 24.6712093353271 24.7563800811768 24.7226810455322 24.4314670562744 24.0162544250488 23.7118587493896 23.6607837677002 23.9529838562012 24.3597106933594 24.5051937103271 24.3940086364746 24.2497177124023 24.1901245117188 24.0505142211914 23.8820533752441 23.7741069793701 23.7352542877197 23.805534362793 23.9292449951172 23.9567680358887 23.882926940918 23.7759037017822 23.6826953887939 23.7189998626709 23.7802677154541 23.688606262207 23.6859340667725
-9999 -9999 -9999 -9999 -9999 -9999 -9999 -9999 -9999 -9999 -9999 -9999 -9999 -9999 -9999 -9999 15.2582101821899 15.3587799072266 15.6786079406738 16.2069187164307 17.8232040405273 21.1136341094971 24.2064647674561 25.4961013793945 25.9072074890137 25.8966522216797 25.6147918701172 25.1769313812256 24.7609462738037 24.4194164276123 24.1555633544922 23.9718399047852 23.8339252471924 23.7199401855469 23.6301078796387 23.5811080932617 23.5698013305664 23.5933322906494 23.6198234558105 23.6358203887939 23.7561855316162 23.9598579406738 24.1645259857178 24.4511833190918 24.6239719390869 24.5400485992432 24.2458419799805 23.9509181976318 23.7020816802979 23.6572532653809 23.9220066070557 24.3409881591797 24.4917106628418 24.3282718658447 24.211706161499 24.1522655487061 23.9823970794678 23.7822608947754 23.6746082305908 23.7003040313721 23.8326473236084 23.948055267334 23.9292011260986 23.8602428436279 23.803165435791 23.765266418457 23.7885131835938 23.7926197052002 23.7153854370117 23.721061706543
-9999 -9999 -9999 -9999 -9999 -9999 -9999 -9999 -9999 -9999 -9999 -9999 -9999 -9999 -9999 -9999 -9999 15.8199877738953 15.8035049438477 16.9428768157959 19.7630939483643 23.502140045166 25.4783058166504 25.9755420684814 25.9717922210693 25.608793258667 24.9991893768311 24.4445037841797 24.0911178588867 23.8909664154053 23.8036918640137 23.7589740753174 23.6979942321777 23.6308822631836 23.5693969726562 23.4914264678955 23.4016990661621 23.3546848297119 23.3366813659668 23.4070606231689 23.6158771514893 23.8609580993652 24.1241970062256 24.3978004455566 24.4409484863281 24.2754058837891 24.1720733642578 24.0502281188965 23.8475456237793 23.7857532501221 23.9818096160889 24.2940940856934 24.3944072723389 24.262825012207 24.1637992858887 24.0019035339355 23.7314453125 23.5332088470459 23.5425682067871 23.6976127624512 23.8361663818359 23.8990039825439 23.9155445098877 23.9603939056396 24.0204620361328 24.0197811126709 23.9736824035645 23.9028205871582 23.798849105835 23.762752532959
-9999 -9999 -9999 -9999 -9999 -9999 -9999 -9999 -9999 -9999 -9999 -9999 -9999 -9999 15.3336374759674 15.3587799072266 15.9347769021988 16.1212816238403 16.439058303833 18.7362041473389 22.4668769836426 25.2388744354248 26.0266876220703 26.0967788696289 25.7814559936523 25.1051979064941 24.3698444366455 23.9471416473389 23.7810707092285 23.720760345459 23.7227249145508 23.726016998291 23.6956081390381 23.6568984985352 23.6158847808838 23.5706462860107 23.562931060791 23.5908317565918 23.5322074890137 23.4878711700439 23.618766784668 23.8182220458984 24.0205745697021 24.2256183624268 24.2200775146484 24.083044052124 24.1494007110596 24.1987209320068 24.0883140563965 24.0105934143066 24.0943183898926 24.2490386962891 24.2848339080811 24.2016105651855 24.0189075469971 23.7300567626953 23.4890251159668 23.417163848877 23.5322570800781 23.720272064209 23.8621063232422 23.9154205322266 23.9834594726562 24.1144847869873 24.2163486480713 24.2194519042969 24.1296825408936 23.9831886291504 23.8273696899414 23.7534065246582
-9999 -9999 -9999 -9999 -9999 -9999 -9999 -9999 -9999 -9999 -9999 -9999 -9999 -9999 -9999 -9999 -9999 -9999 19.62175989151 20.9006519317627 23.9387855529785 25.8799648284912 26.1576442718506 25.9996509552002 25.4281330108643 24.616397857666 24.0015869140625 23.7694568634033 23.6910514831543 23.6637077331543 23.6932678222656 23.7245712280273 23.7289257049561 23.7168369293213 23.6955528259277 23.6950874328613 23.7637882232666 23.8568210601807 23.8241729736328 23.6973819732666 23.7001037597656 23.8354320526123 23.9762363433838 24.1342334747314 24.1064033508301 23.9490661621094 24.0877552032471 24.2586917877197 24.2593460083008 24.2279434204102 24.2303733825684 24.2141647338867 24.0939846038818 23.9424533843994 23.7402667999268 23.5843162536621 23.5116539001465 23.5502223968506 23.6785221099854 23.8005027770996 23.9216785430908 24.0050678253174 24.1037693023682 24.2480716705322 24.3615016937256 24.3603572845459 24.2373313903809 24.0413379669189 23.8557624816895 23.7887783050537
-9999 -9999 -9999 -9999 -9999 -9999 -9999 -9999 -9999 -9999 -9999 -9999 -9999 -9999 -9999 -9999 -9999 21.5341911315918 22.2174477577209 22.4111251831055 24.6093235015869 26.1326160430908 26.1747226715088 25.8023929595947 25.0332736968994 24.2229919433594 23.8047962188721 23.6975612640381 23.6465892791748 23.6357040405273 23.6828289031982 23.7396240234375 23.7733173370361 23.7757148742676 23.7544021606445 23.7541675567627 23.8123264312744 23.893726348877 23.9042911529541 23.8018550872803 23.7413749694824 23.8269233703613 23.9357604980469 24.0570106506348 23.9953880310059 23.8474426269531 24.0077705383301 24.2184085845947 24.2095394134521 24.0880222320557 23.9827175140381 23.8709278106689 23.8016471862793 23.8034267425537 23.7764797210693 23.7983741760254 23.8594913482666 23.9264144897461 23.9860534667969 24.0098819732666 24.0877532958984 24.2109298706055 24.3611087799072 24.5149173736572 24.6557426452637 24.7100238800049 24.6040287017822 24.3589420318604 24.1168308258057 24.0450305938721
-9999 -9999 -9999 -9999 -9999 -9999 -9999 -9999 -9999 -9999 -9999 -9999 -9999 21.7171325683594 22.058437983195 -9999 22.2717418670654 22.4297199249268 21.5341911315918 24.0238227844238 25.8267288208008 26.3500652313232 26.151065826416 25.5640468597412 24.6682834625244 23.95485496521 23.7256851196289 23.6696510314941 23.6514854431152 23.6843719482422 23.7607345581055 23.8310966491699 23.869649887085 23.8569812774658 23.7986392974854 23.7468166351318 23.7571640014648 23.7857704162598 23.7864456176758 23.7346382141113 23.6874656677246 23.7483901977539 23.8388385772705 23.9507331848145 23.9072589874268 23.8756484985352 24.0030536651611 24.1303424835205 24.1564083099365 24.0518283843994 23.8493576049805 23.7424049377441 23.7779159545898 23.8591194152832 23.9465312957764 24.0319576263428 24.0882396697998 24.1122894287109 24.1363410949707 24.1507053375244 24.208740234375 24.3168544769287 24.471565246582 24.61789894104 24.7171802520752 24.7227210998535 24.6042613983154 24.4295787811279 24.2928810119629 24.2913150787354
-9999 -9999 -9999 -9999 -9999 -9999 -9999 -9999 -9999 -9999 -9999 -9999 -9999 -9999 21.7171325683594 22.3763198852539 22.0818614959717 22.4616222381592 23.6412048339844 25.816556930542 26.424976348877 26.2938823699951 25.8449649810791 25.1537017822266 24.3249015808105 23.826810836792 23.7340431213379 23.7155361175537 23.7341156005859 23.8050155639648 23.9100303649902 23.966667175293 23.9607315063477 23.8968677520752 23.8084201812744 23.7492008209229 23.7396373748779 23.7249946594238 23.6935749053955 23.6628837585449 23.6421661376953 23.6801567077637 23.758243560791 23.8697948455811 23.9119529724121 23.9384288787842 23.9487266540527 23.9791259765625 24.0397834777832 23.9945755004883 23.8398761749268 23.7651996612549 23.7873592376709 23.8880996704102 24.016996383667 24.0975360870361 24.115758895874 24.1065502166748 24.0967540740967 24.1025524139404 24.1474628448486 24.2537040710449 24.391149520874 24.4449863433838 24.3654003143311 24.209587097168 24.0515365600586 23.9712581634521 24.0137023925781 24.1720542907715
-9999 -9999 -9999 -9999 -9999 -9999 -9999 -9999 -9999 -9999 -9999 -9999 -9999 -9999 22.1583709716797 21.7171325683594 23.3299655914307 24.3773212432861 25.7888221740723 26.4771289825439 26.4027805328369 26.0583381652832 25.5671329498291 24.8322982788086 24.081298828125 23.8028736114502 23.777774810791 23.8202972412109 23.8806133270264 23.9562320709229 24.0414581298828 24.058521270752 24.021764755249 23.9478416442871 23.8655815124512 23.8150081634521 23.7893810272217 23.7639770507812 23.7280826568604 23.6848297119141 23.6597309112549 23.6892871856689 23.7824230194092 23.9536552429199 24.0489330291748 23.9651222229004 23.8518047332764 23.8849620819092 24.0355682373047 24.099910736084 24.0309009552002 23.9656143188477 23.9671497344971 24.0447254180908 24.1213626861572 24.1485481262207 24.1322383880615 24.0960540771484 24.0307636260986 23.9909267425537 24.0363674163818 24.1415634155273 24.2267799377441 24.1886806488037 24.0201244354248 23.8682727813721 23.7960472106934 23.7366542816162 23.7544269561768 23.875394821167
-9999 -9999 -9999 -9999 -9999 -9999 -9999 -9999 -9999 -9999 -9999 21.0222625732422 21.3833274841309 22.0482559204102 21.6181659698486 23.2499294281006 25.339204788208 26.1348152160645 26.5003929138184 26.508020401001 26.2306480407715 25.781566619873 25.304594039917 24.5539588928223 23.9263725280762 23.825023651123 23.8102207183838 23.8964042663574 23.9915504455566 24.0558280944824 24.1125354766846 24.0904674530029 24.0263786315918 23.9572296142578 23.8958072662354 23.8540229797363 23.8298931121826 23.8113231658936 23.7897567749023 23.7630500793457 23.756046295166 23.8092613220215 23.956075668335 24.1426639556885 24.1645126342773 23.9917964935303 23.8311653137207 23.8531436920166 24.0870914459229 24.3198757171631 24.3677940368652 24.2561569213867 24.1501541137695 24.1197166442871 24.1189231872559 24.1125926971436 24.1454086303711 24.2092895507812 24.2141761779785 24.1439590454102 24.1134967803955 24.1240043640137 24.1194324493408 24.0469970703125 23.9347343444824 23.8951473236084 23.9021873474121 23.893726348877 23.9000854492188 23.8952732086182
-9999 -9999 -9999 -9999 -9999 -9999 -9999 -9999 -9999 20.9694881439209 21.5347518920898 22.1761455535889 22.9317665100098 23.494176864624 23.0898666381836 24.7751007080078 26.109188079834 26.5289554595947 26.5574550628662 26.3441352844238 25.8867149353027 25.4358100891113 25.0764980316162 24.3818988800049 23.8707008361816 23.8830089569092 23.8470020294189 23.9376525878906 24.063777923584 24.1104202270508 24.1361789703369 24.1008682250977 24.0342197418213 23.9710998535156 23.9087924957275 23.8540210723877 23.8441886901855 23.8603668212891 23.8717594146729 23.8720932006836 23.8795299530029 23.9559936523438 24.0922756195068 24.1689796447754 24.1010036468506 23.9705600738525 23.8845272064209 23.9289817810059 24.1437244415283 24.3843631744385 24.4808712005615 24.3914775848389 24.2481670379639 24.1410903930664 24.0506744384766 23.9544486999512 23.9404563903809 24.0760707855225 24.2534694671631 24.276538848877 24.1892185211182 24.1105632781982 24.0814437866211 24.030424118042 24.00510597229 24.012975692749 24.0512886047363 24.0842990875244 24.1196765899658 24.1302070617676
-9999 -9999 -9999 -9999 -9999 -9999 -9999 -9999 -9999 21.5614604949951 22.5826549530029 23.5563106536865 24.4625301361084 24.8875522613525 24.8048496246338 26.0826625823975 26.5750942230225 26.5751934051514 26.3851928710938 25.9994983673096 25.5053386688232 25.2132530212402 24.9068393707275 24.2624969482422 23.8747272491455 23.9547367095947 23.8807373046875 23.9358234405518 24.0762348175049 24.1286907196045 24.154914855957 24.1552219390869 24.1406745910645 24.1335678100586 24.1011142730713 23.9954471588135 23.9186363220215 23.9376945495605 23.9747886657715 23.9832324981689 24.0080528259277 24.1062774658203 24.1819362640381 24.1742782592773 24.1203708648682 24.0617599487305 24.0221672058105 24.0785865783691 24.2645397186279 24.4538497924805 24.5019435882568 24.3566837310791 24.1432323455811 24.0156383514404 23.9480266571045 23.8428421020508 23.7715549468994 23.8676815032959 24.0884628295898 24.2216205596924 24.1484718322754 24.0385932922363 24.0494689941406 24.0534648895264 24.0664157867432 24.0884170532227 24.1307029724121 24.1646099090576 24.197359085083 24.2255039215088
-9999 -9999 -9999 -9999 -9999 21.403265953064 21.2200374603271 21.5454502105713 21.4582672119141 21.9064636230469 22.958984375 24.2111701965332 25.3582630157471 25.959342956543 26.2842788696289 26.6506958007812 26.6033039093018 26.3646011352539 26.0199317932129 25.5845603942871 25.2080726623535 25.0893268585205 24.8153400421143 24.2161827087402 23.9265384674072 24.0425987243652 23.9283638000488 23.9105625152588 24.052116394043 24.1609153747559 24.23166847229 24.2884330749512 24.3419589996338 24.4064674377441 24.4377574920654 24.3348369598389 24.1552410125732 24.0810718536377 24.1060333251953 24.1480560302734 24.2229480743408 24.2891864776611 24.2703628540039 24.1948070526123 24.1320838928223 24.1257877349854 24.1538829803467 24.2098903656006 24.323751449585 24.442081451416 24.4037628173828 24.1533145904541 23.8690185546875 23.7773990631104 23.7742919921875 23.7330703735352 23.7222747802734 23.8160076141357 23.9330577850342 23.9973087310791 23.9670944213867 23.9119071960449 23.9866313934326 24.068229675293 24.1067008972168 24.1560001373291 24.2206211090088 24.256706237793 24.2856483459473 24.2946319580078
-9999 -9999 -9999 -9999 20.799165725708 21.1865291595459 22.4073314666748 23.1828269958496 23.1931133270264 23.5134925842285 23.8782806396484 25.0637168884277 26.0096454620361 26.5858192443848 26.7817554473877 26.6280612945557 26.3093681335449 25.9779186248779 25.6378040313721 25.2763137817383 25.0566921234131 25.0453701019287 24.7614097595215 24.2203750610352 24.0377979278564 24.170015335083 23.9999122619629 23.8590393066406 23.9594821929932 24.0781154632568 24.1643028259277 24.2403831481934 24.3316764831543 24.4406967163086 24.5364036560059 24.5355033874512 24.378734588623 24.2453765869141 24.2580375671387 24.3334255218506 24.3906555175781 24.3527183532715 24.2481822967529 24.1570472717285 24.1178569793701 24.1295948028564 24.1441135406494 24.1192283630371 24.181209564209 24.3036060333252 24.251012802124 23.9558391571045 23.7149143218994 23.6903495788574 23.7246875762939 23.7282810211182 23.7626094818115 23.8301467895508 23.8342742919922 23.7895793914795 23.7646312713623 23.7876605987549 23.8898582458496 24.0339450836182 24.1079044342041 24.1746349334717 24.2270832061768 24.2675762176514 24.3181171417236 24.3656463623047
-9999 -9999 -9999 21.6440114974976 21.5286483764648 22.6492042541504 24.0484256744385 24.7626495361328 24.9323329925537 25.3769187927246 25.512149810791 26.2671699523926 26.807710647583 26.9156112670898 26.728141784668 26.3290309906006 25.9720306396484 25.6559448242188 25.3462810516357 25.0834140777588 25.0279541015625 25.0434131622314 24.7283420562744 24.2646331787109 24.1967391967773 24.3588275909424 24.1924476623535 23.9032611846924 23.904878616333 24.0221481323242 24.0936450958252 24.1590671539307 24.2611198425293 24.4069480895996 24.5389556884766 24.5817050933838 24.515697479248 24.4615268707275 24.5214977264404 24.6239738464355 24.6540260314941 24.5604763031006 24.4060173034668 24.257984161377 24.1418209075928 24.0679225921631 24.0124530792236 23.9860706329346 24.0637702941895 24.1069602966309 23.9972038269043 23.8288440704346 23.7967300415039 23.8239059448242 23.8271427154541 23.8272666931152 23.8681774139404 23.9115886688232 23.8869724273682 23.7965564727783 23.710657119751 23.7212200164795 23.8277168273926 23.9912605285645 24.0960350036621 24.158805847168 24.1884803771973 24.2053623199463 24.2524089813232 24.3216991424561
-9999 -9999 -9999 21.6421566009521 22.6060752868652 24.2024631500244 25.3458118438721 25.7788486480713 26.0780029296875 26.5681800842285 26.8139457702637 26.9980144500732 26.9557571411133 26.7093448638916 26.2936687469482 25.9455108642578 25.6425762176514 25.3557205200195 25.1805152893066 25.0387592315674 25.061616897583 25.0382614135742 24.7050647735596 24.2922592163086 24.251350402832 24.4392833709717 24.429988861084 24.1651248931885 23.9783897399902 24.0285968780518 24.094181060791 24.1269664764404 24.2102508544922 24.3557796478271 24.4766178131104 24.5307140350342 24.5435981750488 24.5887832641602 24.707555770874 24.7989559173584 24.7421073913574 24.6098480224609 24.4757900238037 24.3314094543457 24.1981334686279 24.0722160339355 23.9730987548828 23.9591732025146 23.9971466064453 23.9785289764404 23.9687919616699 24.0011157989502 24.0314693450928 24.0238914489746 23.9873943328857 23.9589138031006 23.956693649292 23.9595890045166 23.9405899047852 23.8626289367676 23.7590465545654 23.7241497039795 23.8028030395508 23.9609375 24.0836791992188 24.1434936523438 24.1459808349609 24.1330852508545 24.1654243469238 24.2622566223145
