NCOLS 35 
NROWS 26 
XLLCORNER -80 
YLLCORNER 33 
CELLSIZE 0.5 
NODATA_value -9999 
-9999.000000000000000 -9999 -9999 -9999 -9999 -9999 -9999 -9999 -9999 -9999 -9999 -9999 -9999 -9999 -9999 -9999 -9999 -9999 -9999 -9999 -9999 -9999 -9999 -9999 -9999 -9999 -9999 -9999 -9999 -9999 -9999 -9999 -9999 -9999 -9999
-9999 -9999 -9999 -9999 -9999 -9999 -9999 -9999 -9999 -9999 -9999 -9999 -9999 -9999 -9999 -9999 -9999 -9999 -9999 -9999 -9999 -9999 -9999 -9999 -9999 -9999 -9999 -9999 -9999 5.4613035400398 -9999 -9999 -9999 -9999 -9999
-9999 -9999 -9999 -9999 -9999 -9999 -9999 -9999 -9999 -9999 -9999 -9999 -9999 -9999 -9999 -9999 -9999 -9999 -9999 -9999 -9999 -9999 -9999 -9999 -9999 -9999 6.12905210598619 6.09353104902697 5.87595719561046 5.51996734986635 -9999 -9999 -9999 -9999 -9999
-9999 -9999 -9999 -9999 -9999 -9999 -9999 -9999 -9999 -9999 -9999 -9999 -9999 -9999 -9999 -9999 -9999 -9999 -9999 -9999 -9999 -9999 -9999 6.73341253279592 7.00168387351884 6.83692458279725 6.14929414748243 5.37764873201747 -9999 -9999 -9999 3.94943773275671 4.32286842393425 4.56828285324737 4.93783305890975
-9999 -9999 -9999 -9999 -9999 -9999 -9999 -9999 -9999 -9999 -9999 -9999 -9999 -9999 -9999 -9999 -9999 -9999 -9999 -9999 6.28347482775429 6.91516042157838 7.45784443576047 7.64241868674912 7.40324142017663 6.92000946652652 5.61224528983431 4.5485939223291 -9999 -9999 4.31707759902689 4.55282087823528 5.00129753475124 5.7264008455086 6.49941843803194
-9999 -9999 -9999 -9999 -9999 -9999 -9999 -9999 -9999 -9999 -9999 -9999 -9999 -9999 -9999 -9999 -9999 -9999 -9999 7.37356341038203 7.805475776279 8.01746039995771 7.93149736306376 8.03627557213333 8.14249705820533 7.35473060041753 5.53401983238608 4.69797306968616 4.2709588575402 4.6924869098219 4.82647142740909 4.86616453946526 5.40901552724629 6.6453385982289 7.70883019069031
-9999 -9999 -9999 -9999 -9999 -9999 -9999 -9999 -9999 -9999 -9999 -9999 -9999 -9999 -9999 -9999 -9999 -9999 -9999 7.89894006007177 8.19088722266844 8.16200283674955 8.08088458841315 8.23495456633993 8.07019364832223 7.44839500793415 6.72842895216287 5.95890371939114 5.52390565397219 5.58925488872511 5.98095767365387 6.06866692390679 6.74360625126064 8.15518284346998 8.75468126091931
-9999 -9999 -9999 -9999 -9999 -9999 -9999 -9999 -9999 -9999 -9999 -9999 -9999 -9999 -9999 -9999 -9999 -9999 -9999 7.71276222272025 8.14901263654988 8.19917051266337 8.13051516375486 8.20991724987256 8.21279338610585 8.22386508708659 8.14748144065195 7.59373827702872 6.92245001061225 7.45835826355899 8.52283753275267 8.68178981969861 8.67769353118916 9.16560463990819 10.324858447723
-9999 -9999 -9999 -9999 -9999 -9999 -9999 -9999 -9999 -9999 -9999 -9999 -9999 -9999 -9999 -9999 -9999 -9999 -9999 6.51183238234351 7.91306038630988 8.60830407419818 9.03656206228078 8.63526846784575 8.53049792513306 8.88873895918238 9.07211630361286 8.64862063376546 8.10949961772619 9.0292028496786 10.1817843030771 10.6712641090064 10.7585935642301 11.3110171093292 11.4507079083246
-9999 -9999 -9999 -9999 -9999 -9999 -9999 -9999 -9999 -9999 -9999 -9999 -9999 -9999 -9999 -9999 -9999 8.32681543026601 7.07817492496677 6.54773281946898 7.63522245595269 9.11032855123865 9.92272487079495 9.31086456296687 9.14597827303428 9.38214677496253 9.20431384659546 10.3221621386206 12.6640625650469 13.4252892929448 12.1327461868613 11.6369668242074 12.0892899289741 12.6771907034827 12.6988024810048
-9999 -9999 -9999 -9999 -9999 -9999 -9999 -9999 -9999 -9999 -9999 -9999 -9999 -9999 8.33271428325943 8.56081366462489 8.93644037752426 9.29934712701532 8.84131628818625 8.2947865134758 8.91173181615292 10.0244765243775 10.5585279561942 10.2723959893013 10.2569812907027 10.9659166108574 12.9998375031354 15.543871820366 16.9078744292264 17.2464419868769 15.9907629803071 15.0881490913356 14.7003781442849 14.9803533865507 15.8925531958425
-9999 -9999 -9999 -9999 -9999 -9999 -9999 -9999 -9999 -9999 -9999 -9999 8.89799140995491 9.33713279204049 9.5331574740479 9.77568922669453 10.3885812145723 10.9361037084508 11.1743183575562 11.104360968785 10.9325583261763 11.0897851670522 11.4040523572356 11.8672739172256 13.6131080323555 15.7532518916916 17.6713509398942 18.4252477986765 18.8538679992635 18.7518720602385 18.2854884763846 18.4151975087164 17.4866646812498 16.0279780162256 17.0558379793906
-9999 -9999 -9999 -9999 -9999 -9999 -9999 -9999 -9999 -9999 -9999 -9999 9.24506477045538 9.78419343796592 10.2538856581592 11.6830817342271 13.1125621821685 13.8367547341058 13.853169031375 13.5032069415922 12.5766605679031 12.8523341558886 13.455665838067 14.718266605488 16.4334088851392 17.5650859070348 18.4630361417109 18.807212063762 18.9640718976019 18.3634550368525 18.5046426762552 18.910416446258 18.9723722485571 17.9221978791135 18.0080446534451
-9999 -9999 -9999 -9999 -9999 -9999 -9999 -9999 -9999 6.64569153640504 7.66636633838847 8.71707599932185 9.58238608721751 10.2861272477478 12.1222701713408 14.5302875190653 15.5181614613816 15.7713197801595 15.8854512170088 15.9727379882805 15.2393889337461 14.4298823877297 14.5599747160132 15.4352655261553 16.616673493686 17.5008244231104 17.912760030362 18.2360920938868 17.9182720334342 17.3989367351568 17.8954559083336 19.0680823003595 20.0778784104219 20.7777340911595 19.7648842559537
-9999 -9999 -9999 -9999 -9999 -9999 -9999 -9999 -9999 -9999 8.78118349739164 9.94069898966022 10.4201988550462 12.1000043317488 15.4870473806599 17.0189236435396 17.8395007076796 18.5207654929175 18.7852316391728 18.2891900949689 16.9467027052667 15.7795176037327 16.3371994898877 17.4002015340134 18.5258276200529 19.0553550616492 18.8522029291345 18.1512284818554 17.0785953247957 16.0738673218331 16.9118015788174 19.0345317167125 20.5431406147597 21.7604127148187 22.3514268911288
-9999 -9999 -9999 -9999 -9999 -9999 -9999 7.15678511248178 7.28525455435298 -9999 9.91485676367092 10.9497927188704 12.5878670611583 15.328941135372 17.442846142604 18.166052894798 19.3048654630438 20.8681042832783 21.7573362378649 21.5331545021876 20.1021414138969 19.1376734547831 19.1744368079617 20.2888024992899 22.322777298819 22.7659079896506 22.4826361572578 21.6483339665979 20.1481062246846 18.4192970425172 18.3599255384762 19.9680357374784 21.3634338028346 21.8048260419623 22.0658660266142
-9999 -9999 -9999 -9999 -9999 -9999 -9999 7.5411587001313 7.94811096814616 9.4643486380785 10.7715464962117 12.3190753793995 14.8720877487694 16.7172722761923 18.2682749173019 20.3978874817005 22.5780239574249 23.3899193115303 23.2996880790522 23.1343025100612 22.8446986699622 22.2625835654452 21.8405793915769 22.3363857751446 23.0587607276159 22.7116581393726 22.4517640200887 22.2926569205114 22.0686214283509 21.6976441660055 21.5322286379529 21.9859034864084 22.4001427727346 22.1297548300379 22.1022275573485
-9999 -9999 -9999 -9999 -9999 -9999 -9999 8.28918299109501 -9999 10.6645614439553 11.3764382697832 13.4844783201777 15.8284204237785 18.040416701814 21.5959819247068 23.7045793957433 23.7448675371185 23.0271958025212 22.4967466061048 22.2724430374256 22.2695630474088 22.4443600862128 22.6248131269459 22.5036471257515 22.5113106558908 22.3805401666734 22.1898877032527 22.0094768802828 21.9806311790094 22.0422785627276 22.2060181212373 22.4308002512668 22.6021325165834 22.34984800409 22.3102375523087
-9999 -9999 -9999 -9999 -9999 -9999 -9999 -9999 10.4001873648125 11.586944699314 11.9449756992666 15.2449103352851 18.9933493224296 22.8638878123843 24.3838371170281 23.6179304690997 22.6221586434674 22.0484206210847 21.9344682438291 21.8241516540366 21.75644567712 21.7782019480196 21.9082814168361 22.037454347643 22.2191049974678 22.3386079214255 22.0588559371746 21.932105438637 21.9215101638109 21.9148969966833 22.0609110262885 22.3002098403041 22.5633746073453 22.4903701842685 22.4430673643285
-9999 -9999 -9999 -9999 -9999 -9999 -9999 -9999 -9999 13.1489031117419 14.9180963928832 20.784816759222 23.873031104405 24.3775085027118 23.3248090062013 22.294648124391 21.9339723130872 21.6736315921336 21.5861595198775 21.5167761497395 21.8719622204122 21.9665577354984 22.0038584245716 22.1735990174317 22.3312076552439 22.2100972322393 21.8513595771797 22.0544412739941 22.3328503058185 22.4465272821131 22.435241480119 22.5744721296412 22.5733911089288 22.3822290169322 22.1445396401236
-9999 -9999 -9999 -9999 -9999 -9999 -9999 -9999 -9999 14.3668646228262 19.3158825562026 24.0518388848084 24.274965652895 23.2548127582858 22.3325948453699 21.9791192364071 21.8736480069615 21.7431169758157 21.6477918464741 21.5733252863585 21.8593355850897 21.9387929544878 22.0631950385112 22.2047619410759 22.2180073407739 21.9319723082866 21.7229986414475 21.8151695459269 21.9878347270913 22.1576327191104 22.2576940948922 22.2062896259169 22.0032147912195 21.747256219362 21.6545586852298
-9999 -9999 -9999 -9999 -9999 -9999 -9999 13.9862833318556 15.417906685322 18.8098590674207 23.5960192954218 24.4893512197343 23.5029267146789 22.6476184743309 22.1016100415088 21.9350510492174 21.8902115187345 21.8442986693109 21.8292327519604 21.8199630453592 21.9448882690592 21.9980221666695 22.0487483375587 22.0480957242795 21.9316808160893 21.7788308957844 21.7095584817711 21.6542033721891 21.5428469144253 21.6126479149247 21.8162089676706 21.847744402468 21.8400950125267 21.7976151539843 21.714308247683
-9999 -9999 -9999 -9999 -9999 -9999 15.6031377645136 17.4182503514953 21.2224991802535 24.1421537466415 24.7758336001795 23.9410150740083 23.1084293243788 22.4970022629451 22.0810717645091 21.9671231335045 21.9002385417585 21.8708465497757 21.8743764963114 21.961064416032 22.0373672682343 21.9636577322078 21.9231892517956 21.9222620321366 21.9319750378084 21.9586970114121 21.9877638561099 21.9338716691333 21.806272827614 21.7306132224196 21.8020510158715 21.8433250142978 21.8613429973966 21.9301663255469 21.8274900466068
-9999 -9999 -9999 -9999 14.4754440031024 16.3227746036999 18.4901171508099 21.2522216353936 24.2522244399362 25.031729338303 24.2979674923683 23.5950756400363 22.8452346027834 22.4041945962453 22.3228815570229 22.2860336775269 22.1534966249133 21.9986127234104 21.888304407179 21.8223330925735 21.9008558605627 21.9484395791418 21.9382486656853 21.9174950797026 21.9078784070273 21.982159607563 22.0726585327912 22.0695697436914 22.0653235690832 21.9813774331099 21.8688549215615 21.8550069002369 21.8648347505878 22.0254078931438 21.9903603145518
-9999 -9999 -9999 14.8057015462024 15.7357509601287 19.2621836656036 22.9944319573403 24.7103150153067 25.1644584123585 24.4812002886892 23.8070237664217 23.2689248606861 22.5684603491265 22.4618569482833 22.3105220980371 22.4348644120359 22.7543006778021 22.678303409702 22.2142088360771 21.8456462005602 21.8265298704991 22.0161850629731 21.9678714275023 21.9312712004385 21.9237943344348 22.0211188162991 22.1400972361411 22.1787090332195 22.2684688266027 22.2335511330699 22.0654718750341 21.9140732309884 21.8924159987825 22.0726767811159 22.0873676200561
-9999 -9999 16.1273446672656 18.7332714385234 20.8372009977514 22.8240052133042 24.7068616389734 25.2834776803735 24.7837630626271 23.8812222999214 23.5906052705284 23.0646791461211 22.4955042116707 22.1390049158266 21.6593641709912 21.7700438451382 22.394360980673 22.9682655486387 22.9533188381153 22.4389950951604 22.1368758527435 22.0011130259303 22.0337928518706 21.9299659523091 21.9019486985785 22.053568157656 22.2737925689719 22.3063315431508 22.2715972095447 22.2084213779557 22.1353518938704 21.9947900654395 21.9403722484759 22.0580126536923 22.1009648376676
