NCOLS 35 
NROWS 26 
XLLCORNER -80 
YLLCORNER 33 
CELLSIZE 0.5 
NODATA_value -9999 
-9999.000000000000000 -9999 -9999 -9999 -9999 -9999 -9999 -9999 -9999 -9999 -9999 -9999 -9999 -9999 -9999 -9999 -9999 -9999 -9999 -9999 -9999 -9999 -9999 -9999 -9999 -9999 -9999 -9999 -9999 -9999 -9999 -9999 -9999 -9999 -9999
-9999 -9999 -9999 -9999 -9999 -9999 -9999 -9999 -9999 -9999 -9999 -9999 -9999 -9999 -9999 -9999 -9999 -9999 -9999 -9999 -9999 -9999 -9999 -9999 -9999 -9999 -9999 -9999 -9999 3.24780288364628 -9999 -9999 -9999 -9999 -9999
-9999 -9999 -9999 -9999 -9999 -9999 -9999 -9999 -9999 -9999 -9999 -9999 -9999 -9999 -9999 -9999 -9999 -9999 -9999 -9999 -9999 -9999 -9999 -9999 -9999 -9999 4.02234091481663 3.92690279298431 3.94649974473709 3.5486470650745 -9999 -9999 -9999 -9999 -9999
-9999 -9999 -9999 -9999 -9999 -9999 -9999 -9999 -9999 -9999 -9999 -9999 -9999 -9999 -9999 -9999 -9999 -9999 -9999 -9999 -9999 -9999 -9999 4.6089799373165 4.244275012604 3.92070853280978 3.79369382269413 4.03251359120657 -9999 -9999 -9999 2.13239646127111 1.78606792807378 1.9096521169575 2.21426719030854
-9999 -9999 -9999 -9999 -9999 -9999 -9999 -9999 -9999 -9999 -9999 -9999 -9999 -9999 -9999 -9999 -9999 -9999 -9999 -9999 4.91710887926742 4.7687413257289 4.63830221649451 4.37257568557889 4.17727530022901 3.94908100005153 3.72302656578514 3.92841715889491 -9999 -9999 2.17698368641397 2.06416207355986 2.35575758342212 2.53768170313074 2.80545664605824
-9999 -9999 -9999 -9999 -9999 -9999 -9999 -9999 -9999 -9999 -9999 -9999 -9999 -9999 -9999 -9999 -9999 -9999 -9999 4.83639425216858 4.83832692677644 4.73656161141882 4.7549481610964 4.59180279611449 4.31293671780481 4.0326627226463 3.59201242537378 3.31091408500406 3.40511928040079 2.58337680058811 2.18454572034609 2.199826424471 2.42710410305504 2.74763162507948 3.58359407781469
-9999 -9999 -9999 -9999 -9999 -9999 -9999 -9999 -9999 -9999 -9999 -9999 -9999 -9999 -9999 -9999 -9999 -9999 -9999 4.97422965816378 5.13859147360044 5.03744260004563 4.91908889621156 4.47582957143222 4.13822508360743 4.23607266780188 4.16632638201306 3.45837617004556 2.90728552727222 2.71626847597411 2.55146326810036 2.58556350236356 2.77061472428313 3.50302001010443 3.94137325603724
-9999 -9999 -9999 -9999 -9999 -9999 -9999 -9999 -9999 -9999 -9999 -9999 -9999 -9999 -9999 -9999 -9999 -9999 -9999 5.26695496382377 5.46414875414266 5.55141373114969 5.25767232166264 4.85570683987976 4.75557827562071 4.95097657196931 4.99672306479662 4.59795046998463 4.08336255451922 3.97781410259345 3.14592854388848 3.27904643797394 3.6014181811559 4.27136183129022 4.78946791945156
-9999 -9999 -9999 -9999 -9999 -9999 -9999 -9999 -9999 -9999 -9999 -9999 -9999 -9999 -9999 -9999 -9999 -9999 -9999 6.39680674972364 5.57707670165243 5.82162346292205 5.86940814616752 5.98822942565436 6.02580211521561 5.88879734985448 5.82007068116136 5.53037698319482 5.09490026305905 4.3293455508791 4.35325458772286 4.98734533635502 5.28433260575506 5.69372910349891 6.38125637702247
-9999 -9999 -9999 -9999 -9999 -9999 -9999 -9999 -9999 -9999 -9999 -9999 -9999 -9999 -9999 -9999 -9999 6.78905766184571 6.880708650525 6.59156304654899 5.74557951589532 5.57143906087682 6.11019397006208 6.43239079912364 6.43275933286319 6.20447987662721 5.94793407509627 5.86401903403647 5.29275700153271 6.05910847459137 7.56091163030903 8.36536342965218 9.30961453018579 9.55690877041517 9.10042122215742
-9999 -9999 -9999 -9999 -9999 -9999 -9999 -9999 -9999 -9999 -9999 -9999 -9999 -9999 6.88943240232157 6.88167800053403 6.82657404522166 6.6152241032997 6.41137689956521 6.10532990614811 5.75739401852271 5.84250903632024 6.28746655766872 6.40762536530932 6.2385026205449 6.08352513810406 6.55328436132933 7.03481143980679 7.05245595812612 8.02776020517299 9.87922286717796 11.1213204498875 12.0635322705123 13.1788888001562 13.5638899792609
-9999 -9999 -9999 -9999 -9999 -9999 -9999 -9999 -9999 -9999 -9999 -9999 7.43844905714254 6.89157078145136 6.66322560613396 6.87284940012727 7.08420897811768 7.39993566274551 7.49667577259583 7.52275351143841 7.4499426262045 8.02020362605672 9.27698792605765 10.3890065351152 9.93952405189058 7.74736234484198 7.81735054134414 8.9778904368693 10.6750926435946 12.1438580772982 13.078531972149 13.4313188819958 14.090645388934 14.6880414596461 15.1042675165521
-9999 -9999 -9999 -9999 -9999 -9999 -9999 -9999 -9999 -9999 -9999 -9999 7.25232329776143 6.6668088623751 6.76697888458715 7.53613041497775 8.50681014954868 9.06314154892129 9.61077169117418 10.8168232794784 12.3691329436471 14.4702162645322 16.9309641626508 18.3793231882914 18.0988620904967 14.2873417696247 10.7684141699832 11.5836369766786 13.3736828342032 14.3581759195695 14.5097599206195 14.2719621633142 14.638416163698 15.5786395988242 16.1998712456046
-9999 -9999 -9999 -9999 -9999 -9999 -9999 -9999 -9999 9.6276766272864 9.07110655310428 7.94899016980795 7.25074937501844 7.02036002803064 8.21357732679592 10.1834045791708 10.8322650060738 10.3415407777252 11.8515944150877 13.9510335844509 15.6526168269569 18.011466234294 19.6738381604391 20.0203178182286 20.2648089090846 19.4715166067994 16.5630095266719 15.6560332649205 15.7380547055257 16.2805925271995 16.4988739767931 16.4729308093649 16.8496131953737 17.3890691731287 18.298905161787
-9999 -9999 -9999 -9999 -9999 -9999 -9999 -9999 -9999 -9999 8.39483047672417 7.69396431335569 7.48852599607605 8.95465768010706 13.1263021237011 13.2026531781383 11.9548529083095 11.1855593152904 13.8618072055686 16.4908904770251 17.2151341049544 18.8131350546509 20.2150503012042 19.9244730089227 20.3999654629964 20.4800490667352 19.7280727501209 19.8203407596412 20.0282586327569 20.0866374948987 20.048778342054 19.8978371694722 19.7219324734545 19.7386978339782 19.715030872688
-9999 -9999 -9999 -9999 -9999 -9999 -9999 10.2434037461542 11.1246495162696 -9999 8.38181977018585 8.10767112013401 9.57789464263311 12.9854330766101 14.8080114743946 14.967288704507 14.9961488247902 15.7544550828132 16.8888586793725 17.4907611255848 18.0143685414839 19.4395473679843 20.5973113526904 20.2188700001004 20.409658111548 20.2530020684823 19.9558908830412 19.9977963520599 20.1094966001485 20.1748794751794 20.1831502727343 20.0642932106909 19.8336750339607 19.5087283368993 19.1842338428546
-9999 -9999 -9999 -9999 -9999 -9999 -9999 11.5393604342188 11.3376776935225 9.71427871254164 8.57971654100239 9.61665172960192 12.6475361532643 14.4655086886956 15.5459572748467 16.8498072019809 18.5881168399787 19.7188770928261 20.1604936440446 20.1152378714638 20.4784773998258 21.6763851606671 22.128787495616 21.1509654382176 20.2931912896427 19.7482937091009 19.7044213295264 20.3246932612365 20.8263271211026 20.8526071278794 20.6032038436359 20.2231330759798 19.8761055666503 19.1036397702413 18.6164468934334
-9999 -9999 -9999 -9999 -9999 -9999 -9999 12.9709819019527 -9999 9.75552328345156 9.07688346467273 11.590290696426 14.2081256567302 15.5549343875257 17.2268820100356 19.9057415478783 22.2229064467514 22.6064827684577 22.2139943615976 21.9360724177402 22.0167448390271 22.1930215536091 22.3300798559749 21.6488916512419 20.1911776837411 18.9071134222122 19.3008070201689 20.6551115401074 21.2134403873259 20.9333573498749 20.662481725529 20.4604105467604 20.2301424738632 19.3027503508499 18.5628657592613
-9999 -9999 -9999 -9999 -9999 -9999 -9999 -9999 11.6173513908746 10.0838201156934 9.69378728750402 12.7039945981562 15.4660493411751 17.4582280025889 20.655846575416 23.2429482294104 22.3940876753074 21.0044742876821 20.2876039455866 20.1554945483228 20.2507893174487 20.5327287883976 21.092204000656 21.6662250845614 21.1961058027007 20.3286046698767 20.6391647914469 20.9499791365203 20.7904811293666 20.4934702665697 20.4397175743204 20.5088398717163 20.5712931340365 19.7510091512563 18.9771572844756
-9999 -9999 -9999 -9999 -9999 -9999 -9999 -9999 -9999 10.6695843597293 10.7010481128663 14.034915621413 17.7195237747942 21.3383337762633 23.8302798332617 22.3695287102766 20.59531350691 19.7805216723293 19.7354859955361 19.8668278273091 19.9142124820352 19.8408921613976 20.1576510521471 20.7765213470335 21.2802111878246 21.3039296487977 20.9767524211422 20.479494118696 20.3463371394549 20.2528275503647 20.2187796754002 20.0024572536528 20.0316059389319 19.7475590704391 19.4481137381752
-9999 -9999 -9999 -9999 -9999 -9999 -9999 -9999 -9999 12.9230906790917 15.3389183515448 20.6754369111853 22.9869809120078 23.2045846514024 22.1838089145547 20.8410518533761 19.88567224059 19.7461411685242 19.8763662833118 20.0348915845714 20.1496276687788 19.9478171010709 19.9150761004229 20.0836000754125 20.1369372454519 20.1455741479292 20.0891613058198 20.2327098695621 20.2854320111746 19.9185749501133 19.56529042442 19.682129933265 19.8388078711008 19.6950857042326 19.6327620017985
-9999 -9999 -9999 -9999 -9999 -9999 -9999 17.9460101286845 17.9024662217408 18.4354789324407 22.4547932761218 23.8201709973443 22.3767599109452 21.2815310085355 20.7266635877758 20.0785376501482 19.5858538852669 19.6156244301823 19.7389593709773 19.8251934328401 19.8024234861748 19.7565057095749 19.7858105828706 19.8672084252904 19.7525901934518 19.6519535176618 19.7967906236881 19.9559044314886 19.8787475821572 19.5158898700486 19.3483268831335 19.3713558355994 19.3598614869338 19.4124384461882 19.4081856200206
-9999 -9999 -9999 -9999 -9999 -9999 18.2726149051584 19.0392617737505 21.0892204510744 23.3567810846464 24.3721659180137 22.7026195213396 20.655697286219 20.2497849860615 20.3281440329659 19.8098432627389 19.3678588184684 19.2524862225205 19.4670258943372 19.761018366388 19.6684116598473 19.5393286512986 19.6306922502781 19.6556203633357 19.593119393945 19.5361940572296 19.6466893730721 19.7637910171058 19.5728900023587 19.4292867715548 19.3315186995739 19.1475353935712 18.9675190409153 19.0296053889221 19.1003237193127
-9999 -9999 -9999 -9999 18.7896020400243 18.6896313843015 19.1638983182032 20.9207956155919 22.9784207999491 24.3085526166443 24.2681750687804 22.2200939497798 20.1659659360835 19.9034222070534 20.0377958556777 19.92206407552 19.310486798951 18.9954442964315 19.3254557323152 19.7096046354542 19.733305274369 19.5457858383915 19.4428463714747 19.4520848440784 19.4028198772067 19.4779912012745 19.6017841196443 19.5438577644433 19.5300155466526 19.5024062466489 19.5107901052605 19.2503869427123 18.9693599775032 18.9397282789007 19.0340525114552
-9999 -9999 -9999 18.6793483266247 18.9154881225344 19.7863087144867 21.6837196620499 23.4151813225692 24.2419078474213 24.3909058580257 24.0577325920942 22.2456676620376 20.2676462099981 19.8845216766325 19.9904780661874 20.0496571057785 19.761269482396 19.4902304067623 19.7166114577096 19.6436025337227 19.6773912167974 19.6920269353656 19.5841362536524 19.4918814030157 19.4200653103305 19.4599964999216 19.4488709367631 19.2532125206548 19.2543985226786 19.2158384725434 19.3006753225116 19.546996037797 19.241754790981 19.0420054687819 19.0006821857129
-9999 -9999 18.8126737651404 19.0258916986911 20.1778059771753 21.8223896527216 23.7490465947232 24.3690771379286 24.1708125368409 23.9406601325019 23.6686337529581 22.1358461626884 20.3623648027584 19.8190947934549 19.963228291986 20.0382591915247 19.9270360099563 19.7598391038169 19.6483408799437 19.5836982568341 19.6416763889199 19.6957567194084 19.6262806421144 19.4957467056602 19.4476491035677 19.5003506472387 19.3835917590932 19.3526759273601 19.4526666836062 19.3133851963376 19.2589354750692 19.6179112517714 19.4369182834179 19.0452698728949 18.8812698668768
