NCOLS 35 
NROWS 26 
XLLCORNER -80 
YLLCORNER 33 
CELLSIZE 0.5 
NODATA_value -9999 
-9999.000000000000000 -9999 -9999 -9999 -9999 -9999 -9999 -9999 -9999 -9999 -9999 -9999 -9999 -9999 -9999 -9999 -9999 -9999 -9999 -9999 -9999 -9999 -9999 -9999 -9999 -9999 -9999 -9999 -9999 -9999 -9999 -9999 -9999 -9999 -9999
-9999 -9999 -9999 -9999 -9999 -9999 -9999 -9999 -9999 -9999 -9999 -9999 -9999 -9999 -9999 -9999 -9999 -9999 -9999 -9999 -9999 -9999 -9999 -9999 -9999 -9999 -9999 -9999 -9999 4.75777057048608 -9999 -9999 -9999 -9999 -9999
-9999 -9999 -9999 -9999 -9999 -9999 -9999 -9999 -9999 -9999 -9999 -9999 -9999 -9999 -9999 -9999 -9999 -9999 -9999 -9999 -9999 -9999 -9999 -9999 -9999 -9999 5.80359093479107 5.85740765117518 5.70057868945697 5.19928583645719 -9999 -9999 -9999 -9999 -9999
-9999 -9999 -9999 -9999 -9999 -9999 -9999 -9999 -9999 -9999 -9999 -9999 -9999 -9999 -9999 -9999 -9999 -9999 -9999 -9999 -9999 -9999 -9999 5.80837412084611 6.43751319187732 6.57703767324821 6.3411460661797 5.80346443134828 -9999 -9999 -9999 3.64444914019429 3.4729530773337 3.26513141025473 3.3600577115187
-9999 -9999 -9999 -9999 -9999 -9999 -9999 -9999 -9999 -9999 -9999 -9999 -9999 -9999 -9999 -9999 -9999 -9999 -9999 -9999 6.20353589217138 6.5649992983376 6.76322517663675 7.05060514688315 7.12454945239141 6.70371226790456 6.30783442982885 5.50121800881829 -9999 -9999 4.30365432877722 3.86905669655624 3.49080328212259 4.03865411642104 4.80903785946613
-9999 -9999 -9999 -9999 -9999 -9999 -9999 -9999 -9999 -9999 -9999 -9999 -9999 -9999 -9999 -9999 -9999 -9999 -9999 7.00953116605319 7.66789304835422 7.56506425488691 7.34411647456973 7.14349374466462 7.14075806901923 6.69469985946262 6.12982715655516 5.77675414143725 5.06486001511575 4.81672586451096 4.53797798821156 4.01636310457211 3.76588621742506 4.58640345036929 5.28589263275747
-9999 -9999 -9999 -9999 -9999 -9999 -9999 -9999 -9999 -9999 -9999 -9999 -9999 -9999 -9999 -9999 -9999 -9999 -9999 7.46641174636066 8.05363953823558 7.94400997340083 7.75955310276619 7.57773344988738 7.02058220363796 6.43574808972078 6.16718403746163 5.85415954917797 5.42753731413807 4.75832126411804 4.29121888750996 4.16550968577325 4.56231912207561 5.33604905347313 6.81110756619675
-9999 -9999 -9999 -9999 -9999 -9999 -9999 -9999 -9999 -9999 -9999 -9999 -9999 -9999 -9999 -9999 -9999 -9999 -9999 6.82256224391929 8.02171711652753 8.23450548949173 8.07152035497473 7.85796612166946 7.40172483242911 7.16921151051138 7.09984979882968 6.4688542648454 5.21434603383025 4.93802337147847 6.36512650185152 7.99760620783639 8.43140901506817 7.88751140859475 8.44059760999078
-9999 -9999 -9999 -9999 -9999 -9999 -9999 -9999 -9999 -9999 -9999 -9999 -9999 -9999 -9999 -9999 -9999 -9999 -9999 5.57894614057423 7.53666612481879 8.32097785296914 8.32741051171222 7.83975716798501 7.19201077039952 7.48751862802342 7.79279048102758 7.49667042494809 5.97488268529511 7.93014873395313 10.7550302935748 12.111692310336 12.5021822680748 11.863606821072 10.9027117783405
-9999 -9999 -9999 -9999 -9999 -9999 -9999 -9999 -9999 -9999 -9999 -9999 -9999 -9999 -9999 -9999 -9999 7.67753282166192 6.79497247054967 5.75599130909622 6.57050162475056 8.29362209650281 8.83625361759332 8.04894723651721 7.17403029681595 7.6609865461675 7.94604366033336 7.18055306004292 7.98894437521131 9.86629991550682 11.1853103319024 11.5710294724773 11.9274582862598 14.2041574748087 14.1180000732952
-9999 -9999 -9999 -9999 -9999 -9999 -9999 -9999 -9999 -9999 -9999 -9999 -9999 -9999 7.16201325847268 7.80967872635837 8.12398881139021 8.13073216041808 7.65606404769215 6.61572353625192 7.02848841975463 8.56220795402904 9.20251162878017 9.08444994514707 8.85150879402474 8.71105295944917 8.51253871851032 8.6914665669665 8.99699116377558 9.80749246435015 13.0898214830476 15.1239448982469 15.5996025292792 17.4650094625411 17.9657373014549
-9999 -9999 -9999 -9999 -9999 -9999 -9999 -9999 -9999 -9999 -9999 -9999 7.55914181994679 8.37031245452083 9.01584850284583 9.18537808351453 8.93826409024344 8.85552322392349 9.0399186716243 8.78742687065366 9.39389025382691 10.3616309636984 11.5336238014487 12.6470705885331 12.8947973649273 12.3809649558623 11.8955628018417 11.3690938728375 10.8032929934252 13.6541003214638 17.1055209513777 18.6253045710203 19.3487720752907 20.3258263025525 21.167793946058
-9999 -9999 -9999 -9999 -9999 -9999 -9999 -9999 -9999 -9999 -9999 -9999 7.91780575936554 9.0885316234064 10.0030440865487 10.9035031825568 11.9985104148261 13.1633781903203 14.0772628312473 13.8063109522134 13.392987855419 13.6273093583749 14.9705847395862 15.9573033768575 16.4410068784228 15.5304361274725 14.5102470298354 14.430790472404 14.940677174478 16.8055466881374 18.0057607861015 18.1826505548915 18.7008061401849 20.0306321422592 21.4000641531563
-9999 -9999 -9999 -9999 -9999 -9999 -9999 -9999 -9999 4.91417311826147 5.89624372943678 7.26026601416377 8.56126936426007 9.6275977689096 11.2621888955694 13.7148000627243 15.1112603518593 16.0682301329351 16.6451469870865 16.5472926135365 16.5409071409432 16.63385628496 16.7483791297016 16.7856175684205 16.7988946464117 16.5053679110153 15.9886814002149 16.2381438067124 16.5488615818317 16.9351996245781 17.3798538856848 17.4794335842503 17.5764555727661 18.6416292963167 21.0163735212137
-9999 -9999 -9999 -9999 -9999 -9999 -9999 -9999 -9999 -9999 7.10073533774383 8.75916443644991 9.61270011862737 11.043525556317 13.7254557630723 14.6412278242343 15.3990300846483 16.3824441087113 16.9454691255976 16.7430516047007 17.7315828820662 18.6988510633522 18.8945809570024 18.6924839292306 18.7769947484733 17.8650836464809 17.9268520750588 18.6593823689876 19.1359140187936 18.9099364522146 18.9076581804229 19.1929600925812 19.3868229520923 19.564531515615 20.6512218543142
-9999 -9999 -9999 -9999 -9999 -9999 -9999 5.86446278208464 5.68526135265722 -9999 7.92662693541681 9.96852923669674 11.4110825179007 13.2535457700146 14.7414887950924 16.7735968772847 18.3561117442073 18.8611186678167 18.5923887283695 18.1596773351532 19.1895899270633 20.3711113780537 21.1702725875461 21.2007544578261 21.2276672841806 21.2254546078402 21.647770332253 22.0990234412832 22.167260386498 22.0054939342174 22.172704190159 22.4851663274045 22.514409274875 22.4434868330444 22.31519539484
-9999 -9999 -9999 -9999 -9999 -9999 -9999 6.06687540026015 6.24992501912142 7.18319179062902 9.31218069924188 11.66066858674 13.6327784180006 15.73381151929 18.1979177884817 20.5911707939928 22.1676712017476 22.855282465858 23.1507861509644 23.1476344727545 22.9589202170906 22.8812614989068 22.9430549278184 23.3214774886262 23.3265433195148 22.8957491491257 22.7562921167077 22.8731710912574 22.9584586928759 22.9131907665502 22.8133440539126 22.8206419375913 22.8887769697115 22.929103388139 22.9200918689327
-9999 -9999 -9999 -9999 -9999 -9999 -9999 7.00283912649665 -9999 8.65288026860587 11.4197598442163 13.7462796302175 16.7021263392294 20.1675282090336 22.9906685062973 24.4306783374163 24.6615086441605 24.2341131173647 23.7400354528463 23.5156732017015 23.5408114699103 23.4292806550056 23.2707799175108 23.2563482517871 22.9681715478734 22.3715628891541 22.0043559457639 21.6636840851865 21.3989224384129 21.376776200041 21.477518546123 21.5422442818522 21.5914169362829 21.5915512359685 21.6555746172457
-9999 -9999 -9999 -9999 -9999 -9999 -9999 -9999 8.92998535202719 10.0335840179241 13.9212594703589 17.4543149597127 21.0406017820419 24.2806158396999 25.3288615614741 24.9418871866372 23.5522187372354 22.0346304316246 21.2795042854573 21.2241212631502 21.5371057757548 21.9637325574221 22.2662516203764 22.0298626414676 21.4982098476243 21.2459377213261 20.9309021092556 20.6540180314625 20.5938650638417 20.5429413397053 20.4918681216096 20.5923551366683 20.8002695938572 20.8503207235421 20.7958100117235
-9999 -9999 -9999 -9999 -9999 -9999 -9999 -9999 -9999 12.433861500333 17.3321197678132 22.3605809288499 24.8998300169898 25.2812223812523 24.5485345728585 23.2565611506261 21.6617199395674 20.6876608786136 20.3487989640235 20.4213820774542 20.8092281626582 21.017332024451 20.745377316265 20.7302862363162 20.7875874241304 20.7232637954524 20.5806416529242 20.5492370394268 20.5529848100462 20.5438103141115 20.5269641303796 20.5949398850173 20.732350272518 20.7838907906743 20.7643917441778
-9999 -9999 -9999 -9999 -9999 -9999 -9999 -9999 -9999 14.1209094151413 20.9023032490916 24.8566481961348 25.2502272301559 24.2922662617667 23.3569240641985 21.9472633387482 21.0249137236676 20.6554551482065 20.4737060540142 20.6405290262879 20.6391563433869 20.5527196272456 20.5021662230469 20.5206432835137 20.5726636147755 20.4991454388984 20.5259814014289 20.5419673356945 20.5209227410888 20.5569383012292 20.5940717579927 20.6229970648461 20.6731322501524 20.6513223269888 20.4296391089212
-9999 -9999 -9999 -9999 -9999 -9999 -9999 14.4419967121208 16.140721597821 19.0983575283371 24.1812717827691 25.3390325292669 24.5808592650861 23.2779102050724 22.7013582774935 21.8656233093789 21.2503514836807 20.7690935544711 20.452284657259 20.4469394364056 20.3796709782063 20.3493422515506 20.346164984476 20.3687157310283 20.4058134419379 20.4944008126523 20.5521259011944 20.5467158955686 20.5370211523875 20.5379973199259 20.6304984006041 20.6272987796537 20.5851680326836 20.512723855069 20.287602613343
-9999 -9999 -9999 -9999 -9999 -9999 15.2212656793887 17.6270222532635 21.5264646933839 24.1823298546356 25.3073445992596 25.0219717980905 23.9093504862741 22.7063561652458 22.1609255610547 21.766970742901 21.2250848113989 20.7295380955682 20.4896561400448 20.4129656107475 20.300817433897 20.1935224872249 20.162170039854 20.2280648370575 20.3490724886394 20.4373035894672 20.5479640384826 20.5826132124887 20.5980228538416 20.6406459179474 20.7864244050796 20.7854873465215 20.7367959256552 20.6064677361648 20.5109675980484
-9999 -9999 -9999 -9999 14.2159242399263 17.16578329079 18.89726023622 21.4106925685325 24.2674286749522 25.2751906660204 25.0784457405364 24.5888597910433 23.3558109131701 22.5232591025914 22.2488893677107 21.6892098418256 20.8033037835058 20.6340249118959 20.5733606563508 20.4751985609273 20.3512100654611 20.2433771151628 20.204633254044 20.2562392903828 20.4118252314673 20.4140781075664 20.5812865921197 20.6756668613258 20.738538567262 20.8774298880911 20.9342112362521 20.8532525184536 20.8722960342219 20.7777377015462 20.7429217343749
-9999 -9999 -9999 14.4517518761554 15.870599931251 20.0380454784653 22.8247436890079 24.7535635545868 25.3823073122651 24.9592224595991 24.7173137809975 24.0260478932122 22.797997680931 22.1893473030046 22.1225446980068 21.7024745078653 21.0313828565234 20.7180309460312 20.6687256564146 20.5477217781278 20.5325623744937 20.5219210699748 20.4722167234945 20.4199888977052 20.6148152030838 20.6541022364703 20.8953586282536 20.9480985577972 20.9367649302537 21.0223906261955 20.9599993077299 20.9011734549986 21.048291004071 21.1774788960574 21.2788170518737
-9999 -9999 15.0747579953159 18.0145722037988 20.5214039717557 22.6663473719816 25.0307476511937 25.4121134520383 24.7635867470081 24.0366983717963 23.6354960515022 23.2296201153493 22.3339263471979 22.1712307374202 22.3253513161357 21.9066342585905 21.2464051498461 20.9868687624397 20.815786138906 20.5579600944087 20.5271432373006 20.5689167040939 20.5300295025131 20.5877781648129 20.8394657681009 20.8911480655666 21.0238911526484 21.0327828449452 21.0177552658181 21.0164175518972 20.9837059262872 21.0919580301089 21.2276413814112 21.2761642966416 21.354777389009
