NCOLS 35 
NROWS 26 
XLLCORNER -80 
YLLCORNER 33 
CELLSIZE 0.5 
NODATA_value -9999 
-9999.000000000000000 -9999 -9999 -9999 -9999 -9999 -9999 -9999 -9999 -9999 -9999 -9999 -9999 -9999 -9999 -9999 -9999 -9999 -9999 -9999 -9999 -9999 -9999 -9999 -9999 -9999 -9999 -9999 -9999 -9999 -9999 -9999 -9999 -9999 -9999
-9999 -9999 -9999 -9999 -9999 -9999 -9999 -9999 -9999 -9999 -9999 -9999 -9999 -9999 -9999 -9999 -9999 -9999 -9999 -9999 -9999 -9999 -9999 -9999 -9999 -9999 -9999 -9999 -9999 4.88001145424767 -9999 -9999 -9999 -9999 -9999
-9999 -9999 -9999 -9999 -9999 -9999 -9999 -9999 -9999 -9999 -9999 -9999 -9999 -9999 -9999 -9999 -9999 -9999 -9999 -9999 -9999 -9999 -9999 -9999 -9999 -9999 5.31058364673743 5.49099892550322 5.42894811794399 5.27943680195998 -9999 -9999 -9999 -9999 -9999
-9999 -9999 -9999 -9999 -9999 -9999 -9999 -9999 -9999 -9999 -9999 -9999 -9999 -9999 -9999 -9999 -9999 -9999 -9999 -9999 -9999 -9999 -9999 5.07421518275235 5.21565615880402 5.28901051912596 5.33882760989905 5.25716586465077 -9999 -9999 -9999 3.91778208570136 3.86542190149556 3.86075669676013 4.16255290043861
-9999 -9999 -9999 -9999 -9999 -9999 -9999 -9999 -9999 -9999 -9999 -9999 -9999 -9999 -9999 -9999 -9999 -9999 -9999 -9999 4.77428104793893 5.31571876287378 5.53050812061919 5.53821062851609 5.54372061734663 5.37387604058693 5.06438912205406 4.71965429808851 -9999 -9999 4.19640886269893 4.10917362693167 4.48023411690187 5.19159136450274 5.70558646955269
-9999 -9999 -9999 -9999 -9999 -9999 -9999 -9999 -9999 -9999 -9999 -9999 -9999 -9999 -9999 -9999 -9999 -9999 -9999 5.87384755805407 6.10471164080065 6.00103896340775 5.92286335530871 5.9981644472445 5.9008447367311 5.4925052477632 5.04487522641804 4.75610695547334 4.2836045125881 4.50242253247086 4.39366202059901 4.45129090685785 5.04117933216711 5.92085300421022 6.00279101893505
-9999 -9999 -9999 -9999 -9999 -9999 -9999 -9999 -9999 -9999 -9999 -9999 -9999 -9999 -9999 -9999 -9999 -9999 -9999 6.35594268278718 6.64638250027759 6.54186398148179 6.55832665741656 6.41638542015399 6.14510081891298 5.86326517861375 5.65723938246872 5.32252821675539 5.14430247935439 5.11907939378219 5.13730419659385 5.41970299861014 5.89859166681596 6.84860339515354 7.49441325656481
-9999 -9999 -9999 -9999 -9999 -9999 -9999 -9999 -9999 -9999 -9999 -9999 -9999 -9999 -9999 -9999 -9999 -9999 -9999 5.71157232287154 6.85700718475895 7.07161546794746 7.15947365646801 6.97910892436213 6.6695576048255 6.47243190235394 6.48638474594499 6.42990471600226 6.11604270301867 6.03132931449332 6.11193788274131 6.89302183105534 7.6675084658763 8.82018740357696 9.75073761360662
-9999 -9999 -9999 -9999 -9999 -9999 -9999 -9999 -9999 -9999 -9999 -9999 -9999 -9999 -9999 -9999 -9999 -9999 -9999 4.3641653775768 6.31631115193107 7.0430654288131 7.06831820043031 6.68297176224895 6.47773009674654 6.95034042303218 7.17120092432945 7.13686479022486 7.35070802702675 7.27857111733113 7.91722641524259 9.61400355319262 10.1364112048434 10.1307803178633 9.73748100541928
-9999 -9999 -9999 -9999 -9999 -9999 -9999 -9999 -9999 -9999 -9999 -9999 -9999 -9999 -9999 -9999 -9999 4.75014813592996 4.40021789899777 4.47868470403339 5.66673737424255 6.61779988846309 6.77529730035352 6.40297247649527 6.75553365701188 7.75970625733693 7.79937495179529 8.49176592220583 8.95304843220869 8.72409445182567 10.3061279512512 10.9792802949858 11.1471521067871 11.1925509902771 11.3339984274861
-9999 -9999 -9999 -9999 -9999 -9999 -9999 -9999 -9999 -9999 -9999 -9999 -9999 -9999 4.26913955199658 4.96870264561913 5.16632603541099 5.54907675435567 5.77126267706704 5.77310199294095 6.1254310585016 6.67061561423293 7.23704914258748 7.78311375307693 8.67011568639994 9.27409908489513 10.25770587862 12.0874037418209 11.9412788990385 13.1201553616033 14.0200773142449 15.036119341002 15.5448351052567 15.0562822247208 14.6958870776739
-9999 -9999 -9999 -9999 -9999 -9999 -9999 -9999 -9999 -9999 -9999 -9999 5.08816701785208 5.66400065722392 6.4180523106081 6.6279146405981 7.14104895594385 8.11096479786955 8.22867990241661 7.83515827334958 7.63702505987804 8.15957831049465 9.67953530660774 11.031896193229 11.6164325587484 12.1330000916306 12.5920033504592 12.9803217691448 13.9163319867555 14.8337405942537 15.9207812151481 17.0158357108361 17.930518780361 17.9789510202839 16.7827265135056
-9999 -9999 -9999 -9999 -9999 -9999 -9999 -9999 -9999 -9999 -9999 -9999 5.95091936902196 7.11911930535427 7.64793623290885 9.57009228936145 12.0934764513928 13.3035816500497 13.2237108962129 12.7917949393585 11.7340481944719 10.978078074876 12.2925982849203 13.2412573429868 13.6350977388643 13.467820014346 13.6322132350594 14.1969626271983 14.7286657133989 14.8844106190271 15.3657398068502 16.7493447809506 18.1376102316653 18.4008130568305 17.8560510180709
-9999 -9999 -9999 -9999 -9999 -9999 -9999 -9999 -9999 1.41808178994442 2.90291567036117 4.70445994282408 6.63256004077361 7.89137819254727 10.478265782231 14.1862953822416 15.8446986570569 16.6926745795108 17.0401749174865 16.6004331517597 16.0655574713178 14.6115266055674 13.4651996959298 13.4852177656053 13.9080384464048 13.9515944023465 14.260528499665 14.5485060592374 15.3943633312284 15.5731171361265 15.5099102489023 16.6773515713391 17.9719533176836 18.1763231247202 18.1105049962369
-9999 -9999 -9999 -9999 -9999 -9999 -9999 -9999 -9999 -9999 3.93713444579357 6.34502922646215 7.98116073902871 10.6231447969452 14.6955744530924 15.5699997955458 16.241577376466 17.3560084565513 18.737557773612 18.8323905497589 18.1047629496576 17.0575564725527 15.1863938483218 14.7381310917508 14.4984160240469 14.4566812650797 15.0064603735815 15.9771482915667 16.7737539584004 16.9034953798988 16.9813695783448 17.4437190538577 17.7383408851299 18.0060570850646 17.8924580601529
-9999 -9999 -9999 -9999 -9999 -9999 -9999 2.56117152321399 2.78678837225283 -9999 5.39068293182514 8.02905117563022 11.1535282929535 13.9524316398639 14.6469956457674 14.7992500332181 16.008279450634 17.5392040485689 18.8183279953594 19.6214428904947 19.4587572744758 18.610402524141 16.7860176259156 16.1697049335464 16.4583733609136 17.1612497453114 18.3461067795057 19.1730974202044 19.4934428446818 19.4087310781582 19.5097476745394 19.389184956908 18.8479364006256 18.3661102157506 18.1291852602348
-9999 -9999 -9999 -9999 -9999 -9999 -9999 3.28004162845714 3.40506131810496 4.36435336212517 6.79206036663656 10.6062905476341 13.6111658722975 14.5943700953581 15.260192964048 15.6197713820159 16.7063506081211 18.3431710934641 20.2485168163516 20.738835919013 20.5580704288412 20.3192161379633 19.6957891823024 19.0466610465516 19.2981597542442 19.6768125633216 19.771260096342 19.6924040762102 19.6175159005926 19.5615821574958 19.5683414290563 19.6104289846756 19.5440930287485 19.1418742725813 18.7047263529657
-9999 -9999 -9999 -9999 -9999 -9999 -9999 4.43066678449717 -9999 5.81757817925293 8.76500754101534 12.9587844253417 14.3135009588408 15.0164407803135 15.7125020586859 16.267531548909 16.9647055823069 18.754296139622 21.2270254215728 21.2659644103409 20.9166725987823 20.865150189223 20.7710224165615 20.5617692760496 20.3831118762656 20.0880542017221 19.7813065466845 19.5143939510723 19.3822235339604 19.3024180304408 19.370080848202 19.3998791970223 19.4525156622994 19.5568665824024 19.4520257456489
-9999 -9999 -9999 -9999 -9999 -9999 -9999 -9999 5.73307357854223 7.05771485294203 10.4157142867448 14.1533249221102 14.9433162917595 14.9629695829612 15.7056726856129 16.2258523063166 17.0156834770524 19.1884380089693 21.286613092281 20.8651117177107 20.475423046873 20.2475806354388 19.9330149151545 19.6894613625674 19.6128548219252 19.6894677031198 19.4499508505993 19.1188504565616 18.95276088858 18.9338079602259 19.1377644014973 19.3942040118155 19.5273842116313 19.6671594397141 19.7951510297401
-9999 -9999 -9999 -9999 -9999 -9999 -9999 -9999 -9999 8.05124198460156 12.0316829381294 14.7639474114293 15.7508704363768 16.522199055655 17.3525930823222 18.8292934336537 20.2555542100241 21.5226358709693 21.191123996526 20.2253698737208 19.5921612422809 19.3308471824726 19.3422095520935 19.4158458700975 19.4756511382341 19.5341917053879 19.2133894378998 18.7910040871778 18.6109865651868 18.6955558479667 19.0502475731965 19.4585354401392 19.6128256368399 19.6433791166627 19.678820318187
-9999 -9999 -9999 -9999 -9999 -9999 -9999 -9999 -9999 8.1596674695551 13.6030228703234 17.0186899239674 18.5656298556744 20.0224833200096 21.3062249989351 21.4782146314964 21.2048674331858 20.6869547798423 20.1652647644887 19.7987433644262 19.4756006089191 19.3028081904412 19.3241777410916 19.4377174409185 19.4576628669366 19.3878702249942 19.1793571062068 18.8264074372723 18.6683897169643 18.8353451608715 19.2312359517807 19.4819148254746 19.6226272924096 19.7561331192211 19.6818685540231
-9999 -9999 -9999 -9999 -9999 -9999 -9999 8.3422027295456 8.52356111086977 12.2750098664397 18.7180906552448 21.1667199748397 21.5812946053624 21.4482802811443 20.776741527173 20.0284726616527 19.6508860112699 19.5146107706611 19.5396491096528 19.5696393015528 19.4586567354788 19.4334351688832 19.449373280175 19.5323701703622 19.5170617183524 19.4103608750611 19.2054644113276 19.0348957611323 19.0845499620662 19.2813752722579 19.3935766577205 19.4786207105262 19.5627056599733 19.7048007111674 19.596925223728
-9999 -9999 -9999 -9999 -9999 -9999 9.84233582822496 11.1366083735818 15.2895137019248 20.2477863727441 22.3799050232353 22.1090516329985 21.0476352749257 20.0287209264404 19.5369070136106 19.3683696781944 19.2967507215045 19.2961922963674 19.4217117271172 19.4547030240795 19.3970546087649 19.3787123927291 19.4607863581171 19.627760480479 19.6240488909946 19.4957596942305 19.3846421227488 19.3752494769134 19.3797185006557 19.3663639207286 19.4149293193339 19.4951787999582 19.5256446163486 19.5843191618783 19.5154077150533
-9999 -9999 -9999 -9999 10.7447654607201 11.4125186172716 13.1593379786087 17.0249907840996 21.000074904415 22.5931163193926 22.3847321326819 20.8920118932241 19.7545757740914 19.441458002355 19.4253309648822 19.3478160395051 19.3153089258452 19.3465880650465 19.4108869168267 19.3664758968019 19.2614334282944 19.281864865667 19.3705355334803 19.5041133787156 19.5561135260682 19.5129559663416 19.4790023587199 19.419043205822 19.3347713166471 19.2703885599198 19.328488542715 19.4309319926062 19.512594565804 19.568470506656 19.4500223332924
-9999 -9999 -9999 11.0646903999134 11.9314907165791 15.0238354799189 19.2386742683594 21.8643162798808 22.8076018734006 22.6640744143544 21.3389885524261 19.9846418469197 19.4990863657613 19.4201246289762 19.4350697126685 19.3765179074056 19.3540799469618 19.3491125185868 19.3345763036132 19.2087037529699 19.1352616089889 19.2114487317838 19.3051166382912 19.3779855723862 19.4393080084305 19.4464784777214 19.4023372019345 19.3136106507194 19.2274789204907 19.2575009368508 19.3113735928399 19.3541356796893 19.4543152214226 19.5614417915622 19.5420242688449
-9999 -9999 12.8467817812745 14.9216279008933 16.4754910860279 19.4348709324566 22.2863192341893 22.9793010958504 22.6630217516289 21.8862175299857 20.3392925011846 19.6326094125781 19.4833207693924 19.4144636927876 19.3722973329305 19.338429706856 19.3326040673025 19.3291899454724 19.2901232860414 19.251505201533 19.267424214221 19.3625493718007 19.3188825782132 19.2918658684087 19.3212948570348 19.3686408074763 19.4248486160709 19.4166461541134 19.3257480422743 19.4310482081634 19.4004566109772 19.425766915364 19.5817364283144 19.539428647482 19.6178067096044
