NCOLS 35 
NROWS 26 
XLLCORNER -80 
YLLCORNER 33 
CELLSIZE 0.5 
NODATA_value -9999 
-9999.000000000000000 -9999 -9999 -9999 -9999 -9999 -9999 -9999 -9999 -9999 -9999 -9999 -9999 -9999 -9999 -9999 -9999 -9999 -9999 -9999 -9999 -9999 -9999 -9999 -9999 -9999 -9999 -9999 -9999 -9999 -9999 -9999 -9999 -9999 -9999
-9999 -9999 -9999 -9999 -9999 -9999 -9999 -9999 -9999 -9999 -9999 -9999 -9999 -9999 -9999 -9999 -9999 -9999 -9999 -9999 -9999 -9999 -9999 -9999 -9999 -9999 -9999 -9999 -9999 18.305768440228 -9999 -9999 -9999 -9999 -9999
-9999 -9999 -9999 -9999 -9999 -9999 -9999 -9999 -9999 -9999 -9999 -9999 -9999 -9999 -9999 -9999 -9999 -9999 -9999 -9999 -9999 -9999 -9999 -9999 -9999 -9999 15.050369039816 16.1207204828329 17.0977038030546 18.0882450124867 -9999 -9999 -9999 -9999 -9999
-9999 -9999 -9999 -9999 -9999 -9999 -9999 -9999 -9999 -9999 -9999 -9999 -9999 -9999 -9999 -9999 -9999 -9999 -9999 -9999 -9999 -9999 -9999 14.5744440785052 13.7280522143954 13.7254651763489 14.5243722459386 15.9277861127654 -9999 -9999 -9999 14.4949605491308 15.4723148029077 16.2985342948171 17.4131929942552
-9999 -9999 -9999 -9999 -9999 -9999 -9999 -9999 -9999 -9999 -9999 -9999 -9999 -9999 -9999 -9999 -9999 -9999 -9999 -9999 16.6927376808306 16.7852746394103 16.764651013379 15.992327095255 15.1652261084317 14.8684168542082 14.9308109813962 15.7889079587258 -9999 -9999 14.0007121480811 15.7550518024558 16.9429191688323 17.3953097994834 17.800359902356
-9999 -9999 -9999 -9999 -9999 -9999 -9999 -9999 -9999 -9999 -9999 -9999 -9999 -9999 -9999 -9999 -9999 -9999 -9999 18.3742408033654 19.3589572393014 18.8758071777451 17.8900807986044 17.4409844812251 16.6046649195924 16.2087501482983 15.8500756997949 16.1083135730515 16.451486371685 16.7121932999421 16.5599228830702 16.7049105493659 17.4781390787435 18.0906800259036 18.7769076323618
-9999 -9999 -9999 -9999 -9999 -9999 -9999 -9999 -9999 -9999 -9999 -9999 -9999 -9999 -9999 -9999 -9999 -9999 -9999 19.6903392801981 19.6207526253968 19.1370966158371 18.653693228384 18.3312504281315 17.8753393723977 17.5112152304159 17.2723405663202 17.2074768290839 16.984285947176 17.3834327260116 17.901639519298 18.4298152384543 19.141477477763 19.6210514040457 19.9988357480473
-9999 -9999 -9999 -9999 -9999 -9999 -9999 -9999 -9999 -9999 -9999 -9999 -9999 -9999 -9999 -9999 -9999 -9999 -9999 20.0446190818464 19.9232475116584 19.625270260255 19.4231455341792 19.1219160109208 18.7326339325905 18.522528024168 18.2889231864975 17.7564947905599 17.4136356712276 18.420706393347 19.5768405392963 20.3351235728812 20.8470565663674 21.6115582607071 22.0465148140849
-9999 -9999 -9999 -9999 -9999 -9999 -9999 -9999 -9999 -9999 -9999 -9999 -9999 -9999 -9999 -9999 -9999 -9999 -9999 21.3761094243528 20.5476378756226 19.9505945855986 19.6883682988622 19.5724844510489 19.3503399283389 19.1310816190069 18.9711714611404 18.33068235276 18.9775960298358 20.6398560810009 21.2246531818551 21.6067108224722 21.7968845571268 22.6904525918383 23.3864512708587
-9999 -9999 -9999 -9999 -9999 -9999 -9999 -9999 -9999 -9999 -9999 -9999 -9999 -9999 -9999 -9999 -9999 20.9292583126143 20.913431212306 20.9175416752186 21.117710621403 20.1472396398172 19.8836145430089 20.0019444403129 19.9198704079585 19.7269872961087 19.4376248915197 20.6544258435298 22.8777562178732 23.8349656160655 23.7736803315241 23.0852423951226 22.6391162398541 22.9924862152275 23.8805258027695
-9999 -9999 -9999 -9999 -9999 -9999 -9999 -9999 -9999 -9999 -9999 -9999 -9999 -9999 21.2461601303037 21.5906479400307 21.7583987584849 21.6378754228503 21.350714702465 20.9439922230506 20.3291137067021 20.1725599173578 20.4695352500097 20.5886047099325 20.6507810046659 20.7888962610755 21.520882312563 22.9146632550381 23.8422526679405 24.3316702730964 24.5480209308102 24.1932671007491 24.0810581751353 24.6556265581085 25.0896022563049
-9999 -9999 -9999 -9999 -9999 -9999 -9999 -9999 -9999 -9999 -9999 -9999 22.2407903308309 22.0353755936587 22.2112765022154 22.3145205635493 22.5427065193358 22.9481908750293 22.9939462782419 22.5576132493508 22.0383104954216 21.9548972304916 22.2898023197482 22.7536339797009 23.199659833574 23.3622876499238 23.5831927662502 23.8230599054732 24.3294501274346 25.3513980506373 25.5822691205588 25.2852429887949 25.0920211219732 25.5201461909069 25.7101392317317
-9999 -9999 -9999 -9999 -9999 -9999 -9999 -9999 -9999 -9999 -9999 -9999 23.0314449950837 22.718412342097 22.6293257109975 23.0663678405544 23.8726287301324 24.4340898855501 24.6724685210299 24.7135698912057 24.4881682775566 24.3905184397813 24.7099504029608 25.1321539755137 25.5386423277628 25.7496003505303 25.6657087483297 25.1624522891534 25.0669458278703 25.7794066161873 25.8533739114105 25.9284989289055 25.9107334571612 25.9682445850617 26.2332900660464
-9999 -9999 -9999 -9999 -9999 -9999 -9999 -9999 -9999 25.1455021529717 23.9782293861753 23.340061881309 23.360932436864 22.9195473187039 23.1432473977699 24.2933226916703 24.9532950946499 24.9583651469928 25.0919984409926 25.2413726948352 25.2566956489188 25.5239684873239 25.8601946445392 26.4637307304914 27.1019550453417 27.4867018908351 27.6012999819062 27.3865589545715 26.9466830095697 26.5667737234899 26.2962279894481 26.3938654861016 26.4494576989871 26.5615889726348 26.702856608469
-9999 -9999 -9999 -9999 -9999 -9999 -9999 -9999 -9999 -9999 23.6185011323334 23.6661663470035 23.3832625525419 23.432514089445 24.6056970888585 25.3727866499888 25.4295684971777 25.3822238374479 25.3325939568818 25.2584696024358 25.2470358479957 25.4845673426683 25.9401463149507 26.7163460102903 27.4100114954704 27.7375266970387 28.10338357283 28.4511122086809 28.3729494671318 27.6956589577513 26.9118151576592 26.6265676189408 26.6400071952375 26.621273359464 26.9053933873837
-9999 -9999 -9999 -9999 -9999 -9999 -9999 26.3867954622802 26.378382544306 -9999 23.8954131795154 23.7641301216427 23.844129837176 24.6172089698242 25.3401594676322 25.5355582205109 25.614342187448 25.6248286793356 25.6561509152333 25.8934823872754 26.2993221976693 26.4899403202413 26.4842402873067 26.7158848524587 27.1831890282367 27.2683616692728 27.5954922510165 27.9869151456646 28.1721776270359 27.7476306778972 27.1633845186926 26.6012006414003 26.2012458597135 26.6374681494765 27.5032562816652
-9999 -9999 -9999 -9999 -9999 -9999 -9999 26.2880988441919 25.8780386111642 24.3538587122265 24.1995882476757 24.0471282014765 24.5281237314956 25.2203302579619 25.8244996058559 26.1527336542665 26.2672559703604 26.2907855180307 26.6288931399852 27.3818273667985 27.9660963724677 28.080176484133 27.9057911459508 27.6119623492674 27.4049028029116 27.2370359891165 27.2480573958083 27.4493937961873 27.6478340213029 27.4559625762289 27.2725303174767 26.8021798620521 26.5615068010853 27.2337870468207 27.9496157205808
-9999 -9999 -9999 -9999 -9999 -9999 -9999 26.0533237795755 -9999 24.7308779265789 24.3455424493047 24.4186360947128 25.1030509818763 26.1349907675607 26.9091088976179 27.5884736800338 27.9594907306813 28.0887050930411 28.2141859859561 28.2452678410636 28.0592359738763 27.9111355677156 27.9084304628434 27.9353341920796 27.8494921440255 27.7504038630578 27.6346844298171 27.4959800918575 27.3818542383259 27.3377265534844 27.3593211084256 27.3045156423768 27.4341791041215 27.8742856612003 28.1937058698573
-9999 -9999 -9999 -9999 -9999 -9999 -9999 -9999 25.5355266201303 25.3137410459601 24.75097045412 25.2569170769501 26.4500172348638 27.7072639592614 28.476526609973 28.6417344033208 28.4469112067253 28.1463177811751 27.8778321419802 27.6279626478107 27.5104113583589 27.5048709029675 27.4951281900018 27.5149055305334 27.5122295366973 27.4926623088191 27.4451145949445 27.3447496826848 27.3626235072377 27.3166717278401 27.3137874751589 27.5223722936361 27.8590985959648 28.2149973667436 28.200055068593
-9999 -9999 -9999 -9999 -9999 -9999 -9999 -9999 -9999 26.0859697603144 25.7552427312505 26.901212973067 28.0170031979084 28.702778932962 28.6509107736688 28.0235347672077 27.6245380850284 27.5211668752402 27.4695721729527 27.5053292713939 27.6399326982356 27.5966483834818 27.4490693765172 27.3632793812621 27.3820192304832 27.3696053471888 27.4141138901501 27.4688813650412 27.4380624558015 27.4093807267366 27.5479186932901 27.9929881095797 28.0745846146984 28.270560815659 28.2625521114388
-9999 -9999 -9999 -9999 -9999 -9999 -9999 -9999 -9999 26.7833038178191 27.0165707314656 28.2328349773222 28.7831471835226 28.5791667032707 27.9810351903009 27.6073101520095 27.5827895928125 27.5721533320172 27.5803956727457 27.6877094066927 27.7601215615238 27.75730606137 27.6371374772892 27.5673712258756 27.6187272653168 27.6387700326897 27.5674418154697 27.5158426785946 27.5180345090894 27.6581602550375 27.995498886535 28.3246213128457 28.1365246348366 28.1623363763362 28.4491353214299
-9999 -9999 -9999 -9999 -9999 -9999 -9999 27.1208333830245 27.0443292932863 27.6329546700461 28.5293154590641 28.868286050992 28.607316123423 28.0354601819984 27.6673556972673 27.4982076533964 27.494514822855 27.5349636905035 27.5816110105291 27.6881962383847 27.8243748581706 27.9374330069869 27.9627889544004 27.9891037959027 28.1143894555676 28.1550522329891 27.8952933245193 27.745633294442 27.8079940324758 27.9504895088359 28.0599348486548 28.2353976345094 28.3199593835772 28.283931967177 28.4075520486704
-9999 -9999 -9999 -9999 -9999 -9999 26.6995497293274 26.9073340589247 27.7672981318336 28.7258956531733 28.9524644674054 28.6130075498964 28.0155404343481 27.6393641238362 27.6222351219784 27.5357292959414 27.479470402984 27.5432930913235 27.5971051762678 27.6546442980256 27.8270031217555 28.0627019031768 28.2742452406382 28.4205070797888 28.5265714074763 28.594735935045 28.4088630871335 28.1218883740987 28.0763113608166 28.1474310416676 28.2003458808244 28.1956883983777 28.4088749446812 28.3811843578561 28.3192218299483
-9999 -9999 -9999 -9999 26.9329450393585 27.0276028960728 27.4153431694722 27.9738669702892 28.796514668634 29.0149535431897 28.7338062652431 27.9749800793516 27.5172626030214 27.5258843286104 27.6312262550888 27.6988840993123 27.6757960934903 27.6522933226932 27.7671010132238 27.7229132087162 27.73096052804 28.0398168259376 28.2989690999524 28.4757920711167 28.6197333775706 28.6596966453212 28.5812805913973 28.4370028956858 28.4928703678729 28.5387497991663 28.4059321074083 28.2923296408136 28.4387490845763 28.2985267145858 28.1581387671266
-9999 -9999 -9999 27.1867308039881 27.0650418472744 27.5331774744214 28.4183429991107 28.9343976085448 29.0695923854208 28.9195666316142 28.11272502677 27.4747895640982 27.402658745119 27.5121880471929 27.6255673819783 27.7000397288863 27.8186124164806 27.8787124317644 27.9222787765018 27.8587684120392 27.8293716313199 27.9721158727835 28.2210395293667 28.3585339666937 28.4528887983532 28.5950848470061 28.6212506137325 28.6276014157966 28.5727109250464 28.5133359039852 28.3527036481898 28.3147539774729 28.3598462356631 28.2115300247111 28.1175175249269
-9999 -9999 27.4513645155931 27.6127705353102 27.8809573221287 28.3237850836867 28.9411959179338 29.1252866659387 28.9988203583367 28.6516923959717 27.7588951598081 27.492954225351 27.4912414916152 27.5977004715204 27.68034026762 27.7634297365038 27.8690364990389 28.0120165936606 28.231618426096 28.2495279836246 28.1671075247902 28.0253041953462 28.0654933801258 28.2587138007324 28.3533087800879 28.505032285202 28.5367280476942 28.5488114856366 28.5365591383286 28.5147317981242 28.4185872697432 28.3913126471702 28.3432953802045 28.2037839093121 28.1799511928348
