NCOLS 35 
NROWS 26 
XLLCORNER -80 
YLLCORNER 33 
CELLSIZE 0.5 
NODATA_value -9999 
-9999.000000000000000 -9999 -9999 -9999 -9999 -9999 -9999 -9999 -9999 -9999 -9999 -9999 -9999 -9999 -9999 -9999 -9999 -9999 -9999 -9999 -9999 -9999 -9999 -9999 -9999 -9999 -9999 -9999 -9999 -9999 -9999 -9999 -9999 -9999 -9999
-9999 -9999 -9999 -9999 -9999 -9999 -9999 -9999 -9999 -9999 -9999 -9999 -9999 -9999 -9999 -9999 -9999 -9999 -9999 -9999 -9999 -9999 -9999 -9999 -9999 -9999 -9999 -9999 -9999 5.45244754195872 -9999 -9999 -9999 -9999 -9999
-9999 -9999 -9999 -9999 -9999 -9999 -9999 -9999 -9999 -9999 -9999 -9999 -9999 -9999 -9999 -9999 -9999 -9999 -9999 -9999 -9999 -9999 -9999 -9999 -9999 -9999 6.20760591609737 6.07508921011279 5.63815327691994 5.20535067161442 -9999 -9999 -9999 -9999 -9999
-9999 -9999 -9999 -9999 -9999 -9999 -9999 -9999 -9999 -9999 -9999 -9999 -9999 -9999 -9999 -9999 -9999 -9999 -9999 -9999 -9999 -9999 -9999 6.18225200925137 6.43123731275838 6.48853783004054 6.34565688647806 6.05216134589657 -9999 -9999 -9999 5.3099855786477 5.36032601680259 5.2183895526576 5.08372444038267
-9999 -9999 -9999 -9999 -9999 -9999 -9999 -9999 -9999 -9999 -9999 -9999 -9999 -9999 -9999 -9999 -9999 -9999 -9999 -9999 6.73206519468176 6.7339225149159 6.75454701612266 6.92750833642478 6.84957897738039 6.7603717006435 6.42730199878416 5.95327146886648 -9999 -9999 5.65616100081774 5.57145183399245 5.44693906499707 5.53422703973097 5.78472202903586
-9999 -9999 -9999 -9999 -9999 -9999 -9999 -9999 -9999 -9999 -9999 -9999 -9999 -9999 -9999 -9999 -9999 -9999 -9999 7.39446956075267 7.38459091949257 7.17670356885714 7.0235619850757 7.11882358655141 6.97983030948594 6.62312975857337 6.34738925190767 6.06003951197499 5.78097368598314 5.90197306851119 5.8840213247707 5.76478518951774 5.84588932663196 6.64924494640389 6.72602501805423
-9999 -9999 -9999 -9999 -9999 -9999 -9999 -9999 -9999 -9999 -9999 -9999 -9999 -9999 -9999 -9999 -9999 -9999 -9999 7.89229385278753 7.6167491550248 7.38357946134261 7.2974691912468 7.28969957356376 7.03166795209408 6.64695337986409 6.53157925077362 6.30333419398197 6.22725265905899 6.1694466790545 6.14635224382103 6.18576700131476 6.53316477069855 7.39811736592821 7.4451722282241
-9999 -9999 -9999 -9999 -9999 -9999 -9999 -9999 -9999 -9999 -9999 -9999 -9999 -9999 -9999 -9999 -9999 -9999 -9999 7.91550856542758 8.07084025100946 7.65216695632437 7.52633616755821 7.49849640035652 7.36707938664464 7.20756676537732 7.28658342485501 6.83593126136146 6.44221183307488 6.60279150806755 7.38440934866148 7.98100987805473 7.54000291682453 8.04387583647692 8.94202795853815
-9999 -9999 -9999 -9999 -9999 -9999 -9999 -9999 -9999 -9999 -9999 -9999 -9999 -9999 -9999 -9999 -9999 -9999 -9999 7.45881340306784 8.43285315539717 8.06640827160158 8.02034337899082 8.24042723377665 8.07323697887475 8.33855200513013 8.62421846524352 7.70296494151884 7.34966925498522 9.09943819250207 11.1745797335786 11.9842559709856 11.1381454316932 10.2701004479235 10.8028028082655
-9999 -9999 -9999 -9999 -9999 -9999 -9999 -9999 -9999 -9999 -9999 -9999 -9999 -9999 -9999 -9999 -9999 9.19071221219164 9.01094019876397 8.41086003893877 8.24934772308767 9.1525394047484 9.38774572093519 9.24181213076969 9.05429021059898 9.2694543897978 8.47046436749207 7.29020016361688 8.05199226698426 9.80745434376716 11.5094611444426 14.0913903397667 15.8080227374359 14.5476257063503 13.2489616987624
-9999 -9999 -9999 -9999 -9999 -9999 -9999 -9999 -9999 -9999 -9999 -9999 -9999 -9999 9.51869827807989 9.79402328730918 9.85375941176186 9.97430710253532 9.85111972462264 9.42644223235182 8.99054960494978 9.55723306774295 10.0502815170877 9.78986150735637 9.23865115969379 8.43036139252474 8.12192182223092 8.89740514783844 12.6628829814882 14.0952448560028 13.8856119410667 15.4676037088788 18.0318148542784 18.9296602035851 18.4503652976646
-9999 -9999 -9999 -9999 -9999 -9999 -9999 -9999 -9999 -9999 -9999 -9999 10.1602876203163 10.3060488002695 10.3301542075032 10.1987402401154 10.1241153252359 10.1321754718313 10.1049633723073 9.86967744796479 9.73972677085326 9.85460738385306 10.210116342985 10.5468399512068 10.3308550249492 10.9537496452973 13.3104249765876 16.3668423480426 18.5035246476312 19.1597191644604 18.9369082868516 19.1666853709931 20.5758402540407 21.5571872129634 21.8172049855743
-9999 -9999 -9999 -9999 -9999 -9999 -9999 -9999 -9999 -9999 -9999 -9999 10.7372002864775 10.7839793438554 10.5267898181815 10.2775678723187 10.9880158491686 12.6359410460294 13.569149191523 12.199338428082 11.0863680542741 12.0330618147719 13.7348750421895 15.0339856913692 15.0372205675164 16.4619884499857 18.4554679355658 19.1335423025723 19.9475070179904 20.6482298579604 20.5919304729105 20.44942983306 21.0175599076501 21.7480645802255 22.1907975985934
-9999 -9999 -9999 -9999 -9999 -9999 -9999 -9999 -9999 8.78182183789581 9.74510487668176 10.7515612142812 11.2142363451218 10.8667590525781 10.6641433660785 12.540209299068 15.0753776574236 16.8528985795869 17.6780664154753 16.3068934744762 15.2673773224131 16.8481498194578 17.4730734912519 17.8920753005757 17.3170819351108 18.5441484467856 19.6784619349976 19.7021159003125 20.6194158439951 21.3199125489735 21.1349959589956 21.0144987627661 21.1954170308231 21.5890695558833 21.9634148002579
-9999 -9999 -9999 -9999 -9999 -9999 -9999 -9999 -9999 -9999 11.0596366879987 11.5433521958541 11.1931969571482 11.1466191134014 13.5144395175887 15.4923432486165 16.9867282150009 18.3461910624263 19.0194516720421 18.6040684224491 17.882439718927 18.9136852781976 19.0893054111014 19.1711956054281 19.6249975798012 19.9684649414244 20.0229040565784 19.8153036811325 20.9054055930778 21.5345254433201 21.3802509470041 21.8938455824584 22.2157930482269 22.3941719279644 22.8439793131455
-9999 -9999 -9999 -9999 -9999 -9999 -9999 10.4662402363583 10.7988344479818 -9999 12.0963748552183 11.619444270891 11.4923088440974 12.7274291972301 14.3289837731427 15.497069466205 16.6339121265079 18.3097801556145 19.1805415602781 19.1878601616651 19.4555561519342 20.133457601576 20.5067439382929 21.1968011829959 21.5717386614891 21.4941245093975 21.0437181496791 20.6423126776884 21.5256231970655 22.2354191993919 22.3048849477735 22.8212812464639 23.1344043465309 23.2967934047361 23.329674851162
-9999 -9999 -9999 -9999 -9999 -9999 -9999 11.3985920128913 11.6769516215927 12.8147740064164 12.4053159086643 11.8699860451916 12.7629559540352 14.4925293971626 16.3647322299916 17.2736296024807 18.4963688941912 20.3621550468296 21.5742503341191 22.4330139378973 23.2064642533186 23.6591381277181 24.0065286943581 24.2143739077186 24.1255764668488 23.8161310043372 23.4977895350299 22.9769452026781 22.9640214770308 22.9341204276176 22.7830046409761 23.1880188022471 23.2614038587201 23.1779443297152 23.0333085077332
-9999 -9999 -9999 -9999 -9999 -9999 -9999 12.5509339312714 -9999 13.3319292168093 12.3371034409308 12.6215148374176 14.7110027870659 17.3646161282259 19.0665720389983 20.6109883915908 22.5942131203341 23.4951449535535 23.7993754923712 24.2992265495062 24.4440868574339 24.3182103673675 23.9965875878467 23.6980965753562 23.4427781211184 23.3186927388957 23.4299510942066 23.4083365330745 23.1402220785843 22.7865098389457 23.0752481134822 23.0992696215639 22.8454961900072 22.6121673276628 22.7142242421062
-9999 -9999 -9999 -9999 -9999 -9999 -9999 -9999 13.9241796620661 13.8690325602054 12.843085351153 14.2404936362507 16.615222057094 19.4706745354721 22.1529043553798 24.2183609387301 24.6765743090995 24.1647889840963 23.7360042910239 23.6057082653326 23.5944778135853 23.5114383746666 23.4393632214486 22.9748410607281 22.7292801937079 22.6987674912284 22.8931852910519 23.2974222301585 23.2411500302188 22.6379410322874 22.8786404316266 22.4303318565643 22.3209372585497 22.4175309471649 22.6759674773252
-9999 -9999 -9999 -9999 -9999 -9999 -9999 -9999 -9999 14.4602821205873 14.3256113005061 17.9516413855892 21.9534561331145 24.5301341843314 24.9409015298412 24.0855697695018 23.3389937219954 22.9087947734535 22.7226607143599 22.8063031329175 22.9508558058991 22.9471420792873 22.6860320742552 22.4533903431132 22.6300255632269 22.7459364776715 22.851041981456 23.1545781946983 23.086810454221 22.8371297181727 22.7613324385761 22.356855742625 22.2996406232855 22.5112606861309 22.6032768925945
-9999 -9999 -9999 -9999 -9999 -9999 -9999 -9999 -9999 15.8235010504359 19.0231731925044 24.145289556407 25.481744270168 24.7064565841159 23.6952038501465 23.1274967986392 22.6665399027539 22.4616093119488 22.475597518913 22.5462168975373 22.6764466342895 22.6902215077774 22.5121600465091 22.4311440853773 22.5127018131279 22.6125137322501 22.7244078658914 22.9155190364336 22.9350873010021 22.947040046426 22.8196796494687 22.5264620647754 22.3446588025496 22.2570974564496 22.0843692573937
-9999 -9999 -9999 -9999 -9999 -9999 -9999 17.2102967848328 18.2064992699524 20.3354071928673 24.5741562542569 25.560880821268 24.7738681223168 23.5882449791493 23.0165823959176 22.60437359695 22.4287334333868 22.3640384783444 22.4117416603476 22.4746487193544 22.5385783426193 22.621492092177 22.6061551678869 22.508897616937 22.484878375408 22.4800060746355 22.5226146881802 22.7849344238535 22.8080874172785 22.8374523207372 22.6730266258615 22.5353413126032 22.2087464872502 21.8777095676341 21.7199468467373
-9999 -9999 -9999 -9999 -9999 -9999 18.8206853035733 19.7906443163846 22.6544004223647 25.0562425479454 25.5446738144077 24.9873958395313 24.0340650525755 23.0090173545754 22.6299981978228 22.4716899305731 22.3826509679097 22.3422788674992 22.3726789538617 22.4408030311919 22.5019184897661 22.5595540848921 22.6267745964874 22.6366939260637 22.5835242027551 22.3755062722849 22.4455258347854 22.6877960703941 22.7115376753169 22.6725907439558 22.4014262918999 22.3616756808792 22.1617144791459 21.9222676695425 21.7003272782336
-9999 -9999 -9999 -9999 19.4132062298025 20.247708186335 21.2162643120231 22.982111051111 25.2175811980654 25.4765194058377 24.9400833345859 24.4928941133082 23.6266740843544 22.9111197767966 22.4419685730704 22.3824454984699 22.3661295554212 22.3744102717198 22.3918953535116 22.4514698614725 22.4965812037788 22.5258267655118 22.5615916352667 22.5472315024609 22.5337559201719 22.468128985066 22.5053903011572 22.6025258085476 22.6105878095951 22.5265316163913 22.3835223981773 22.3275317047248 22.1491413769646 22.076818331781 22.0445084713075
-9999 -9999 -9999 19.9806254485972 20.471614087058 22.1677136674151 23.9814281932273 25.4114390061259 25.4521572001167 24.7902809534097 24.6576434699755 24.0529123248035 23.1839735575343 22.8162523397791 22.4444722889414 22.361015699372 22.389240489484 22.3946909987926 22.3843435026045 22.4552912738052 22.520454886908 22.4739993642447 22.4551682070775 22.4127992550789 22.4500556961501 22.5211975608855 22.5468681541045 22.5176112699106 22.4430419589773 22.3776290366696 22.306422420645 22.1598283853593 22.1342209021105 22.2200960424777 22.2550923261492
-9999 -9999 20.5391867397941 21.8405786436789 22.8139760180598 23.9652703992141 25.4605723947851 25.5473781803965 24.8634950374392 24.6676917158528 24.4949295516678 23.759910063903 22.8903455288038 22.6954950189606 22.6986711801249 22.6506195552468 22.5111931003631 22.4612274380658 22.4412526157608 22.4913780059536 22.6267518929701 22.5764558677409 22.4720398988637 22.4438177735609 22.4351616478837 22.4011516349735 22.4313560244729 22.4484720619068 22.4075790587525 22.4823177014544 22.2739135262603 22.0580184710703 22.1204412035053 22.1148219850862 22.2408674843237
