NCOLS 35 
NROWS 26 
XLLCORNER -80 
YLLCORNER 33 
CELLSIZE 0.5 
NODATA_value -9999 
-9999.000000000000000 -9999 -9999 -9999 -9999 -9999 -9999 -9999 -9999 -9999 -9999 -9999 -9999 -9999 -9999 -9999 -9999 -9999 -9999 -9999 -9999 -9999 -9999 -9999 -9999 -9999 -9999 -9999 -9999 -9999 -9999 -9999 -9999 -9999 -9999
-9999 -9999 -9999 -9999 -9999 -9999 -9999 -9999 -9999 -9999 -9999 -9999 -9999 -9999 -9999 -9999 -9999 -9999 -9999 -9999 -9999 -9999 -9999 -9999 -9999 -9999 -9999 -9999 -9999 14.2351347914611 -9999 -9999 -9999 -9999 -9999
-9999 -9999 -9999 -9999 -9999 -9999 -9999 -9999 -9999 -9999 -9999 -9999 -9999 -9999 -9999 -9999 -9999 -9999 -9999 -9999 -9999 -9999 -9999 -9999 -9999 -9999 13.2289103309068 13.5145376968275 13.7336624002837 14.1158858692376 -9999 -9999 -9999 -9999 -9999
-9999 -9999 -9999 -9999 -9999 -9999 -9999 -9999 -9999 -9999 -9999 -9999 -9999 -9999 -9999 -9999 -9999 -9999 -9999 -9999 -9999 -9999 -9999 13.2633598886709 13.2419936803469 13.3636900298082 13.4233530759837 13.3839602090786 -9999 -9999 -9999 13.0952630762357 13.3224895668765 13.9543892639927 14.3335937490818
-9999 -9999 -9999 -9999 -9999 -9999 -9999 -9999 -9999 -9999 -9999 -9999 -9999 -9999 -9999 -9999 -9999 -9999 -9999 -9999 13.2196875173368 13.477686950272 13.5924522396826 13.689478012668 13.7318081871381 14.0704181093628 13.8386324680477 13.571378463243 -9999 -9999 13.4172825847347 13.7596622382985 13.868621328348 14.7139804532691 15.197004882772
-9999 -9999 -9999 -9999 -9999 -9999 -9999 -9999 -9999 -9999 -9999 -9999 -9999 -9999 -9999 -9999 -9999 -9999 -9999 13.6961750696047 14.4779412517324 14.4675272083984 14.2188089851963 14.4582499951293 14.3390409831714 14.4405219491923 14.3155616415748 13.9721175166239 13.8359682422561 13.8985642117558 14.1505334821858 14.3023132367628 14.8235401509734 15.7393320077688 15.8313394023649
-9999 -9999 -9999 -9999 -9999 -9999 -9999 -9999 -9999 -9999 -9999 -9999 -9999 -9999 -9999 -9999 -9999 -9999 -9999 14.8685685896079 15.204147597095 14.8122111499017 15.0457092129797 15.7572672526799 15.0113216596806 14.9940206071569 15.0641398702876 14.844097326644 14.6305245926024 14.7283461268948 15.1068682305755 15.8868071460932 17.0241833310051 17.7357066737759 17.5798440155845
-9999 -9999 -9999 -9999 -9999 -9999 -9999 -9999 -9999 -9999 -9999 -9999 -9999 -9999 -9999 -9999 -9999 -9999 -9999 15.5036638287562 16.3774625256084 15.9523860714922 16.2051306716438 16.5956065600143 16.1564890312287 15.9649272680811 15.8774553915727 15.5250989142466 15.708546628055 16.3767937216513 17.2787638935628 18.1874809907618 19.2778689081726 20.1383433361804 20.0634593652756
-9999 -9999 -9999 -9999 -9999 -9999 -9999 -9999 -9999 -9999 -9999 -9999 -9999 -9999 -9999 -9999 -9999 -9999 -9999 15.7921454228618 16.8957851486117 17.0438047024484 17.0974532427383 17.2394853874368 17.2878752911176 16.7523999181821 16.1536022106463 16.1017230753142 18.1089870775336 19.3910991945823 20.1425066257902 20.4701182814093 20.3244134772005 20.3140676055898 20.7329739209281
-9999 -9999 -9999 -9999 -9999 -9999 -9999 -9999 -9999 -9999 -9999 -9999 -9999 -9999 -9999 -9999 -9999 16.7547603475622 16.6706471857684 16.3354610532279 16.720169363228 17.4544160537576 17.4355367484435 17.2554303022502 17.13374008863 16.6728239964882 16.6862077099881 18.2345051850545 19.9916861799781 21.5188636672983 22.3487349245353 22.4344615889601 21.9089840900221 21.6149122912031 21.3092064474481
-9999 -9999 -9999 -9999 -9999 -9999 -9999 -9999 -9999 -9999 -9999 -9999 -9999 -9999 17.2209778766074 17.1537466466716 17.4961797170666 17.8031952927975 17.7893793618667 17.4159367830449 17.5253617683193 18.1347623262472 18.2085756710306 18.0228777430347 18.4369480192239 18.9087068145443 19.2421904359289 20.3859925327261 21.7992817076751 22.9250625689992 22.9026244108759 23.0172792829552 23.2245006367042 23.2178181330255 23.1186392607802
-9999 -9999 -9999 -9999 -9999 -9999 -9999 -9999 -9999 -9999 -9999 -9999 18.3405430041994 18.1645877610159 17.9967465412367 18.0851850773525 18.4368466785626 18.6994374643172 19.072365242702 19.3117048636807 19.6803105533961 20.4522405206529 21.1088141197063 21.6521749343865 21.8987647770469 22.0653401574157 22.6582132404705 23.4796930429247 23.8453855247484 23.9661025334465 23.8061717847215 23.8576959122248 23.7142585737602 23.2204084994632 23.3801744086369
-9999 -9999 -9999 -9999 -9999 -9999 -9999 -9999 -9999 -9999 -9999 -9999 18.5672099514024 18.214084147424 18.2237889143056 18.948102411297 19.509683381712 19.9177293675611 20.9384546369089 21.8742211022321 22.3790948143587 23.1217063779017 23.7502046666365 23.9460721200735 23.947907560915 23.9358190051996 24.2912838212863 24.7327211120121 24.7439078534196 24.6731842590892 24.3514511461018 23.9421790132023 23.4003446650909 23.0641375462742 23.1606249355003
-9999 -9999 -9999 -9999 -9999 -9999 -9999 -9999 -9999 18.4550944479785 18.8722993094931 19.029187957528 18.8683056713518 18.5889704636417 19.4197373865184 20.2416137165696 20.9069384059943 21.5961618226675 22.4615560447412 22.9972426114499 23.3273198250106 23.8974650690552 24.2680938064276 24.5440216893901 24.9012336273885 25.4854130147236 25.9247034022786 26.1200041280415 25.9802151473926 25.7981598058739 25.1114879834215 24.1463076493747 23.4120033066308 23.465774120999 23.3518385838435
-9999 -9999 -9999 -9999 -9999 -9999 -9999 -9999 -9999 -9999 19.5148455674898 19.5846119554116 19.3392496499969 19.8617782215895 20.6981092499182 21.2253734678297 21.8014158511845 22.3270962001487 22.9575815015723 23.2890350206548 23.5258450143003 24.0059210592715 24.4020592753137 24.9590002112303 25.6606530853768 26.3614662532664 26.6694208231398 26.6529557080853 26.1863587862478 25.8452149186496 25.304469891856 24.3144645252496 23.8114668812775 23.912578052145 23.9518574797019
-9999 -9999 -9999 -9999 -9999 -9999 -9999 19.8727104102427 19.6533782598009 -9999 19.9061115310525 20.1170085732503 20.6369439935074 21.3827851035792 21.9217167092194 22.2994663067108 22.2743387679246 22.9312142376684 23.9275576608435 24.1204380837376 24.147596749926 24.4419917488553 24.9322084625748 25.3444820501782 25.8963883892038 26.2012934753492 26.4165917295101 26.5955541538411 26.319746398171 26.0363150861088 25.6834497960371 25.22346876441 24.9062820071092 24.9630275900991 25.1504473982079
-9999 -9999 -9999 -9999 -9999 -9999 -9999 19.9486282516616 19.9059302055902 20.2040896726612 20.1787240630132 20.7633124001994 21.5805298531013 22.2884919239042 23.0530379171146 23.5864466730691 23.7729385712507 24.0973529117504 24.674014763271 24.7949293986215 25.0498779508174 25.7202314361748 26.2469039730838 26.1685969010656 25.914482263183 25.8250115087113 26.323411414505 26.8159774326183 26.6620994960946 26.2185272994735 25.9270266136285 25.6326556324307 25.4236562885117 25.565752217995 25.6447468300966
-9999 -9999 -9999 -9999 -9999 -9999 -9999 20.0663531429513 -9999 20.6480608243208 20.650470606071 21.2667780254857 22.3475559591273 24.1421287855861 25.6005440515314 26.1205416326397 26.2364647497661 26.4059122284273 26.5629901181574 26.4614068295171 26.4855844914883 26.8593215019428 27.1125274292735 26.8623442364856 26.2288324330192 26.3010775506444 26.8510797400867 27.0041843758399 26.8941035751367 26.7089172093695 26.4315228217469 26.1575989416038 25.8515517221753 25.6770755937482 25.5737294003913
-9999 -9999 -9999 -9999 -9999 -9999 -9999 -9999 21.1467683859875 21.2876589344215 21.4948775103556 22.6428625822877 24.8869482547625 26.8741001923362 27.4921082467959 27.2841647455373 27.0469178332957 27.0170893380369 27.0627041190409 27.0569858564549 27.0154304140004 26.9707590720291 26.9205539262259 26.7825233886619 26.5715884035994 26.7372657687118 26.8254790777449 26.5920442811066 26.4517594321748 26.5805683159862 26.6831141741366 26.5309381366473 26.1495688641781 25.7725052337053 25.4971885775428
-9999 -9999 -9999 -9999 -9999 -9999 -9999 -9999 -9999 22.2794064539092 23.1032140072579 25.0631371880771 27.060703507036 27.5268163556791 27.1034713523458 26.5421893048149 26.5141151194019 26.6165314563006 26.5994143100588 26.4730316530607 26.6315989975847 26.7907771001443 26.8515320429091 26.7786931683252 26.7824756609863 26.8525258148651 26.5576401697387 26.1895845684963 26.1664254856426 26.2974742727586 26.454067600569 26.4184709785652 26.1132262533635 25.7567883308724 25.3769081332919
-9999 -9999 -9999 -9999 -9999 -9999 -9999 -9999 -9999 23.231995194669 25.2046796633854 27.2241407003346 27.5723452742586 27.1811923910698 26.4862461581002 26.3615913360671 26.5547968012894 26.6007865422249 26.50597480252 26.4474821137161 26.6487150736531 26.7009047685568 26.7222648576376 26.7270187683789 26.7194271098526 26.67732763809 26.1912426586732 25.9447483248083 25.9812415847514 26.0107120574087 26.0231653304268 25.9627448567888 25.7977139839757 25.3744952656173 25.0764291795986
-9999 -9999 -9999 -9999 -9999 -9999 -9999 23.3605660698715 23.9357868543066 25.225738974178 27.2076277172327 27.7193634382154 27.3471897618697 26.7526491444538 26.343508567552 26.4394260224471 26.5434469517964 26.53829938142 26.511612711306 26.5743542527274 26.6819097119426 26.5667386801385 26.5338108859297 26.5663427487995 26.4810241630195 26.3261415699356 25.9849239466526 25.8606273275149 25.7744468863646 25.6429674110969 25.680709956245 25.7771095313644 25.8627779994735 25.5176924686202 24.9947464469602
-9999 -9999 -9999 -9999 -9999 -9999 23.9209884986256 24.5855655751415 26.1448317980442 27.462036849207 27.8159477084027 27.5521345141217 27.0528373940919 26.6435059219417 26.4465448149807 26.5033470817487 26.5289006249071 26.5393809198336 26.5714142924311 26.6210869535351 26.616100801632 26.5018654259566 26.4415975872565 26.4316920566075 26.3942666807365 26.3144287210839 26.0957354304968 25.9344724091871 25.8386456621168 25.7465514218502 25.7551720457143 25.8748301937598 25.9916502250616 25.8206335289133 25.1646166763314
-9999 -9999 -9999 -9999 23.8419699517129 24.4673508586571 24.9215697252572 25.8904349670735 27.4142381918915 27.8678963702384 27.7564978968981 27.2572464659343 26.8978742495286 26.6545352081236 26.5753267158687 26.5537801584001 26.5235511851749 26.5569076340772 26.5982671304765 26.6189951205115 26.5699527220304 26.487149294349 26.4568577520355 26.4734133759475 26.4632627826604 26.4577979438451 26.3826646907795 26.3061234538987 26.1570639224866 26.1613398591208 26.1280619591472 26.1581264186381 26.1228040482212 25.901331856511 25.4682402799894
-9999 -9999 -9999 23.9034130074774 24.2721869224072 25.3415157882121 26.3736301667073 27.4342088590645 27.8990780393035 27.8450923241894 27.4612505215536 27.0576716753749 26.8896299538984 26.6823380253653 26.6628632953733 26.5534174256189 26.5555362312633 26.5968326505317 26.5599290730791 26.5216791079561 26.5162030220171 26.5043633440889 26.4848204636226 26.4591409864186 26.4174217082638 26.3598851981927 26.3403638802406 26.3537696816827 26.3581859655772 26.3945052547237 26.3840161028563 26.3870787300141 26.2491399755996 25.9768968408577 25.6709970825742
-9999 -9999 24.3810171472357 25.0085852597706 25.5329650237799 26.4863344854007 27.5668883210506 27.9549648338522 27.8241164624719 27.5559040632861 27.2569824550445 27.1796231893583 26.9469524073856 26.7338014627009 26.6522335872977 26.4747413388626 26.4816524800774 26.4725971961212 26.4697620828817 26.4999257356039 26.5650847756791 26.5468024484686 26.5006945663721 26.4521772943427 26.418873940081 26.417839194712 26.4490617921166 26.6027266839564 26.5839507991232 26.4502768372443 26.4279360890519 26.3810701249269 26.2070758469272 25.9967403859766 25.7406040671297
