NCOLS 70 
NROWS 52 
XLLCORNER -80 
YLLCORNER 33 
CELLSIZE 0.25 
NODATA_value -9999 
-9999.000000000000000 -9999 -9999 -9999 -9999 -9999 -9999 -9999 -9999 -9999 -9999 -9999 -9999 -9999 -9999 -9999 -9999 -9999 -9999 -9999 -9999 -9999 -9999 -9999 -9999 -9999 -9999 -9999 -9999 -9999 -9999 -9999 -9999 -9999 -9999 -9999 -9999 -9999 -9999 -9999 -9999 -9999 -9999 -9999 -9999 -9999 -9999 -9999 -9999 -9999 -9999 -9999 -9999 -9999 -9999 -9999 -9999 -9999 -9999 -9999 -9999 -9999 -9999 -9999 -9999 -9999 -9999 -9999 -9999 -9999
-9999 -9999 -9999 -9999 -9999 -9999 -9999 -9999 -9999 -9999 -9999 -9999 -9999 -9999 -9999 -9999 -9999 -9999 -9999 -9999 -9999 -9999 -9999 -9999 -9999 -9999 -9999 -9999 -9999 -9999 -9999 -9999 -9999 -9999 -9999 -9999 -9999 -9999 -9999 -9999 -9999 -9999 -9999 -9999 -9999 -9999 -9999 -9999 -9999 -9999 -9999 -9999 -9999 -9999 -9999 -9999 -9999 -9999 -9999 -9999 -9999 -9999 -9999 -9999 -9999 -9999 -9999 -9999 -9999 -9999
-9999 -9999 -9999 -9999 -9999 -9999 -9999 -9999 -9999 -9999 -9999 -9999 -9999 -9999 -9999 -9999 -9999 -9999 -9999 -9999 -9999 -9999 -9999 -9999 -9999 -9999 -9999 -9999 -9999 -9999 -9999 -9999 -9999 -9999 -9999 -9999 -9999 -9999 -9999 -9999 -9999 -9999 -9999 -9999 -9999 -9999 -9999 -9999 -9999 -9999 -9999 -9999 -9999 -9999 -9999 -9999 -9999 -9999 -9999 10.0128660202026 -9999 -9999 -9999 -9999 -9999 -9999 -9999 -9999 -9999 -9999
-9999 -9999 -9999 -9999 -9999 -9999 -9999 -9999 -9999 -9999 -9999 -9999 -9999 -9999 -9999 -9999 -9999 -9999 -9999 -9999 -9999 -9999 -9999 -9999 -9999 -9999 -9999 -9999 -9999 -9999 -9999 -9999 -9999 -9999 -9999 -9999 -9999 -9999 -9999 -9999 -9999 -9999 -9999 -9999 -9999 -9999 -9999 -9999 -9999 -9999 -9999 -9999 -9999 -9999 -9999 9.35790348052979 9.03695106506348 8.93032360076904 9.1191463470459 9.30122947692871 -9999 -9999 -9999 -9999 -9999 -9999 -9999 -9999 -9999 -9999
-9999 -9999 -9999 -9999 -9999 -9999 -9999 -9999 -9999 -9999 -9999 -9999 -9999 -9999 -9999 -9999 -9999 -9999 -9999 -9999 -9999 -9999 -9999 -9999 -9999 -9999 -9999 -9999 -9999 -9999 -9999 -9999 -9999 -9999 -9999 -9999 -9999 -9999 -9999 -9999 -9999 -9999 -9999 -9999 -9999 -9999 -9999 -9999 -9999 -9999 -9999 -9999 10.2382392883301 10.1305065155029 9.93366622924805 9.47362995147705 9.05184268951416 8.8773775100708 -9999 -9999 -9999 -9999 -9999 -9999 -9999 -9999 -9999 -9999 -9999 -9999
-9999 -9999 -9999 -9999 -9999 -9999 -9999 -9999 -9999 -9999 -9999 -9999 -9999 -9999 -9999 -9999 -9999 -9999 -9999 -9999 -9999 -9999 -9999 -9999 -9999 -9999 -9999 -9999 -9999 -9999 -9999 -9999 -9999 -9999 -9999 -9999 -9999 -9999 -9999 -9999 -9999 -9999 -9999 -9999 -9999 -9999 -9999 -9999 -9999 -9999 9.92707710266113 9.67045593261719 9.80963706970215 9.9592866897583 9.95848369598389 9.96626567840576 -9999 -9999 -9999 -9999 -9999 -9999 -9999 -9999 -9999 -9999 -9999 10.0904738108317 10.1032612323761 10.0164422988892
-9999 -9999 -9999 -9999 -9999 -9999 -9999 -9999 -9999 -9999 -9999 -9999 -9999 -9999 -9999 -9999 -9999 -9999 -9999 -9999 -9999 -9999 -9999 -9999 -9999 -9999 -9999 -9999 -9999 -9999 -9999 -9999 -9999 -9999 -9999 -9999 -9999 -9999 -9999 -9999 -9999 -9999 -9999 -9999 11.4272820154826 -9999 -9999 10.8438591957092 10.2697277069092 10.0828294754028 9.93968391418457 9.70458698272705 9.82972145080566 10.0924777984619 10.6079921722412 -9999 -9999 -9999 -9999 -9999 -9999 -9999 -9999 10.2342557907104 9.97695636749268 9.80186080932617 9.99150466918945 10.1810121536255 10.0989046096802 10.1166858673096
-9999 -9999 -9999 -9999 -9999 -9999 -9999 -9999 -9999 -9999 -9999 -9999 -9999 -9999 -9999 -9999 -9999 -9999 -9999 -9999 -9999 -9999 -9999 -9999 -9999 -9999 -9999 -9999 -9999 -9999 -9999 -9999 -9999 -9999 -9999 -9999 -9999 -9999 -9999 -9999 -9999 -9999 -9999 -9999 11.4167385101318 11.4723253250122 11.3370161056519 11.04274559021 10.7259473800659 10.6143188476562 10.6540803909302 10.6256713867188 10.5298442840576 10.4726285934448 10.4574449062347 -9999 -9999 -9999 -9999 -9999 -9999 -9999 10.2102899551392 10.1759042739868 10.2142333984375 10.2430639266968 10.425389289856 10.5904474258423 10.5868606567383 10.6254720687866
-9999 -9999 -9999 -9999 -9999 -9999 -9999 -9999 -9999 -9999 -9999 -9999 -9999 -9999 -9999 -9999 -9999 -9999 -9999 -9999 -9999 -9999 -9999 -9999 -9999 -9999 -9999 -9999 -9999 -9999 -9999 -9999 -9999 -9999 -9999 -9999 -9999 -9999 -9999 -9999 12.1031351089478 11.7262595494588 11.3319927215576 11.0635080337524 11.068021774292 11.1707029342651 11.2558221817017 11.2054080963135 11.0595684051514 10.9702777862549 10.9885520935059 11.0193042755127 10.8737134933472 10.656681060791 10.7333866119385 -9999 -9999 -9999 -9999 -9999 10.5073630015055 10.4348287582397 10.3404932022095 10.4966497421265 10.6449642181396 10.7043628692627 10.8296451568604 10.9797105789185 11.0745792388916 11.1382331848145
-9999 -9999 -9999 -9999 -9999 -9999 -9999 -9999 -9999 -9999 -9999 -9999 -9999 -9999 -9999 -9999 -9999 -9999 -9999 -9999 -9999 -9999 -9999 -9999 -9999 -9999 -9999 -9999 -9999 -9999 -9999 -9999 -9999 -9999 -9999 -9999 -9999 -9999 -9999 12.4189796447754 12.1836843490601 11.7067413330078 11.2883529663086 11.2085790634155 11.3240842819214 11.4454011917114 11.5349636077881 11.5308399200439 11.402060508728 11.254693031311 11.1806116104126 11.135913848877 10.9718189239502 10.7483711242676 10.7260036468506 11.0632486343384 -9999 -9999 -9999 10.9207720756531 10.5439653396606 10.5432949066162 10.6684141159058 10.8166007995605 10.9289274215698 10.9969348907471 11.0827417373657 11.1719598770142 11.2384796142578 11.2632894515991
-9999 -9999 -9999 -9999 -9999 -9999 -9999 -9999 -9999 -9999 -9999 -9999 -9999 -9999 -9999 -9999 -9999 -9999 -9999 -9999 -9999 -9999 -9999 -9999 -9999 -9999 -9999 -9999 -9999 -9999 -9999 -9999 -9999 -9999 -9999 -9999 -9999 -9999 12.8132934570312 12.4767808914185 12.1947507858276 11.8643350601196 11.672327041626 11.6346645355225 11.6409358978271 11.6677255630493 11.6968946456909 11.6567678451538 11.5467538833618 11.4181547164917 11.3230848312378 11.2378349304199 11.0926551818848 10.783842086792 10.555401802063 10.7934799194336 11.1419458389282 11.0825955073039 11.3188123703003 11.0102338790894 10.810076713562 10.853123664856 10.9071474075317 10.964861869812 11.0659770965576 11.1569194793701 11.2184295654297 11.2586488723755 11.3022260665894 11.3050889968872
-9999 -9999 -9999 -9999 -9999 -9999 -9999 -9999 -9999 -9999 -9999 -9999 -9999 -9999 -9999 -9999 -9999 -9999 -9999 -9999 -9999 -9999 -9999 -9999 -9999 -9999 -9999 -9999 -9999 -9999 -9999 -9999 -9999 -9999 -9999 -9999 -9999 13.3112697601318 13.0785980224609 12.7808389663696 12.5332641601562 12.2683782577515 12.0874300003052 11.9870939254761 11.9045028686523 11.8509855270386 11.8468475341797 11.841778755188 11.7798805236816 11.6363162994385 11.4898042678833 11.3726396560669 11.2469186782837 10.9763355255127 10.6416387557983 10.5703325271606 10.770206451416 10.9036102294922 10.9106712341309 10.9010467529297 10.9305381774902 11.00794506073 11.0525207519531 11.05832862854 11.1221551895142 11.2024574279785 11.2722158432007 11.3544473648071 11.4258813858032 11.3981122970581
-9999 -9999 -9999 -9999 -9999 -9999 -9999 -9999 -9999 -9999 -9999 -9999 -9999 -9999 -9999 -9999 -9999 -9999 -9999 -9999 -9999 -9999 -9999 -9999 -9999 -9999 -9999 -9999 -9999 -9999 -9999 -9999 -9999 -9999 -9999 -9999 -9999 13.4060611724854 13.2061977386475 12.9835996627808 12.8329916000366 12.6635446548462 12.5080671310425 12.3490228652954 12.1984415054321 12.0998229980469 12.0723094940186 12.0605792999268 12.002610206604 11.9004669189453 11.7695045471191 11.6069898605347 11.4418888092041 11.1660480499268 10.8230762481689 10.7223453521729 10.7990293502808 10.8753747940063 10.951623916626 11.0079956054688 11.0837478637695 11.1838569641113 11.2470760345459 11.2499933242798 11.3249549865723 11.4196453094482 11.4952640533447 11.5549716949463 11.5196657180786 11.4516429901123
-9999 -9999 -9999 -9999 -9999 -9999 -9999 -9999 -9999 -9999 -9999 -9999 -9999 -9999 -9999 -9999 -9999 -9999 -9999 -9999 -9999 -9999 -9999 -9999 -9999 -9999 -9999 -9999 -9999 -9999 -9999 -9999 -9999 -9999 -9999 -9999 -9999 14.0221767425537 13.6195631027222 13.2933692932129 13.1508073806763 13.0471363067627 12.8914804458618 12.6871871948242 12.4932918548584 12.3554458618164 12.2854900360107 12.2149620056152 12.0915498733521 11.9460821151733 11.8246307373047 11.6764974594116 11.4979066848755 11.2260322570801 10.9931869506836 10.957724571228 10.9109601974487 10.826699256897 10.9921894073486 11.0553274154663 11.2614221572876 11.4879302978516 11.6343469619751 11.7227220535278 11.8891925811768 12.0251235961914 11.9700231552124 11.7750034332275 11.6337966918945 11.6649217605591
-9999 -9999 -9999 -9999 -9999 -9999 -9999 -9999 -9999 -9999 -9999 -9999 -9999 -9999 -9999 -9999 -9999 -9999 -9999 -9999 -9999 -9999 -9999 -9999 -9999 -9999 -9999 -9999 -9999 -9999 -9999 -9999 -9999 -9999 -9999 -9999 14.6550493240356 14.3097620010376 13.8969202041626 13.6076536178589 13.4409294128418 13.3526496887207 13.2220726013184 13.0080757141113 12.7991399765015 12.6369371414185 12.5181274414062 12.3910417556763 12.2506914138794 12.0641813278198 11.8877248764038 11.7045946121216 11.5281047821045 11.3552207946777 11.2724876403809 11.2351512908936 11.0344886779785 10.7208881378174 11.0248041152954 11.136492729187 11.5450391769409 11.8705101013184 12.0395021438599 12.1552352905273 12.2302579879761 12.2532920837402 12.2160367965698 12.0602388381958 11.9962120056152 12.188591003418
-9999 -9999 -9999 -9999 -9999 -9999 -9999 -9999 -9999 -9999 -9999 -9999 -9999 -9999 -9999 -9999 -9999 -9999 -9999 -9999 -9999 -9999 -9999 -9999 -9999 -9999 -9999 -9999 -9999 -9999 -9999 -9999 -9999 -9999 -9999 -9999 -9999 14.238621711731 14.0915899276733 13.8659267425537 13.6538200378418 13.5010890960693 13.3749074935913 13.193133354187 13.0356378555298 12.8914642333984 12.7683620452881 12.615668296814 12.4703378677368 12.2748041152954 12.0488309860229 11.8164463043213 11.6500635147095 11.5199165344238 11.598316192627 11.454062461853 11.4782295227051 11.3435516357422 11.568169593811 11.8716878890991 12.1306772232056 12.1874532699585 12.2550144195557 12.3161382675171 12.3295059204102 12.3530941009521 12.4417095184326 12.5383672714233 12.5637712478638 12.7648086547852
-9999 -9999 -9999 -9999 -9999 -9999 -9999 -9999 -9999 -9999 -9999 -9999 -9999 -9999 -9999 -9999 -9999 -9999 -9999 -9999 -9999 -9999 -9999 -9999 -9999 -9999 -9999 -9999 -9999 -9999 -9999 -9999 -9999 -9999 -9999 -9999 -9999 -9999 14.3422946929932 -9999 13.8072328567505 13.6015586853027 13.4642934799194 13.2988586425781 13.147500038147 12.9695653915405 12.8682317733765 12.737907409668 12.5556516647339 12.2846050262451 12.1013793945312 11.9414949417114 11.7777004241943 11.5041275024414 11.6429996490479 11.4654235839844 11.8697595596313 12.0674428939819 12.4201793670654 12.7355346679688 12.8338575363159 12.6897563934326 12.6389408111572 12.7008209228516 12.7396993637085 12.8891105651855 13.1732234954834 13.5113821029663 13.7866430282593 13.8268747329712
-9999 -9999 -9999 -9999 -9999 -9999 -9999 -9999 -9999 -9999 -9999 -9999 -9999 -9999 -9999 -9999 -9999 -9999 -9999 -9999 -9999 -9999 -9999 -9999 -9999 -9999 -9999 -9999 -9999 -9999 -9999 -9999 -9999 -9999 -9999 -9999 -9999 -9999 -9999 -9999 13.7318458557129 13.533374786377 13.5066795349121 13.4003028869629 13.2177600860596 13.0173358917236 12.9142532348633 12.8391752243042 12.7734718322754 12.4866104125977 12.3640918731689 12.2454271316528 12.01429271698 11.6094379425049 11.5137786865234 11.9370021820068 12.5140819549561 12.8302421569824 13.289101600647 13.7526836395264 13.6471509933472 13.4105319976807 13.3534202575684 13.5542821884155 13.8488321304321 14.5234422683716 15.2437772750854 15.7558555603027 16.16530418396 16.3205127716064
-9999 -9999 -9999 -9999 -9999 -9999 -9999 -9999 -9999 -9999 -9999 -9999 -9999 -9999 -9999 -9999 -9999 -9999 -9999 -9999 -9999 -9999 -9999 -9999 -9999 -9999 -9999 -9999 -9999 -9999 -9999 -9999 -9999 -9999 16.0429530143738 16.0653438568115 15.7869234085083 -9999 14.9868516921997 14.5516872406006 13.8263387680054 13.3670749664307 13.381983757019 13.3468713760376 13.1951665878296 13.1313438415527 13.0839738845825 13.0361766815186 12.9866857528687 12.7945919036865 12.5978679656982 12.3815803527832 11.9315967559814 11.3808403015137 11.4565229415894 12.5204954147339 13.2726669311523 13.8282051086426 14.542387008667 15.0749568939209 15.0235185623169 15.0618658065796 15.3431596755981 16.0823707580566 16.8688468933105 17.9875755310059 18.6505756378174 18.8764553070068 18.9687156677246 18.9395999908447
-9999 -9999 -9999 -9999 -9999 -9999 -9999 -9999 -9999 -9999 -9999 -9999 -9999 -9999 -9999 -9999 -9999 -9999 -9999 -9999 -9999 -9999 -9999 -9999 -9999 -9999 -9999 17.3891944885254 17.3891944885254 17.3523273468018 17.3497753143311 16.8196964263916 16.1116771697998 16.0549488067627 16.1095695495605 15.9419498443604 15.5777950286865 15.162935256958 14.7967481613159 14.3712472915649 13.5899724960327 12.9117965698242 12.959981918335 13.1094331741333 13.0941524505615 13.1520090103149 13.2240648269653 13.249472618103 13.2228660583496 12.9862413406372 12.6632328033447 12.4742975234985 12.1169347763062 11.992751121521 12.3554601669312 13.1681642532349 14.0120220184326 14.9644212722778 15.7866239547729 16.2572937011719 16.5500431060791 17.3722229003906 18.3568878173828 19.1292972564697 19.6001129150391 19.9688587188721 20.1275310516357 20.1073169708252 20.1196403503418 20.0028247833252
-9999 -9999 -9999 -9999 -9999 -9999 -9999 -9999 -9999 -9999 -9999 -9999 -9999 -9999 -9999 -9999 -9999 -9999 -9999 -9999 -9999 -9999 -9999 -9999 -9999 -9999 -9999 -9999 -9999 -9999 17.0788078308105 16.5268611907959 15.8094959259033 15.7358274459839 15.795783996582 15.6243772506714 15.2837743759155 14.8677787780762 14.4450588226318 13.97340965271 13.2790851593018 12.5877132415771 12.6534442901611 12.9614248275757 13.1328077316284 13.363317489624 13.5246829986572 13.5483474731445 13.4540195465088 13.1833419799805 13.0774612426758 13.4408941268921 13.9223899841309 14.4593658447266 14.6073274612427 14.4584932327271 14.5971231460571 15.1641092300415 15.8413591384888 16.4395656585693 17.3325424194336 18.4088916778564 19.0482521057129 19.5333671569824 19.8656520843506 20.1842041015625 20.3765296936035 20.4883480072021 20.6695976257324 20.6705760955811
-9999 -9999 -9999 -9999 -9999 -9999 -9999 -9999 -9999 -9999 -9999 -9999 -9999 -9999 -9999 -9999 -9999 -9999 -9999 -9999 -9999 -9999 -9999 -9999 -9999 17.1608702341716 17.0733807881673 16.9722690582275 16.8279032707214 16.7305297851562 16.4607639312744 16.3127555847168 16.3074150085449 16.0604953765869 15.7632913589478 15.5205688476562 15.2443475723267 14.8685913085938 14.3953685760498 13.9239273071289 13.4742240905762 13.1727170944214 13.1603708267212 13.3661279678345 13.7314195632935 13.9929275512695 14.0066995620728 13.859673500061 13.8180990219116 13.8983211517334 14.3890781402588 15.2557010650635 16.0371952056885 16.6879806518555 16.9630165100098 16.3227252960205 15.6897277832031 15.6421709060669 15.9522686004639 16.2384147644043 17.0370292663574 18.1510372161865 18.8198318481445 19.3607006072998 19.8067245483398 20.1970748901367 20.4760780334473 20.6459579467773 20.8623733520508 20.9312419891357
-9999 -9999 -9999 -9999 -9999 -9999 -9999 -9999 -9999 -9999 -9999 -9999 -9999 -9999 -9999 -9999 -9999 -9999 -9999 -9999 -9999 -9999 -9999 -9999 17.2315063476562 17.1594333648682 17.0916709899902 16.9690380096436 16.8560981750488 16.7559471130371 16.5751876831055 16.4175415039062 16.3128051757812 16.0958271026611 15.8855571746826 15.7953882217407 15.6960821151733 15.4264154434204 14.9445858001709 14.4185371398926 14.0484952926636 13.92333984375 13.9606189727783 14.2058582305908 14.6546697616577 14.8408374786377 14.731466293335 14.6763305664062 14.9989728927612 15.4692440032959 16.0750141143799 16.7576789855957 17.184289932251 17.5404891967773 17.8585643768311 17.2968597412109 16.6637268066406 16.4649467468262 16.5357551574707 16.4566745758057 16.8546905517578 17.9104862213135 18.7504348754883 19.2834396362305 19.7501850128174 20.2370185852051 20.602632522583 20.798038482666 20.9921054840088 21.087963104248
-9999 -9999 -9999 -9999 -9999 -9999 -9999 -9999 -9999 -9999 -9999 -9999 -9999 -9999 -9999 -9999 -9999 -9999 -9999 -9999 -9999 -9999 -9999 -9999 17.214183807373 17.128231048584 17.0461444854736 16.9185676574707 16.7881870269775 16.642204284668 16.4991893768311 16.4405937194824 16.4363040924072 16.4143009185791 16.4354095458984 16.5409679412842 16.6884708404541 16.7002906799316 16.4021053314209 15.8825445175171 15.4297924041748 15.2863569259644 15.3130054473877 15.4278545379639 15.7098140716553 15.9347352981567 15.9943323135376 16.2699680328369 16.7791900634766 17.2611980438232 17.5938186645508 17.8652725219727 18.067798614502 18.2025279998779 18.2672595977783 17.817081451416 17.2902717590332 16.9564208984375 17.0609836578369 17.0815830230713 17.2275981903076 18.0982761383057 18.934720993042 19.4273681640625 19.8558006286621 20.3170223236084 20.6778964996338 20.9143886566162 21.0991077423096 21.208532333374
-9999 -9999 -9999 -9999 -9999 -9999 -9999 -9999 -9999 -9999 -9999 -9999 -9999 -9999 -9999 -9999 -9999 -9999 -9999 -9999 -9999 -9999 -9999 17.5430989265442 17.4366931915283 17.2150268554688 17.0412635803223 16.8797740936279 16.726713180542 16.5730133056641 16.5253524780273 16.6957244873047 16.9561653137207 17.1589546203613 17.2970886230469 17.4150409698486 17.64133644104 17.9135036468506 18.0077114105225 17.8591232299805 17.5862617492676 17.4217624664307 17.3041362762451 17.0684585571289 16.9301204681396 17.0053577423096 17.1623363494873 17.4095611572266 17.5952281951904 17.8346900939941 18.0534439086914 18.1954441070557 18.4111633300781 18.5114288330078 18.4103412628174 18.1014614105225 17.8008327484131 17.6623115539551 17.8268375396729 17.9859943389893 17.9963550567627 18.5384521484375 19.2528762817383 19.7353935241699 20.0381641387939 20.3002586364746 20.5532188415527 20.8037204742432 20.9510860443115 21.0713195800781
-9999 -9999 -9999 -9999 -9999 -9999 -9999 -9999 -9999 -9999 -9999 -9999 -9999 -9999 -9999 -9999 -9999 -9999 -9999 -9999 -9999 -9999 -9999 17.9326629638672 17.5888557434082 17.2896690368652 17.0091857910156 16.8265228271484 16.7926597595215 16.8597373962402 17.1007595062256 17.527717590332 17.9296474456787 18.1777057647705 18.2917881011963 18.315502166748 18.3806381225586 18.5358047485352 18.6975364685059 18.8199253082275 18.8763942718506 18.8760375976562 18.7466373443604 18.3659172058105 17.9757118225098 17.8226871490479 17.7946071624756 17.7301483154297 17.6174087524414 17.7792549133301 18.0768032073975 18.3497486114502 18.664758682251 18.8414134979248 18.8509426116943 18.7760257720947 18.7626113891602 18.8019371032715 18.800853729248 18.7615242004395 18.7057247161865 18.9634094238281 19.4604721069336 19.8905296325684 20.1261520385742 20.2445793151855 20.3768043518066 20.6279850006104 20.8963470458984 21.1734523773193
-9999 -9999 -9999 -9999 -9999 -9999 -9999 -9999 -9999 -9999 -9999 -9999 -9999 -9999 -9999 -9999 -9999 -9999 -9999 -9999 -9999 -9999 18.3813667297363 18.0233669281006 17.6956481933594 17.4117698669434 17.1141376495361 16.9625797271729 17.1669483184814 17.7552680969238 18.4954261779785 19.0776538848877 19.2781772613525 19.1753921508789 19.0395774841309 18.9543018341064 18.9009819030762 18.906156539917 18.919979095459 18.9342803955078 19.0451545715332 19.1743946075439 19.1625347137451 18.9250049591064 18.6079635620117 18.4029598236084 18.1936225891113 17.8534336090088 17.8465366363525 18.2373714447021 18.6393966674805 19.028434753418 19.4073619842529 19.682638168335 19.8657493591309 19.9761066436768 20.0679168701172 20.0521869659424 19.9561519622803 19.7877464294434 19.573823928833 19.4939708709717 19.6500949859619 19.9039421081543 20.1233577728271 20.2529926300049 20.3497085571289 20.6176147460938 21.0549278259277 21.4623928070068
-9999 -9999 -9999 -9999 -9999 -9999 -9999 -9999 -9999 -9999 -9999 -9999 -9999 -9999 21.7355567614237 -9999 -9999 -9999 -9999 19.7833042144775 -9999 18.6387596130371 18.3933162689209 18.105489730835 17.8275985717773 17.5130462646484 17.2250671386719 17.3180313110352 18.2016315460205 19.5376625061035 20.568904876709 20.8412971496582 20.3167400360107 19.7636394500732 19.6819744110107 19.7134838104248 19.7022094726562 19.6272830963135 19.4636249542236 19.2802848815918 19.2128677368164 19.3166961669922 19.3999500274658 19.2743129730225 19.0415859222412 18.8226222991943 18.5343551635742 18.2243728637695 18.5277004241943 19.1221599578857 19.5386829376221 19.9305152893066 20.266788482666 20.5302410125732 20.7346057891846 20.8803596496582 20.9721298217773 20.9995784759521 20.9855556488037 20.9502429962158 20.8073616027832 20.5915584564209 20.477933883667 20.4677028656006 20.5318794250488 20.6315822601318 20.7616176605225 21.0078144073486 21.3739814758301 21.7348537445068
-9999 -9999 -9999 -9999 -9999 -9999 -9999 -9999 -9999 -9999 -9999 -9999 -9999 -9999 21.7425684928894 -9999 -9999 -9999 -9999 19.5206260681152 18.8518371582031 18.3092231750488 18.0912189483643 18.0249404907227 17.8837108612061 17.67506980896 17.747896194458 18.7130737304688 20.2890472412109 21.5365829467773 22.1795196533203 22.2019424438477 21.5659236907959 21.0635280609131 21.1516094207764 21.2870464324951 21.2794418334961 21.14377784729 20.8321933746338 20.4007606506348 19.9841918945312 19.7631797790527 19.706356048584 19.608585357666 19.4553165435791 19.2608699798584 18.9900493621826 18.8956680297852 19.3003444671631 19.8073310852051 20.1324462890625 20.5148277282715 20.9550533294678 21.3010921478271 21.539436340332 21.7158584594727 21.8301811218262 21.8907318115234 21.9201183319092 21.9481258392334 21.9358940124512 21.8382205963135 21.715726852417 21.5891742706299 21.498514175415 21.4789237976074 21.5268230438232 21.6706275939941 21.915355682373 22.2560024261475
-9999 -9999 -9999 -9999 -9999 -9999 -9999 -9999 -9999 -9999 -9999 -9999 -9999 -9999 21.7110157012939 -9999 -9999 -9999 -9999 -9999 18.527774810791 18.2699508666992 18.0865879058838 18.1581726074219 18.2530822753906 18.427526473999 19.1565208435059 20.5821590423584 21.9099292755127 22.6082096099854 22.9109554290771 23.0597972869873 23.0186424255371 22.9219856262207 22.9541702270508 22.9876728057861 22.9365882873535 22.8126983642578 22.4682235717773 21.9173717498779 21.3943328857422 20.8476696014404 20.3066558837891 19.9626388549805 19.7999210357666 19.7251777648926 19.6689720153809 19.6719856262207 19.8220119476318 20.0304164886475 20.3554840087891 20.9959926605225 21.6565113067627 22.0835189819336 22.3668308258057 22.5864524841309 22.743127822876 22.8397312164307 22.8898983001709 22.9068584442139 22.9074382781982 22.8793430328369 22.81711769104 22.7045383453369 22.5760593414307 22.4901695251465 22.4660511016846 22.5445690155029 22.738260269165 23.0636253356934
-9999 -9999 -9999 -9999 -9999 -9999 -9999 -9999 -9999 -9999 -9999 -9999 -9999 -9999 21.691294670105 -9999 21.8372268676758 -9999 -9999 -9999 18.9131393432617 18.6187858581543 18.4395885467529 18.5852870941162 18.9557609558105 19.5247249603271 20.5199241638184 21.7586784362793 22.6888160705566 23.1743183135986 23.4611148834229 23.7961959838867 24.1751346588135 24.4654483795166 24.6191501617432 24.6479072570801 24.5640602111816 24.3905334472656 24.076286315918 23.5796890258789 23.0339126586914 22.4093074798584 21.6136951446533 20.9129543304443 20.5194664001465 20.3667392730713 20.3817291259766 20.4111213684082 20.3609428405762 20.4475479125977 20.9279518127441 21.7157421112061 22.3193321228027 22.6832256317139 22.9821224212646 23.2264099121094 23.3978786468506 23.5089912414551 23.5908107757568 23.6497859954834 23.6762218475342 23.6663398742676 23.627498626709 23.5598239898682 23.4750709533691 23.4152011871338 23.404878616333 23.4507637023926 23.5635833740234 23.7392158508301
-9999 -9999 -9999 -9999 -9999 -9999 -9999 -9999 -9999 -9999 -9999 -9999 -9999 -9999 21.691294670105 21.671573638916 21.8099746704102 -9999 -9999 18.893627166748 18.874605178833 18.7373180389404 18.7321624755859 19.0878810882568 19.6154899597168 20.3377170562744 21.4380683898926 22.5483989715576 23.2382202148438 23.58371925354 23.9469375610352 24.5226783752441 25.1168117523193 25.4903926849365 25.6003189086914 25.5299167633057 25.359935760498 25.1542568206787 24.9462718963623 24.6559238433838 24.1999855041504 23.6501445770264 22.9999523162842 22.2674217224121 21.654483795166 21.2426662445068 21.0683364868164 21.078540802002 21.1027565002441 21.3155002593994 21.8648700714111 22.4327163696289 22.8231315612793 23.1565189361572 23.4770755767822 23.7090110778809 23.8609352111816 23.9660835266113 24.0496501922607 24.0936756134033 24.1025695800781 24.0845909118652 24.0460834503174 23.9993877410889 23.9559593200684 23.9243793487549 23.9240036010742 23.9435710906982 23.9748153686523 24.0010890960693
-9999 -9999 -9999 -9999 -9999 -9999 -9999 -9999 -9999 -9999 -9999 -9999 -9999 -9999 -9999 21.6081100463867 21.7736492156982 -9999 19.9602117538452 18.9563541412354 18.8304100036621 18.8585948944092 19.1497325897217 19.6794490814209 20.2110939025879 21.0247821807861 22.102596282959 22.9695453643799 23.5265960693359 23.9835548400879 24.6116275787354 25.3431396484375 25.8061351776123 25.8978042602539 25.7502784729004 25.5060558319092 25.2921867370605 25.1614608764648 25.080717086792 24.9970893859863 24.7939777374268 24.3999652862549 23.9016723632812 23.3524017333984 22.7815380096436 22.2563171386719 21.9335117340088 21.904182434082 22.0219974517822 22.2581520080566 22.6122188568115 22.9522342681885 23.3166484832764 23.697660446167 23.9942665100098 24.1547603607178 24.2220306396484 24.222583770752 24.1960964202881 24.1511077880859 24.0940647125244 24.0299530029297 23.9663753509521 23.9126358032227 23.8779258728027 23.8723411560059 23.8982124328613 23.9408206939697 23.9599456787109 23.9590072631836
-9999 -9999 -9999 -9999 -9999 -9999 -9999 -9999 -9999 -9999 -9999 -9999 -9999 -9999 -9999 21.4072418212891 21.3781108856201 -9999 19.6509437561035 19.3203983306885 19.1642265319824 19.1826019287109 19.610258102417 20.2330055236816 20.8936672210693 21.784948348999 22.7305870056152 23.542724609375 24.2466831207275 24.9532527923584 25.6279144287109 25.9880657196045 25.9781970977783 25.7224617004395 25.3697662353516 25.0912609100342 24.9647521972656 24.9404373168945 24.9684238433838 25.0100173950195 25.0155944824219 24.8708934783936 24.5544090270996 24.1504898071289 23.7314872741699 23.311882019043 22.9847755432129 22.8788280487061 22.9497165679932 23.1132392883301 23.3467922210693 23.6441745758057 23.9836120605469 24.238489151001 24.3499488830566 24.3450889587402 24.2745532989502 24.1521129608154 24.0178146362305 23.8952178955078 23.805736541748 23.7503700256348 23.7241592407227 23.6796474456787 23.6123504638672 23.579948425293 23.6206073760986 23.7133617401123 23.7864036560059 23.8567333221436
-9999 -9999 -9999 -9999 -9999 -9999 -9999 -9999 -9999 -9999 -9999 -9999 -9999 -9999 -9999 21.4520587921143 -9999 21.0042716435024 20.2610912322998 19.9872493743896 19.7024192810059 19.6696510314941 20.120231628418 20.8398380279541 21.844799041748 23.0438690185547 24.0513591766357 24.8554306030273 25.4843406677246 25.9475135803223 26.1549224853516 26.0399017333984 25.6813831329346 25.1858463287354 24.7589836120605 24.562801361084 24.5247459411621 24.5403804779053 24.6050224304199 24.7229099273682 24.8515281677246 24.9148941040039 24.8600006103516 24.6763610839844 24.4454689025879 24.2215538024902 24.0268154144287 23.9143848419189 23.8914966583252 23.947093963623 24.0741539001465 24.2341251373291 24.3625297546387 24.398962020874 24.3497409820557 24.2544937133789 24.0672073364258 23.8508243560791 23.699125289917 23.5881900787354 23.5499572753906 23.6211605072021 23.6706295013428 23.6393165588379 23.5477695465088 23.4672470092773 23.495096206665 23.6124935150146 23.7365684509277 23.8202247619629
-9999 -9999 -9999 -9999 -9999 -9999 -9999 -9999 -9999 -9999 -9999 -9999 -9999 -9999 21.4520587921143 21.5179335276286 21.6868343353271 21.5177612304688 21.1202526092529 20.7072601318359 20.2942962646484 20.2381839752197 20.8183097839355 21.914342880249 23.3276996612549 24.579532623291 25.4165267944336 25.9606170654297 26.2488842010498 26.3000068664551 26.1319770812988 25.7469425201416 25.1491165161133 24.5876140594482 24.3222999572754 24.2654571533203 24.2449779510498 24.2124214172363 24.2269344329834 24.3444576263428 24.5024089813232 24.6213188171387 24.6808013916016 24.669282913208 24.6118965148926 24.5279331207275 24.4510231018066 24.3827056884766 24.3323650360107 24.3296890258789 24.3542594909668 24.3708744049072 24.3493099212646 24.2719764709473 24.1512889862061 23.9886379241943 23.7836780548096 23.6287403106689 23.5591163635254 23.5335884094238 23.5612525939941 23.6480026245117 23.6688861846924 23.616756439209 23.527193069458 23.4654350280762 23.5282497406006 23.658805847168 23.7435512542725 23.7378082275391
-9999 -9999 -9999 -9999 -9999 -9999 -9999 -9999 -9999 -9999 -9999 -9999 -9999 -9999 -9999 -9999 21.7508282661438 21.9032249450684 21.5695667266846 21.0948867797852 20.7034339904785 21.0549049377441 22.4450054168701 23.8745021820068 24.9858722686768 25.8063488006592 26.282018661499 26.4449844360352 26.4032726287842 26.1793727874756 25.7842121124268 25.1919822692871 24.587682723999 24.2964038848877 24.2450122833252 24.2148818969727 24.1428508758545 24.0421485900879 24.010440826416 24.1114521026611 24.225980758667 24.2865695953369 24.2929573059082 24.2628479003906 24.228572845459 24.2031764984131 24.2105045318604 24.2311973571777 24.2553291320801 24.2890644073486 24.2918472290039 24.2543258666992 24.1721458435059 24.0412673950195 23.8829002380371 23.7379493713379 23.6401538848877 23.6023788452148 23.6080074310303 23.6305255889893 23.6412086486816 23.6406116485596 23.6055850982666 23.5414581298828 23.4856872558594 23.4977035522461 23.5973072052002 23.6834259033203 23.6999702453613 23.6515216827393
-9999 -9999 -9999 -9999 -9999 -9999 -9999 -9999 -9999 -9999 -9999 -9999 -9999 -9999 -9999 -9999 21.8993587493896 21.8954925537109 21.7104797363281 21.3786754608154 21.2192230224609 22.3055210113525 24.1365127563477 25.2332363128662 25.9499626159668 26.4049186706543 26.5627708435059 26.4861698150635 26.2561473846436 25.8554725646973 25.2759666442871 24.6637992858887 24.3529167175293 24.3345184326172 24.3260383605957 24.2810192108154 24.1998882293701 24.0699081420898 23.9613590240479 23.9726581573486 24.0139865875244 24.0140075683594 23.9729080200195 23.8978862762451 23.8318004608154 23.8247528076172 23.9071388244629 24.0109786987305 24.1009254455566 24.164608001709 24.174825668335 24.11745262146 23.9919681549072 23.8239212036133 23.6969585418701 23.6574783325195 23.6631469726562 23.6631183624268 23.6587791442871 23.6507606506348 23.6252002716064 23.5929374694824 23.5572891235352 23.518611907959 23.5140495300293 23.5587749481201 23.6255645751953 23.6706409454346 23.6780261993408 23.6388397216797
-9999 -9999 -9999 -9999 -9999 -9999 -9999 -9999 -9999 -9999 -9999 -9999 -9999 -9999 -9999 -9999 -9999 21.9598479270935 21.8903713226318 21.7595348358154 22.0686168670654 23.6044883728027 25.0486297607422 25.8685531616211 26.409387588501 26.6176605224609 26.5667190551758 26.3736171722412 26.0279006958008 25.4475803375244 24.7662830352783 24.3941402435303 24.3896026611328 24.4429531097412 24.4754524230957 24.4508895874023 24.3622913360596 24.2156944274902 24.0631484985352 23.9841957092285 23.930362701416 23.861572265625 23.7898559570312 23.7508525848389 23.7928256988525 23.853946685791 23.9221076965332 24.0039482116699 24.101676940918 24.1679134368896 24.1454982757568 24.0335388183594 23.8719921112061 23.7206878662109 23.6881313323975 23.7208576202393 23.7311401367188 23.7043476104736 23.6756343841553 23.6676921844482 23.6573486328125 23.6533241271973 23.6549415588379 23.6481895446777 23.6510391235352 23.6657485961914 23.6902236938477 23.7393951416016 23.7741565704346 23.7592239379883
-9999 -9999 -9999 -9999 -9999 -9999 -9999 -9999 -9999 -9999 -9999 -9999 -9999 -9999 21.8964591026306 21.8954925537109 22.0787745714188 22.1167097091675 22.3430480957031 22.3649978637695 22.9869556427002 24.5076198577881 25.5653591156006 26.3262767791748 26.6902942657471 26.6695575714111 26.4655227661133 26.203540802002 25.769926071167 25.0909824371338 24.4553661346436 24.3021068572998 24.4141845703125 24.4809837341309 24.5673065185547 24.5781707763672 24.5083789825439 24.3895568847656 24.2461452484131 24.1141376495361 23.979585647583 23.8477745056152 23.7609882354736 23.7424278259277 23.782865524292 23.7976760864258 23.8086738586426 23.8824367523193 24.0038356781006 24.0927886962891 24.0850620269775 23.9936637878418 23.8742141723633 23.7809047698975 23.7602882385254 23.7700881958008 23.7617206573486 23.7385425567627 23.7423210144043 23.7753734588623 23.8113212585449 23.8409309387207 23.8499660491943 23.8407192230225 23.8216609954834 23.8123340606689 23.8067455291748 23.8325958251953 23.8683376312256 23.8903045654297
-9999 -9999 -9999 -9999 -9999 -9999 -9999 -9999 -9999 -9999 -9999 -9999 -9999 -9999 -9999 -9999 -9999 -9999 22.8669753074646 23.0798778533936 23.7559642791748 25.0690307617188 26.1898612976074 26.6902618408203 26.722240447998 26.4866256713867 26.2879753112793 26.0863914489746 25.6058254241943 24.8644390106201 24.3377132415771 24.2859668731689 24.3893814086914 24.459020614624 24.5490036010742 24.6096649169922 24.5953178405762 24.5148983001709 24.4034309387207 24.2693691253662 24.1240520477295 23.9911365509033 23.8839740753174 23.8006839752197 23.7666149139404 23.7354164123535 23.7359409332275 23.8165626525879 23.918571472168 23.9876232147217 24.0114135742188 24.00168800354 23.9465084075928 23.8844356536865 23.850944519043 23.8448390960693 23.8423442840576 23.8525733947754 23.8793830871582 23.9069881439209 23.9298362731934 23.949291229248 23.9721794128418 23.9755229949951 23.9456691741943 23.9234008789062 23.9039421081543 23.9155139923096 23.9251289367676 23.9358558654785
-9999 -9999 -9999 -9999 -9999 -9999 -9999 -9999 -9999 -9999 -9999 -9999 -9999 -9999 -9999 -9999 -9999 23.9018440246582 23.8742623329163 23.6799774169922 24.3969593048096 26.0076675415039 26.7425594329834 26.8022766113281 26.5476379394531 26.2588768005371 26.1784496307373 26.0517425537109 25.588285446167 24.8366832733154 24.3804321289062 24.3287811279297 24.3740272521973 24.4491062164307 24.5050926208496 24.5676250457764 24.6122188568115 24.5699825286865 24.4556121826172 24.296573638916 24.1320953369141 24.0148277282715 23.93137550354 23.8432083129883 23.7743167877197 23.7274951934814 23.7340774536133 23.8132572174072 23.9044017791748 23.9505424499512 23.9858322143555 24.0442600250244 24.0600910186768 24.0187816619873 23.9774684906006 23.9573516845703 23.9408302307129 23.9285106658936 23.9203758239746 23.9061527252197 23.9065456390381 23.9236526489258 23.9741897583008 24.0217990875244 24.0300903320312 24.0263328552246 24.0037841796875 23.9965305328369 23.9554977416992 23.9233589172363
-9999 -9999 -9999 -9999 -9999 -9999 -9999 -9999 -9999 -9999 -9999 -9999 -9999 25.8250312805176 25.7948964436849 -9999 25.5929336547852 25.1016898155212 23.9018440246582 24.8353500366211 26.0776901245117 26.8216819763184 26.9093894958496 26.652982711792 26.2783451080322 26.0904407501221 26.1156482696533 26.0323524475098 25.6414794921875 24.9523735046387 24.4641666412354 24.2904930114746 24.2810344696045 24.4032859802246 24.4859924316406 24.5229644775391 24.5591640472412 24.5307693481445 24.426176071167 24.2936592102051 24.1618633270264 24.0623054504395 24.0003089904785 23.9249153137207 23.8438262939453 23.7978096008301 23.8143768310547 23.8659362792969 23.9260787963867 23.9733028411865 24.0163249969482 24.0884227752686 24.1347103118896 24.1048603057861 24.0455665588379 24.0007266998291 23.9580516815186 23.9325141906738 23.9177284240723 23.9024429321289 23.9209766387939 23.9673461914062 24.043436050415 24.1073799133301 24.1236572265625 24.1283378601074 24.1201019287109 24.08811378479 24.0225353240967 23.9320621490479
-9999 -9999 -9999 -9999 -9999 -9999 -9999 -9999 -9999 -9999 -9999 -9999 -9999 -9999 25.8250312805176 25.8052520751953 25.7544059753418 25.4314613342285 25.3190479278564 26.3928852081299 26.9443836212158 26.9828205108643 26.7329921722412 26.3714160919189 26.0322780609131 25.9475383758545 25.9684028625488 25.8701000213623 25.5917263031006 25.1933364868164 24.8458824157715 24.5066223144531 24.3425712585449 24.40744972229 24.4975929260254 24.544225692749 24.5643577575684 24.5151119232178 24.3935794830322 24.2820434570312 24.199535369873 24.1280746459961 24.0605545043945 23.987663269043 23.9233264923096 23.9269313812256 23.9875259399414 24.0231876373291 24.0335578918457 24.046558380127 24.095272064209 24.1505031585693 24.172513961792 24.1513805389404 24.0977592468262 24.0498161315918 24.0037879943848 23.9742374420166 23.9754066467285 23.9899063110352 24.0349884033203 24.1143016815186 24.2075443267822 24.2576274871826 24.2521228790283 24.2369365692139 24.2175521850586 24.1674728393555 24.079833984375 23.9504852294922
-9999 -9999 -9999 -9999 -9999 -9999 -9999 -9999 -9999 -9999 -9999 -9999 -9999 -9999 25.8669972419739 25.8250312805176 25.8363189697266 25.9395275115967 26.4503135681152 27.0273170471191 27.0995006561279 26.8625926971436 26.5003643035889 26.1209144592285 25.7647190093994 25.7268447875977 25.7540493011475 25.6464786529541 25.4459323883057 25.2126808166504 24.9881134033203 24.7103366851807 24.5572891235352 24.5614585876465 24.6122550964355 24.6350212097168 24.6214389801025 24.5790271759033 24.4656066894531 24.3197326660156 24.2243461608887 24.1598014831543 24.0995178222656 24.0557327270508 24.0590229034424 24.1226768493652 24.1918048858643 24.2095394134521 24.1763019561768 24.1355762481689 24.2066230773926 24.2907848358154 24.2843074798584 24.2592620849609 24.2158603668213 24.170970916748 24.1374015808105 24.1169605255127 24.1371841430664 24.1764221191406 24.2488193511963 24.3379554748535 24.3900184631348 24.3793354034424 24.3404998779297 24.2864379882812 24.2620792388916 24.184268951416 24.0484161376953 23.9291038513184
-9999 -9999 -9999 -9999 -9999 -9999 -9999 -9999 -9999 -9999 -9999 26.1534652709961 26.02126121521 25.8577766418457 25.9552879333496 25.8298931121826 26.1997623443604 26.7711124420166 27.1284008026123 27.1713218688965 26.9647388458252 26.5794506072998 26.1829891204834 25.8316860198975 25.5491580963135 25.5173320770264 25.5417594909668 25.4816360473633 25.3849697113037 25.1939125061035 24.9966640472412 24.8152351379395 24.6977634429932 24.6838684082031 24.7223625183105 24.69504737854 24.6204700469971 24.5799598693848 24.5145740509033 24.3780269622803 24.271390914917 24.2126350402832 24.1921882629395 24.2274169921875 24.2767066955566 24.3068675994873 24.3174858093262 24.3132076263428 24.313289642334 24.265100479126 24.2806491851807 24.3739795684814 24.4150485992432 24.4342441558838 24.4417915344238 24.4176998138428 24.393985748291 24.3841857910156 24.3977375030518 24.4291515350342 24.4697570800781 24.4813823699951 24.4532833099365 24.4181671142578 24.3858985900879 24.3236293792725 24.2598457336426 24.1583385467529 24.0366020202637 23.9294910430908
-9999 -9999 -9999 -9999 -9999 -9999 -9999 -9999 -9999 26.2488994598389 26.1103897094727 25.9817962646484 25.8429889678955 25.782377243042 25.8585395812988 25.9800338745117 26.8671836853027 27.1731624603271 27.2344360351562 27.0782604217529 26.7563934326172 26.3505020141602 25.9983692169189 25.7047805786133 25.5435104370117 25.532205581665 25.5062580108643 25.4806957244873 25.4795513153076 25.3342742919922 25.0936908721924 24.9092063903809 24.7868957519531 24.7324562072754 24.730052947998 24.667423248291 24.5778045654297 24.5177783966064 24.451286315918 24.3547782897949 24.2872200012207 24.2490653991699 24.2727127075195 24.3632640838623 24.4310417175293 24.4627666473389 24.4915084838867 24.5146160125732 24.5241527557373 24.5144119262695 24.5066184997559 24.5372943878174 24.5815849304199 24.6415729522705 24.6918773651123 24.699914932251 24.6678676605225 24.6257171630859 24.583646774292 24.5597534179688 24.5504093170166 24.5360622406006 24.5292186737061 24.5268001556396 24.4730110168457 24.357889175415 24.2615756988525 24.171688079834 24.0682430267334 23.9595985412598
-9999 -9999 -9999 -9999 -9999 -9999 -9999 -9999 -9999 26.1933403015137 25.9847736358643 25.8174209594727 25.8401927947998 25.9678344726562 26.097074508667 26.8073863983154 27.2807369232178 27.3727016448975 27.2508907318115 26.9185676574707 26.4715366363525 26.0654926300049 25.8045902252197 25.6535816192627 25.5949783325195 25.6347217559814 25.6050052642822 25.5335483551025 25.4799900054932 25.3266830444336 25.1198501586914 24.9852027893066 24.8752574920654 24.7640781402588 24.6875267028809 24.6095600128174 24.5440311431885 24.4666118621826 24.3717021942139 24.3078594207764 24.3003425598145 24.3166942596436 24.3666858673096 24.4428215026855 24.5060539245605 24.580057144165 24.6609363555908 24.712028503418 24.7435512542725 24.7695274353027 24.7793502807617 24.8045787811279 24.842113494873 24.8763656616211 24.8739185333252 24.8152866363525 24.7338485717773 24.6721878051758 24.6442565917969 24.6535167694092 24.6780776977539 24.6779899597168 24.6591110229492 24.6309604644775 24.5455226898193 24.3989505767822 24.2923240661621 24.209753036499 24.1154689788818 24.0105323791504
-9999 -9999 -9999 -9999 -9999 26.2082300186157 26.1376628875732 26.0479049682617 26.0817699432373 26.0613098144531 25.8855457305908 25.7822132110596 26.0762882232666 26.4749450683594 26.9601497650146 27.3561305999756 27.4274883270264 27.3129367828369 27.0308322906494 26.6282863616943 26.2311172485352 25.9210186004639 25.7634449005127 25.6813373565674 25.5961589813232 25.6068096160889 25.6051597595215 25.5157451629639 25.4062347412109 25.260425567627 25.1275615692139 25.0537261962891 24.9254627227783 24.7394886016846 24.6247577667236 24.5796852111816 24.5356464385986 24.4577178955078 24.3685512542725 24.327299118042 24.3457736968994 24.3730411529541 24.3997974395752 24.4401779174805 24.4897537231445 24.5700912475586 24.6621284484863 24.7323455810547 24.7820739746094 24.8034610748291 24.8197803497314 24.8565616607666 24.9075527191162 24.9181022644043 24.8441696166992 24.7419376373291 24.7179336547852 24.7497520446777 24.7748394012451 24.7785720825195 24.7826461791992 24.7614879608154 24.7250385284424 24.6884498596191 24.6079063415527 24.485818862915 24.3800296783447 24.289852142334 24.2008876800537 24.0924530029297
-9999 -9999 -9999 -9999 26.4939346313477 26.2077655792236 25.9935569763184 25.8950119018555 25.8792495727539 25.8490467071533 25.7306499481201 25.9726295471191 26.6854038238525 27.230676651001 27.439172744751 27.4763641357422 27.3900489807129 27.1639499664307 26.8142700195312 26.4180107116699 26.078649520874 25.8657188415527 25.8293876647949 25.7306442260742 25.5872249603271 25.517068862915 25.4743633270264 25.3796329498291 25.2639198303223 25.1492557525635 25.0966567993164 25.0543174743652 24.882848739624 24.6946201324463 24.6300582885742 24.6118907928467 24.562536239624 24.4813137054443 24.4000949859619 24.3656177520752 24.378999710083 24.3909702301025 24.3824558258057 24.3823947906494 24.4192199707031 24.4946308135986 24.5692672729492 24.6280517578125 24.6919345855713 24.7322978973389 24.7535285949707 24.7751140594482 24.8201789855957 24.8492164611816 24.8064918518066 24.8021030426025 24.864143371582 24.9151477813721 24.9130744934082 24.8796424865723 24.836540222168 24.7938976287842 24.7655143737793 24.7364234924316 24.6757221221924 24.5849514007568 24.4875240325928 24.3867740631104 24.3023529052734 24.2197704315186
-9999 -9999 -9999 26.336118221283 26.3018836975098 25.924596786499 25.8345794677734 25.8947372436523 25.9449481964111 26.0517807006836 26.1708354949951 26.8975067138672 27.3862686157227 27.4871559143066 27.5321731567383 27.4907646179199 27.3071708679199 26.9870834350586 26.5919609069824 26.239086151123 26.0114994049072 25.9658622741699 25.9755153656006 25.8299541473389 25.5933265686035 25.4367847442627 25.3514213562012 25.2398700714111 25.1437873840332 25.093635559082 25.0977649688721 25.0547637939453 24.8714179992676 24.7290744781494 24.7156581878662 24.7163314819336 24.6536331176758 24.541389465332 24.4387531280518 24.3930778503418 24.4007339477539 24.4110813140869 24.3960514068604 24.3980121612549 24.4269065856934 24.4932479858398 24.5620193481445 24.6109294891357 24.6723594665527 24.7440376281738 24.7971076965332 24.7971115112305 24.7610702514648 24.7439136505127 24.7789554595947 24.8463859558105 24.9150505065918 24.9606418609619 24.9647235870361 24.9376525878906 24.8926239013672 24.850170135498 24.8283557891846 24.7965183258057 24.753002166748 24.7141456604004 24.658353805542 24.5584602355957 24.4694805145264 24.3848171234131
-9999 -9999 -9999 26.4505939483643 26.0980606079102 25.8610763549805 25.9983177185059 26.2508697509766 26.4669246673584 26.7858657836914 27.197395324707 27.4112071990967 27.4914779663086 27.5624103546143 27.5331954956055 27.3877658843994 27.0805339813232 26.6960544586182 26.3525371551514 26.1227264404297 26.0398197174072 26.0825481414795 26.0401782989502 25.8807811737061 25.634786605835 25.4775619506836 25.4132671356201 25.3013019561768 25.1821403503418 25.1687145233154 25.1974143981934 25.1010780334473 24.9123020172119 24.8182144165039 24.8536148071289 24.8804588317871 24.8135871887207 24.6687431335449 24.5233612060547 24.4400825500488 24.43239402771 24.4521980285645 24.457893371582 24.4621467590332 24.4647808074951 24.5016918182373 24.5577220916748 24.6109390258789 24.6749515533447 24.7586193084717 24.841588973999 24.8689556121826 24.8398780822754 24.8233699798584 24.8544235229492 24.9024124145508 24.9498996734619 24.9791603088379 24.9847202301025 24.963752746582 24.9378337860107 24.9087562561035 24.896484375 24.8821754455566 24.8748741149902 24.8841552734375 24.8391952514648 24.7349243164062 24.6470947265625 24.5868644714355
