NCOLS 70 
NROWS 52 
XLLCORNER -80 
YLLCORNER 33 
CELLSIZE 0.25 
NODATA_value -9999 
-9999.000000000000000 -9999 -9999 -9999 -9999 -9999 -9999 -9999 -9999 -9999 -9999 -9999 -9999 -9999 -9999 -9999 -9999 -9999 -9999 -9999 -9999 -9999 -9999 -9999 -9999 -9999 -9999 -9999 -9999 -9999 -9999 -9999 -9999 -9999 -9999 -9999 -9999 -9999 -9999 -9999 -9999 -9999 -9999 -9999 -9999 -9999 -9999 -9999 -9999 -9999 -9999 -9999 -9999 -9999 -9999 -9999 -9999 -9999 -9999 -9999 -9999 -9999 -9999 -9999 -9999 -9999 -9999 -9999 -9999 -9999
-9999 -9999 -9999 -9999 -9999 -9999 -9999 -9999 -9999 -9999 -9999 -9999 -9999 -9999 -9999 -9999 -9999 -9999 -9999 -9999 -9999 -9999 -9999 -9999 -9999 -9999 -9999 -9999 -9999 -9999 -9999 -9999 -9999 -9999 -9999 -9999 -9999 -9999 -9999 -9999 -9999 -9999 -9999 -9999 -9999 -9999 -9999 -9999 -9999 -9999 -9999 -9999 -9999 -9999 -9999 -9999 -9999 -9999 -9999 -9999 -9999 -9999 -9999 -9999 -9999 -9999 -9999 -9999 -9999 -9999
-9999 -9999 -9999 -9999 -9999 -9999 -9999 -9999 -9999 -9999 -9999 -9999 -9999 -9999 -9999 -9999 -9999 -9999 -9999 -9999 -9999 -9999 -9999 -9999 -9999 -9999 -9999 -9999 -9999 -9999 -9999 -9999 -9999 -9999 -9999 -9999 -9999 -9999 -9999 -9999 -9999 -9999 -9999 -9999 -9999 -9999 -9999 -9999 -9999 -9999 -9999 -9999 -9999 -9999 -9999 -9999 -9999 -9999 -9999 0.632310152053833 -9999 -9999 -9999 -9999 -9999 -9999 -9999 -9999 -9999 -9999
-9999 -9999 -9999 -9999 -9999 -9999 -9999 -9999 -9999 -9999 -9999 -9999 -9999 -9999 -9999 -9999 -9999 -9999 -9999 -9999 -9999 -9999 -9999 -9999 -9999 -9999 -9999 -9999 -9999 -9999 -9999 -9999 -9999 -9999 -9999 -9999 -9999 -9999 -9999 -9999 -9999 -9999 -9999 -9999 -9999 -9999 -9999 -9999 -9999 -9999 -9999 -9999 -9999 -9999 -9999 3.17237687110901 2.84601044654846 2.18102145195007 1.64555048942566 0.809812009334564 -9999 -9999 -9999 -9999 -9999 -9999 -9999 -9999 -9999 -9999
-9999 -9999 -9999 -9999 -9999 -9999 -9999 -9999 -9999 -9999 -9999 -9999 -9999 -9999 -9999 -9999 -9999 -9999 -9999 -9999 -9999 -9999 -9999 -9999 -9999 -9999 -9999 -9999 -9999 -9999 -9999 -9999 -9999 -9999 -9999 -9999 -9999 -9999 -9999 -9999 -9999 -9999 -9999 -9999 -9999 -9999 -9999 -9999 -9999 -9999 -9999 -9999 3.33843326568604 3.62614679336548 3.30761933326721 2.88296103477478 2.41611790657043 1.94459414482117 -9999 -9999 -9999 -9999 -9999 -9999 -9999 -9999 -9999 -9999 -9999 -9999
-9999 -9999 -9999 -9999 -9999 -9999 -9999 -9999 -9999 -9999 -9999 -9999 -9999 -9999 -9999 -9999 -9999 -9999 -9999 -9999 -9999 -9999 -9999 -9999 -9999 -9999 -9999 -9999 -9999 -9999 -9999 -9999 -9999 -9999 -9999 -9999 -9999 -9999 -9999 -9999 -9999 -9999 -9999 -9999 -9999 -9999 -9999 -9999 -9999 -9999 3.93294649124145 3.81327247619629 3.6823136806488 3.34343957901001 2.87959289550781 2.30690550804138 -9999 -9999 -9999 -9999 -9999 -9999 -9999 -9999 -9999 -9999 -9999 1.82528030872345 1.76636761426926 1.51070940494537
-9999 -9999 -9999 -9999 -9999 -9999 -9999 -9999 -9999 -9999 -9999 -9999 -9999 -9999 -9999 -9999 -9999 -9999 -9999 -9999 -9999 -9999 -9999 -9999 -9999 -9999 -9999 -9999 -9999 -9999 -9999 -9999 -9999 -9999 -9999 -9999 -9999 -9999 -9999 -9999 -9999 -9999 -9999 -9999 1.86218452453613 -9999 -9999 4.17024976015091 4.04415607452393 4.34754991531372 4.52734851837158 4.29285192489624 4.08654642105103 3.65115022659302 2.9472029209137 -9999 -9999 -9999 -9999 -9999 -9999 -9999 -9999 1.69077932834625 2.0323588848114 1.98650181293488 1.83441150188446 1.80479657649994 1.83663284778595 1.91333162784576
-9999 -9999 -9999 -9999 -9999 -9999 -9999 -9999 -9999 -9999 -9999 -9999 -9999 -9999 -9999 -9999 -9999 -9999 -9999 -9999 -9999 -9999 -9999 -9999 -9999 -9999 -9999 -9999 -9999 -9999 -9999 -9999 -9999 -9999 -9999 -9999 -9999 -9999 -9999 -9999 -9999 -9999 -9999 -9999 1.74312663078308 1.83016562461853 3.15681719779968 4.47456407546997 5.00546169281006 5.37207221984863 5.59408283233643 5.49068450927734 5.2069411277771 4.80044603347778 4.0526836514473 -9999 -9999 -9999 -9999 -9999 -9999 -9999 1.98600649833679 2.04794073104858 2.0717601776123 2.01220631599426 2.01376605033875 2.09914994239807 2.22031998634338 2.36160445213318
-9999 -9999 -9999 -9999 -9999 -9999 -9999 -9999 -9999 -9999 -9999 -9999 -9999 -9999 -9999 -9999 -9999 -9999 -9999 -9999 -9999 -9999 -9999 -9999 -9999 -9999 -9999 -9999 -9999 -9999 -9999 -9999 -9999 -9999 -9999 -9999 -9999 -9999 -9999 -9999 3.69121813774109 4.35512868563334 4.1742600440979 4.08497381210327 3.57245302200317 3.65101909637451 4.51752233505249 5.17843818664551 5.42037916183472 5.49087476730347 5.40185642242432 5.21088123321533 4.99341154098511 4.81193542480469 4.43855090141296 -9999 -9999 -9999 -9999 -9999 2.2504399617513 2.11923694610596 2.05616474151611 2.08632564544678 2.14155149459839 2.23805642127991 2.41488766670227 2.62469506263733 2.82833075523376 3.01294875144958
-9999 -9999 -9999 -9999 -9999 -9999 -9999 -9999 -9999 -9999 -9999 -9999 -9999 -9999 -9999 -9999 -9999 -9999 -9999 -9999 -9999 -9999 -9999 -9999 -9999 -9999 -9999 -9999 -9999 -9999 -9999 -9999 -9999 -9999 -9999 -9999 -9999 -9999 -9999 3.13530254364014 3.52662396430969 4.41172790527344 5.12703418731689 5.23430299758911 5.04969120025635 4.99490785598755 5.18121385574341 5.33296346664429 5.31886339187622 5.17175436019897 4.95475149154663 4.76988077163696 4.5920672416687 4.46348333358765 4.31926393508911 3.79762578010559 -9999 -9999 -9999 2.51348388195038 2.40905952453613 2.22302341461182 2.18669176101685 2.28080582618713 2.44708490371704 2.71488428115845 3.08115458488464 3.43063402175903 3.63925981521606 3.70434427261353
-9999 -9999 -9999 -9999 -9999 -9999 -9999 -9999 -9999 -9999 -9999 -9999 -9999 -9999 -9999 -9999 -9999 -9999 -9999 -9999 -9999 -9999 -9999 -9999 -9999 -9999 -9999 -9999 -9999 -9999 -9999 -9999 -9999 -9999 -9999 -9999 -9999 -9999 4.10341620445251 4.70762491226196 4.8372220993042 5.02891159057617 5.15703058242798 5.21616506576538 5.20939016342163 5.22080564498901 5.29512596130371 5.30708360671997 5.21566772460938 5.03783178329468 4.79176568984985 4.53526306152344 4.2839503288269 4.08846139907837 3.92071962356567 3.47065854072571 2.87991833686829 2.9718679189682 2.4959192276001 2.62840485572815 2.52055191993713 2.40812993049622 2.43843197822571 2.57632732391357 2.81596946716309 3.20607042312622 3.75725603103638 4.29560995101929 4.49282884597778 4.35306978225708
-9999 -9999 -9999 -9999 -9999 -9999 -9999 -9999 -9999 -9999 -9999 -9999 -9999 -9999 -9999 -9999 -9999 -9999 -9999 -9999 -9999 -9999 -9999 -9999 -9999 -9999 -9999 -9999 -9999 -9999 -9999 -9999 -9999 -9999 -9999 -9999 -9999 3.44858717918396 4.19684982299805 5.02871656417847 5.30192613601685 5.37451505661011 5.32038927078247 5.28421211242676 5.31387090682983 5.34535646438599 5.36527585983276 5.32884168624878 5.22117853164673 5.02586698532104 4.75777387619019 4.49317741394043 4.23743724822998 3.95653605461121 3.71894860267639 3.46203351020813 3.15971040725708 3.06626892089844 2.9871563911438 2.85211896896362 2.76991772651672 2.74939131736755 2.84334254264832 3.03109097480774 3.33556437492371 3.77934288978577 4.3695855140686 4.87704753875732 4.92658424377441 4.82875967025757
-9999 -9999 -9999 -9999 -9999 -9999 -9999 -9999 -9999 -9999 -9999 -9999 -9999 -9999 -9999 -9999 -9999 -9999 -9999 -9999 -9999 -9999 -9999 -9999 -9999 -9999 -9999 -9999 -9999 -9999 -9999 -9999 -9999 -9999 -9999 -9999 -9999 4.53204345703125 4.86484622955322 5.30971717834473 5.53170442581177 5.58317041397095 5.50417137145996 5.43432712554932 5.45829725265503 5.48914670944214 5.48374843597412 5.45863819122314 5.38966608047485 5.21541929244995 4.98116540908813 4.78156805038452 4.55707693099976 4.21201419830322 3.8717794418335 3.65480732917786 3.50428867340088 3.37974548339844 3.2234034538269 3.15016770362854 3.15064287185669 3.20031046867371 3.33107924461365 3.57372641563416 3.85849690437317 4.17847633361816 4.59523153305054 4.93314075469971 5.01191329956055 5.02615690231323
-9999 -9999 -9999 -9999 -9999 -9999 -9999 -9999 -9999 -9999 -9999 -9999 -9999 -9999 -9999 -9999 -9999 -9999 -9999 -9999 -9999 -9999 -9999 -9999 -9999 -9999 -9999 -9999 -9999 -9999 -9999 -9999 -9999 -9999 -9999 -9999 -9999 4.74309349060059 5.16020488739014 5.47988939285278 5.63722372055054 5.6769962310791 5.61636352539062 5.56147718429565 5.58720779418945 5.63004398345947 5.65080070495605 5.66162538528442 5.63396167755127 5.49640893936157 5.29781484603882 5.17613792419434 4.99792671203613 4.64545488357544 4.24457454681396 3.9738404750824 3.80364942550659 3.69362473487854 3.61917734146118 3.71014618873596 3.86315321922302 4.00758647918701 4.11974763870239 4.31500148773193 4.47288370132446 4.62963342666626 4.87047910690308 5.07800531387329 5.21096134185791 5.26280307769775
-9999 -9999 -9999 -9999 -9999 -9999 -9999 -9999 -9999 -9999 -9999 -9999 -9999 -9999 -9999 -9999 -9999 -9999 -9999 -9999 -9999 -9999 -9999 -9999 -9999 -9999 -9999 -9999 -9999 -9999 -9999 -9999 -9999 -9999 -9999 -9999 3.92226767539978 4.5090651512146 5.0965633392334 5.37621784210205 5.51247835159302 5.65773725509644 5.70961284637451 5.68728923797607 5.69988346099854 5.72957706451416 5.73807430267334 5.7364649772644 5.73483037948608 5.67222547531128 5.53616952896118 5.46277475357056 5.32960176467896 5.04887008666992 4.72190284729004 4.49289846420288 4.31866598129272 4.2445969581604 4.31171941757202 4.73266649246216 5.13737344741821 5.45477104187012 5.57327079772949 5.74325513839722 5.76565313339233 5.80255508422852 5.76117420196533 5.54597902297974 5.49614143371582 5.51711702346802
-9999 -9999 -9999 -9999 -9999 -9999 -9999 -9999 -9999 -9999 -9999 -9999 -9999 -9999 -9999 -9999 -9999 -9999 -9999 -9999 -9999 -9999 -9999 -9999 -9999 -9999 -9999 -9999 -9999 -9999 -9999 -9999 -9999 -9999 -9999 -9999 -9999 4.49372291564941 4.64158391952515 4.89432859420776 5.08163356781006 5.40478754043579 5.68142318725586 5.76548862457275 5.78502893447876 5.78581476211548 5.76133012771606 5.72542715072632 5.70058870315552 5.66390609741211 5.59391069412231 5.57204008102417 5.55898094177246 5.49726533889771 5.37224817276001 5.30097389221191 5.25919151306152 5.4073805809021 5.88311100006104 6.4390344619751 6.72174215316772 6.94741678237915 7.05165576934814 7.30053615570068 7.32638311386108 7.36700391769409 6.91996145248413 6.12233448028564 5.78251838684082 6.19861173629761
-9999 -9999 -9999 -9999 -9999 -9999 -9999 -9999 -9999 -9999 -9999 -9999 -9999 -9999 -9999 -9999 -9999 -9999 -9999 -9999 -9999 -9999 -9999 -9999 -9999 -9999 -9999 -9999 -9999 -9999 -9999 -9999 -9999 -9999 -9999 -9999 -9999 -9999 3.94039630889893 -9999 4.60343742370605 5.097327709198 5.53072690963745 5.73402404785156 5.80342197418213 5.82512283325195 5.81033706665039 5.74433612823486 5.64020013809204 5.54351425170898 5.51514673233032 5.57936191558838 5.72484683990479 5.94409370422363 6.03020715713501 6.22619390487671 6.3106541633606 7.04231548309326 8.28657245635986 8.6595344543457 8.42132759094238 8.26933288574219 8.3713960647583 8.68134880065918 8.43300533294678 7.95652437210083 7.19845819473267 6.34618949890137 6.58126926422119 8.15118789672852
-9999 -9999 -9999 -9999 -9999 -9999 -9999 -9999 -9999 -9999 -9999 -9999 -9999 -9999 -9999 -9999 -9999 -9999 -9999 -9999 -9999 -9999 -9999 -9999 -9999 -9999 -9999 -9999 -9999 -9999 -9999 -9999 -9999 -9999 -9999 -9999 -9999 -9999 -9999 -9999 4.74443578720093 5.21366024017334 5.54067897796631 5.68883037567139 5.77010297775269 5.81261920928955 5.79326915740967 5.65225982666016 5.45548725128174 5.3656153678894 5.42882061004639 5.54654932022095 5.73869466781616 6.04840326309204 6.30694532394409 6.59890556335449 6.82927227020264 8.53485679626465 9.58336162567139 9.45260810852051 9.27672863006592 9.27620124816895 9.4592113494873 9.94076251983643 9.44345378875732 8.45317268371582 7.47999668121338 7.12822341918945 8.76017189025879 10.1252145767212
-9999 -9999 -9999 -9999 -9999 -9999 -9999 -9999 -9999 -9999 -9999 -9999 -9999 -9999 -9999 -9999 -9999 -9999 -9999 -9999 -9999 -9999 -9999 -9999 -9999 -9999 -9999 -9999 -9999 -9999 -9999 -9999 -9999 -9999 4.80863106250763 4.02303218841553 3.78200697898865 -9999 3.32304191589355 3.60910868644714 4.43385362625122 5.13995265960693 5.47871541976929 5.61911535263062 5.67803478240967 5.70609283447266 5.65435028076172 5.46893692016602 5.30150461196899 5.26495599746704 5.33465766906738 5.38502168655396 5.55581855773926 6.01022911071777 6.5386643409729 6.71291971206665 7.94058418273926 9.89904689788818 10.0061931610107 9.47069931030273 9.71799755096436 10.4045715332031 10.6286840438843 11.1216850280762 10.7483062744141 9.5081844329834 8.5962963104248 8.75267791748047 10.6112852096558 11.4244079589844
-9999 -9999 -9999 -9999 -9999 -9999 -9999 -9999 -9999 -9999 -9999 -9999 -9999 -9999 -9999 -9999 -9999 -9999 -9999 -9999 -9999 -9999 -9999 -9999 -9999 -9999 -9999 1.51539444923401 1.51539444923401 1.67070090770721 2.18573045730591 3.59736585617065 4.92831754684448 5.05745363235474 5.04871034622192 5.10532808303833 4.881422996521 4.40616369247437 3.8425407409668 3.74636387825012 4.34577131271362 4.98379516601562 5.36414337158203 5.55022573471069 5.62960958480835 5.70636749267578 5.70315885543823 5.54400587081909 5.40627002716064 5.37118148803711 5.38333511352539 5.39794254302979 5.68967342376709 6.42678880691528 7.09197854995728 7.48621702194214 9.50048160552979 10.2543172836304 9.95730209350586 9.87962341308594 11.2361249923706 12.5732440948486 12.7480020523071 12.9162673950195 12.413688659668 11.2295789718628 10.2238149642944 9.96528244018555 10.7692680358887 11.7574443817139
-9999 -9999 -9999 -9999 -9999 -9999 -9999 -9999 -9999 -9999 -9999 -9999 -9999 -9999 -9999 -9999 -9999 -9999 -9999 -9999 -9999 -9999 -9999 -9999 -9999 -9999 -9999 -9999 -9999 -9999 3.67288613319397 4.88295698165894 6.09242820739746 6.49495506286621 6.62809038162231 6.54343175888062 6.13342809677124 5.53026294708252 4.72405624389648 4.33640098571777 4.65057563781738 5.07740640640259 5.42074251174927 5.68089866638184 5.92565202713013 6.17777872085571 6.32146835327148 6.29497194290161 6.23732852935791 6.21459627151489 6.17550754547119 6.19480609893799 6.51919746398926 7.13476324081421 7.55663442611694 8.10372447967529 9.03349113464355 9.60426139831543 9.80863952636719 10.1664028167725 12.0243873596191 13.4138422012329 14.013331413269 14.1820583343506 13.9384918212891 13.2098932266235 12.4247465133667 11.6637277603149 11.7313785552979 12.3033695220947
-9999 -9999 -9999 -9999 -9999 -9999 -9999 -9999 -9999 -9999 -9999 -9999 -9999 -9999 -9999 -9999 -9999 -9999 -9999 -9999 -9999 -9999 -9999 -9999 -9999 4.89450756708781 5.13951603571574 5.50497055053711 5.95155024528503 5.7745156288147 6.0441837310791 6.4355845451355 6.8966851234436 7.220458984375 7.32466173171997 7.23009157180786 6.91379642486572 6.35086297988892 5.58722019195557 5.11514139175415 5.2008900642395 5.48592090606689 5.81370973587036 6.16652488708496 6.61552667617798 7.09512662887573 7.45036172866821 7.58400201797485 7.55072402954102 7.49794054031372 7.42930221557617 7.39494800567627 7.54260444641113 7.85538196563721 8.20378112792969 8.47563362121582 8.79996490478516 9.40453147888184 10.0475282669067 11.0001859664917 12.5843172073364 13.8001613616943 14.4569005966187 14.5467567443848 14.4340782165527 14.2756729125977 14.0205326080322 13.5154647827148 13.5120401382446 13.7523536682129
-9999 -9999 -9999 -9999 -9999 -9999 -9999 -9999 -9999 -9999 -9999 -9999 -9999 -9999 -9999 -9999 -9999 -9999 -9999 -9999 -9999 -9999 -9999 -9999 4.66899442672729 4.93526411056519 5.07926416397095 5.40401983261108 6.0316276550293 6.59603786468506 6.9393835067749 7.30344676971436 7.58461141586304 7.73395824432373 7.77018404006958 7.69924020767212 7.48096561431885 7.04826593399048 6.45340490341187 5.99627447128296 5.89479875564575 6.05059242248535 6.32327127456665 6.66511869430542 7.13673162460327 7.65529489517212 8.01968383789062 8.23388671875 8.29395580291748 8.35720252990723 8.44092464447021 8.46971702575684 8.76688003540039 9.55566883087158 10.5385875701904 11.2926664352417 11.6809940338135 12.3043241500854 13.2073163986206 14.3409614562988 15.2118968963623 15.6669912338257 15.8649215698242 15.7879152297974 15.5390911102295 15.212347984314 14.8956117630005 14.6057596206665 14.7735443115234 14.9726123809814
-9999 -9999 -9999 -9999 -9999 -9999 -9999 -9999 -9999 -9999 -9999 -9999 -9999 -9999 -9999 -9999 -9999 -9999 -9999 -9999 -9999 -9999 -9999 -9999 5.15210962295532 5.62563896179199 5.96467399597168 6.3694224357605 6.94792699813843 7.40757942199707 7.74263620376587 8.11432361602783 8.34643936157227 8.37023258209229 8.30109405517578 8.2344970703125 8.14495372772217 7.92250776290894 7.54262495040894 7.11757898330688 6.83284378051758 6.82795381546021 7.02606773376465 7.32289028167725 7.68616628646851 8.06889247894287 8.57567596435547 8.95441055297852 9.27414703369141 9.88783931732178 10.3986530303955 10.5813541412354 10.8966455459595 11.9470567703247 13.2146587371826 14.2160692214966 14.7468061447144 15.3671951293945 16.2808418273926 16.9924163818359 17.2520999908447 17.2695865631104 17.1658668518066 16.9924583435059 16.7590274810791 16.432186126709 15.9221315383911 15.4871578216553 15.6807098388672 16.0330543518066
-9999 -9999 -9999 -9999 -9999 -9999 -9999 -9999 -9999 -9999 -9999 -9999 -9999 -9999 -9999 -9999 -9999 -9999 -9999 -9999 -9999 -9999 -9999 5.07842528820038 5.19939470291138 5.80406856536865 6.35193824768066 6.88429546356201 7.46333694458008 7.96673822402954 8.55095100402832 9.20679664611816 9.55243492126465 9.46220111846924 9.20800971984863 9.09689998626709 9.10988235473633 8.99339771270752 8.67935371398926 8.30603408813477 8.03617477416992 8.0211820602417 8.30154132843018 8.84506607055664 9.43910026550293 10.0094738006592 10.6813220977783 11.1485176086426 11.6434879302979 12.4736213684082 12.9896030426025 13.16565990448 13.4333381652832 14.1749105453491 14.9552221298218 15.4976625442505 15.7836380004883 16.1226406097412 16.7727794647217 17.2918548583984 17.5263404846191 17.6181468963623 17.6287517547607 17.4782733917236 17.2529640197754 16.9758434295654 16.494815826416 16.1148376464844 16.4714641571045 16.9991054534912
-9999 -9999 -9999 -9999 -9999 -9999 -9999 -9999 -9999 -9999 -9999 -9999 -9999 -9999 -9999 -9999 -9999 -9999 -9999 -9999 -9999 -9999 -9999 4.77209186553955 5.19010496139526 5.7783260345459 6.33895206451416 7.03259754180908 7.8522515296936 8.66118431091309 9.53970623016357 10.2997989654541 10.6190052032471 10.4623641967773 10.1348209381104 10.0027084350586 10.018835067749 9.89548492431641 9.64260673522949 9.47147846221924 9.51082324981689 9.71927261352539 10.1851682662964 11.0481157302856 11.9031963348389 12.4445877075195 12.8595867156982 13.2903099060059 13.7745361328125 14.1476373672485 14.318395614624 14.5436372756958 15.0201644897461 15.5592393875122 15.9488754272461 16.2022361755371 16.3690414428711 16.6555042266846 17.1142902374268 17.4496688842773 17.6067409515381 17.6726932525635 17.7107162475586 17.6289100646973 17.4174995422363 17.1018085479736 16.6578998565674 16.6488246917725 17.2581157684326 17.6867618560791
-9999 -9999 -9999 -9999 -9999 -9999 -9999 -9999 -9999 -9999 -9999 -9999 -9999 -9999 -9999 -9999 -9999 -9999 -9999 -9999 -9999 -9999 4.98593807220459 5.15701627731323 5.67360210418701 6.25939702987671 6.83985185623169 7.61248826980591 8.55813503265381 9.53639888763428 10.3421401977539 10.7872323989868 10.8298072814941 10.5722665786743 10.3561401367188 10.4089851379395 10.5565462112427 10.6173295974731 10.693904876709 10.9389715194702 11.3244552612305 11.6216630935669 11.8821134567261 12.4545402526855 13.1214475631714 13.4260625839233 13.7315549850464 14.2298679351807 14.5867576599121 14.7828817367554 15.0614585876465 15.4868488311768 15.9381532669067 16.3110828399658 16.5880832672119 16.7979202270508 16.9783153533936 17.1877975463867 17.4135856628418 17.5575046539307 17.6257209777832 17.647439956665 17.6220607757568 17.5686206817627 17.4207763671875 17.1387634277344 16.8831958770752 17.2551555633545 17.8714771270752 18.0286445617676
-9999 -9999 -9999 -9999 -9999 -9999 -9999 -9999 -9999 -9999 -9999 -9999 -9999 -9999 4.55658712651994 -9999 -9999 -9999 -9999 4.28593778610229 -9999 5.05628156661987 5.47950839996338 6.04003477096558 6.62079906463623 7.25039672851562 7.97420167922974 8.81087493896484 9.71232318878174 10.4985618591309 10.9340686798096 11.14794921875 11.2626314163208 11.1006574630737 10.7323760986328 10.5579795837402 10.6670656204224 10.931435585022 11.3366146087646 11.8373985290527 12.2602481842041 12.5272045135498 12.6873531341553 12.9091901779175 13.361478805542 13.8385152816772 14.2738981246948 14.7712087631226 15.0386896133423 15.1414823532104 15.5090188980103 16.0416393280029 16.4692478179932 16.7813835144043 17.0460224151611 17.2688808441162 17.4509449005127 17.6081142425537 17.7591667175293 17.8826389312744 17.9598140716553 18.0024013519287 17.9904956817627 17.9417762756348 17.8681354522705 17.7518844604492 17.6625556945801 17.9196929931641 18.2364025115967 18.2207050323486
-9999 -9999 -9999 -9999 -9999 -9999 -9999 -9999 -9999 -9999 -9999 -9999 -9999 -9999 4.55749022960663 -9999 -9999 -9999 -9999 4.41229128837585 5.22195081710815 5.66780519485474 6.52009057998657 7.21627950668335 7.69736242294312 8.32097339630127 9.15890026092529 10.0117387771606 10.7870197296143 11.3479766845703 11.6962175369263 12.03928565979 12.374363899231 12.3998250961304 12.025200843811 11.6113548278809 11.4457483291626 11.5377616882324 11.8015575408936 12.1167840957642 12.397068977356 12.7211894989014 13.1354389190674 13.4423246383667 13.7473621368408 14.2033910751343 14.6530408859253 15.0990371704102 15.380274772644 15.5012950897217 15.8718566894531 16.383321762085 16.7268238067627 16.9942378997803 17.2934513092041 17.5709838867188 17.8013820648193 17.9767570495605 18.1186866760254 18.2729625701904 18.401294708252 18.4978580474854 18.5549297332764 18.54465675354 18.5457744598389 18.6253890991211 18.6313056945801 18.6186790466309 18.6255073547363 18.5754375457764
-9999 -9999 -9999 -9999 -9999 -9999 -9999 -9999 -9999 -9999 -9999 -9999 -9999 -9999 4.55342626571655 -9999 -9999 -9999 -9999 -9999 6.43554735183716 6.56108474731445 7.48717164993286 8.25910091400146 8.84683322906494 9.55595397949219 10.3641653060913 11.043514251709 11.6165370941162 12.0736999511719 12.4703807830811 12.8576002120972 13.1076745986938 13.0873975753784 12.8900537490845 12.6826324462891 12.5309638977051 12.4603567123413 12.4541206359863 12.5010919570923 12.6293745040894 12.9225273132324 13.3857841491699 13.836540222168 14.2125205993652 14.4927043914795 14.6893949508667 15.0171136856079 15.4050626754761 15.6754760742188 16.0347900390625 16.4576454162598 16.7497806549072 17.0180244445801 17.3531188964844 17.68678855896 17.9917469024658 18.2520236968994 18.4666519165039 18.6576633453369 18.8018684387207 18.9139423370361 18.9953346252441 19.0050640106201 19.0164833068848 19.1524047851562 19.2316246032715 19.2002906799316 19.1381225585938 19.048002243042
-9999 -9999 -9999 -9999 -9999 -9999 -9999 -9999 -9999 -9999 -9999 -9999 -9999 -9999 4.57146072387695 -9999 4.56968212127686 -9999 -9999 -9999 6.46296501159668 7.05033445358276 8.05423069000244 9.08305931091309 10.0006494522095 10.7444353103638 11.3184385299683 11.747727394104 12.1592473983765 12.5465536117554 12.9490928649902 13.3623752593994 13.5622024536133 13.4053297042847 13.16233253479 13.1539249420166 13.3208723068237 13.488842010498 13.6075010299683 13.6845798492432 13.8021030426025 14.1107120513916 14.5417966842651 14.9755439758301 15.3296012878418 15.4826755523682 15.4983491897583 15.5625829696655 15.7335405349731 15.9063243865967 16.1607513427734 16.5510559082031 16.8855667114258 17.182523727417 17.5479984283447 17.9106616973877 18.240816116333 18.5463733673096 18.8281936645508 19.0686588287354 19.2459869384766 19.3644924163818 19.4613056182861 19.5040950775146 19.4840888977051 19.5637626647949 19.6456909179688 19.6488723754883 19.6413822174072 19.5447483062744
-9999 -9999 -9999 -9999 -9999 -9999 -9999 -9999 -9999 -9999 -9999 -9999 -9999 -9999 4.57146072387695 4.58949518203735 4.60294771194458 -9999 -9999 6.90056133270264 6.66923761367798 7.58129644393921 8.81088638305664 10.0390071868896 10.9772510528564 11.4743814468384 11.7308177947998 11.9857110977173 12.3308067321777 12.7293367385864 13.244215965271 13.8057241439819 14.0495758056641 13.8875942230225 13.7362957000732 13.9512882232666 14.4213285446167 14.9040470123291 15.2895708084106 15.5440826416016 15.8230237960815 16.2262535095215 16.5718975067139 16.7794246673584 16.8539810180664 16.8375015258789 16.8541774749756 16.8826580047607 16.900203704834 16.9199619293213 16.9117813110352 16.9374542236328 17.1123142242432 17.4481391906738 17.8728923797607 18.260124206543 18.5987510681152 18.8999290466309 19.1727180480957 19.4325122833252 19.6558513641357 19.7960548400879 19.8873958587646 19.9421615600586 19.9441890716553 19.9892425537109 20.0494022369385 20.0653953552246 20.1067237854004 20.1378879547119
-9999 -9999 -9999 -9999 -9999 -9999 -9999 -9999 -9999 -9999 -9999 -9999 -9999 -9999 -9999 4.9063889503479 4.70608854293823 -9999 6.60556411743164 6.97736263275146 7.49268007278442 8.63282203674316 9.93021869659424 11.0537176132202 11.7734565734863 12.0355596542358 12.0622882843018 12.1244230270386 12.4494676589966 13.0101413726807 13.6574792861938 14.1856050491333 14.3838081359863 14.3592386245728 14.450493812561 14.839316368103 15.4347229003906 16.0407981872559 16.5440349578857 16.9373645782471 17.3599376678467 17.7739810943604 18.0314636230469 18.1635913848877 18.190860748291 18.0758514404297 18.0034675598145 18.0670146942139 18.1682147979736 18.238187789917 18.2202186584473 18.1282501220703 18.1367988586426 18.312520980835 18.5819225311279 18.8568286895752 19.1185150146484 19.3567161560059 19.5849571228027 19.8216896057129 20.0152397155762 20.136754989624 20.1987400054932 20.2454700469971 20.2862796783447 20.2908306121826 20.3037071228027 20.3556938171387 20.5196838378906 20.6856422424316
-9999 -9999 -9999 -9999 -9999 -9999 -9999 -9999 -9999 -9999 -9999 -9999 -9999 -9999 -9999 5.2422308921814 5.39118242263794 -9999 7.25556516647339 7.60427951812744 8.49629878997803 9.71688175201416 11.1924676895142 12.4405794143677 12.9145736694336 13.0214748382568 13.0609188079834 12.9981632232666 12.9101123809814 13.1473550796509 13.7143812179565 14.1911935806274 14.4955606460571 14.6828899383545 14.9026565551758 15.3142509460449 15.9128561019897 16.5565490722656 17.1348152160645 17.608757019043 18.0827503204346 18.5217094421387 18.8650512695312 19.131685256958 19.2743473052979 19.2486515045166 19.1355037689209 19.1041469573975 19.1900768280029 19.2799777984619 19.3360767364502 19.37672996521 19.4079723358154 19.4533443450928 19.54225730896 19.6617374420166 19.7891883850098 19.9395370483398 20.0910682678223 20.2041091918945 20.2827320098877 20.3395729064941 20.3809127807617 20.4409942626953 20.4744129180908 20.4127006530762 20.4118003845215 20.5597763061523 20.7967872619629 20.850378036499
-9999 -9999 -9999 -9999 -9999 -9999 -9999 -9999 -9999 -9999 -9999 -9999 -9999 -9999 -9999 5.59871339797974 -9999 6.83107600893293 7.64754772186279 8.36916255950928 9.38705253601074 10.8428916931152 12.6680116653442 13.9765844345093 14.3343753814697 14.6331186294556 14.8603372573853 14.759259223938 14.4804210662842 14.2092294692993 14.1500415802002 14.3911781311035 14.7423858642578 14.9764947891235 15.2278728485107 15.5313920974731 15.9835395812988 16.6481704711914 17.3737030029297 17.9531364440918 18.4594268798828 18.9418601989746 19.3689498901367 19.7092323303223 19.9067916870117 19.970630645752 19.9246768951416 19.8608818054199 19.8840866088867 19.9422054290771 19.9954891204834 20.0622711181641 20.1315250396729 20.1776027679443 20.2128582000732 20.2279682159424 20.2419967651367 20.3031311035156 20.3665180206299 20.3861198425293 20.3789291381836 20.4038581848145 20.4631481170654 20.5292358398438 20.5208263397217 20.4410743713379 20.5086555480957 20.7172756195068 20.8249263763428 20.7439193725586
-9999 -9999 -9999 -9999 -9999 -9999 -9999 -9999 -9999 -9999 -9999 -9999 -9999 -9999 5.59871339797974 5.93511931101481 6.29423332214355 7.29165649414062 8.02493572235107 8.90805339813232 10.2346897125244 12.1778593063354 14.2835168838501 15.5394592285156 16.1106624603271 16.6989822387695 17.1004695892334 17.136999130249 17.0273666381836 16.7356433868408 16.4584274291992 16.3193626403809 16.2172527313232 16.1725635528564 16.315896987915 16.51975440979 16.6172676086426 16.8194313049316 17.4606266021729 18.1768131256104 18.7380886077881 19.2375793457031 19.6763801574707 20.0322151184082 20.2655220031738 20.3617267608643 20.348217010498 20.2863826751709 20.2561645507812 20.2650585174561 20.3076801300049 20.3677597045898 20.4018783569336 20.4034843444824 20.3895969390869 20.344388961792 20.2997589111328 20.3205509185791 20.3791522979736 20.4025344848633 20.391881942749 20.4115467071533 20.4827289581299 20.5330333709717 20.4960556030273 20.4406280517578 20.5677433013916 20.7421016693115 20.7253017425537 20.6515026092529
-9999 -9999 -9999 -9999 -9999 -9999 -9999 -9999 -9999 -9999 -9999 -9999 -9999 -9999 -9999 -9999 7.30703341960907 7.56869268417358 8.36826610565186 9.16619968414307 10.4404602050781 12.6571969985962 15.1453619003296 16.2277946472168 16.8603286743164 17.6452503204346 18.297248840332 18.6496429443359 18.7919502258301 18.681640625 18.4344844818115 18.128173828125 17.8409976959229 17.5649681091309 17.3724880218506 17.3743152618408 17.4829158782959 17.4304103851318 17.5968475341797 18.2178611755371 18.9004936218262 19.4240169525146 19.8205318450928 20.1423034667969 20.3618259429932 20.4408512115479 20.4238834381104 20.3724117279053 20.326509475708 20.3032970428467 20.3203582763672 20.3522319793701 20.3673191070557 20.3678016662598 20.349781036377 20.298210144043 20.246129989624 20.2551383972168 20.3234157562256 20.3766326904297 20.3878631591797 20.4109802246094 20.4801654815674 20.5045433044434 20.4475746154785 20.4144496917725 20.5515766143799 20.6756477355957 20.6543502807617 20.6256828308105
-9999 -9999 -9999 -9999 -9999 -9999 -9999 -9999 -9999 -9999 -9999 -9999 -9999 -9999 -9999 -9999 7.82112193107605 8.07355117797852 8.79261684417725 9.45801067352295 10.8106842041016 13.3211994171143 15.715539932251 16.7066917419434 17.8189601898193 18.9702243804932 19.6944198608398 20.0364990234375 20.1123542785645 20.0255088806152 19.8345146179199 19.5324401855469 19.1867198944092 18.804859161377 18.3885841369629 18.0445690155029 17.9805221557617 18.0703029632568 18.195219039917 18.5795726776123 19.1420040130615 19.6024684906006 19.9193344116211 20.1732349395752 20.3429393768311 20.3733596801758 20.326042175293 20.2806053161621 20.2532234191895 20.238489151001 20.2632179260254 20.308084487915 20.3376064300537 20.3435611724854 20.3327808380127 20.2975311279297 20.2452640533447 20.2280368804932 20.2790107727051 20.3589057922363 20.3928298950195 20.416051864624 20.4715251922607 20.4710025787354 20.4016189575195 20.3852062225342 20.5217456817627 20.6244659423828 20.6288967132568 20.6102848052979
-9999 -9999 -9999 -9999 -9999 -9999 -9999 -9999 -9999 -9999 -9999 -9999 -9999 -9999 -9999 -9999 -9999 8.80661702156067 9.06356716156006 9.98236560821533 11.5389289855957 13.9915609359741 16.3836917877197 18.1736736297607 19.7390689849854 20.5389804840088 20.8428630828857 20.8222484588623 20.6634635925293 20.4907779693604 20.3377437591553 20.1661777496338 19.9474544525146 19.6709136962891 19.3241748809814 18.9467258453369 18.7115211486816 18.8025741577148 19.0712471008301 19.3407859802246 19.608419418335 19.8427028656006 20.0324096679688 20.2157859802246 20.3248805999756 20.303337097168 20.2214508056641 20.1855812072754 20.2069110870361 20.2505378723145 20.3170356750488 20.3720970153809 20.3960189819336 20.4065246582031 20.4170989990234 20.4052753448486 20.3330135345459 20.2632617950439 20.2909412384033 20.3681449890137 20.4057903289795 20.4330673217773 20.4765510559082 20.4643249511719 20.4020347595215 20.402982711792 20.5283908843994 20.6216926574707 20.6417198181152 20.5920104980469
-9999 -9999 -9999 -9999 -9999 -9999 -9999 -9999 -9999 -9999 -9999 -9999 -9999 -9999 8.0104438662529 8.07355117797852 8.83926278352737 9.18015003204346 9.29673290252686 10.4514360427856 12.7082176208496 15.875657081604 18.659351348877 20.1173801422119 20.9263877868652 21.2169723510742 21.1507205963135 20.8818511962891 20.6329803466797 20.4895820617676 20.413028717041 20.3275756835938 20.220251083374 20.0914268493652 19.9099807739258 19.6956462860107 19.5151290893555 19.5164585113525 19.6775550842285 19.8460731506348 19.9623508453369 20.0584125518799 20.1653003692627 20.2994365692139 20.3747482299805 20.3398399353027 20.2406826019287 20.1885051727295 20.2250156402588 20.2947978973389 20.3681449890137 20.4189510345459 20.4477138519287 20.4758033752441 20.5025291442871 20.5050201416016 20.4404430389404 20.347354888916 20.3480701446533 20.398193359375 20.4281368255615 20.4564437866211 20.4887828826904 20.4751510620117 20.4253025054932 20.4285831451416 20.5359840393066 20.6132888793945 20.6231880187988 20.5614109039307
-9999 -9999 -9999 -9999 -9999 -9999 -9999 -9999 -9999 -9999 -9999 -9999 -9999 -9999 -9999 -9999 -9999 -9999 11.0495948791504 11.6891660690308 14.4494390487671 17.6366176605225 20.0027694702148 21.1134643554688 21.5497589111328 21.4976902008057 21.1332588195801 20.7381687164307 20.5258331298828 20.4759521484375 20.4844741821289 20.4668960571289 20.4045543670654 20.3181228637695 20.2158298492432 20.1057968139648 19.9969997406006 19.9355964660645 19.979175567627 20.0638999938965 20.1288318634033 20.1883144378662 20.2729015350342 20.4004802703857 20.480785369873 20.469367980957 20.3766956329346 20.2771377563477 20.2453136444092 20.2800331115723 20.3582324981689 20.4263134002686 20.4709796905518 20.5046825408936 20.5272598266602 20.5366077423096 20.5003395080566 20.418794631958 20.3972415924072 20.4258708953857 20.4572048187256 20.483922958374 20.5038089752197 20.485523223877 20.4338607788086 20.4214210510254 20.5083808898926 20.5656547546387 20.5633964538574 20.5292778015137
-9999 -9999 -9999 -9999 -9999 -9999 -9999 -9999 -9999 -9999 -9999 -9999 -9999 -9999 -9999 -9999 -9999 13.5339317321777 13.4139440059662 12.7610445022583 15.791971206665 19.6415214538574 21.3564567565918 21.9131565093994 21.8467788696289 21.35791015625 20.7798404693604 20.4368114471436 20.3692512512207 20.4252948760986 20.4952449798584 20.5194053649902 20.4783782958984 20.3945217132568 20.3202648162842 20.2611389160156 20.198844909668 20.1334056854248 20.1256217956543 20.1591968536377 20.2004413604736 20.2764091491699 20.3967723846436 20.5410499572754 20.6194438934326 20.6169757843018 20.563943862915 20.4647312164307 20.3455753326416 20.2875061035156 20.3397884368896 20.4249687194824 20.4801235198975 20.5189895629883 20.5424613952637 20.5512142181396 20.5296783447266 20.4695148468018 20.4506950378418 20.4751014709473 20.5062084197998 20.5197048187256 20.5200843811035 20.5016441345215 20.444974899292 20.4199695587158 20.4692192077637 20.5046520233154 20.5035877227783 20.5164375305176
-9999 -9999 -9999 -9999 -9999 -9999 -9999 -9999 -9999 -9999 -9999 -9999 -9999 17.8392887115479 18.0003437466092 -9999 17.7531290054321 16.5628571510315 13.5339317321777 15.6716337203979 19.7052822113037 21.6416454315186 22.1509704589844 22.1123752593994 21.615930557251 20.9372978210449 20.4580268859863 20.3266506195068 20.3645439147949 20.4537544250488 20.5309467315674 20.5631084442139 20.5202083587646 20.4214515686035 20.3346672058105 20.2792339324951 20.2077159881592 20.0901546478271 20.0476207733154 20.1159820556641 20.2390403747559 20.387279510498 20.5181312561035 20.6291561126709 20.6932811737061 20.7204875946045 20.72727394104 20.6887016296387 20.5494155883789 20.3918838500977 20.3625240325928 20.4283866882324 20.479133605957 20.5243225097656 20.564281463623 20.5874881744385 20.575963973999 20.5284175872803 20.5161247253418 20.5469760894775 20.5811786651611 20.5877552032471 20.5703887939453 20.5499019622803 20.510139465332 20.477611541748 20.468297958374 20.4806251525879 20.5170345306396 20.5637321472168
-9999 -9999 -9999 -9999 -9999 -9999 -9999 -9999 -9999 -9999 -9999 -9999 -9999 -9999 17.8392887115479 18.231206258138 17.9305362701416 17.5757217407227 17.211238861084 20.229419708252 21.9304237365723 22.3516864776611 22.3352565765381 21.9399719238281 21.2313575744629 20.5840034484863 20.2921123504639 20.2428455352783 20.2953834533691 20.3784942626953 20.4408760070801 20.4514484405518 20.3868961334229 20.2788352966309 20.188009262085 20.1173973083496 20.0537872314453 20.0423526763916 20.1336116790771 20.2677974700928 20.3756332397461 20.4458274841309 20.5168056488037 20.6436290740967 20.7657623291016 20.8258037567139 20.8434734344482 20.8367214202881 20.7392501831055 20.5429515838623 20.4292659759521 20.4411239624023 20.4730033874512 20.5107650756836 20.5639019012451 20.6183166503906 20.6352939605713 20.6001014709473 20.5852336883545 20.6062107086182 20.6315975189209 20.6352863311768 20.6044178009033 20.5654277801514 20.5411510467529 20.5174579620361 20.5056381225586 20.554141998291 20.6140804290771 20.645975112915
-9999 -9999 -9999 -9999 -9999 -9999 -9999 -9999 -9999 -9999 -9999 -9999 -9999 -9999 18.2468633651733 17.8392887115479 18.9237937927246 19.3598613739014 20.5554618835449 22.1084594726562 22.4354591369629 22.4433612823486 22.1755714416504 21.5609169006348 20.8542766571045 20.3932342529297 20.2358837127686 20.1750106811523 20.1870746612549 20.2384471893311 20.270055770874 20.2552242279053 20.1946716308594 20.1294441223145 20.0842895507812 20.0577964782715 20.0714225769043 20.141134262085 20.2359733581543 20.3115215301514 20.3535575866699 20.3869895935059 20.5081157684326 20.7142105102539 20.8577938079834 20.8926563262939 20.8919658660889 20.8913497924805 20.8304653167725 20.6498584747314 20.497428894043 20.4637928009033 20.465856552124 20.4730949401855 20.5179691314697 20.616138458252 20.7001304626465 20.6999168395996 20.6716957092285 20.6662731170654 20.6626987457275 20.6613330841064 20.6362361907959 20.5918483734131 20.5699195861816 20.5784244537354 20.6133651733398 20.6889266967773 20.7216243743896 20.7364082336426
-9999 -9999 -9999 -9999 -9999 -9999 -9999 -9999 -9999 -9999 -9999 17.2835655212402 17.7663516998291 18.2375717163086 18.024543762207 18.8860492706299 20.3806838989258 21.3647708892822 22.1692676544189 22.5009021759033 22.5155811309814 22.3734893798828 21.9634304046631 21.2756881713867 20.7426776885986 20.4945945739746 20.3658962249756 20.2483787536621 20.1403388977051 20.0926055908203 20.0811862945557 20.0803813934326 20.0584030151367 20.0369663238525 20.0260353088379 20.0273017883301 20.0566387176514 20.1151161193848 20.1871376037598 20.2479038238525 20.2871246337891 20.3678493499756 20.5731410980225 20.8047943115234 20.9103336334229 20.9115943908691 20.9127941131592 20.9045391082764 20.8509349822998 20.691822052002 20.5373344421387 20.4825630187988 20.4614734649658 20.4323024749756 20.4324550628662 20.523229598999 20.6954135894775 20.8005237579346 20.7995681762695 20.774995803833 20.7270984649658 20.6937351226807 20.6714744567871 20.6397705078125 20.6262474060059 20.6527347564697 20.7308330535889 20.784143447876 20.822660446167 20.8300685882568
-9999 -9999 -9999 -9999 -9999 -9999 -9999 -9999 -9999 16.5654392242432 17.2760810852051 18.1386699676514 18.8400135040283 19.3204307556152 19.2490997314453 20.1054992675781 21.5717887878418 22.2275543212891 22.5416107177734 22.5440731048584 22.4552631378174 22.2728805541992 21.8367538452148 21.2086448669434 20.9398822784424 20.9512310028076 20.9236602783203 20.8889255523682 20.7603874206543 20.5240516662598 20.2496776580811 20.0860443115234 20.0221290588379 19.9977855682373 19.9768314361572 19.9671573638916 19.9757900238037 20.004524230957 20.0734748840332 20.1699810028076 20.2646598815918 20.454288482666 20.7099781036377 20.8876857757568 20.9240303039551 20.8953990936279 20.8889255523682 20.8695602416992 20.8025703430176 20.6611194610596 20.5425834655762 20.5126934051514 20.5080146789551 20.5027046203613 20.4805755615234 20.4897403717041 20.6309242248535 20.8189220428467 20.9004764556885 20.8864555358887 20.8207378387451 20.7485313415527 20.7065868377686 20.6775169372559 20.6748943328857 20.7273368835449 20.7988128662109 20.8333168029785 20.8186187744141 20.7471561431885
-9999 -9999 -9999 -9999 -9999 -9999 -9999 -9999 -9999 17.0023365020752 18.0161762237549 19.024938583374 19.7611312866211 20.2455539703369 20.2314319610596 21.2437343597412 22.2646675109863 22.6775684356689 22.7416324615479 22.6447525024414 22.5033493041992 22.2748718261719 21.7933197021484 21.2366333007812 21.1043949127197 21.11501121521 21.1160411834717 21.2070560455322 21.3181247711182 21.3656768798828 21.2397480010986 20.9562320709229 20.6172752380371 20.3388843536377 20.1799831390381 20.1144580841064 20.1078414916992 20.1348190307617 20.2122097015381 20.3280353546143 20.4928684234619 20.7261352539062 20.8883018493652 20.934778213501 20.911584854126 20.8583755493164 20.8273296356201 20.7910327911377 20.7304725646973 20.6382999420166 20.5882186889648 20.5934371948242 20.6255512237549 20.6679592132568 20.6574306488037 20.5930366516113 20.634449005127 20.8079471588135 20.9395732879639 20.9481163024902 20.8814067840576 20.7954349517822 20.7314109802246 20.7010879516602 20.7185935974121 20.7810001373291 20.8264045715332 20.8114547729492 20.7285327911377 20.6079406738281
-9999 -9999 -9999 -9999 -9999 17.1368999481201 16.8774318695068 17.2169342041016 17.1196117401123 17.3590850830078 18.2773208618164 19.5558280944824 20.5795383453369 21.20676612854 21.7284660339355 22.5366592407227 22.8500194549561 22.879711151123 22.7461853027344 22.5843296051025 22.4962310791016 22.3681316375732 21.9357318878174 21.2738800048828 21.0515937805176 20.9746379852295 20.9636402130127 21.1072978973389 21.3347854614258 21.5494041442871 21.5746574401855 21.4105796813965 21.1674518585205 20.9460315704346 20.7790832519531 20.6757259368896 20.6411037445068 20.655855178833 20.7127590179443 20.7869453430176 20.8969612121582 20.9908256530762 20.9856071472168 20.9488487243652 20.9195861816406 20.8619899749756 20.8119697570801 20.7795276641846 20.7477188110352 20.709545135498 20.6939945220947 20.7069721221924 20.7648086547852 20.8278484344482 20.8174934387207 20.7096614837646 20.6799545288086 20.8187389373779 20.9608097076416 20.9568920135498 20.8810577392578 20.8098964691162 20.7649040222168 20.7629299163818 20.7953605651855 20.8241748809814 20.8198051452637 20.7674446105957 20.6654720306396 20.5632648468018
-9999 -9999 -9999 -9999 16.6661529541016 16.9337062835693 18.0703086853027 18.7213859558105 18.6004390716553 18.7963905334473 19.177173614502 20.4573421478271 21.3929538726807 22.1510410308838 22.7434043884277 22.9596500396729 22.9599361419678 22.8587856292725 22.7089214324951 22.6418495178223 22.580696105957 22.5057487487793 22.2680549621582 21.6435012817383 21.2598304748535 21.1321544647217 21.1296920776367 21.2481899261475 21.4602642059326 21.7045631408691 21.7426052093506 21.5529956817627 21.2999496459961 21.1244087219238 21.028600692749 20.9834957122803 20.9710350036621 20.9785842895508 20.9901752471924 20.9926261901855 21.0071411132812 21.0089588165283 20.9811859130859 20.9774169921875 20.9887924194336 20.9351119995117 20.8763408660889 20.8596286773682 20.8568077087402 20.846004486084 20.8314590454102 20.8306007385254 20.8635520935059 20.8899440765381 20.8694953918457 20.7839012145996 20.7861385345459 20.9142570495605 20.9942302703857 20.9464855194092 20.8690338134766 20.8400268554688 20.8383598327637 20.8340587615967 20.8187675476074 20.7928657531738 20.7587833404541 20.7010612487793 20.6212711334229 20.5964488983154
-9999 -9999 -9999 17.249792098999 17.1670341491699 18.0845508575439 19.2238750457764 19.831916809082 20.0108814239502 20.3622074127197 20.5414638519287 21.629997253418 22.3949584960938 22.8999328613281 23.0790958404541 23.1367740631104 23.0501747131348 22.8349418640137 22.7332611083984 22.6940517425537 22.6049213409424 22.555700302124 22.5056400299072 22.1850452423096 21.7545604705811 21.5365829467773 21.46120262146 21.5047359466553 21.6883640289307 21.8774223327637 21.8076858520508 21.5214004516602 21.2730712890625 21.1833820343018 21.1767597198486 21.1816501617432 21.1675510406494 21.1337661743164 21.0765132904053 21.0281944274902 21.020975112915 21.0094928741455 21.0130519866943 21.0660018920898 21.0686988830566 20.9921550750732 20.9182014465332 20.878927230835 20.8764762878418 20.8725681304932 20.863452911377 20.8651809692383 20.8883361816406 20.9091663360596 20.9115715026855 20.9032325744629 20.9572582244873 21.0176372528076 21.0117855072021 20.9537448883057 20.8932800292969 20.8792552947998 20.865837097168 20.8285236358643 20.7751312255859 20.7389812469482 20.7260818481445 20.6828498840332 20.6628551483154 20.6990642547607
-9999 -9999 -9999 17.3065052032471 17.8594760894775 19.1971473693848 20.3115653991699 20.8749465942383 21.3143672943115 21.7951755523682 22.2085762023926 22.7571239471436 23.0706214904785 23.2138080596924 23.2874488830566 23.1843566894531 22.9350395202637 22.7718753814697 22.7233486175537 22.6700897216797 22.5772609710693 22.5482482910156 22.5583000183105 22.4608345031738 22.1957473754883 21.9510974884033 21.8275680541992 21.8215808868408 21.9359493255615 21.9613151550293 21.7201061248779 21.384256362915 21.2166481018066 21.2458534240723 21.3222160339355 21.3558254241943 21.3378257751465 21.272611618042 21.1745166778564 21.0923252105713 21.0720062255859 21.0930595397949 21.1695117950439 21.2362575531006 21.1794185638428 21.0707759857178 20.9907779693604 20.9241542816162 20.8979988098145 20.8844451904297 20.8736171722412 20.8863563537598 20.9193058013916 20.9526996612549 20.9831142425537 21.0032367706299 21.0300712585449 21.0432586669922 21.0091400146484 20.9655361175537 20.9243698120117 20.8929576873779 20.8421669006348 20.7876052856445 20.7408504486084 20.7279796600342 20.7211093902588 20.7126636505127 20.763463973999 20.8192596435547
