NCOLS 35 
NROWS 26 
XLLCORNER -80 
YLLCORNER 33 
CELLSIZE 0.5 
NODATA_value -9999 
-9999.000000000000000 -9999 -9999 -9999 -9999 -9999 -9999 -9999 -9999 -9999 -9999 -9999 -9999 -9999 -9999 -9999 -9999 -9999 -9999 -9999 -9999 -9999 -9999 -9999 -9999 -9999 -9999 -9999 -9999 -9999 -9999 -9999 -9999 -9999 -9999
-9999 -9999 -9999 -9999 -9999 -9999 -9999 -9999 -9999 -9999 -9999 -9999 -9999 -9999 -9999 -9999 -9999 -9999 -9999 -9999 -9999 -9999 -9999 -9999 -9999 -9999 -9999 -9999 -9999 16.8053273797103 -9999 -9999 -9999 -9999 -9999
-9999 -9999 -9999 -9999 -9999 -9999 -9999 -9999 -9999 -9999 -9999 -9999 -9999 -9999 -9999 -9999 -9999 -9999 -9999 -9999 -9999 -9999 -9999 -9999 -9999 -9999 14.1885766411828 15.0679028573956 16.0098721159951 16.690295658614 -9999 -9999 -9999 -9999 -9999
-9999 -9999 -9999 -9999 -9999 -9999 -9999 -9999 -9999 -9999 -9999 -9999 -9999 -9999 -9999 -9999 -9999 -9999 -9999 -9999 -9999 -9999 -9999 14.0100260050589 13.9127167061568 14.0367401069432 14.4180658063398 14.9150214803013 -9999 -9999 -9999 16.383639059861 16.9789953360433 17.3503609124124 17.5832115405237
-9999 -9999 -9999 -9999 -9999 -9999 -9999 -9999 -9999 -9999 -9999 -9999 -9999 -9999 -9999 -9999 -9999 -9999 -9999 -9999 14.6068921020184 14.4589216191065 14.5286817151545 14.7104281117811 14.4520373806613 14.4047147818296 14.9918881706449 15.3153819830747 -9999 -9999 16.1661184141963 17.0042247572869 17.0956770542201 16.877266913371 17.2977344939448
-9999 -9999 -9999 -9999 -9999 -9999 -9999 -9999 -9999 -9999 -9999 -9999 -9999 -9999 -9999 -9999 -9999 -9999 -9999 16.6940541628553 17.4250783721117 16.4695965455264 15.9385014659468 15.6958752263852 15.0221191676699 15.0058029850878 15.3009990674436 15.3206011075106 15.2937337345521 15.3000114010139 15.6429382123587 16.4251187117783 16.865651808316 16.8962066905682 17.4750629887778
-9999 -9999 -9999 -9999 -9999 -9999 -9999 -9999 -9999 -9999 -9999 -9999 -9999 -9999 -9999 -9999 -9999 -9999 -9999 18.1618506185503 18.1006433600851 17.1462166504769 16.581902576825 16.1395398558579 15.5801216152042 15.6634834699544 15.6922956326871 15.5218191384635 15.2487728288851 15.385117648154 15.7711037435616 16.5612141329831 17.4986527906907 17.972980172938 17.9917084118718
-9999 -9999 -9999 -9999 -9999 -9999 -9999 -9999 -9999 -9999 -9999 -9999 -9999 -9999 -9999 -9999 -9999 -9999 -9999 18.0653701414141 18.6297774264572 17.808082315216 17.4414529821722 17.152128130884 16.8345817045116 16.7225924664484 16.4311632079205 15.9919460023293 15.6100801294548 16.3965388951642 17.7627343364387 18.4534808449642 18.7773199846175 19.519338612827 19.9576564187618
-9999 -9999 -9999 -9999 -9999 -9999 -9999 -9999 -9999 -9999 -9999 -9999 -9999 -9999 -9999 -9999 -9999 -9999 -9999 19.1639876388181 19.3379389568626 18.7252659306576 18.4898485102006 18.3465953394441 18.1469403290174 17.5943308190657 17.0577507431618 16.6725557403195 17.5009142887048 18.8736712879599 19.5592986848672 19.5736310453197 19.6609259575077 20.5969331925411 21.8689656317136
-9999 -9999 -9999 -9999 -9999 -9999 -9999 -9999 -9999 -9999 -9999 -9999 -9999 -9999 -9999 -9999 -9999 20.4236420360915 20.1669392926458 19.7979772576774 19.6253509467501 19.305663466663 19.0637331205904 18.7446816433523 18.338769757227 17.712230200785 17.0784366409954 17.7239911501345 18.7406509052207 19.1479759676273 19.7440929151272 20.2691082214751 21.7926928963302 23.5056015462629 24.2182642593117
-9999 -9999 -9999 -9999 -9999 -9999 -9999 -9999 -9999 -9999 -9999 -9999 -9999 -9999 20.9667286714654 20.954835726165 21.2575791769878 21.3969970534203 21.1154805327926 20.6614070601789 20.0590399391149 19.7660239797366 19.467083723626 18.9184816133964 18.3975651331955 18.4392700058626 19.0291726344728 20.3495527016113 21.8744116401123 21.1869399177345 21.0114846977873 22.1902984347944 23.3799932112718 24.3952391596917 24.8171925511896
-9999 -9999 -9999 -9999 -9999 -9999 -9999 -9999 -9999 -9999 -9999 -9999 21.8872901587879 21.9522434070178 21.8124618209971 21.8277932121943 22.2198288345895 22.4829052517934 22.5288382490674 22.2287895611229 21.6204395986571 21.4483112472764 21.563935854263 21.776225528245 21.6591688475941 21.716367316786 22.4164733749703 23.1167871891083 23.6028966891481 23.2324203677851 22.7817279704058 22.5627549827102 23.1501180117993 24.3506863024059 25.0361386358064
-9999 -9999 -9999 -9999 -9999 -9999 -9999 -9999 -9999 -9999 -9999 -9999 22.1654512060025 22.3607521765637 22.6991808132081 23.269557366681 23.7452231798397 23.9614640217882 24.108872002543 24.2779558733532 24.0718460808262 23.7410654239668 23.8642131037244 24.2802894406596 24.4641886781628 24.3151487537193 24.0041133766174 23.8439864068889 23.8074478133165 23.3555985526374 23.3370411879514 23.5433793131246 24.2665382462082 24.9561705283806 25.2960698904955
-9999 -9999 -9999 -9999 -9999 -9999 -9999 -9999 -9999 23.2125624536101 22.5637336544029 22.3497244119341 22.5792136928217 23.0353117076005 23.7395426811122 24.5003174957516 24.8933816172959 25.0107463578715 25.0173221713094 24.8127339960876 25.0420638398037 25.139621801063 25.4433164856162 25.9092250090422 25.6754259580703 25.8030438907886 25.7525828795193 25.1570326783667 24.0898186453 23.7618944668367 24.1180222714763 24.9651630452471 25.684646980794 25.9915196529537 25.9858597399334
-9999 -9999 -9999 -9999 -9999 -9999 -9999 -9999 -9999 -9999 22.2659116542154 22.7512125371167 23.1895915979255 24.0373403602879 24.9064773124769 25.2865834628233 25.2719052032505 25.3686242863174 25.5743579791974 25.6021116347826 25.6848607051218 25.904199747515 26.273186802105 26.4811251843029 26.3051006153362 26.1981994004168 26.1123536962586 25.8791139332593 25.0762034895468 24.7440793322961 24.7884654112267 25.7376974151773 26.5509111437784 26.7293305368573 26.77567351037
-9999 -9999 -9999 -9999 -9999 -9999 -9999 23.7753231402047 23.7882747412037 -9999 22.6060081310767 23.3008082473792 24.3022640745931 24.7856548073417 25.0511884471108 25.2604676613494 25.3536471399193 25.6475876596206 26.0143379325672 26.1956337612962 26.2226091238997 26.3572192821453 26.5148237455083 26.5302101707938 26.4840097138641 26.4668734223351 26.3536583720531 26.0254342456057 25.5063489616113 25.7743284003913 25.4409828365336 26.2898558502373 27.0268499509736 26.763642800685 26.4278756345542
-9999 -9999 -9999 -9999 -9999 -9999 -9999 23.9711853765193 23.7255440039383 22.8815669533495 23.0098889342294 24.2668655029326 24.9974567030884 25.160390653437 25.2861646019556 25.6644652505609 26.172280244925 26.682471742315 27.0855988967392 27.2429574777704 27.2775427498006 27.3842079077653 27.4056883920036 27.342237565759 27.2871025764331 27.0533545879313 26.5127110312242 25.9867689978062 25.696593673492 25.9775493214921 26.0164010782456 26.7249301323537 27.0643774376187 26.6841354924346 26.5113797367342
-9999 -9999 -9999 -9999 -9999 -9999 -9999 24.1466420723013 -9999 23.2374762854032 23.731258153528 24.8794257885519 25.2440670200601 25.6325552028979 26.3082743222489 27.2784932930594 27.6362427041046 27.5912791184966 27.42248211148 27.27861730955 27.2169176470214 27.1019844403407 26.9502898579199 26.8311721056151 26.8226741428174 26.7944239943594 26.6207952733171 26.4722662826488 26.394074178296 26.3185750379487 26.5609899015114 27.0034661233237 27.0482957247605 26.8168482846574 26.7708913404816
-9999 -9999 -9999 -9999 -9999 -9999 -9999 -9999 24.0835478647798 23.947833757581 24.1645567699786 24.9579518288766 25.6922242402718 27.1554135596576 28.1710532237325 27.7634500553115 27.1066612754127 26.789318587658 26.7243968659514 26.7652263251421 26.7814986711787 26.6391948820728 26.4818387749323 26.467482259596 26.4873968469756 26.5609232262281 26.5274460550635 26.5004446644507 26.6918240248393 26.8160464201717 26.9867296098342 27.1420064253279 27.0075298333579 27.0141673105508 27.032716821503
-9999 -9999 -9999 -9999 -9999 -9999 -9999 -9999 -9999 24.5619688974495 24.5749201101995 26.0494075926623 27.8301746728676 28.2148435824317 27.1593714957307 26.5100406702866 26.4991156912455 26.4815903266311 26.4801298328429 26.3813386093607 26.4626478121851 26.5223022972605 26.5269447798933 26.5061717408359 26.5729047929299 26.5750741253137 26.5512355769706 26.6202049780024 26.7219989382074 27.001806971988 27.2312334487612 27.048545694614 26.7216449458199 26.6989479306384 26.9265997829435
-9999 -9999 -9999 -9999 -9999 -9999 -9999 -9999 -9999 25.237415951082 26.7009154812379 28.2505906655433 28.0243257245524 26.9222946979267 26.4246927268542 26.5536359605759 26.594962857895 26.4677087957417 26.3595527689633 26.221238460935 26.2636217649769 26.39705143755 26.4070519889129 26.4066317082302 26.4307333389492 26.465927610505 26.5861496234141 26.6788805827592 26.7254850411145 26.8397817128741 26.8152406420192 26.6126072229644 26.508756876173 26.4575228113934 26.4656707521343
-9999 -9999 -9999 -9999 -9999 -9999 -9999 25.184776965628 25.5965603228321 26.6584627921279 28.2475979106671 28.2320279654438 27.0996258991009 26.4933633852958 26.4988557105697 26.6333829471141 26.5707728380604 26.3913309541287 26.2913191521039 26.2492746423122 26.3138591428334 26.3793649661132 26.3395340244732 26.3409947545752 26.3171136562128 26.3025875589501 26.3575294437824 26.4506546255374 26.5098546333164 26.5748420264554 26.4495455336988 26.4024829110356 26.4267368766317 26.4500896512221 26.503136902773
-9999 -9999 -9999 -9999 -9999 -9999 26.1077491469036 26.0962253810224 27.1119813156385 28.2950158521662 28.4457715634307 27.4967386722699 26.6752581293226 26.5163662311958 26.4999079969316 26.4989605875683 26.4440570834573 26.4060753944642 26.4533784938599 26.4903946603854 26.5285516112087 26.4952177428375 26.4399951924605 26.4198786230414 26.4023067548186 26.372938020757 26.3454785064025 26.3735255730278 26.4021303339557 26.4352446493528 26.381104525981 26.4067233484323 26.4299483596371 26.4690494970692 26.5055618449918
-9999 -9999 -9999 -9999 26.469771581637 26.5825212627745 26.7228882375105 27.3265210482065 28.3380274587781 28.5028920026831 27.7490937421621 26.8956853784304 26.6632509698927 26.6379246273919 26.6030237295297 26.5045455839394 26.5238987874292 26.5607763143358 26.4843630082564 26.4329296091829 26.5234182409136 26.5620301648416 26.5067919907048 26.4393340062033 26.415061047282 26.4040627806765 26.3627238751356 26.3818197231584 26.4345547693113 26.4568530141677 26.3929369322673 26.379610737693 26.3791618875 26.4289183473066 26.5177641166173
-9999 -9999 -9999 26.6536494444859 26.7283124174893 27.0275140940518 27.664166109676 28.3979012560063 28.5419970956359 27.9334224218569 27.2006941432635 26.7859997898221 26.7778583209906 26.7633796861138 26.7199362683763 26.6464062426784 26.6308716595405 26.5235712126147 26.3711401325725 26.3594329430195 26.5616685427999 26.6522971077587 26.5686254216957 26.4706258271532 26.4369627387852 26.4191152352192 26.3818823643643 26.4362333589119 26.4662759641988 26.4572259773436 26.4175186394498 26.3751295582741 26.3731036948118 26.4539554944264 26.5620953192166
-9999 -9999 26.8257210703464 27.1206956833489 27.5243816360543 27.9344518752762 28.4318191956869 28.5536539191043 28.2035416460596 27.5609566464317 27.0636129986184 26.8645963044815 26.9096537717319 26.9626870321492 26.9469743623611 26.8524120925159 26.7623100406627 26.6692313142231 26.6508295293836 26.7802854962789 26.9356245080388 26.9088829680327 26.7471914108304 26.6403913962005 26.5440646505057 26.5194213545833 26.6000353062159 26.6446918119257 26.6168587236495 26.5998077230775 26.6103555133029 26.498741880688 26.4365752332914 26.5013070552297 26.60857932897
