NCOLS 35 
NROWS 26 
XLLCORNER -80 
YLLCORNER 33 
CELLSIZE 0.5 
NODATA_value -9999 
-9999.000000000000000 -9999 -9999 -9999 -9999 -9999 -9999 -9999 -9999 -9999 -9999 -9999 -9999 -9999 -9999 -9999 -9999 -9999 -9999 -9999 -9999 -9999 -9999 -9999 -9999 -9999 -9999 -9999 -9999 -9999 -9999 -9999 -9999 -9999 -9999
-9999 -9999 -9999 -9999 -9999 -9999 -9999 -9999 -9999 -9999 -9999 -9999 -9999 -9999 -9999 -9999 -9999 -9999 -9999 -9999 -9999 -9999 -9999 -9999 -9999 -9999 -9999 -9999 -9999 6.43046203842274 -9999 -9999 -9999 -9999 -9999
-9999 -9999 -9999 -9999 -9999 -9999 -9999 -9999 -9999 -9999 -9999 -9999 -9999 -9999 -9999 -9999 -9999 -9999 -9999 -9999 -9999 -9999 -9999 -9999 -9999 -9999 6.67020107705874 6.82948700376039 6.63135021998545 6.23775766959861 -9999 -9999 -9999 -9999 -9999
-9999 -9999 -9999 -9999 -9999 -9999 -9999 -9999 -9999 -9999 -9999 -9999 -9999 -9999 -9999 -9999 -9999 -9999 -9999 -9999 -9999 -9999 -9999 6.61638051887713 7.03481723239426 7.11034374694581 7.14596275110374 6.96264214464699 -9999 -9999 -9999 6.23392827616843 6.37007228128019 6.54110695868047 6.50821466401709
-9999 -9999 -9999 -9999 -9999 -9999 -9999 -9999 -9999 -9999 -9999 -9999 -9999 -9999 -9999 -9999 -9999 -9999 -9999 -9999 7.00076278585038 7.10970853101171 7.17487953333719 7.44002073871019 7.57549255110259 7.3771525938992 7.28300915369232 6.85525414294808 -9999 -9999 6.67657564832975 7.04545160233962 7.13421479091484 7.38704177317349 7.52892830538409
-9999 -9999 -9999 -9999 -9999 -9999 -9999 -9999 -9999 -9999 -9999 -9999 -9999 -9999 -9999 -9999 -9999 -9999 -9999 7.52601545060538 7.87494337138594 7.81388088189037 7.64569664061138 7.58266742021007 7.66843545050919 7.47379363608001 7.44985856092448 7.16588627489314 6.51838386977237 6.98818498301227 7.33902210829803 7.43844829234875 7.56621577890977 7.84429966344912 8.24464883496154
-9999 -9999 -9999 -9999 -9999 -9999 -9999 -9999 -9999 -9999 -9999 -9999 -9999 -9999 -9999 -9999 -9999 -9999 -9999 7.68357934177944 7.88829890107589 7.81919757637535 7.71379622371878 7.68270258511305 7.70719985612512 7.66810199167243 7.7570355705824 7.73524390668997 7.57193300222984 7.49665412572988 7.53249875753428 7.91229326332569 8.58816395001666 9.31829264850701 9.78033509112698
-9999 -9999 -9999 -9999 -9999 -9999 -9999 -9999 -9999 -9999 -9999 -9999 -9999 -9999 -9999 -9999 -9999 -9999 -9999 7.32894993764977 7.97762525783229 7.84082038466845 7.80535026785584 7.81089443601504 7.90586317377159 8.01765107499007 8.18764516631417 8.26831142541095 8.19503957551757 8.1410666715774 8.62572845487589 9.6325808088101 11.4225860615584 12.6666740130002 12.6455019061326
-9999 -9999 -9999 -9999 -9999 -9999 -9999 -9999 -9999 -9999 -9999 -9999 -9999 -9999 -9999 -9999 -9999 -9999 -9999 6.32017852623433 7.9756629885226 8.27692915491301 8.06325498104852 8.01305571218461 7.94876787700955 8.73354013628162 8.88087392220698 8.81431336507476 9.48808216992934 9.63217086154713 10.1940162285522 11.6423012493159 12.6869959340241 13.6100044192284 14.7617670959236
-9999 -9999 -9999 -9999 -9999 -9999 -9999 -9999 -9999 -9999 -9999 -9999 -9999 -9999 -9999 -9999 -9999 9.51328645081188 8.98695366631612 7.44984059738226 7.39926841223059 8.60694883151861 8.65766714094717 8.5759730948625 8.53976223579346 9.24024880760729 9.38043422570607 10.7534020188681 11.9850566275017 11.4188116093641 11.4628237412288 13.8696992821312 15.6258596696301 16.7257239047292 17.6790124520289
-9999 -9999 -9999 -9999 -9999 -9999 -9999 -9999 -9999 -9999 -9999 -9999 -9999 -9999 8.66441400129198 9.41095416332812 9.68452955950497 10.0008911544765 9.98856247553369 9.00062882050068 8.38345016978566 9.41030644418273 9.92155062264971 9.81529229157455 9.73253418206871 9.80516166584387 10.6235608381441 12.0247765376799 13.4355764556899 14.2407017012797 14.2761565665108 15.9723750758492 17.1460218061466 18.1948304159773 19.218778846872
-9999 -9999 -9999 -9999 -9999 -9999 -9999 -9999 -9999 -9999 -9999 -9999 8.76170973528116 9.49168794553042 9.99417949340057 10.2086669507977 10.4312112663571 10.6556330776127 10.6035285258893 10.2267179173893 10.3138428516481 10.5795231908201 10.9555450995133 10.8614642374095 10.484441944479 12.4201040026757 14.3772706330281 15.9289865325112 17.3799188687805 17.8439906783608 17.9438576013079 18.6161564237606 18.9113361483026 18.8267126698012 18.9542017483555
-9999 -9999 -9999 -9999 -9999 -9999 -9999 -9999 -9999 -9999 -9999 -9999 9.14045969949705 10.1296176156148 10.6604336490758 11.6737147126713 13.4946872340547 14.1422230779105 13.8737853692219 13.5704161526194 13.0478290415087 12.4401313059779 12.2575065117706 11.9489086124693 12.5798751223449 15.4019767203286 16.9787112584683 18.0241884421588 18.5586805890473 18.9608012942742 19.2466919415604 19.0800187748971 19.2818410256538 19.4926696617462 19.8360818038358
-9999 -9999 -9999 -9999 -9999 -9999 -9999 -9999 -9999 5.39767596349009 6.65802028760105 8.44768253108378 9.71684784421391 10.5091672171691 11.8152777498623 13.8622225346064 15.542256136617 16.3415140435572 16.6222716862875 16.7332431127702 15.4625472204371 13.7202003891399 13.1899257552706 13.8870791836442 14.8962729579747 15.9801139952654 16.8597779153368 17.7998708652825 18.5049674539376 19.5802038542875 20.3903779831333 20.4038800866643 20.4006340123303 20.5101410216994 20.7727835898121
-9999 -9999 -9999 -9999 -9999 -9999 -9999 -9999 -9999 -9999 8.66278940062676 9.90788292040102 10.425811068079 11.8154684062214 13.7607440714521 15.2548726559569 16.530065466728 17.2865926212657 17.4920536356236 17.1022127831587 16.2794217336154 15.1569631027955 15.3371812301527 16.1439398025437 17.0414915914238 18.1776188806944 19.6102411087071 20.7090868715771 21.6901717976923 22.3306348304143 22.0873897975014 21.6992522162368 21.5218894829362 21.5564862982875 21.5741750085889
-9999 -9999 -9999 -9999 -9999 -9999 -9999 7.08957904345248 7.15656935831763 -9999 9.82395702757635 10.5318428192229 11.6946746360806 13.9525340693719 15.7519246518841 16.3907649520071 17.3827984132136 18.3362144959558 19.0646783908946 19.5884719738332 19.6098595088064 18.6903190816592 18.0168660281985 18.8226934608246 20.6160312137501 21.7454480982072 22.4772599702722 22.5529873537626 22.3979442835974 22.1618456487995 21.7161120958708 21.4650535172946 21.1770843349525 21.036021248415 21.1347724730375
-9999 -9999 -9999 -9999 -9999 -9999 -9999 7.84614696216022 8.15851623823521 9.81476769766316 10.4221191441587 11.5479340971396 13.6105867745258 15.4461190997721 16.6280023524543 17.384209248249 18.947291353107 20.9323589108809 21.9746762406741 22.3080526753657 22.4568239141546 22.3386236462786 21.9135273337062 21.8577362546471 22.1942176289143 22.1929798612739 22.0473336242714 21.9375070457836 21.9721663471592 21.8646244009766 21.6169660699661 21.4758555731992 21.090349651485 20.900150367888 20.9774752981986
-9999 -9999 -9999 -9999 -9999 -9999 -9999 8.86179511003196 -9999 10.9883720279424 11.0546762872249 12.581546341142 14.9299153151126 17.3298585074008 18.9870630160235 20.3420430781261 21.8866972867494 22.6856966115798 22.3542475728023 22.0969813932181 22.0674879665636 22.1114113912227 22.1000446069753 21.9678373487237 21.7109596318011 21.4048976057309 21.6177222376589 21.9146329349248 22.1576063556256 22.0294960748639 21.9922025292951 21.6602417904929 21.0989210035845 20.9672559343547 21.1908712630236
-9999 -9999 -9999 -9999 -9999 -9999 -9999 -9999 11.402145689976 12.0678363993272 12.3767097878048 14.5197448630325 17.8171785513363 20.6465751708321 22.3820161580155 22.7255518484753 22.4837154439285 21.8847413998817 21.3891892205 21.165224314714 21.1802765561235 21.2546248807457 21.2420431714593 21.1692407986761 20.9367776815442 20.9079808759937 21.2975680329592 21.7347867540143 22.0624129535611 22.1462470052847 22.152027795105 21.7952632321085 21.0981174945603 20.8797546100469 21.1022521212933
-9999 -9999 -9999 -9999 -9999 -9999 -9999 -9999 -9999 13.199181189029 15.8324431433363 20.7013319291788 22.836934544806 23.5208593221469 22.9091656497267 22.0810895537281 21.621258766212 21.2379840202868 21.1139463065003 21.0697412214602 20.9252323611995 20.9725510206081 20.8763594802541 20.7364936718401 20.5795239848882 20.7596659386898 21.1029053250353 21.7810517787197 21.967328944859 21.9559397803356 21.9315857921559 21.5284529430181 21.1248479645171 21.0420618360416 21.0579970684252
-9999 -9999 -9999 -9999 -9999 -9999 -9999 -9999 -9999 14.4824224098464 19.9969889422471 23.790097303583 23.5020980868421 22.2801569333274 21.6872519330898 21.5297002804044 21.2965158753787 21.0934233963414 21.0426817530105 21.1039053828116 20.9944409949354 20.8585600308246 20.6970378807281 20.7085733628176 20.7946118797793 20.9031790225119 21.3472311204538 21.7509522101989 21.853192388305 21.8864955223505 21.6435387138068 21.396887389617 21.3071382071774 21.1998524265217 21.150384643107
-9999 -9999 -9999 -9999 -9999 -9999 -9999 13.3492300810707 14.9617795086035 18.7150129755007 23.4304502689521 23.869412365024 22.4368530319166 21.692726328773 21.6433184924572 21.410024999925 21.1970152827214 21.0772596819252 20.9868136697557 20.9748260747965 20.9383021474941 20.8538041523035 20.8092327698129 20.8217994322802 20.8732690472597 20.9948408541072 21.2947954653054 21.5329951564509 21.3992393456199 21.5399195644038 21.3806836035796 21.2331476031643 21.1741642520656 21.1645373541469 21.1701908055603
-9999 -9999 -9999 -9999 -9999 -9999 15.256173946695 16.5491705243848 20.282342569797 23.4669618519132 24.2291102753919 23.0801732519763 21.8715336951441 21.5879672913908 21.6316293606325 21.4334020427267 21.1530203483252 21.0770621473514 21.0121089933239 21.0135242268882 21.0603029284128 21.0893751561732 21.1088887163337 20.9965743406441 20.9273010341757 21.0200481124451 21.1985025334215 21.3367387220072 21.1950171581293 21.2066733624811 21.254534581158 21.0838646385945 21.0240013119382 21.0946201200609 21.1151016656333
-9999 -9999 -9999 -9999 15.3928348239572 16.8297798949763 18.043451255466 20.3643022993619 23.6796442158063 24.2640654230639 23.1844071084966 22.2852648003975 21.6263527229589 21.5681275485428 21.6120547426335 21.4573956947471 21.1168934527989 21.0430061501439 21.0747599383165 21.0562681304474 21.0859751243164 21.2241899429161 21.4508382365225 21.4556625791007 21.1794139757139 21.0553960652875 21.1333574184794 21.2527964443247 21.1178910637286 21.0856447336965 21.2503182413373 21.1265781445915 21.0322175106858 21.0981288157334 21.1635757208776
-9999 -9999 -9999 16.1759083633247 16.989379203996 19.5784434923597 22.115033597399 24.0686629780224 24.204676093745 22.8477605675734 22.068438533647 21.9210231267126 21.535254272009 21.4236138570478 21.7061457385459 21.4662554585927 21.1488183586162 21.0971930726773 21.0614937017876 20.9477539490666 21.0026576675986 21.1452783594043 21.4198292555912 21.5932223543161 21.5193543765983 21.2897675135347 21.1923449511103 21.2500837252521 21.173348025234 21.2050519550427 21.1717346672772 21.1962871243398 21.0798050881996 20.9736620673484 21.0939041959125
-9999 -9999 17.1500055372606 18.888974107715 20.2174339676957 22.0259682651337 24.1528409185885 24.3308711390984 22.9607476013675 22.0036011383246 21.8546810639713 21.7390041707694 21.5545215232493 21.63978509458 21.9189575193778 21.7014027017843 21.2330601444943 21.1077776805399 21.1200548121507 21.0022169821466 21.0395354436973 21.0986925772499 21.2935373022325 21.4796838067608 21.5317510357021 21.3656304455684 21.2454512901443 21.2395762043274 21.1860319019582 21.1872691016726 21.176146101264 21.141596780494 21.0457738830218 20.9893834807499 21.0642512718812
