NCOLS 35 
NROWS 26 
XLLCORNER -80 
YLLCORNER 33 
CELLSIZE 0.5 
NODATA_value -9999 
-9999.000000000000000 -9999 -9999 -9999 -9999 -9999 -9999 -9999 -9999 -9999 -9999 -9999 -9999 -9999 -9999 -9999 -9999 -9999 -9999 -9999 -9999 -9999 -9999 -9999 -9999 -9999 -9999 -9999 -9999 -9999 -9999 -9999 -9999 -9999 -9999
-9999 -9999 -9999 -9999 -9999 -9999 -9999 -9999 -9999 -9999 -9999 -9999 -9999 -9999 -9999 -9999 -9999 -9999 -9999 -9999 -9999 -9999 -9999 -9999 -9999 -9999 -9999 -9999 -9999 5.12937872811547 -9999 -9999 -9999 -9999 -9999
-9999 -9999 -9999 -9999 -9999 -9999 -9999 -9999 -9999 -9999 -9999 -9999 -9999 -9999 -9999 -9999 -9999 -9999 -9999 -9999 -9999 -9999 -9999 -9999 -9999 -9999 4.9503725081371 5.11293208227073 5.19893626691548 5.17530608025318 -9999 -9999 -9999 -9999 -9999
-9999 -9999 -9999 -9999 -9999 -9999 -9999 -9999 -9999 -9999 -9999 -9999 -9999 -9999 -9999 -9999 -9999 -9999 -9999 -9999 -9999 -9999 -9999 5.61459093077725 5.27073311275508 5.0774357176696 5.03696485451017 5.21577531342108 -9999 -9999 -9999 3.82744324383072 3.44527657556182 3.49016720587789 3.86913359627989
-9999 -9999 -9999 -9999 -9999 -9999 -9999 -9999 -9999 -9999 -9999 -9999 -9999 -9999 -9999 -9999 -9999 -9999 -9999 -9999 6.11910674178171 5.95091263033595 5.84156588687625 5.74530694953645 5.51609243348191 5.33770342186756 5.14077368991964 5.1820729314325 -9999 -9999 4.14435008877355 3.71934412112498 3.55949621266389 3.91955389448465 4.90073774210246
-9999 -9999 -9999 -9999 -9999 -9999 -9999 -9999 -9999 -9999 -9999 -9999 -9999 -9999 -9999 -9999 -9999 -9999 -9999 6.16620621539023 6.24296997270455 6.10503677134411 5.8955176643968 5.847049809977 5.80778686386397 5.6807429323934 5.07913030293226 4.86186893018399 4.86317795386212 4.32023132592861 4.13380818349393 3.95812330895951 3.80698893336644 4.84872422466464 6.27169038899051
-9999 -9999 -9999 -9999 -9999 -9999 -9999 -9999 -9999 -9999 -9999 -9999 -9999 -9999 -9999 -9999 -9999 -9999 -9999 6.37247964949352 6.4624065734492 6.42771263245199 6.35923709972799 6.39212761236472 6.29164714648426 6.15870424185634 5.907294292882 5.65847974956163 4.94512525436997 4.50182785923243 4.57652203596966 4.6200714871627 5.23823669356789 6.33190105905047 6.38436490895518
-9999 -9999 -9999 -9999 -9999 -9999 -9999 -9999 -9999 -9999 -9999 -9999 -9999 -9999 -9999 -9999 -9999 -9999 -9999 6.54324225783504 6.55757448653858 6.48312959960506 6.48999830380623 6.54832022975827 6.47947453549779 6.52488332163377 6.48545211424759 6.12107004243381 5.31187758910688 5.47073376649217 6.09986290702483 6.22435932084987 6.85487975448403 7.61804906033573 7.52485037788311
-9999 -9999 -9999 -9999 -9999 -9999 -9999 -9999 -9999 -9999 -9999 -9999 -9999 -9999 -9999 -9999 -9999 -9999 -9999 7.40857718420575 6.86381255770987 6.47817824958819 6.61960079721543 6.9385900028502 7.14446647245169 7.08045855266967 6.84813528312623 6.54266707711767 6.74971130685733 8.12739232678397 9.76463688091469 10.5487710965915 9.75861464721356 8.45551155112042 8.35480708930752
-9999 -9999 -9999 -9999 -9999 -9999 -9999 -9999 -9999 -9999 -9999 -9999 -9999 -9999 -9999 -9999 -9999 7.3115545435839 7.46928110912145 7.61967185442784 7.6508890198329 6.88263923549595 6.94938189146302 7.32284763870299 7.40993435128542 7.35192241182781 7.07600185588327 7.5418889848549 10.0238334248244 12.0574195549978 13.1321449494547 14.0385761754714 14.0817588572301 11.6863625653739 9.80818822905779
-9999 -9999 -9999 -9999 -9999 -9999 -9999 -9999 -9999 -9999 -9999 -9999 -9999 -9999 7.69186075147389 7.35969769409639 7.34350284213322 7.45069790144219 7.53111424155411 7.48356948192494 7.46647967017969 7.27078292228688 7.51827094890731 7.72852171193918 7.72199513935833 7.91962705447903 8.62816406470219 10.6420345374163 12.6560527378528 13.9205771909958 14.3888967926788 14.3821091634534 14.2687721256319 13.8778561454916 14.8424484218006
-9999 -9999 -9999 -9999 -9999 -9999 -9999 -9999 -9999 -9999 -9999 -9999 8.27242757386592 7.81130432339465 7.55835769419838 7.62950463742839 8.19631838579086 9.00220227940334 9.35869906207836 9.24869311749712 8.95893348280859 8.92693087158082 9.55376004516282 10.7119989138663 11.0891080395891 11.722921166425 13.2200150927528 14.4899725132457 14.9469593212447 15.4145274673463 14.8217717917206 14.2651647428389 14.8410682045436 16.0877209187485 17.2622424681961
-9999 -9999 -9999 -9999 -9999 -9999 -9999 -9999 -9999 -9999 -9999 -9999 8.34613665749367 7.95245462069793 8.19842447234006 9.30264350916034 11.0426544113002 12.4716229306299 13.1248021719351 13.3805337247168 12.4462546781535 12.1054163869306 12.6108637010825 13.632338033897 14.4228739576386 14.6162241564157 14.9374139503245 15.4983450286113 15.4799886112063 14.6354574882443 14.3156269079896 13.8826066667064 14.7363166712537 16.8098936174515 18.1773042754549
-9999 -9999 -9999 -9999 -9999 -9999 -9999 -9999 -9999 9.71946984204135 9.86714533772624 9.04426997306699 8.49042246495629 8.68362639446038 9.7586539120193 11.7261264853086 13.2552195174344 14.0912914755718 14.766902195109 15.633964691393 15.6356561340215 15.2038567005118 14.997043561272 14.0755850787258 14.230144281103 14.4083294452792 15.8905111078551 17.2889620767294 17.9392026809672 17.9233149811553 18.1253229913582 17.6245230689862 17.3662982161733 17.8847031963112 18.9372727337133
-9999 -9999 -9999 -9999 -9999 -9999 -9999 -9999 -9999 -9999 9.43030625716277 8.99730142843785 9.19670008145355 10.3345893108679 12.13064343897 13.1577137609362 13.787308958145 14.7508976171597 16.0187088337647 17.4245722129069 17.5283997248239 17.4499994955587 17.2939526909081 16.4262454376544 15.2411992531995 14.5781462368074 16.7575626197294 19.4431386827217 21.2382305870918 21.7314483498537 21.7231568423175 21.611741875943 21.1730819152073 20.627012733622 20.39673621846
-9999 -9999 -9999 -9999 -9999 -9999 -9999 9.96712216567341 11.4215763886406 -9999 9.61703603004855 9.92442325989231 11.1372324552574 12.5277375208063 13.6605100159072 14.6671815040884 14.9521260143716 16.1904488866802 18.5639474914909 20.0961156850685 21.1756177762042 21.6831955275369 21.4309793200554 20.4701979919463 19.2876232037377 18.0730663964476 18.5916238273659 20.9962860763527 22.397868779705 22.4706775709533 22.1871978261374 21.7137587767168 21.2455457390688 20.8851533048021 20.1503687194666
-9999 -9999 -9999 -9999 -9999 -9999 -9999 11.7999568075052 11.8659008942613 10.7011038335645 10.2626613303246 11.5564644664895 13.3886280833796 15.1311584017751 17.1224311356032 18.5834348961485 19.2207313989454 20.0846780845718 21.4898943403859 22.9687533371765 23.4019921179241 23.0866843643498 22.7896407047932 22.7254274527235 22.5174137778347 21.8377256549368 21.5504514246917 22.6484028567412 22.9909931178517 22.5508765512385 22.1602545288153 21.7802309885191 21.294967463171 20.7625540168225 19.9623477881028
-9999 -9999 -9999 -9999 -9999 -9999 -9999 13.6959683574313 -9999 10.991086158781 11.420858014748 13.4783147166919 15.4549866323558 17.7540580403743 19.7604046135409 21.7110927917713 22.5810401511603 22.9457199462595 23.0245333822449 22.7031541283563 21.802824248388 20.885423865514 20.7380669337072 21.1268853152806 21.7695345488184 22.6263349560965 22.8860278183801 22.7852221311653 22.3783965004231 22.3168250108049 21.7201693211175 21.3426329244575 21.0620372211213 20.6547987300808 19.9360928936995
-9999 -9999 -9999 -9999 -9999 -9999 -9999 -9999 13.3496959077915 12.1194609949978 13.0508698440822 15.3276252933625 18.6482167573886 21.6279523212667 23.1920940755633 23.3922427495355 22.7000138543835 21.9661806564689 21.5462517845994 21.0747743032381 20.0566851363992 19.8583220049824 19.8397001040722 19.9444436838226 20.3548143014805 21.192998440747 21.8142608521166 21.8170294842107 21.8360966152686 22.0335254228004 21.3521209902291 20.8113252609094 20.6545528702857 20.064504093457 19.7096435995553
-9999 -9999 -9999 -9999 -9999 -9999 -9999 -9999 -9999 14.6651500688987 16.7311036338473 20.1451862325886 23.2824305617256 23.99968765369 23.1416692125898 21.8575438004997 20.9575171717585 20.5857307172656 20.559865240438 19.8967974695607 19.5655404605959 19.676261266879 19.8191342903891 19.9551860147761 20.3505799084389 20.8684415907472 20.9393808147263 21.1220262545241 21.2323616193573 21.417000822565 20.7327797108462 20.5461988272911 20.2198945810752 19.781966512738 19.6132625168014
-9999 -9999 -9999 -9999 -9999 -9999 -9999 -9999 -9999 16.8800193757842 20.1880489254014 23.5744283148084 23.7456499742857 22.5288274262783 21.04427927665 20.4576248421157 20.0305675873616 19.8885933221767 19.6060717534933 19.0086306015634 19.0865335221257 19.2149279481055 19.5833236687588 19.8837680626749 20.2603149333017 20.7590006649109 20.8422204731302 20.913637790983 21.0657717394904 20.9334307037618 20.4595430971259 20.3108644566728 20.0038460999076 19.7149699095037 19.4858988912943
-9999 -9999 -9999 -9999 -9999 -9999 -9999 19.0244512149171 19.4661578108254 20.5309371099963 23.5518113913568 23.810825723104 22.4581075009301 21.0543976771621 20.324635423577 20.0248746547897 19.880834753938 19.7241263065001 19.2484508102678 18.4297499488589 18.6754549364344 19.2368442884932 19.4411644670408 19.4778580631971 19.6806602625141 19.9722396556889 20.1161074034935 20.4366694891585 20.7499954637201 20.693093433863 20.3024904916924 20.0149920877965 19.7787652517564 19.4662649636643 19.3125646662754
-9999 -9999 -9999 -9999 -9999 -9999 19.1474428684728 19.9207501775218 21.8493055614589 23.8006658755853 24.0501541156322 22.8748226483538 21.6055348228999 20.6198541508546 20.1072689858093 19.6855117019872 19.6272087841702 19.7380475020615 19.890761328112 19.4873448437304 19.6082742251954 19.8438997782916 19.6405997255263 19.4629714855399 19.7095745553381 19.9183108188129 20.0754965404309 20.3360715681999 20.4668124280361 20.3217117045472 19.9434445152819 19.7669871847829 19.5962206400698 19.3090574490134 19.2783791272112
-9999 -9999 -9999 -9999 19.2261143628913 19.5232805973917 20.1890655628593 21.6069208736184 23.7216883830394 24.2100754491488 23.1077880741266 22.0965725727924 21.4184482038308 20.5822839017009 20.0219269701848 19.7976446510809 19.5795673541373 19.7210916210431 20.0888668587333 20.1861835422398 20.1858068830377 20.0071167116062 19.6245688620049 19.540562983695 19.6818712565009 19.7053071710768 19.9622444661397 20.1183111475558 20.0148397889782 19.6348194308704 19.4440579868317 19.4944284750776 19.462407062409 19.3593205458038 19.3053052019524
-9999 -9999 -9999 19.4597785219441 19.5121213920236 20.5590248027027 22.5314972933392 23.9717342581495 24.277426366724 23.2900487427818 22.4353365645797 21.5037718687493 21.0763076815048 20.5625973984194 20.0709396562207 19.9663916593619 19.9160334027736 20.0480562338226 20.125007046432 20.050712614895 19.9642649188514 19.8292967779266 19.7362102969148 19.703250329892 19.7431052615756 19.8002714047038 19.8696875980018 19.8715672552939 19.6286572420484 19.3421982412229 19.3318060044438 19.4089379229835 19.4832123451101 19.4559314834001 19.3909059381267
-9999 -9999 19.5376565138143 20.11152420055 21.0209488678478 22.307884272755 23.9507300542209 24.4005689138988 23.5381673327297 22.5515181685176 22.1785741932959 21.3785147763409 20.8671431168416 20.5023565088374 20.1421469882699 20.1912695573595 19.9341464877186 19.8449620027143 19.8717919344117 19.7693648233389 19.8249782806486 19.8843277260451 19.9571611609026 19.8333916495186 19.6982624816159 19.7220443049708 19.8383774012335 19.8951005836643 19.7428530547891 19.7326233555938 19.8876413201466 19.9507835816434 19.8720207734908 19.8018265624814 19.779235051142
