NCOLS 70 
NROWS 52 
XLLCORNER -80 
YLLCORNER 33 
CELLSIZE 0.25 
NODATA_value -9999 
-9999.000000000000000 -9999 -9999 -9999 -9999 -9999 -9999 -9999 -9999 -9999 -9999 -9999 -9999 -9999 -9999 -9999 -9999 -9999 -9999 -9999 -9999 -9999 -9999 -9999 -9999 -9999 -9999 -9999 -9999 -9999 -9999 -9999 -9999 -9999 -9999 -9999 -9999 -9999 -9999 -9999 -9999 -9999 -9999 -9999 -9999 -9999 -9999 -9999 -9999 -9999 -9999 -9999 -9999 -9999 -9999 -9999 -9999 -9999 -9999 -9999 -9999 -9999 -9999 -9999 -9999 -9999 -9999 -9999 -9999 -9999
-9999 -9999 -9999 -9999 -9999 -9999 -9999 -9999 -9999 -9999 -9999 -9999 -9999 -9999 -9999 -9999 -9999 -9999 -9999 -9999 -9999 -9999 -9999 -9999 -9999 -9999 -9999 -9999 -9999 -9999 -9999 -9999 -9999 -9999 -9999 -9999 -9999 -9999 -9999 -9999 -9999 -9999 -9999 -9999 -9999 -9999 -9999 -9999 -9999 -9999 -9999 -9999 -9999 -9999 -9999 -9999 -9999 -9999 -9999 -9999 -9999 -9999 -9999 -9999 -9999 -9999 -9999 -9999 -9999 -9999
-9999 -9999 -9999 -9999 -9999 -9999 -9999 -9999 -9999 -9999 -9999 -9999 -9999 -9999 -9999 -9999 -9999 -9999 -9999 -9999 -9999 -9999 -9999 -9999 -9999 -9999 -9999 -9999 -9999 -9999 -9999 -9999 -9999 -9999 -9999 -9999 -9999 -9999 -9999 -9999 -9999 -9999 -9999 -9999 -9999 -9999 -9999 -9999 -9999 -9999 -9999 -9999 -9999 -9999 -9999 -9999 -9999 -9999 -9999 9.67715454101562 -9999 -9999 -9999 -9999 -9999 -9999 -9999 -9999 -9999 -9999
-9999 -9999 -9999 -9999 -9999 -9999 -9999 -9999 -9999 -9999 -9999 -9999 -9999 -9999 -9999 -9999 -9999 -9999 -9999 -9999 -9999 -9999 -9999 -9999 -9999 -9999 -9999 -9999 -9999 -9999 -9999 -9999 -9999 -9999 -9999 -9999 -9999 -9999 -9999 -9999 -9999 -9999 -9999 -9999 -9999 -9999 -9999 -9999 -9999 -9999 -9999 -9999 -9999 -9999 -9999 9.14506244659424 9.11126518249512 9.22152900695801 9.26822185516357 9.55229091644287 -9999 -9999 -9999 -9999 -9999 -9999 -9999 -9999 -9999 -9999
-9999 -9999 -9999 -9999 -9999 -9999 -9999 -9999 -9999 -9999 -9999 -9999 -9999 -9999 -9999 -9999 -9999 -9999 -9999 -9999 -9999 -9999 -9999 -9999 -9999 -9999 -9999 -9999 -9999 -9999 -9999 -9999 -9999 -9999 -9999 -9999 -9999 -9999 -9999 -9999 -9999 -9999 -9999 -9999 -9999 -9999 -9999 -9999 -9999 -9999 -9999 -9999 9.59738540649414 9.57482528686523 9.64968204498291 9.6265811920166 9.46277523040771 9.40325832366943 -9999 -9999 -9999 -9999 -9999 -9999 -9999 -9999 -9999 -9999 -9999 -9999
-9999 -9999 -9999 -9999 -9999 -9999 -9999 -9999 -9999 -9999 -9999 -9999 -9999 -9999 -9999 -9999 -9999 -9999 -9999 -9999 -9999 -9999 -9999 -9999 -9999 -9999 -9999 -9999 -9999 -9999 -9999 -9999 -9999 -9999 -9999 -9999 -9999 -9999 -9999 -9999 -9999 -9999 -9999 -9999 -9999 -9999 -9999 -9999 -9999 -9999 9.83989200592041 9.54269409179688 9.66735458374023 10.2330589294434 10.6853799819946 10.574969291687 -9999 -9999 -9999 -9999 -9999 -9999 -9999 -9999 -9999 -9999 -9999 11.7110115687052 11.3719358444214 10.9687461853027
-9999 -9999 -9999 -9999 -9999 -9999 -9999 -9999 -9999 -9999 -9999 -9999 -9999 -9999 -9999 -9999 -9999 -9999 -9999 -9999 -9999 -9999 -9999 -9999 -9999 -9999 -9999 -9999 -9999 -9999 -9999 -9999 -9999 -9999 -9999 -9999 -9999 -9999 -9999 -9999 -9999 -9999 -9999 -9999 12.1422309875488 -9999 -9999 11.1137425899506 10.5694513320923 10.2718048095703 9.9328670501709 9.78267478942871 10.0246028900146 10.7129878997803 11.2070503234863 -9999 -9999 -9999 -9999 -9999 -9999 -9999 -9999 12.2890014648438 12.4892492294312 12.3146772384644 11.9480438232422 11.7067956924438 11.4781951904297 11.3340063095093
-9999 -9999 -9999 -9999 -9999 -9999 -9999 -9999 -9999 -9999 -9999 -9999 -9999 -9999 -9999 -9999 -9999 -9999 -9999 -9999 -9999 -9999 -9999 -9999 -9999 -9999 -9999 -9999 -9999 -9999 -9999 -9999 -9999 -9999 -9999 -9999 -9999 -9999 -9999 -9999 -9999 -9999 -9999 -9999 12.2214889526367 11.8538103103638 11.5193386077881 11.3013525009155 11.0648279190063 10.8578596115112 10.5717630386353 10.2937507629395 10.3679351806641 10.8453807830811 10.9487898349762 -9999 -9999 -9999 -9999 -9999 -9999 -9999 12.6690979003906 12.6613368988037 12.6292667388916 12.4739217758179 12.2348194122314 12.0081996917725 11.7874345779419 11.7084465026855
-9999 -9999 -9999 -9999 -9999 -9999 -9999 -9999 -9999 -9999 -9999 -9999 -9999 -9999 -9999 -9999 -9999 -9999 -9999 -9999 -9999 -9999 -9999 -9999 -9999 -9999 -9999 -9999 -9999 -9999 -9999 -9999 -9999 -9999 -9999 -9999 -9999 -9999 -9999 -9999 10.8940696716309 11.0413770675659 11.5862096786499 11.748251914978 11.8295574188232 11.7671365737915 11.6695261001587 11.6576080322266 11.5890493392944 11.3556222915649 10.9251737594604 10.4812822341919 10.5001277923584 11.0297403335571 11.1310375213623 -9999 -9999 -9999 -9999 -9999 12.5034322738647 12.6133985519409 12.5059938430786 12.4579000473022 12.4749708175659 12.4089975357056 12.2928485870361 12.1853265762329 12.1149616241455 12.1731271743774
-9999 -9999 -9999 -9999 -9999 -9999 -9999 -9999 -9999 -9999 -9999 -9999 -9999 -9999 -9999 -9999 -9999 -9999 -9999 -9999 -9999 -9999 -9999 -9999 -9999 -9999 -9999 -9999 -9999 -9999 -9999 -9999 -9999 -9999 -9999 -9999 -9999 -9999 -9999 10.8340263366699 10.8575067520142 10.9906759262085 11.2759485244751 11.5647783279419 11.7921991348267 11.8614225387573 11.7652597427368 11.6608848571777 11.5534057617188 11.3480768203735 10.9568281173706 10.5532627105713 10.6443738937378 11.2430562973022 11.4721870422363 11.0648231506348 -9999 -9999 -9999 12.3623080253601 12.4905843734741 12.4063138961792 12.2911901473999 12.2854642868042 12.3161506652832 12.2909259796143 12.2700567245483 12.3137607574463 12.4146175384521 12.6099824905396
-9999 -9999 -9999 -9999 -9999 -9999 -9999 -9999 -9999 -9999 -9999 -9999 -9999 -9999 -9999 -9999 -9999 -9999 -9999 -9999 -9999 -9999 -9999 -9999 -9999 -9999 -9999 -9999 -9999 -9999 -9999 -9999 -9999 -9999 -9999 -9999 -9999 -9999 11.1506397247314 10.861400604248 11.0773935317993 11.5366926193237 12.0025901794434 12.346752166748 12.4841194152832 12.3965501785278 12.1422634124756 11.9325141906738 11.8154211044312 11.5230417251587 11.0230102539062 10.7114238739014 10.9120998382568 11.5480880737305 11.9863796234131 11.7937917709351 11.693736076355 12.0118556022644 12.2239122390747 12.3804531097412 12.3542823791504 12.3043279647827 12.2911167144775 12.3478994369507 12.3908185958862 12.3544111251831 12.340106010437 12.4660453796387 12.6965818405151 13.0564575195312
-9999 -9999 -9999 -9999 -9999 -9999 -9999 -9999 -9999 -9999 -9999 -9999 -9999 -9999 -9999 -9999 -9999 -9999 -9999 -9999 -9999 -9999 -9999 -9999 -9999 -9999 -9999 -9999 -9999 -9999 -9999 -9999 -9999 -9999 -9999 -9999 -9999 11.454381942749 11.3514947891235 11.2518949508667 11.464376449585 11.8115386962891 12.1397151947021 12.427490234375 12.5661392211914 12.5510520935059 12.4722213745117 12.3952045440674 12.2865476608276 11.9070091247559 11.3426208496094 11.0914325714111 11.3268356323242 11.8577156066895 12.2820644378662 12.4135837554932 12.372314453125 12.4977436065674 12.4843072891235 12.4097938537598 12.3447732925415 12.3466167449951 12.4077281951904 12.4948530197144 12.5400524139404 12.5163946151733 12.5710039138794 12.8113164901733 13.1570320129395 13.6947603225708
-9999 -9999 -9999 -9999 -9999 -9999 -9999 -9999 -9999 -9999 -9999 -9999 -9999 -9999 -9999 -9999 -9999 -9999 -9999 -9999 -9999 -9999 -9999 -9999 -9999 -9999 -9999 -9999 -9999 -9999 -9999 -9999 -9999 -9999 -9999 -9999 -9999 11.6377439498901 11.529107093811 11.4365816116333 11.5930376052856 11.8363971710205 12.0805015563965 12.3360462188721 12.5205183029175 12.6095552444458 12.5790205001831 12.479531288147 12.3874626159668 12.1643648147583 11.7815647125244 11.6186695098877 11.8132419586182 12.1397590637207 12.4082794189453 12.5449676513672 12.5569620132446 12.5702209472656 12.5200185775757 12.4760427474976 12.4357872009277 12.450026512146 12.5250835418701 12.6068754196167 12.7205648422241 12.98717212677 13.4480352401733 13.8873052597046 14.1928367614746 14.6498756408691
-9999 -9999 -9999 -9999 -9999 -9999 -9999 -9999 -9999 -9999 -9999 -9999 -9999 -9999 -9999 -9999 -9999 -9999 -9999 -9999 -9999 -9999 -9999 -9999 -9999 -9999 -9999 -9999 -9999 -9999 -9999 -9999 -9999 -9999 -9999 -9999 -9999 11.4047613143921 11.4193153381348 11.4231452941895 11.6271772384644 11.8689041137695 12.0844697952271 12.3176689147949 12.5083913803101 12.6021661758423 12.5221614837646 12.3416700363159 12.177809715271 12.0220308303833 11.8340349197388 11.7518682479858 11.8300971984863 11.9832077026367 12.1625413894653 12.3740568161011 12.5879640579224 12.7267723083496 12.7419767379761 12.6563873291016 12.6095514297485 12.7605686187744 13.1369104385376 13.3837995529175 13.7736911773682 14.4725360870361 15.2502269744873 15.640248298645 15.6785364151001 15.6284370422363
-9999 -9999 -9999 -9999 -9999 -9999 -9999 -9999 -9999 -9999 -9999 -9999 -9999 -9999 -9999 -9999 -9999 -9999 -9999 -9999 -9999 -9999 -9999 -9999 -9999 -9999 -9999 -9999 -9999 -9999 -9999 -9999 -9999 -9999 -9999 -9999 11.0656223297119 11.4944429397583 11.6493854522705 11.558819770813 11.7132015228271 11.9554433822632 12.1793060302734 12.4399242401123 12.6597776412964 12.7627067565918 12.6768112182617 12.4744920730591 12.2136335372925 11.9443454742432 11.7322587966919 11.5850095748901 11.5349006652832 11.5998611450195 11.7192268371582 11.9963960647583 12.4666709899902 12.7545261383057 12.8268766403198 12.8527183532715 13.0664539337158 13.6304693222046 14.2259082794189 14.5035562515259 15.0432281494141 15.7208070755005 16.2623901367188 16.4592609405518 16.356803894043 16.0469093322754
-9999 -9999 -9999 -9999 -9999 -9999 -9999 -9999 -9999 -9999 -9999 -9999 -9999 -9999 -9999 -9999 -9999 -9999 -9999 -9999 -9999 -9999 -9999 -9999 -9999 -9999 -9999 -9999 -9999 -9999 -9999 -9999 -9999 -9999 -9999 -9999 -9999 12.1044015884399 11.9399557113647 11.7035655975342 11.7485904693604 11.9624147415161 12.1910457611084 12.493932723999 12.765869140625 12.9106721878052 12.8663444519043 12.736400604248 12.5236282348633 12.2561988830566 12.0465097427368 11.8788614273071 11.7996664047241 11.7997617721558 11.7938270568848 12.0002765655518 12.5395555496216 12.9319705963135 12.9617385864258 13.0791072845459 13.454532623291 14.0755462646484 14.4320993423462 14.8173408508301 15.5911979675293 16.3726425170898 16.8926448822021 17.177417755127 17.0267848968506 16.5749378204346
-9999 -9999 -9999 -9999 -9999 -9999 -9999 -9999 -9999 -9999 -9999 -9999 -9999 -9999 -9999 -9999 -9999 -9999 -9999 -9999 -9999 -9999 -9999 -9999 -9999 -9999 -9999 -9999 -9999 -9999 -9999 -9999 -9999 -9999 -9999 -9999 -9999 -9999 11.7502756118774 -9999 11.7920837402344 11.9565572738647 12.1103830337524 12.354962348938 12.6140832901001 12.8041687011719 12.8911209106445 12.9366331100464 12.8734521865845 12.7336273193359 12.6605453491211 12.5813932418823 12.4923763275146 12.4019546508789 12.325982093811 12.7068367004395 13.5210638046265 14.233868598938 14.3219890594482 14.2317056655884 14.051176071167 14.3975305557251 14.8469762802124 15.8352661132812 17.1111927032471 17.9597873687744 18.3032417297363 18.4399299621582 17.9930381774902 17.1860084533691
-9999 -9999 -9999 -9999 -9999 -9999 -9999 -9999 -9999 -9999 -9999 -9999 -9999 -9999 -9999 -9999 -9999 -9999 -9999 -9999 -9999 -9999 -9999 -9999 -9999 -9999 -9999 -9999 -9999 -9999 -9999 -9999 -9999 -9999 -9999 -9999 -9999 -9999 -9999 -9999 11.9670782089233 12.0568161010742 12.086519241333 12.2238349914551 12.4591970443726 12.7414474487305 13.0005769729614 13.1954193115234 13.2154178619385 13.1162023544312 13.0920305252075 13.01833152771 12.8992013931274 12.9115018844604 13.1071796417236 14.0458660125732 15.5692625045776 17.0458126068115 17.77317237854 17.9046936035156 17.2081146240234 17.0378379821777 17.5635643005371 18.9468612670898 19.9845561981201 20.2610187530518 20.2020626068115 19.7229614257812 19.236837387085 18.1782531738281
-9999 -9999 -9999 -9999 -9999 -9999 -9999 -9999 -9999 -9999 -9999 -9999 -9999 -9999 -9999 -9999 -9999 -9999 -9999 -9999 -9999 -9999 -9999 -9999 -9999 -9999 -9999 -9999 -9999 -9999 -9999 -9999 -9999 -9999 13.5762822628021 12.6211624145508 12.1447849273682 -9999 11.4693050384521 11.5299758911133 11.9360399246216 12.1979064941406 12.2084150314331 12.272180557251 12.5690240859985 13.0029258728027 13.3281278610229 13.5493822097778 13.6222848892212 13.6045837402344 13.6498031616211 13.6942300796509 13.7550430297852 14.0565614700317 14.7003717422485 15.9539270401001 17.562162399292 18.8486576080322 19.5966835021973 20.0618782043457 20.3285369873047 20.3319206237793 20.3941440582275 21.0741081237793 21.4518260955811 21.2101135253906 20.9420776367188 20.192720413208 19.6992034912109 18.725456237793
-9999 -9999 -9999 -9999 -9999 -9999 -9999 -9999 -9999 -9999 -9999 -9999 -9999 -9999 -9999 -9999 -9999 -9999 -9999 -9999 -9999 -9999 -9999 -9999 -9999 -9999 -9999 12.7147331237793 12.7147331237793 12.6289653778076 12.6628770828247 13.2807292938232 14.0354223251343 14.0684442520142 13.9420518875122 13.6734704971313 13.1115455627441 12.4911813735962 12.0131330490112 11.9085626602173 12.2408933639526 12.4804697036743 12.4540205001831 12.5137491226196 12.9135084152222 13.3476114273071 13.6200761795044 13.8658094406128 14.0616579055786 14.2125930786133 14.4587383270264 14.849681854248 15.3181886672974 16.0787754058838 17.1742935180664 18.2373065948486 19.1182861328125 19.6115951538086 20.0350208282471 20.4203033447266 21.1922416687012 21.5757579803467 21.6013965606689 22.0529403686523 22.1504554748535 21.6081619262695 21.0261993408203 20.2282676696777 19.7593402862549 18.8788757324219
-9999 -9999 -9999 -9999 -9999 -9999 -9999 -9999 -9999 -9999 -9999 -9999 -9999 -9999 -9999 -9999 -9999 -9999 -9999 -9999 -9999 -9999 -9999 -9999 -9999 -9999 -9999 -9999 -9999 -9999 13.5341053009033 14.1424417495728 14.8787851333618 15.0527076721191 14.9858026504517 14.6686973571777 14.0584383010864 13.3992338180542 12.8655309677124 12.6650323867798 12.7990865707397 12.8767385482788 12.7890090942383 12.883397102356 13.300989151001 13.6634407043457 13.8669662475586 14.1218881607056 14.4567470550537 14.8372001647949 15.3699655532837 16.1282577514648 17.06032371521 18.183780670166 19.1790828704834 19.7287540435791 19.9878940582275 20.069278717041 20.2900218963623 20.6460781097412 21.4334888458252 21.8088607788086 21.961353302002 22.3304290771484 22.4314804077148 21.9495811462402 21.2283954620361 20.3962249755859 19.808874130249 18.7366485595703
-9999 -9999 -9999 -9999 -9999 -9999 -9999 -9999 -9999 -9999 -9999 -9999 -9999 -9999 -9999 -9999 -9999 -9999 -9999 -9999 -9999 -9999 -9999 -9999 -9999 14.5232801437378 14.5249328613281 14.6125869750977 14.788770198822 14.6719064712524 14.9546146392822 15.199068069458 15.2705612182617 15.2494459152222 15.1268281936646 14.8481845855713 14.4520664215088 14.0068407058716 13.599328994751 13.3921928405762 13.363862991333 13.3436765670776 13.2523069381714 13.3874607086182 13.7744140625 14.1374082565308 14.4440612792969 14.8565368652344 15.4085521697998 16.1095695495605 17.0289287567139 18.115592956543 19.1931743621826 19.978364944458 20.4064636230469 20.5858192443848 20.6951694488525 20.6840476989746 20.7624778747559 20.9641208648682 21.4012393951416 21.5132122039795 21.7393321990967 22.1185207366943 22.4273853302002 22.3313732147217 21.9407405853271 21.1138782501221 20.2973442077637 19.1813278198242
-9999 -9999 -9999 -9999 -9999 -9999 -9999 -9999 -9999 -9999 -9999 -9999 -9999 -9999 -9999 -9999 -9999 -9999 -9999 -9999 -9999 -9999 -9999 -9999 14.5496683120728 14.5382165908813 14.4819555282593 14.5546264648438 14.8011789321899 15.127368927002 15.4039258956909 15.6047344207764 15.6905078887939 15.6932411193848 15.5969400405884 15.2888336181641 14.8321475982666 14.4275283813477 14.2086067199707 14.1659307479858 14.0731325149536 14.0185070037842 14.1984825134277 14.6285104751587 15.110613822937 15.5004243850708 15.9402418136597 16.6178588867188 17.4139938354492 18.2533130645752 19.0927448272705 19.8572406768799 20.3638401031494 20.5609455108643 20.6414966583252 20.7748107910156 20.9521217346191 21.009765625 21.0606899261475 21.2476806640625 21.3983707427979 21.4837970733643 21.8452644348145 22.2547969818115 22.6775970458984 22.830057144165 22.8190002441406 22.5842094421387 22.0486278533936 21.4155216217041
-9999 -9999 -9999 -9999 -9999 -9999 -9999 -9999 -9999 -9999 -9999 -9999 -9999 -9999 -9999 -9999 -9999 -9999 -9999 -9999 -9999 -9999 -9999 -9999 14.9067144393921 15.0071640014648 15.0843200683594 15.210865020752 15.4447002410889 15.7443780899048 16.0312213897705 16.3727970123291 16.7355117797852 16.9987030029297 17.0890331268311 16.8663673400879 16.2550849914551 15.4036140441895 14.9263534545898 15.1035985946655 15.2878198623657 15.4569206237793 15.9967994689941 16.650110244751 17.1002044677734 17.3762359619141 17.8187198638916 18.476390838623 19.0912246704102 19.5595932006836 19.8915176391602 20.1548767089844 20.3893413543701 20.5463619232178 20.6847324371338 20.8605117797852 21.0037517547607 21.104923248291 21.2753753662109 21.5110893249512 21.6722774505615 22.0078163146973 22.5489082336426 22.9763641357422 23.3679237365723 23.7312660217285 23.9980239868164 24.2117252349854 24.1432914733887 23.9534568786621
-9999 -9999 -9999 -9999 -9999 -9999 -9999 -9999 -9999 -9999 -9999 -9999 -9999 -9999 -9999 -9999 -9999 -9999 -9999 -9999 -9999 -9999 -9999 14.8345336914062 14.9063348770142 15.1243486404419 15.3373394012451 15.6077928543091 15.9396991729736 16.2747478485107 16.6638164520264 17.2571601867676 17.8637847900391 18.2827949523926 18.4930820465088 18.4571552276611 18.1119270324707 17.193531036377 16.291202545166 16.2821712493896 16.6251792907715 17.0054244995117 17.5515918731689 18.0089454650879 18.2591552734375 18.4644470214844 18.8251800537109 19.1551361083984 19.3300743103027 19.4682750701904 19.6439228057861 19.8388557434082 20.0329093933105 20.1745891571045 20.3068103790283 20.450216293335 20.5894527435303 20.7854518890381 21.0075607299805 21.2224864959717 21.4203014373779 21.807258605957 22.2405796051025 22.6080894470215 23.0408306121826 23.5915203094482 24.034553527832 24.410062789917 24.5689010620117 24.5206298828125
-9999 -9999 -9999 -9999 -9999 -9999 -9999 -9999 -9999 -9999 -9999 -9999 -9999 -9999 -9999 -9999 -9999 -9999 -9999 -9999 -9999 -9999 -9999 14.6226587295532 14.9024267196655 15.1319894790649 15.3784208297729 15.7768440246582 16.1821632385254 16.5566730499268 17.1854381561279 18.0621967315674 18.7272911071777 19.0471458435059 19.1764793395996 19.1650009155273 19.059440612793 18.5861644744873 17.8339424133301 17.5176391601562 17.5397815704346 17.7346591949463 18.0743045806885 18.3773403167725 18.609977722168 18.8056755065918 18.9601993560791 19.0292205810547 19.0607833862305 19.1368942260742 19.2317180633545 19.3334007263184 19.4517765045166 19.5208911895752 19.5862236022949 19.6775684356689 19.7772369384766 19.952428817749 20.2030429840088 20.5162487030029 20.7618007659912 20.9463214874268 21.2075481414795 21.5382881164551 21.9511585235596 22.4318580627441 22.8317489624023 23.2731971740723 23.5936012268066 23.7020397186279
-9999 -9999 -9999 -9999 -9999 -9999 -9999 -9999 -9999 -9999 -9999 -9999 -9999 -9999 -9999 -9999 -9999 -9999 -9999 -9999 -9999 -9999 14.539493560791 14.8098878860474 15.0866632461548 15.2544860839844 15.4884920120239 15.8629426956177 16.2804145812988 16.9676399230957 18.0305976867676 18.9450054168701 19.3304786682129 19.3711776733398 19.354211807251 19.3578853607178 19.3535194396973 19.1028537750244 18.6035900115967 18.2934589385986 18.0920505523682 17.9349155426025 17.9955024719238 18.2796440124512 18.6512603759766 18.9292736053467 19.0425090789795 19.0267715454102 18.9610252380371 18.9440116882324 18.9887561798096 19.0188026428223 19.0480690002441 19.1166305541992 19.2120723724365 19.3436050415039 19.5579357147217 19.8557319641113 20.2324886322021 20.6557464599609 20.9418964385986 21.058385848999 21.2142772674561 21.4735050201416 21.7383995056152 21.9790382385254 22.2784748077393 22.6877918243408 23.0502281188965 23.2887268066406
-9999 -9999 -9999 -9999 -9999 -9999 -9999 -9999 -9999 -9999 -9999 -9999 -9999 -9999 13.6363068421682 -9999 -9999 -9999 -9999 13.7922677993774 -9999 14.3451280593872 14.7357769012451 15.1670923233032 15.3589906692505 15.4460430145264 15.6259050369263 16.0260562896729 16.8519802093506 18.0297565460205 19.0269889831543 19.5219669342041 19.6288146972656 19.5324287414551 19.3965110778809 19.3544216156006 19.3926315307617 19.2419128417969 18.8337268829346 18.5360679626465 18.3032302856445 18.0817813873291 18.1564159393311 18.560863494873 19.0461044311523 19.396312713623 19.5865459442139 19.6465167999268 19.5933570861816 19.5070343017578 19.5298023223877 19.5549259185791 19.5254173278809 19.647518157959 19.9073867797852 20.198091506958 20.5661869049072 20.9696636199951 21.3221569061279 21.6138019561768 21.8235626220703 21.9461097717285 22.0641555786133 22.2376308441162 22.4483509063721 22.6855392456055 22.961353302002 23.2438659667969 23.5143852233887 23.720100402832
-9999 -9999 -9999 -9999 -9999 -9999 -9999 -9999 -9999 -9999 -9999 -9999 -9999 -9999 13.6394474506378 -9999 -9999 -9999 -9999 13.8717904090881 14.3812490463257 14.7269821166992 15.196515083313 15.4719886779785 15.5151062011719 15.5674085617065 15.9101734161377 16.7822284698486 18.0602798461914 19.1311511993408 19.7066230773926 20.0277557373047 20.2026500701904 20.1518821716309 19.9173526763916 19.6622428894043 19.4666938781738 19.1929454803467 18.8304615020752 18.6655139923096 18.6894588470459 18.8444042205811 19.1881046295166 19.5646476745605 19.8988933563232 20.1678066253662 20.3555335998535 20.5183753967285 20.6612071990967 20.7269687652588 20.7770252227783 20.7698345184326 20.6723918914795 20.742582321167 21.0095272064209 21.3815498352051 21.8524322509766 22.3147792816162 22.6326141357422 22.7736053466797 22.8370571136475 22.8864040374756 22.9604110717773 23.099645614624 23.3040351867676 23.5286998748779 23.7267875671387 23.8999519348145 24.042236328125 24.1001968383789
-9999 -9999 -9999 -9999 -9999 -9999 -9999 -9999 -9999 -9999 -9999 -9999 -9999 -9999 13.6253147125244 -9999 -9999 -9999 -9999 -9999 14.9136521816254 15.0905542373657 15.4088182449341 15.5198802947998 15.6026296615601 15.9555721282959 16.7989158630371 18.0045471191406 19.0487995147705 19.7067680358887 20.2112808227539 20.6983833312988 21.059268951416 21.1792583465576 21.0616073608398 20.8049125671387 20.5385284423828 20.2840061187744 20.0179615020752 19.8484363555908 19.936351776123 20.3742294311523 20.7918586730957 20.8814640045166 20.9419441223145 21.0846996307373 21.2047252655029 21.3308658599854 21.4794864654541 21.5702075958252 21.5765743255615 21.548225402832 21.5159740447998 21.6283321380615 21.8912239074707 22.2637901306152 22.7908401489258 23.3170223236084 23.6617336273193 23.7814197540283 23.7704086303711 23.7123126983643 23.6755065917969 23.6756210327148 23.7265892028809 23.8255500793457 23.9250030517578 23.9936065673828 24.0030364990234 23.933765411377
-9999 -9999 -9999 -9999 -9999 -9999 -9999 -9999 -9999 -9999 -9999 -9999 -9999 -9999 13.6486492156982 -9999 13.681845664978 -9999 -9999 -9999 14.7137937545776 15.1232786178589 15.4733991622925 15.6125507354736 15.9108333587646 16.7354354858398 17.8523273468018 18.8633995056152 19.557315826416 20.0996131896973 20.6153697967529 21.0880546569824 21.5041999816895 21.7894287109375 21.9070911407471 21.8783493041992 21.8075008392334 21.7817764282227 21.7376747131348 21.6024131774902 21.5007190704346 21.6362323760986 21.8311634063721 21.8772087097168 21.937650680542 22.0772857666016 22.2298717498779 22.3619003295898 22.4239540100098 22.3553428649902 22.2183132171631 22.1317958831787 22.1225471496582 22.27978515625 22.6082172393799 23.0280075073242 23.5028209686279 23.8993606567383 24.1046466827393 24.15354347229 24.0854682922363 23.9607105255127 23.8573398590088 23.7676963806152 23.7450790405273 23.811897277832 23.877815246582 23.8950672149658 23.8724536895752 23.7861366271973
-9999 -9999 -9999 -9999 -9999 -9999 -9999 -9999 -9999 -9999 -9999 -9999 -9999 -9999 13.6486492156982 13.6719837188721 13.732232093811 -9999 -9999 14.9735980033875 14.8256464004517 15.3750114440918 15.9064693450928 16.1937713623047 16.624153137207 17.6537036895752 18.6941108703613 19.4761810302734 20.1600513458252 20.8258266448975 21.250171661377 21.482608795166 21.7907543182373 22.1259059906006 22.3568305969238 22.4591732025146 22.4550666809082 22.4690933227539 22.5780925750732 22.6983413696289 22.7416000366211 22.703929901123 22.6464424133301 22.6327323913574 22.7384452819824 22.9337596893311 23.1492137908936 23.3743267059326 23.5082530975342 23.4080848693848 23.170970916748 22.9892597198486 22.9371795654297 23.0786914825439 23.3886070251465 23.7510070800781 24.0265655517578 24.1483573913574 24.129243850708 24.058277130127 23.9604206085205 23.8495559692383 23.7614593505859 23.6602268218994 23.6401519775391 23.728609085083 23.7982444763184 23.8168926239014 23.7916297912598 23.6636123657227
-9999 -9999 -9999 -9999 -9999 -9999 -9999 -9999 -9999 -9999 -9999 -9999 -9999 -9999 -9999 13.7462141036987 13.7252111434937 -9999 14.6752603054047 14.9858551025391 15.3690967559814 16.0632877349854 16.9525279998779 17.645414352417 18.2715301513672 19.1621761322021 19.9241485595703 20.6698207855225 21.4464454650879 22.0290851593018 22.3149337768555 22.4977321624756 22.816650390625 23.1730060577393 23.3899230957031 23.4629154205322 23.4368267059326 23.4405994415283 23.5849304199219 23.815357208252 24.0222473144531 24.0643310546875 23.9128322601318 23.6595249176025 23.4638538360596 23.4610862731934 23.614221572876 23.8637180328369 24.1102848052979 24.1385498046875 23.9610157012939 23.7714691162109 23.7185153961182 23.8078155517578 23.9712295532227 24.0974044799805 24.0964450836182 23.990255355835 23.8744354248047 23.8398284912109 23.8452396392822 23.8178520202637 23.7514705657959 23.6682071685791 23.643310546875 23.7041549682617 23.7651996612549 23.7921028137207 23.7260475158691 23.5067882537842
-9999 -9999 -9999 -9999 -9999 -9999 -9999 -9999 -9999 -9999 -9999 -9999 -9999 -9999 -9999 13.8036394119263 13.7980041503906 -9999 14.6610527038574 15.2460784912109 15.960467338562 16.9596042633057 18.4521160125732 19.7364463806152 20.504358291626 21.0669593811035 21.5612716674805 22.2037296295166 22.6985511779785 22.903938293457 23.1507606506348 23.5449504852295 24.0209293365479 24.3869476318359 24.5595054626465 24.5850734710693 24.5492668151855 24.533073425293 24.5720767974854 24.6437664031982 24.7159023284912 24.7025451660156 24.5330104827881 24.2257804870605 23.8709735870361 23.6380596160889 23.6105995178223 23.7822418212891 24.0411739349365 24.1538429260254 24.0936260223389 23.9990787506104 23.9848575592041 24.0262889862061 24.0410594940186 23.9705486297607 23.8338184356689 23.6898517608643 23.6298141479492 23.7215709686279 23.7825412750244 23.7411594390869 23.6689758300781 23.6290588378906 23.6461448669434 23.6967430114746 23.7363834381104 23.7641830444336 23.6604862213135 23.4375953674316
-9999 -9999 -9999 -9999 -9999 -9999 -9999 -9999 -9999 -9999 -9999 -9999 -9999 -9999 -9999 13.86549949646 -9999 14.3267391749791 14.7242403030396 15.5515203475952 16.4854183197021 17.9109878540039 19.8271827697754 21.3101215362549 22.0616722106934 22.4421882629395 22.8585205078125 23.3643093109131 23.6128711700439 23.673059463501 23.931583404541 24.3426074981689 24.6723613739014 24.8032665252686 24.7932739257812 24.7100048065186 24.6092185974121 24.5260391235352 24.461576461792 24.405948638916 24.358154296875 24.324764251709 24.2711925506592 24.1590995788574 23.9768028259277 23.8015632629395 23.6987915039062 23.7151889801025 23.790901184082 23.7868213653564 23.7343063354492 23.724645614624 23.7861309051514 23.8388252258301 23.8109283447266 23.7188568115234 23.6034851074219 23.4973030090332 23.5080299377441 23.6601486206055 23.6604995727539 23.5521984100342 23.4852619171143 23.4620513916016 23.5220050811768 23.6077289581299 23.6735553741455 23.7263221740723 23.628246307373 23.4690322875977
-9999 -9999 -9999 -9999 -9999 -9999 -9999 -9999 -9999 -9999 -9999 -9999 -9999 -9999 13.86549949646 13.8614654541016 13.9097328186035 14.3826742172241 15.0023059844971 15.9420576095581 17.110502243042 18.7983798980713 20.8735866546631 22.4357833862305 23.1448554992676 23.4644260406494 23.7317008972168 24.0954418182373 24.3445053100586 24.4995574951172 24.6814346313477 24.763692855835 24.6824035644531 24.533863067627 24.3817653656006 24.2527904510498 24.1676197052002 24.109733581543 24.0513095855713 23.9905624389648 23.9449310302734 23.9251842498779 23.9195003509521 23.9515075683594 24.0175876617432 24.0568542480469 24.0253467559814 23.8977642059326 23.6796131134033 23.4691009521484 23.4013748168945 23.446439743042 23.5224761962891 23.5635890960693 23.5517730712891 23.5141448974609 23.4341449737549 23.3746280670166 23.4781608581543 23.5889053344727 23.4992847442627 23.3977642059326 23.3758010864258 23.3824195861816 23.4477100372314 23.5316352844238 23.6192150115967 23.7199668884277 23.6746273040771 23.6014461517334
-9999 -9999 -9999 -9999 -9999 -9999 -9999 -9999 -9999 -9999 -9999 -9999 -9999 -9999 -9999 -9999 14.7647531032562 14.9670562744141 15.6423816680908 16.4548454284668 17.6051559448242 19.2235050201416 21.4576663970947 23.2978553771973 23.9802417755127 24.2663745880127 24.3798007965088 24.6153964996338 24.8643341064453 24.9336261749268 24.7619228363037 24.4428863525391 24.1534214019775 24.000467300415 23.9750137329102 24.0132846832275 24.0490036010742 24.0335750579834 23.9798030853271 23.9171237945557 23.8721218109131 23.8393421173096 23.8137855529785 23.9140663146973 24.0685615539551 24.1136894226074 24.0422878265381 23.8391246795654 23.5310249328613 23.3094711303711 23.2720584869385 23.2936878204346 23.3374443054199 23.3716659545898 23.3674373626709 23.3213481903076 23.244026184082 23.2713890075684 23.4193115234375 23.4620456695557 23.3566398620605 23.340160369873 23.391134262085 23.4440441131592 23.5003128051758 23.5679931640625 23.6474628448486 23.7630252838135 23.7880611419678 23.806884765625
-9999 -9999 -9999 -9999 -9999 -9999 -9999 -9999 -9999 -9999 -9999 -9999 -9999 -9999 -9999 -9999 15.3833026885986 15.7995491027832 16.4033107757568 17.001708984375 18.0836544036865 20.1118278503418 22.6441497802734 24.0021915435791 24.4165306091309 24.6564464569092 24.8136024475098 25.0365467071533 25.099235534668 24.7679290771484 24.2207546234131 23.7829360961914 23.6174640655518 23.7366065979004 23.9386768341064 24.0636444091797 24.0974941253662 24.0629978179932 24.0194110870361 23.9760227203369 23.9531097412109 23.9293365478516 23.8799571990967 23.9255199432373 23.9843845367432 23.9559307098389 23.8864269256592 23.708703994751 23.4096298217773 23.1725673675537 23.117546081543 23.1391334533691 23.1761150360107 23.2193088531494 23.2291278839111 23.198034286499 23.1717300415039 23.2173919677734 23.3017902374268 23.3276195526123 23.2670574188232 23.2877464294434 23.3335819244385 23.3965492248535 23.4773178100586 23.5610198974609 23.6277828216553 23.7377433776855 23.810266494751 23.8692474365234
-9999 -9999 -9999 -9999 -9999 -9999 -9999 -9999 -9999 -9999 -9999 -9999 -9999 -9999 -9999 -9999 -9999 16.7283406257629 16.9972267150879 17.7222175598145 19.1811542510986 21.6109371185303 23.6469631195068 24.3287792205811 24.5842361450195 24.8525333404541 25.06396484375 25.0901260375977 24.7317676544189 24.1041984558105 23.6308994293213 23.4497947692871 23.5646419525146 23.8743839263916 24.0842227935791 24.1476764678955 24.1147899627686 24.0310535430908 23.9663677215576 23.9279441833496 23.9390773773193 23.9796333312988 23.9573364257812 23.9493675231934 23.9492092132568 23.9174423217773 23.8572044372559 23.639705657959 23.3031234741211 23.041561126709 22.9512271881104 22.980806350708 23.0082683563232 23.0556831359863 23.1068954467773 23.1554737091064 23.2100315093994 23.1912326812744 23.1855144500732 23.2124805450439 23.2118034362793 23.2399196624756 23.2625713348389 23.3165988922119 23.3898296356201 23.4692211151123 23.5063724517822 23.5985698699951 23.6890449523926 23.7749977111816
-9999 -9999 -9999 -9999 -9999 -9999 -9999 -9999 -9999 -9999 -9999 -9999 -9999 -9999 15.6954874992371 15.7995491027832 16.8991042375565 17.3552513122559 17.7132759094238 18.5751667022705 20.3317127227783 22.6947078704834 24.0588893890381 24.5685958862305 24.878360748291 25.0849475860596 25.0634727478027 24.7043972015381 24.1426486968994 23.7111110687256 23.5390129089355 23.4856910705566 23.6501045227051 23.9622440338135 24.1432647705078 24.1772289276123 24.1009216308594 23.942928314209 23.8111114501953 23.7703990936279 23.8047695159912 23.8954925537109 23.9510231018066 23.9650764465332 23.9652709960938 23.9585361480713 23.9417324066162 23.775634765625 23.3845500946045 23.0105400085449 22.868558883667 22.8895683288574 22.9212970733643 22.9904747009277 23.0665035247803 23.1611747741699 23.2598094940186 23.2357597351074 23.2209510803223 23.2483921051025 23.2740154266357 23.2976512908936 23.2920455932617 23.3730316162109 23.4755210876465 23.4951972961426 23.5174007415771 23.5510139465332 23.5972156524658 23.6878356933594
-9999 -9999 -9999 -9999 -9999 -9999 -9999 -9999 -9999 -9999 -9999 -9999 -9999 -9999 -9999 -9999 -9999 -9999 18.991711139679 19.3695964813232 21.2985095977783 23.536376953125 24.7448425292969 25.1405010223389 25.2551078796387 25.2002563476562 24.854829788208 24.3194446563721 23.8860015869141 23.6991367340088 23.6414031982422 23.6038722991943 23.7483673095703 24.0151653289795 24.1739482879639 24.1858291625977 24.0411796569824 23.8339710235596 23.6949520111084 23.6677188873291 23.7083759307861 23.7862606048584 23.8627643585205 23.9139537811279 23.9429492950439 23.9494438171387 23.9407520294189 23.8396873474121 23.5565090179443 23.1332397460938 22.8779525756836 22.8022003173828 22.8274917602539 22.9340534210205 23.0660133361816 23.2316970825195 23.4112148284912 23.4295463562012 23.3587856292725 23.3476257324219 23.3508205413818 23.3259925842285 23.2800540924072 23.3820552825928 23.6085968017578 23.7055759429932 23.7073593139648 23.6587543487549 23.6243343353271 23.6560688018799
-9999 -9999 -9999 -9999 -9999 -9999 -9999 -9999 -9999 -9999 -9999 -9999 -9999 -9999 -9999 -9999 -9999 19.7696533203125 20.3788409233093 20.3088054656982 22.5797920227051 24.7639293670654 25.4953002929688 25.5814609527588 25.4109802246094 25.0514450073242 24.562572479248 24.1297779083252 23.87522315979 23.8004322052002 23.804931640625 23.8062744140625 23.9243087768555 24.1278762817383 24.2395362854004 24.1871089935303 23.9789962768555 23.7764282226562 23.6827411651611 23.6954364776611 23.7519035339355 23.7946758270264 23.819091796875 23.8395328521729 23.8517608642578 23.8217487335205 23.7942066192627 23.7559452056885 23.6256332397461 23.3173141479492 22.9848690032959 22.8247699737549 22.8417987823486 23.0017604827881 23.1939544677734 23.4083824157715 23.5814228057861 23.6343307495117 23.5506629943848 23.4851131439209 23.4138870239258 23.3159637451172 23.2947254180908 23.4679279327393 23.7625274658203 23.9449119567871 23.9345970153809 23.8233261108398 23.7369518280029 23.6973323822021
-9999 -9999 -9999 -9999 -9999 -9999 -9999 -9999 -9999 -9999 -9999 -9999 -9999 20.8914642333984 21.0202026367188 -9999 20.9170484542847 20.9366130828857 19.7696533203125 22.0673084259033 24.668514251709 25.6939754486084 25.8322811126709 25.5875720977783 25.1343326568604 24.6643142700195 24.3508319854736 24.1486339569092 23.9579277038574 23.9043083190918 23.9766979217529 24.033224105835 24.1446380615234 24.2782077789307 24.2929611206055 24.1480312347412 23.9224224090576 23.7523670196533 23.6714515686035 23.6851921081543 23.7636890411377 23.8156356811523 23.8222904205322 23.8032188415527 23.7649078369141 23.7073936462402 23.6966171264648 23.6878414154053 23.5899124145508 23.3256855010986 23.0457649230957 23.0398464202881 23.2035598754883 23.4629955291748 23.6803684234619 23.8250408172607 23.9097900390625 23.9329166412354 23.873083114624 23.7644557952881 23.609748840332 23.4706878662109 23.501256942749 23.7506198883057 24.0278606414795 24.1333599090576 24.0708713531494 23.9151611328125 23.7902526855469 23.6665954589844
-9999 -9999 -9999 -9999 -9999 -9999 -9999 -9999 -9999 -9999 -9999 -9999 -9999 -9999 20.8914642333984 21.4004230499268 20.7687206268311 21.0653762817383 22.1427021026611 24.785924911499 25.8632946014404 25.9911727905273 25.737340927124 25.2514019012451 24.7638473510742 24.4605255126953 24.2833232879639 24.135498046875 24.0120582580566 24.0338306427002 24.1588764190674 24.2310771942139 24.3182888031006 24.3890342712402 24.3214321136475 24.1049385070801 23.8895492553711 23.7497119903564 23.6592750549316 23.6467723846436 23.7036190032959 23.7624683380127 23.7838039398193 23.7610092163086 23.703125 23.6275386810303 23.5929431915283 23.5531845092773 23.4400234222412 23.2938766479492 23.2857875823975 23.4934978485107 23.7405052185059 23.9235687255859 24.0040950775146 24.0312557220459 24.0601673126221 24.0815124511719 24.0665130615234 24.0117511749268 23.8826465606689 23.7546615600586 23.7547626495361 23.9234752655029 24.0877876281738 24.1252307891846 24.0653419494629 23.9173889160156 23.762035369873 23.6433944702148
-9999 -9999 -9999 -9999 -9999 -9999 -9999 -9999 -9999 -9999 -9999 -9999 -9999 -9999 21.5737376213074 20.8914642333984 22.5410842895508 23.5254154205322 24.9546394348145 25.9950637817383 26.0526676177979 25.7622108459473 25.2934627532959 24.8119926452637 24.4984931945801 24.3205108642578 24.1839256286621 24.0891284942627 24.0310535430908 24.1205787658691 24.2750434875488 24.3466548919678 24.4114589691162 24.437141418457 24.3307704925537 24.1316585540771 23.9686412811279 23.8491897583008 23.7505302429199 23.7089920043945 23.7163963317871 23.7311878204346 23.7303905487061 23.6956768035889 23.6177997589111 23.5158939361572 23.4681434631348 23.4577980041504 23.4423923492432 23.5119781494141 23.7213497161865 23.9480323791504 24.0924701690674 24.1310234069824 24.1038150787354 24.0721817016602 24.0859508514404 24.129264831543 24.1469745635986 24.1293792724609 24.0593032836914 23.9306678771973 23.8424797058105 23.8780746459961 23.9287586212158 23.9320621490479 23.9621753692627 23.8634433746338 23.7530002593994 23.7537860870361
-9999 -9999 -9999 -9999 -9999 -9999 -9999 -9999 -9999 -9999 -9999 19.3124332427979 20.1531047821045 21.2914791107178 21.1853370666504 22.9266700744629 24.9699459075928 25.7064685821533 26.0352630615234 26.0202903747559 25.7923049926758 25.4352512359619 24.9781246185303 24.5550136566162 24.3095874786377 24.1742916107178 24.0953693389893 24.056812286377 24.0588531494141 24.1742477416992 24.2960033416748 24.348539352417 24.3914432525635 24.3860683441162 24.3018569946289 24.19091796875 24.0984230041504 23.9816207885742 23.838794708252 23.744722366333 23.7011375427246 23.6667652130127 23.6397647857666 23.6102771759033 23.5642585754395 23.5203075408936 23.5326385498047 23.5633697509766 23.5970420837402 23.7513732910156 23.9745960235596 24.1370964050293 24.2104339599609 24.1981048583984 24.1176280975342 24.0348300933838 24.0445556640625 24.1247825622559 24.2023067474365 24.2297821044922 24.1778354644775 24.0463962554932 23.9205913543701 23.9102783203125 23.8513984680176 23.8111190795898 23.8812713623047 23.8437309265137 23.8012657165527 23.8699245452881
-9999 -9999 -9999 -9999 -9999 -9999 -9999 -9999 -9999 18.4979190826416 19.4131641387939 20.7575721740723 22.1880836486816 23.1678428649902 23.0808696746826 24.5443782806396 25.759838104248 26.119909286499 26.0749340057373 25.8845176696777 25.5594539642334 25.0947341918945 24.6441268920898 24.3503150939941 24.2121620178223 24.1245365142822 24.0919761657715 24.0803527832031 24.0962581634521 24.1764163970947 24.2389087677002 24.2637748718262 24.2924900054932 24.2906951904297 24.2427635192871 24.1843376159668 24.1344680786133 24.0400161743164 23.8930969238281 23.7729263305664 23.6948051452637 23.6495418548584 23.637243270874 23.644832611084 23.6673831939697 23.6734447479248 23.6632099151611 23.6398754119873 23.698335647583 23.8807029724121 24.0355739593506 24.1248054504395 24.1677055358887 24.1593952178955 24.0742511749268 23.9651985168457 23.9713344573975 24.0959663391113 24.2341556549072 24.3132629394531 24.2768077850342 24.1821727752686 24.103235244751 24.0281658172607 23.853479385376 23.7769775390625 23.8571128845215 23.8603935241699 23.8543033599854 23.9114322662354
-9999 -9999 -9999 -9999 -9999 -9999 -9999 -9999 -9999 19.3906478881836 20.9622573852539 22.6401748657227 23.7709732055664 24.3079490661621 24.5215263366699 25.6654453277588 26.1116008758545 26.1130504608154 25.8850803375244 25.564790725708 25.15256690979 24.7300872802734 24.4133377075195 24.2390060424805 24.145658493042 24.0964012145996 24.1011543273926 24.11012840271 24.1316909790039 24.1882705688477 24.21706199646 24.2357482910156 24.2728710174561 24.2862987518311 24.2404727935791 24.1772499084473 24.1464900970459 24.117431640625 24.0448837280273 23.9509048461914 23.8643093109131 23.7915687561035 23.7628021240234 23.7974548339844 23.8592529296875 23.8428287506104 23.7663516998291 23.7261161804199 23.8254280090332 23.9613723754883 24.0494346618652 24.0875759124756 24.096118927002 24.0772705078125 24.0210132598877 23.9099521636963 23.9044952392578 24.0510597229004 24.2206707000732 24.3408908843994 24.3201751708984 24.2816696166992 24.2621459960938 24.1311054229736 23.8892517089844 23.76904296875 23.856164932251 23.8877353668213 23.8960285186768 23.9400806427002
-9999 -9999 -9999 -9999 -9999 19.3636546134949 19.2072715759277 19.6088256835938 19.7474346160889 20.2454128265381 21.9860610961914 23.8053436279297 24.882568359375 25.3762245178223 25.8078746795654 26.138952255249 26.1556415557861 25.9537391662598 25.6549606323242 25.3232135772705 24.9223384857178 24.5209407806396 24.2753448486328 24.1913223266602 24.1240673065186 24.1092891693115 24.1216468811035 24.1417999267578 24.1925315856934 24.2725105285645 24.3231658935547 24.3575439453125 24.4053707122803 24.4435539245605 24.4363460540771 24.3960056304932 24.3466529846191 24.3017749786377 24.2387790679932 24.1497821807861 24.0338287353516 23.9121112823486 23.8836498260498 23.9583683013916 24.0208702087402 23.9928150177002 23.9194488525391 23.9073085784912 24.0063591003418 24.1232261657715 24.1937026977539 24.2125186920166 24.1971778869629 24.1188526153564 23.9955081939697 23.8561458587646 23.8463382720947 24.0042400360107 24.148738861084 24.269136428833 24.2539176940918 24.24338722229 24.2271289825439 24.1165618896484 23.9057540893555 23.7741889953613 23.8659133911133 23.9074001312256 23.9099140167236 23.9452114105225
-9999 -9999 -9999 -9999 18.4513092041016 19.0972023010254 20.6988353729248 21.4917221069336 21.865665435791 22.2218170166016 23.3958873748779 24.8617744445801 25.5788192749023 25.9379386901855 26.0835552215576 26.1251354217529 26.0145740509033 25.7522888183594 25.4713592529297 25.152795791626 24.7423305511475 24.4146022796631 24.2920703887939 24.2306575775146 24.1657161712646 24.1645526885986 24.1856327056885 24.2386417388916 24.3280467987061 24.4428234100342 24.5440158843994 24.6050319671631 24.6364860534668 24.6541213989258 24.6437225341797 24.5946521759033 24.505033493042 24.4042892456055 24.3146877288818 24.2234935760498 24.074893951416 23.9154014587402 23.9065990447998 24.031078338623 24.1252193450928 24.1475658416748 24.1210823059082 24.1325740814209 24.215934753418 24.3449020385742 24.4168376922607 24.3889274597168 24.2827453613281 24.0808067321777 23.8854370117188 23.7494716644287 23.8050632476807 24.0031795501709 24.1244506835938 24.1528930664062 24.1137428283691 24.0827350616455 24.0420017242432 23.9674453735352 23.8490695953369 23.7704200744629 23.8734130859375 23.9090232849121 23.8887252807617 23.9296188354492
-9999 -9999 -9999 19.4399724006653 19.2867164611816 20.8081302642822 22.4180545806885 23.2797698974609 23.8861770629883 24.5236339569092 24.9712924957275 25.5570774078369 25.8721790313721 25.9828910827637 26.0924758911133 26.0928993225098 25.8524971008301 25.5311470031738 25.331579208374 25.0471954345703 24.6695423126221 24.4744243621826 24.4714279174805 24.4494953155518 24.4264945983887 24.4457035064697 24.4670238494873 24.5267543792725 24.6186351776123 24.7181262969971 24.8137512207031 24.8614406585693 24.8360691070557 24.780590057373 24.7271976470947 24.6627635955811 24.5568084716797 24.4319190979004 24.335958480835 24.2363948822021 24.0706043243408 23.9134120941162 23.9272193908691 24.0547161102295 24.1362266540527 24.1967144012451 24.2391891479492 24.2603492736816 24.3021469116211 24.3579940795898 24.3622398376465 24.269847869873 24.1084804534912 23.9177303314209 23.7721366882324 23.7294292449951 23.9142780303955 24.1184024810791 24.1756114959717 24.1010208129883 23.9860248565674 23.9286079406738 23.881067276001 23.8259315490723 23.7816581726074 23.7829990386963 23.8758430480957 23.8865623474121 23.8638877868652 23.9133434295654
-9999 -9999 -9999 19.3736457824707 20.6482181549072 22.6662921905518 23.9212265014648 24.6712551116943 25.2229633331299 25.522912979126 25.6492156982422 25.7672100067139 25.9286003112793 26.0854263305664 26.1235771179199 25.9106063842773 25.5813179016113 25.3895988464355 25.3229808807373 25.0753078460693 24.7570018768311 24.6593704223633 24.7208480834961 24.7618350982666 24.8300838470459 24.9018878936768 24.9417686462402 24.9637603759766 24.9642524719238 24.9619102478027 24.9935684204102 25.0245494842529 24.9856929779053 24.8704471588135 24.7596111297607 24.6817455291748 24.5785808563232 24.4675312042236 24.3728981018066 24.2402229309082 24.0807323455811 23.99977684021 24.0399379730225 24.1079044342041 24.1361198425293 24.1580429077148 24.189733505249 24.2364921569824 24.302209854126 24.3558902740479 24.3582172393799 24.2773056030273 24.1191520690918 23.9244651794434 23.8144302368164 23.8963756561279 24.1245632171631 24.2437210083008 24.2118263244629 24.0801620483398 23.9056568145752 23.8096237182617 23.7644691467285 23.7462348937988 23.7627468109131 23.8062915802002 23.8574886322021 23.853343963623 23.8389987945557 23.8754367828369
