NCOLS 70 
NROWS 52 
XLLCORNER -80 
YLLCORNER 33 
CELLSIZE 0.25 
NODATA_value -9999 
-9999.000000000000000 -9999 -9999 -9999 -9999 -9999 -9999 -9999 -9999 -9999 -9999 -9999 -9999 -9999 -9999 -9999 -9999 -9999 -9999 -9999 -9999 -9999 -9999 -9999 -9999 -9999 -9999 -9999 -9999 -9999 -9999 -9999 -9999 -9999 -9999 -9999 -9999 -9999 -9999 -9999 -9999 -9999 -9999 -9999 -9999 -9999 -9999 -9999 -9999 -9999 -9999 -9999 -9999 -9999 -9999 -9999 -9999 -9999 -9999 -9999 -9999 -9999 -9999 -9999 -9999 -9999 -9999 -9999 -9999 -9999
-9999 -9999 -9999 -9999 -9999 -9999 -9999 -9999 -9999 -9999 -9999 -9999 -9999 -9999 -9999 -9999 -9999 -9999 -9999 -9999 -9999 -9999 -9999 -9999 -9999 -9999 -9999 -9999 -9999 -9999 -9999 -9999 -9999 -9999 -9999 -9999 -9999 -9999 -9999 -9999 -9999 -9999 -9999 -9999 -9999 -9999 -9999 -9999 -9999 -9999 -9999 -9999 -9999 -9999 -9999 -9999 -9999 -9999 -9999 -9999 -9999 -9999 -9999 -9999 -9999 -9999 -9999 -9999 -9999 -9999
-9999 -9999 -9999 -9999 -9999 -9999 -9999 -9999 -9999 -9999 -9999 -9999 -9999 -9999 -9999 -9999 -9999 -9999 -9999 -9999 -9999 -9999 -9999 -9999 -9999 -9999 -9999 -9999 -9999 -9999 -9999 -9999 -9999 -9999 -9999 -9999 -9999 -9999 -9999 -9999 -9999 -9999 -9999 -9999 -9999 -9999 -9999 -9999 -9999 -9999 -9999 -9999 -9999 -9999 -9999 -9999 -9999 -9999 -9999 10.5470008850098 -9999 -9999 -9999 -9999 -9999 -9999 -9999 -9999 -9999 -9999
-9999 -9999 -9999 -9999 -9999 -9999 -9999 -9999 -9999 -9999 -9999 -9999 -9999 -9999 -9999 -9999 -9999 -9999 -9999 -9999 -9999 -9999 -9999 -9999 -9999 -9999 -9999 -9999 -9999 -9999 -9999 -9999 -9999 -9999 -9999 -9999 -9999 -9999 -9999 -9999 -9999 -9999 -9999 -9999 -9999 -9999 -9999 -9999 -9999 -9999 -9999 -9999 -9999 -9999 -9999 11.5268230438232 11.5710000991821 11.6024913787842 11.4738798141479 11.2550582885742 -9999 -9999 -9999 -9999 -9999 -9999 -9999 -9999 -9999 -9999
-9999 -9999 -9999 -9999 -9999 -9999 -9999 -9999 -9999 -9999 -9999 -9999 -9999 -9999 -9999 -9999 -9999 -9999 -9999 -9999 -9999 -9999 -9999 -9999 -9999 -9999 -9999 -9999 -9999 -9999 -9999 -9999 -9999 -9999 -9999 -9999 -9999 -9999 -9999 -9999 -9999 -9999 -9999 -9999 -9999 -9999 -9999 -9999 -9999 -9999 -9999 -9999 11.2867155075073 11.1339235305786 10.9777326583862 10.9857511520386 11.1699905395508 11.4898462295532 -9999 -9999 -9999 -9999 -9999 -9999 -9999 -9999 -9999 -9999 -9999 -9999
-9999 -9999 -9999 -9999 -9999 -9999 -9999 -9999 -9999 -9999 -9999 -9999 -9999 -9999 -9999 -9999 -9999 -9999 -9999 -9999 -9999 -9999 -9999 -9999 -9999 -9999 -9999 -9999 -9999 -9999 -9999 -9999 -9999 -9999 -9999 -9999 -9999 -9999 -9999 -9999 -9999 -9999 -9999 -9999 -9999 -9999 -9999 -9999 -9999 -9999 10.0330984115601 9.7283992767334 9.87864398956299 9.91363906860352 10.2982921600342 10.9085216522217 -9999 -9999 -9999 -9999 -9999 -9999 -9999 -9999 -9999 -9999 -9999 8.5555165608724 8.47278141975403 8.32790374755859
-9999 -9999 -9999 -9999 -9999 -9999 -9999 -9999 -9999 -9999 -9999 -9999 -9999 -9999 -9999 -9999 -9999 -9999 -9999 -9999 -9999 -9999 -9999 -9999 -9999 -9999 -9999 -9999 -9999 -9999 -9999 -9999 -9999 -9999 -9999 -9999 -9999 -9999 -9999 -9999 -9999 -9999 -9999 -9999 12.9957621892293 -9999 -9999 11.681704044342 10.8015279769897 10.3118505477905 9.69590187072754 9.17526531219482 9.15525531768799 9.48733234405518 10.1287412643433 -9999 -9999 -9999 -9999 -9999 -9999 -9999 -9999 9.9763011932373 9.3274564743042 8.88522338867188 8.55366134643555 8.52328109741211 8.58960723876953 8.45033359527588
-9999 -9999 -9999 -9999 -9999 -9999 -9999 -9999 -9999 -9999 -9999 -9999 -9999 -9999 -9999 -9999 -9999 -9999 -9999 -9999 -9999 -9999 -9999 -9999 -9999 -9999 -9999 -9999 -9999 -9999 -9999 -9999 -9999 -9999 -9999 -9999 -9999 -9999 -9999 -9999 -9999 -9999 -9999 -9999 13.0498809814453 12.7169609069824 12.3055601119995 11.9850730895996 11.6346549987793 11.3048715591431 10.9443368911743 10.4673871994019 10.0874156951904 9.97012233734131 9.97536778450012 -9999 -9999 -9999 -9999 -9999 -9999 -9999 9.74924373626709 9.31601333618164 8.86737537384033 8.72892951965332 8.82748699188232 9.01599502563477 9.07429790496826 8.9271240234375
-9999 -9999 -9999 -9999 -9999 -9999 -9999 -9999 -9999 -9999 -9999 -9999 -9999 -9999 -9999 -9999 -9999 -9999 -9999 -9999 -9999 -9999 -9999 -9999 -9999 -9999 -9999 -9999 -9999 -9999 -9999 -9999 -9999 -9999 -9999 -9999 -9999 -9999 -9999 -9999 14.3098119099935 14.0047715504964 13.3921152114868 12.8891334533691 12.6208715438843 12.3422727584839 12.2031030654907 12.1790742874146 12.169340133667 12.080620765686 11.8002109527588 11.2986497879028 10.7165670394897 10.3152751922607 10.3065837860107 -9999 -9999 -9999 -9999 -9999 10.1290397644043 9.90293407440186 9.67102432250977 9.28005218505859 8.94049739837646 9.01666831970215 9.37332057952881 9.67145252227783 9.69685459136963 9.45774936676025
-9999 -9999 -9999 -9999 -9999 -9999 -9999 -9999 -9999 -9999 -9999 -9999 -9999 -9999 -9999 -9999 -9999 -9999 -9999 -9999 -9999 -9999 -9999 -9999 -9999 -9999 -9999 -9999 -9999 -9999 -9999 -9999 -9999 -9999 -9999 -9999 -9999 -9999 -9999 14.5052661895752 14.3826665878296 14.0415029525757 13.590145111084 13.219349861145 12.9940710067749 12.8852987289429 12.8173389434814 12.7308397293091 12.5884342193604 12.3517503738403 11.9944534301758 11.5096263885498 10.9443254470825 10.4689569473267 10.2417001724243 10.5368642807007 -9999 -9999 -9999 10.6584961414337 10.2968482971191 10.1873369216919 10.0263080596924 9.72380352020264 9.38751220703125 9.3575325012207 9.64723014831543 10.0465745925903 10.2191467285156 9.99202346801758
-9999 -9999 -9999 -9999 -9999 -9999 -9999 -9999 -9999 -9999 -9999 -9999 -9999 -9999 -9999 -9999 -9999 -9999 -9999 -9999 -9999 -9999 -9999 -9999 -9999 -9999 -9999 -9999 -9999 -9999 -9999 -9999 -9999 -9999 -9999 -9999 -9999 -9999 14.9182102203369 14.6603536605835 14.4849605560303 14.2563333511353 13.9529600143433 13.6461687088013 13.3956861495972 13.1955814361572 13.0110425949097 12.8228015899658 12.6050748825073 12.3031606674194 11.9170665740967 11.5117893218994 11.0603189468384 10.5822649002075 10.2523441314697 10.3764324188232 10.7198514938354 10.6853713989258 10.8694200515747 10.7466220855713 10.7210941314697 10.7366790771484 10.6528253555298 10.468090057373 10.1773929595947 9.95816802978516 9.98667240142822 10.26526927948 10.5227766036987 10.4298162460327
-9999 -9999 -9999 -9999 -9999 -9999 -9999 -9999 -9999 -9999 -9999 -9999 -9999 -9999 -9999 -9999 -9999 -9999 -9999 -9999 -9999 -9999 -9999 -9999 -9999 -9999 -9999 -9999 -9999 -9999 -9999 -9999 -9999 -9999 -9999 -9999 -9999 15.3885478973389 15.1588592529297 14.8780241012573 14.6910228729248 14.3617715835571 13.9460735321045 13.6253118515015 13.4028244018555 13.2109537124634 12.9978179931641 12.7683200836182 12.5444488525391 12.2871932983398 11.9264583587646 11.5204286575317 11.154125213623 10.8193769454956 10.503098487854 10.3142318725586 10.3883581161499 10.5208692550659 10.5937414169312 10.7138252258301 10.8611087799072 10.9358110427856 10.9160375595093 10.8574638366699 10.7274904251099 10.587384223938 10.5426082611084 10.699667930603 10.9644870758057 11.0714635848999
-9999 -9999 -9999 -9999 -9999 -9999 -9999 -9999 -9999 -9999 -9999 -9999 -9999 -9999 -9999 -9999 -9999 -9999 -9999 -9999 -9999 -9999 -9999 -9999 -9999 -9999 -9999 -9999 -9999 -9999 -9999 -9999 -9999 -9999 -9999 -9999 -9999 14.7249898910522 14.7153034210205 14.8055572509766 14.8240213394165 14.5574035644531 14.169394493103 13.8321971893311 13.5369873046875 13.2400779724121 12.9461755752563 12.6922340393066 12.4722757339478 12.2495956420898 11.9695844650269 11.6090002059937 11.2826337814331 11.0313730239868 10.7820386886597 10.5731897354126 10.4679050445557 10.4753665924072 10.5870246887207 10.751763343811 10.932785987854 11.0359621047974 11.1887788772583 11.3307285308838 11.1621513366699 11.0413427352905 10.9612140655518 11.1765031814575 11.5159845352173 11.9279127120972
-9999 -9999 -9999 -9999 -9999 -9999 -9999 -9999 -9999 -9999 -9999 -9999 -9999 -9999 -9999 -9999 -9999 -9999 -9999 -9999 -9999 -9999 -9999 -9999 -9999 -9999 -9999 -9999 -9999 -9999 -9999 -9999 -9999 -9999 -9999 -9999 -9999 15.013726234436 14.8959884643555 15.0133829116821 14.935302734375 14.6419353485107 14.3168668746948 13.9819536209106 13.5964088439941 13.1969423294067 12.8466730117798 12.5773887634277 12.3422498703003 12.0871839523315 11.8512172698975 11.601001739502 11.3749408721924 11.1816129684448 10.962272644043 10.6531009674072 10.4161911010742 10.2115621566772 10.3475160598755 10.5396451950073 10.9250946044922 11.3103437423706 11.9029550552368 12.2254486083984 11.7899570465088 11.4756021499634 11.36607837677 11.876033782959 12.6270599365234 13.3018474578857
-9999 -9999 -9999 -9999 -9999 -9999 -9999 -9999 -9999 -9999 -9999 -9999 -9999 -9999 -9999 -9999 -9999 -9999 -9999 -9999 -9999 -9999 -9999 -9999 -9999 -9999 -9999 -9999 -9999 -9999 -9999 -9999 -9999 -9999 -9999 -9999 15.8136043548584 15.4670581817627 15.1824750900269 15.1145925521851 14.9073219299316 14.5849952697754 14.2930688858032 13.9428730010986 13.5202045440674 13.1091766357422 12.7468090057373 12.4397039413452 12.1853256225586 11.903956413269 11.6760063171387 11.4446172714233 11.2848320007324 11.1725358963013 11.0003881454468 10.5536108016968 10.2680063247681 9.84640216827393 9.96323680877686 10.3789367675781 11.5767107009888 12.805193901062 13.7905740737915 13.6917724609375 12.7255821228027 12.0387144088745 11.9781513214111 12.6181468963623 13.641900062561 14.4749402999878
-9999 -9999 -9999 -9999 -9999 -9999 -9999 -9999 -9999 -9999 -9999 -9999 -9999 -9999 -9999 -9999 -9999 -9999 -9999 -9999 -9999 -9999 -9999 -9999 -9999 -9999 -9999 -9999 -9999 -9999 -9999 -9999 -9999 -9999 -9999 -9999 -9999 15.5600776672363 15.3948307037354 15.1723279953003 14.8880233764648 14.5494546890259 14.263334274292 13.9154796600342 13.4993572235107 13.0924243927002 12.741042137146 12.3819389343262 12.0514392852783 11.6997575759888 11.4605464935303 11.2613925933838 11.176082611084 11.0967454910278 11.0324325561523 10.723687171936 11.0814905166626 11.08420753479 11.1921195983887 12.112512588501 13.7235050201416 14.9735202789307 15.4372568130493 14.6038494110107 13.1281652450562 12.1129512786865 12.0767459869385 12.9845819473267 14.0406970977783 14.987416267395
-9999 -9999 -9999 -9999 -9999 -9999 -9999 -9999 -9999 -9999 -9999 -9999 -9999 -9999 -9999 -9999 -9999 -9999 -9999 -9999 -9999 -9999 -9999 -9999 -9999 -9999 -9999 -9999 -9999 -9999 -9999 -9999 -9999 -9999 -9999 -9999 -9999 -9999 16.0282497406006 -9999 14.9779424667358 14.5864200592041 14.2457847595215 13.9231357574463 13.553391456604 13.1431264877319 12.8727369308472 12.5693874359131 12.2285442352295 11.8356800079346 11.6794710159302 11.6534385681152 11.5958480834961 11.2705783843994 11.1719808578491 11.1171245574951 12.1584196090698 12.6669044494629 13.0859680175781 13.9369773864746 15.0302858352661 15.7352647781372 15.9455070495605 15.5683498382568 14.1629314422607 13.2354917526245 12.5505380630493 13.2125463485718 14.2665224075317 15.1843395233154
-9999 -9999 -9999 -9999 -9999 -9999 -9999 -9999 -9999 -9999 -9999 -9999 -9999 -9999 -9999 -9999 -9999 -9999 -9999 -9999 -9999 -9999 -9999 -9999 -9999 -9999 -9999 -9999 -9999 -9999 -9999 -9999 -9999 -9999 -9999 -9999 -9999 -9999 -9999 -9999 15.8156995773315 14.9333229064941 14.3332242965698 13.9079675674438 13.5140314102173 13.1384181976318 12.9814434051514 12.8842039108276 12.8178987503052 12.530779838562 12.4136734008789 12.3203916549683 12.1488094329834 11.6366491317749 11.2246322631836 11.3593301773071 12.2899560928345 13.0104198455811 13.5902881622314 14.4973278045654 15.3389472961426 16.557918548584 17.1947498321533 17.9723987579346 16.9738216400146 16.3615608215332 14.8348169326782 14.0599327087402 14.3820533752441 15.1084241867065
-9999 -9999 -9999 -9999 -9999 -9999 -9999 -9999 -9999 -9999 -9999 -9999 -9999 -9999 -9999 -9999 -9999 -9999 -9999 -9999 -9999 -9999 -9999 -9999 -9999 -9999 -9999 -9999 -9999 -9999 -9999 -9999 -9999 -9999 17.2461190223694 17.5736103057861 17.6310157775879 -9999 17.6529750823975 17.4728603363037 16.5400295257568 15.3110046386719 14.4591674804688 13.8795900344849 13.4400043487549 13.210732460022 13.1053228378296 13.0678768157959 13.0351629257202 12.8574333190918 12.5646047592163 12.1671628952026 11.6285448074341 10.9975357055664 10.8533029556274 11.5630006790161 12.5052442550659 13.6069049835205 15.0568828582764 16.7665710449219 18.3065338134766 19.6974182128906 20.5354270935059 21.2580547332764 20.9798984527588 20.1264400482178 18.6478443145752 16.6437015533447 14.8624649047852 14.8908786773682
-9999 -9999 -9999 -9999 -9999 -9999 -9999 -9999 -9999 -9999 -9999 -9999 -9999 -9999 -9999 -9999 -9999 -9999 -9999 -9999 -9999 -9999 -9999 -9999 -9999 -9999 -9999 19.4571094512939 19.4571094512939 19.3423309326172 19.0795803070068 18.2842788696289 17.4174995422363 17.2028388977051 17.1702060699463 17.03782081604 16.8770294189453 16.7842826843262 16.797513961792 16.7345180511475 15.9473581314087 14.7264575958252 14.0371780395508 13.6935205459595 13.3995695114136 13.1657361984253 12.9646158218384 12.8376569747925 12.6915111541748 12.4211368560791 11.9833908081055 11.4548587799072 10.7657957077026 10.6627035140991 11.529333114624 13.0867671966553 14.7386817932129 16.8939914703369 19.3749084472656 21.2346267700195 22.5519676208496 23.2653141021729 23.9031715393066 24.1281509399414 24.3686122894287 23.9560813903809 22.676139831543 20.1151752471924 16.7949981689453 15.7162427902222
-9999 -9999 -9999 -9999 -9999 -9999 -9999 -9999 -9999 -9999 -9999 -9999 -9999 -9999 -9999 -9999 -9999 -9999 -9999 -9999 -9999 -9999 -9999 -9999 -9999 -9999 -9999 -9999 -9999 -9999 18.6721725463867 17.8460693359375 16.9056396484375 16.6493244171143 16.5897560119629 16.5001659393311 16.361873626709 16.1711521148682 16.0156993865967 15.7935819625854 15.0748453140259 13.9453372955322 13.4923610687256 13.4780035018921 13.3019695281982 12.9848747253418 12.7042741775513 12.4918079376221 12.2771806716919 12.1254844665527 12.0476274490356 11.9029922485352 11.4770011901855 11.9790096282959 13.8831872940063 16.2882442474365 18.7373161315918 21.0706233978271 22.5661239624023 23.2870426177979 23.490083694458 23.5963973999023 23.7432270050049 23.9866790771484 24.4005546569824 24.9628562927246 24.7959880828857 22.8405208587646 19.3083953857422 17.8211269378662
-9999 -9999 -9999 -9999 -9999 -9999 -9999 -9999 -9999 -9999 -9999 -9999 -9999 -9999 -9999 -9999 -9999 -9999 -9999 -9999 -9999 -9999 -9999 -9999 -9999 18.9499193827311 18.5382372538249 18.1620597839355 17.8607354164124 17.8885288238525 17.5539150238037 17.2236576080322 16.9958992004395 16.6821746826172 16.3798809051514 16.1462860107422 15.9111089706421 15.6472816467285 15.40500831604 15.1141500473022 14.5786266326904 13.9303636550903 13.6163129806519 13.5275888442993 13.3091487884521 12.9542360305786 12.7105827331543 12.5340127944946 12.5138807296753 12.7004108428955 13.1549806594849 13.6216926574707 13.7427139282227 14.6335096359253 16.9595146179199 19.4747295379639 21.5294418334961 22.8294429779053 23.316873550415 23.3488693237305 23.2434902191162 23.3063087463379 23.377685546875 23.5897159576416 23.8141269683838 24.6078758239746 25.1489849090576 23.8039531707764 21.2468433380127 19.9365768432617
-9999 -9999 -9999 -9999 -9999 -9999 -9999 -9999 -9999 -9999 -9999 -9999 -9999 -9999 -9999 -9999 -9999 -9999 -9999 -9999 -9999 -9999 -9999 -9999 19.3824138641357 18.9536418914795 18.5137023925781 18.147367477417 17.8251094818115 17.5819358825684 17.3258533477783 17.0233554840088 16.748893737793 16.437629699707 16.1012287139893 15.8407154083252 15.656928062439 15.5247364044189 15.4197845458984 15.2369031906128 14.8708524703979 14.3784236907959 14.0001077651978 13.8356847763062 13.7175903320312 13.5592231750488 13.4631938934326 13.3130722045898 13.2430591583252 13.3557052612305 13.8540191650391 14.7181329727173 16.0574760437012 17.701244354248 19.5951442718506 21.329439163208 22.5751991271973 23.3240222930908 23.6261081695557 23.4919109344482 23.2635478973389 23.2121734619141 23.2699165344238 23.4938564300537 23.6795196533203 24.3516216278076 25.0471782684326 24.0722160339355 22.6308345794678 21.9750194549561
-9999 -9999 -9999 -9999 -9999 -9999 -9999 -9999 -9999 -9999 -9999 -9999 -9999 -9999 -9999 -9999 -9999 -9999 -9999 -9999 -9999 -9999 -9999 -9999 19.1852626800537 18.7118339538574 18.2115039825439 17.7399387359619 17.3139095306396 17.0287036895752 16.8673038482666 16.7964191436768 16.7768859863281 16.6646327972412 16.5016078948975 16.3310317993164 16.142599105835 16.0285301208496 16.0085220336914 15.9460544586182 15.6787452697754 15.1604585647583 14.6537380218506 14.5819835662842 14.8186645507812 15.023756980896 15.0214395523071 14.6862201690674 14.2035131454468 14.1393194198608 14.4966440200806 15.3513116836548 17.4124374389648 19.5501575469971 21.075611114502 22.0977649688721 22.9637069702148 23.6600646972656 23.931713104248 23.7539958953857 23.4774265289307 23.3831119537354 23.4582843780518 23.6913051605225 23.9727745056152 24.5304832458496 25.0685577392578 24.1903648376465 23.3838710784912 23.1801891326904
-9999 -9999 -9999 -9999 -9999 -9999 -9999 -9999 -9999 -9999 -9999 -9999 -9999 -9999 -9999 -9999 -9999 -9999 -9999 -9999 -9999 -9999 -9999 19.522349357605 19.3321189880371 18.8439884185791 18.2727661132812 17.6467781066895 17.1343860626221 16.8993492126465 16.948558807373 17.2430324554443 17.57692527771 17.7234840393066 17.7930030822754 17.7681617736816 17.4518203735352 16.9636249542236 16.624267578125 16.4118003845215 16.0581378936768 15.5309009552002 15.1495456695557 15.3902187347412 15.9522857666016 16.3472805023193 16.3551044464111 15.9217824935913 15.1566276550293 14.9805517196655 15.4491777420044 16.4856071472168 18.5689811706543 20.4582195281982 21.6474933624268 22.4193859100342 23.0956001281738 23.7552356719971 24.1288776397705 24.1052761077881 23.8606662750244 23.763650894165 23.8606929779053 24.1156120300293 24.4472599029541 24.7987651824951 25.0078125 24.2688426971436 23.8666248321533 23.7335929870605
-9999 -9999 -9999 -9999 -9999 -9999 -9999 -9999 -9999 -9999 -9999 -9999 -9999 -9999 -9999 -9999 -9999 -9999 -9999 -9999 -9999 -9999 -9999 19.9803733825684 19.5916423797607 19.1121406555176 18.5008220672607 17.8064231872559 17.244779586792 17.034481048584 17.1767234802246 17.5661964416504 18.0681076049805 18.491304397583 18.7992286682129 18.9872856140137 18.6964149475098 17.9321212768555 17.3549556732178 17.055793762207 16.6641216278076 16.1429138183594 15.8054227828979 16.0281028747559 16.5384082794189 16.9525909423828 16.9610061645508 16.6586799621582 16.1786823272705 16.0420608520508 16.5716438293457 17.7726268768311 19.4255504608154 20.7607936859131 21.7363185882568 22.524019241333 23.1613216400146 23.7361278533936 24.1729850769043 24.3734722137451 24.2987041473389 24.1826095581055 24.2924365997314 24.5459041595459 24.7724475860596 24.83567237854 24.7956237792969 24.3809051513672 24.1704692840576 23.9667854309082
-9999 -9999 -9999 -9999 -9999 -9999 -9999 -9999 -9999 -9999 -9999 -9999 -9999 -9999 -9999 -9999 -9999 -9999 -9999 -9999 -9999 -9999 20.635066986084 20.138011932373 19.6348094940186 19.0009632110596 18.2629528045654 17.7007999420166 17.4164810180664 17.2115116119385 17.0406169891357 17.3125476837158 18.159200668335 18.9391231536865 19.3418083190918 19.5936660766602 19.388858795166 18.4602642059326 17.5658569335938 17.2792072296143 17.2917385101318 17.2071437835693 16.9625854492188 16.8722400665283 17.0750617980957 17.3998870849609 17.3900299072266 17.148832321167 17.1888885498047 17.2287101745605 17.5571098327637 18.7093086242676 20.0093517303467 20.8900146484375 21.7238807678223 22.5747337341309 23.2768573760986 23.8450870513916 24.2660789489746 24.5449047088623 24.6216011047363 24.545955657959 24.5328330993652 24.6884765625 24.8209037780762 24.7356967926025 24.734447479248 24.6974277496338 24.5484142303467 24.2437286376953
-9999 -9999 -9999 -9999 -9999 -9999 -9999 -9999 -9999 -9999 -9999 -9999 -9999 -9999 23.4691691398621 -9999 -9999 -9999 -9999 22.0187606811523 -9999 20.999267578125 20.5497779846191 19.9658317565918 19.3655757904053 18.5963535308838 17.8059349060059 17.495512008667 17.7521839141846 17.8906955718994 17.6105194091797 17.5319671630859 18.1020431518555 18.8601455688477 19.4575881958008 19.9075603485107 19.9727802276611 19.0753078460693 17.6434631347656 16.9844627380371 17.1515598297119 17.4717884063721 17.6257991790771 17.63210105896 17.7698745727539 17.9802303314209 17.8206100463867 17.5378894805908 17.820384979248 18.2994594573975 18.8868618011475 19.925479888916 20.8889350891113 21.4930992126465 22.1327476501465 22.970006942749 23.7518749237061 24.2556381225586 24.5827255249023 24.8594856262207 24.9729156494141 24.9181861877441 24.7886238098145 24.6715507507324 24.6516418457031 24.6517658233643 24.778678894043 24.9703178405762 24.9467620849609 24.5875720977783
-9999 -9999 -9999 -9999 -9999 -9999 -9999 -9999 -9999 -9999 -9999 -9999 -9999 -9999 23.4711537361145 -9999 -9999 -9999 -9999 21.8328094482422 21.0170539855957 20.5001773834229 19.828239440918 19.2151412963867 18.6487674713135 18.0367259979248 17.5515823364258 17.779655456543 18.5799331665039 19.1867599487305 19.354175567627 19.3060321807861 19.2542400360107 19.2355766296387 19.4687576293945 19.9736747741699 20.4369926452637 20.1645183563232 18.9507522583008 17.9961814880371 17.8609409332275 17.9672679901123 18.1029243469238 18.2543087005615 18.5029315948486 18.6619930267334 18.498649597168 18.3985805511475 18.8430519104004 19.5564651489258 20.1842498779297 20.8756542205811 21.6489315032959 22.327018737793 23.0241355895996 23.8976974487305 24.6112957000732 24.9152870178223 25.0357074737549 25.1839771270752 25.3066577911377 25.3266162872314 25.2633171081543 25.0263843536377 24.7930488586426 24.7080459594727 24.7346286773682 24.8875560760498 24.9381980895996 24.7075119018555
-9999 -9999 -9999 -9999 -9999 -9999 -9999 -9999 -9999 -9999 -9999 -9999 -9999 -9999 23.4622230529785 -9999 -9999 -9999 -9999 -9999 20.0538868904114 19.9202060699463 19.1733818054199 18.5936393737793 18.3160610198975 18.2815551757812 18.4545269012451 19.0905952453613 20.0245933532715 20.8208065032959 21.3446979522705 21.6071300506592 21.6516780853271 21.3468246459961 20.967752456665 21.2619132995605 21.9499664306641 22.062479019165 21.2910747528076 20.3643074035645 19.9246196746826 19.6961345672607 19.5142078399658 19.4265880584717 19.4151306152344 19.3727035522461 19.3032703399658 19.3009052276611 19.6668529510498 20.3457660675049 20.9719142913818 21.5923938751221 22.349006652832 23.1054725646973 23.8099727630615 24.4742202758789 24.9446544647217 25.1802349090576 25.2713203430176 25.3469371795654 25.4791774749756 25.5966320037842 25.657901763916 25.5457420349121 25.2601699829102 25.0066947937012 24.8975677490234 24.9230499267578 24.9083995819092 24.7775573730469
-9999 -9999 -9999 -9999 -9999 -9999 -9999 -9999 -9999 -9999 -9999 -9999 -9999 -9999 23.455756187439 -9999 23.4979457855225 -9999 -9999 -9999 20.2046337127686 19.5905303955078 18.844274520874 18.5375328063965 18.9629459381104 19.7335338592529 20.2647075653076 20.724910736084 21.3655986785889 22.0802822113037 22.7019214630127 23.1167526245117 23.40087890625 23.407112121582 23.110933303833 23.3082962036133 23.841911315918 23.80784034729 23.1117496490479 22.3221645355225 21.9015216827393 21.6484756469727 21.2838096618652 20.9751071929932 20.6718692779541 20.2902374267578 20.1028995513916 20.1038188934326 20.4434642791748 21.2102794647217 21.9871921539307 22.6420707702637 23.2813034057617 23.8639392852783 24.3636608123779 24.7780017852783 25.0804195404053 25.2899265289307 25.3913059234619 25.4489307403564 25.53635597229 25.6305656433105 25.7358131408691 25.7501811981201 25.4861660003662 25.1399326324463 25.0070037841797 25.0085868835449 24.9390926361084 24.8795509338379
-9999 -9999 -9999 -9999 -9999 -9999 -9999 -9999 -9999 -9999 -9999 -9999 -9999 -9999 23.455756187439 23.4492893218994 23.4852600097656 -9999 -9999 19.7314791679382 19.8136196136475 19.0118446350098 18.5710849761963 19.0301475524902 20.0954914093018 20.9810924530029 21.5118255615234 21.8502597808838 22.3042621612549 22.9909820556641 23.6204204559326 24.1170711517334 24.5369873046875 24.6712989807129 24.5333881378174 24.6500549316406 24.9667510986328 25.0156269073486 24.6639270782471 24.1271514892578 23.8416748046875 23.7037544250488 23.4209861755371 23.0734577178955 22.6793117523193 22.3072357177734 22.2075805664062 22.223783493042 22.3679904937744 22.7708110809326 23.2543830871582 23.6901168823242 24.131742477417 24.5603122711182 24.916597366333 25.1927547454834 25.3503303527832 25.4023761749268 25.3733043670654 25.3372478485107 25.3584251403809 25.4189777374268 25.5263328552246 25.641321182251 25.4409084320068 24.996940612793 24.804162979126 24.8401679992676 24.8127346038818 24.8377628326416
-9999 -9999 -9999 -9999 -9999 -9999 -9999 -9999 -9999 -9999 -9999 -9999 -9999 -9999 -9999 23.2869686126709 23.4658737182617 -9999 20.6891484260559 19.7531757354736 19.1544876098633 18.5215835571289 18.8026561737061 19.9407348632812 20.9292621612549 21.6263332366943 22.2543449401855 22.856840133667 23.5040702819824 24.1800861358643 24.7178707122803 25.2014675140381 25.6266746520996 25.8437995910645 25.8060131072998 25.7295455932617 25.758731842041 25.8316631317139 25.8624095916748 25.718599319458 25.6084766387939 25.4764194488525 25.1807804107666 24.8303451538086 24.5424213409424 24.3318996429443 24.1462478637695 24.0106182098389 24.0509204864502 24.2734546661377 24.4960346221924 24.6913642883301 24.9777297973633 25.2927112579346 25.4807815551758 25.5210018157959 25.4568347930908 25.3394680023193 25.1973552703857 25.0717792510986 24.9958362579346 25.0011959075928 25.1182708740234 25.3358116149902 25.2651672363281 24.8506946563721 24.6218242645264 24.6492080688477 24.649377822876 24.6863117218018
-9999 -9999 -9999 -9999 -9999 -9999 -9999 -9999 -9999 -9999 -9999 -9999 -9999 -9999 -9999 23.2452335357666 22.7891864776611 -9999 20.0192756652832 19.4591388702393 18.6052875518799 18.2577438354492 19.1555767059326 20.5287094116211 21.3763160705566 22.1539096832275 23.0639495849609 23.9610118865967 24.6531105041504 25.192626953125 25.669563293457 26.0928058624268 26.426736831665 26.6393642425537 26.6975402832031 26.5911464691162 26.4269275665283 26.3194313049316 26.3555240631104 26.4080829620361 26.4242973327637 26.3263263702393 26.009298324585 25.6029682159424 25.3482513427734 25.1960391998291 24.9608974456787 24.7881717681885 24.8354454040527 25.0016918182373 25.1276512145996 25.2309665679932 25.4027328491211 25.5458831787109 25.5074672698975 25.3595676422119 25.1944389343262 25.0223331451416 24.8693714141846 24.7537899017334 24.6540260314941 24.5921669006348 24.6922473907471 24.9981555938721 25.0838069915771 24.7857189178467 24.5498447418213 24.4871654510498 24.4330596923828 24.4732570648193
-9999 -9999 -9999 -9999 -9999 -9999 -9999 -9999 -9999 -9999 -9999 -9999 -9999 -9999 -9999 23.0688285827637 -9999 21.1640674046108 19.8879356384277 19.0027370452881 18.0972099304199 18.2148742675781 19.6218967437744 20.9587116241455 21.8493003845215 22.8777732849121 23.9306926727295 24.7778034210205 25.3341369628906 25.81418800354 26.2461166381836 26.5696678161621 26.7437839508057 26.7958755493164 26.7976589202881 26.7408199310303 26.6234760284424 26.504903793335 26.4824447631836 26.5271587371826 26.5775623321533 26.5905914306641 26.4581394195557 26.109676361084 25.7286777496338 25.4898052215576 25.2841415405273 25.1148662567139 25.0952835083008 25.1769256591797 25.2721500396729 25.3649940490723 25.4459934234619 25.4040393829346 25.1995697021484 24.9621124267578 24.7600250244141 24.5944709777832 24.4798889160156 24.4590759277344 24.4588794708252 24.3813991546631 24.4036769866943 24.7040634155273 24.907262802124 24.7483596801758 24.5150146484375 24.3367958068848 24.1831245422363 24.2065696716309
-9999 -9999 -9999 -9999 -9999 -9999 -9999 -9999 -9999 -9999 -9999 -9999 -9999 -9999 23.0688285827637 22.570748647054 22.210147857666 20.9459400177002 19.8627166748047 18.628812789917 17.6379833221436 18.2124328613281 20.099946975708 21.4220390319824 22.4756450653076 23.6443195343018 24.5591259002686 25.2660751342773 25.8732070922852 26.3535194396973 26.6442050933838 26.7170963287354 26.5786514282227 26.3459968566895 26.1769180297852 26.1194305419922 26.1674709320068 26.2252502441406 26.2582874298096 26.3232688903809 26.4449291229248 26.565071105957 26.600341796875 26.4594306945801 26.1153755187988 25.766284942627 25.5306034088135 25.3861751556396 25.3676071166992 25.4496574401855 25.5252780914307 25.536226272583 25.4110107421875 25.182804107666 24.9131355285645 24.6744537353516 24.5139980316162 24.4243125915527 24.3548793792725 24.3389530181885 24.3481521606445 24.2776031494141 24.2371616363525 24.4723567962646 24.7099304199219 24.6877212524414 24.5273666381836 24.3421516418457 24.1431941986084 24.0930557250977
-9999 -9999 -9999 -9999 -9999 -9999 -9999 -9999 -9999 -9999 -9999 -9999 -9999 -9999 -9999 -9999 21.0265636444092 20.6342658996582 19.3264579772949 18.0696125030518 17.5116863250732 18.6596813201904 20.7362117767334 22.1398487091064 23.266487121582 24.259557723999 25.1166667938232 25.990930557251 26.6145076751709 26.8397655487061 26.7506790161133 26.4334182739258 25.8899688720703 25.357271194458 25.0663280487061 24.9624462127686 25.0058212280273 25.1168594360352 25.1994972229004 25.3100166320801 25.5295963287354 25.8520889282227 26.1251792907715 26.2285118103027 26.1158504486084 25.8896102905273 25.7218837738037 25.6565475463867 25.6660823822021 25.6814479827881 25.6091327667236 25.3833522796631 25.0513019561768 24.8146533966064 24.6719493865967 24.5635547637939 24.4899559020996 24.420654296875 24.3126811981201 24.2053852081299 24.1667671203613 24.1447086334229 24.1433353424072 24.3068752288818 24.4913787841797 24.5328578948975 24.4740734100342 24.370491027832 24.2343063354492 24.1323413848877
-9999 -9999 -9999 -9999 -9999 -9999 -9999 -9999 -9999 -9999 -9999 -9999 -9999 -9999 -9999 -9999 20.4750833511353 20.3159008026123 19.214916229248 18.4251499176025 18.5877952575684 20.1806468963623 21.8428707122803 23.0956726074219 24.1298046112061 25.1574802398682 26.1584339141846 26.8613605499268 27.0268821716309 26.8031387329102 26.3863754272461 25.7775535583496 25.0368366241455 24.5171165466309 24.2859554290771 24.1426734924316 24.0666236877441 24.0897235870361 24.1578788757324 24.2443542480469 24.4278354644775 24.7538604736328 25.146764755249 25.5226993560791 25.6869716644287 25.6680526733398 25.6508674621582 25.6587924957275 25.6326484680176 25.5084438323975 25.2349891662598 24.8583793640137 24.5959224700928 24.5659885406494 24.5912666320801 24.5851802825928 24.5034122467041 24.3721809387207 24.2514972686768 24.1146793365479 24.0543098449707 24.065149307251 24.1208229064941 24.211368560791 24.3264675140381 24.3350048065186 24.3220462799072 24.3325290679932 24.3232727050781 24.2486629486084
-9999 -9999 -9999 -9999 -9999 -9999 -9999 -9999 -9999 -9999 -9999 -9999 -9999 -9999 -9999 -9999 -9999 19.9913778305054 19.8178768157959 19.8701877593994 20.7297382354736 22.0841865539551 23.1638278961182 24.208833694458 25.3146095275879 26.3845462799072 27.0074005126953 27.0976829528809 26.842903137207 26.4768924713135 26.0032634735107 25.2588157653809 24.4578227996826 24.0542221069336 23.9681816101074 23.8859310150146 23.730318069458 23.5518360137939 23.4156475067139 23.4113674163818 23.5563850402832 23.8347930908203 24.1594257354736 24.5016460418701 24.80979347229 24.9843883514404 25.1019039154053 25.149299621582 25.0940380096436 24.9231014251709 24.6418857574463 24.387077331543 24.3497867584229 24.4555263519287 24.5448703765869 24.5312767028809 24.3871765136719 24.1811180114746 24.0232524871826 23.9359741210938 23.9162292480469 23.9423522949219 24.0019493103027 24.0359859466553 24.0880165100098 24.0810832977295 24.0798568725586 24.1301860809326 24.2176074981689 24.1638088226318
-9999 -9999 -9999 -9999 -9999 -9999 -9999 -9999 -9999 -9999 -9999 -9999 -9999 -9999 20.355696439743 20.3159008026123 20.2853608131409 20.2173471450806 20.6168174743652 21.1876926422119 22.2568302154541 23.6783676147461 25.0071277618408 25.9843082427979 26.7612895965576 27.0717353820801 27.0526065826416 26.8617134094238 26.6325168609619 26.3388156890869 25.7602024078369 24.8482875823975 24.0396614074707 23.6893119812012 23.6380672454834 23.6287670135498 23.4833927154541 23.2428894042969 23.0257377624512 22.9186458587646 22.9758033752441 23.2249279022217 23.5762939453125 23.9089336395264 24.1505088806152 24.2783451080322 24.3418712615967 24.4103031158447 24.4825267791748 24.4600582122803 24.3149852752686 24.212718963623 24.2719955444336 24.4235553741455 24.5177993774414 24.4726524353027 24.2693214416504 24.0075988769531 23.791332244873 23.6706047058105 23.6199741363525 23.6681938171387 23.7551212310791 23.787805557251 23.8278102874756 23.8151569366455 23.7947483062744 23.811487197876 23.85471534729 23.7083549499512
-9999 -9999 -9999 -9999 -9999 -9999 -9999 -9999 -9999 -9999 -9999 -9999 -9999 -9999 -9999 -9999 -9999 -9999 21.9663963317871 22.3257026672363 23.5011711120605 25.2519092559814 26.3568134307861 26.8647136688232 27.0570812225342 27.0485458374023 26.9189910888672 26.7017459869385 26.4165458679199 25.8937721252441 25.0694732666016 24.2618579864502 23.8655776977539 23.7328605651855 23.661003112793 23.6009159088135 23.4827785491943 23.3329296112061 23.2135925292969 23.1449851989746 23.1531867980957 23.2689800262451 23.4896144866943 23.7613315582275 23.9488925933838 24.010181427002 24.0200653076172 24.1211414337158 24.2620048522949 24.2622089385986 24.2227764129639 24.2450218200684 24.2973899841309 24.3674583435059 24.3468780517578 24.2504596710205 24.0508136749268 23.8101902008057 23.610315322876 23.4914436340332 23.4233417510986 23.4070072174072 23.3890857696533 23.4248924255371 23.5534324645996 23.5822296142578 23.5382041931152 23.4922122955322 23.4033546447754 23.2523021697998
-9999 -9999 -9999 -9999 -9999 -9999 -9999 -9999 -9999 -9999 -9999 -9999 -9999 -9999 -9999 -9999 -9999 24.8086643218994 24.0282754898071 23.735372543335 24.7719669342041 26.2557907104492 26.8773822784424 27.0908203125 27.0825576782227 26.9254608154297 26.6654224395752 26.342752456665 25.9342975616455 25.23264503479 24.3684310913086 23.8911075592041 23.8520660400391 23.8178405761719 23.7578048706055 23.6763114929199 23.5802688598633 23.4934520721436 23.4329013824463 23.3953800201416 23.3748569488525 23.3711757659912 23.4223327636719 23.5605926513672 23.7139625549316 23.8280925750732 23.9505367279053 24.0773487091064 24.1617736816406 24.1664657592773 24.202299118042 24.2021350860596 24.127592086792 24.0565986633301 23.9678363800049 23.8782234191895 23.7572765350342 23.6273250579834 23.5102348327637 23.4450702667236 23.3577747344971 23.2351188659668 23.1490840911865 23.2196216583252 23.3574142456055 23.3894672393799 23.3559989929199 23.3187656402588 23.2384757995605 23.2294769287109
-9999 -9999 -9999 -9999 -9999 -9999 -9999 -9999 -9999 -9999 -9999 -9999 -9999 25.1721992492676 25.2979231940375 -9999 25.3823719024658 25.2672410011292 24.8086643218994 25.2433624267578 26.2528896331787 26.9729347229004 27.2159557342529 27.1646327972412 26.9393043518066 26.6597595214844 26.2887687683105 25.8461799621582 25.3333969116211 24.6008930206299 23.9518394470215 23.7721366882324 23.8110122680664 23.7902297973633 23.742696762085 23.6897869110107 23.6431999206543 23.6078853607178 23.5898952484131 23.578426361084 23.5619449615479 23.5396537780762 23.5195255279541 23.5288543701172 23.5886249542236 23.6888179779053 23.8103160858154 23.8881721496582 23.886266708374 23.8508205413818 23.8653793334961 23.8165473937988 23.7334117889404 23.6844711303711 23.6524124145508 23.6320343017578 23.5844821929932 23.5390434265137 23.5028972625732 23.462100982666 23.3526821136475 23.22385597229 23.1933441162109 23.2633094787598 23.3368911743164 23.3710613250732 23.3679504394531 23.333475112915 23.266077041626 23.1897315979004
-9999 -9999 -9999 -9999 -9999 -9999 -9999 -9999 -9999 -9999 -9999 -9999 -9999 -9999 25.1721992492676 25.3403619130452 25.3812084197998 25.3835353851318 25.4955558776855 26.3940887451172 27.0862483978271 27.2523326873779 27.1763877868652 26.9543876647949 26.6774044036865 26.3467998504639 25.8791828155518 25.3469753265381 24.762809753418 24.1216259002686 23.7295379638672 23.6920471191406 23.7384204864502 23.7532501220703 23.7500305175781 23.7454624176025 23.7305698394775 23.709680557251 23.6840648651123 23.6584491729736 23.6292781829834 23.6041164398193 23.5852966308594 23.5776805877686 23.5846118927002 23.6047897338867 23.6273956298828 23.6217555999756 23.5915374755859 23.5818824768066 23.59401512146 23.5687866210938 23.5378150939941 23.5114765167236 23.479700088501 23.4653873443604 23.4402027130127 23.4223289489746 23.394681930542 23.3453807830811 23.2755222320557 23.2372951507568 23.2390975952148 23.2267913818359 23.2081336975098 23.1876201629639 23.1606540679932 23.0882034301758 23.0138149261475 22.8879642486572
-9999 -9999 -9999 -9999 -9999 -9999 -9999 -9999 -9999 -9999 -9999 -9999 -9999 -9999 25.2140021324158 25.1721992492676 25.4676780700684 25.7346687316895 26.3962173461914 27.1140365600586 27.3103809356689 27.2355041503906 26.9879150390625 26.6908683776855 26.3726577758789 25.929162979126 25.3792705535889 24.8504867553711 24.3251342773438 23.8860549926758 23.7094955444336 23.7212219238281 23.7555904388428 23.7656307220459 23.7601089477539 23.7657127380371 23.7571830749512 23.7308101654053 23.6949825286865 23.6587162017822 23.6210708618164 23.5768642425537 23.5269298553467 23.4900360107422 23.4719886779785 23.4666976928711 23.465913772583 23.4496231079102 23.4418640136719 23.4768867492676 23.5251388549805 23.5243911743164 23.5131931304932 23.4994621276855 23.4644451141357 23.4361534118652 23.3930892944336 23.3279361724854 23.2802562713623 23.2424621582031 23.2092437744141 23.2030048370361 23.1734981536865 23.0688915252686 22.9227619171143 22.8340034484863 22.8294982910156 22.8243198394775 22.7927932739258 22.7229747772217
-9999 -9999 -9999 -9999 -9999 -9999 -9999 -9999 -9999 -9999 -9999 24.8995685577393 24.9858093261719 25.1075744628906 25.1616897583008 25.4145450592041 26.1392250061035 26.8030586242676 27.2410678863525 27.3488330841064 27.2579536437988 26.9894561767578 26.6574897766113 26.3610420227051 26.0025024414062 25.5155830383301 25.0011119842529 24.5383968353271 24.1120796203613 23.8475303649902 23.7985572814941 23.8411388397217 23.9015445709229 23.909387588501 23.8586711883545 23.8486785888672 23.8644123077393 23.8607196807861 23.8214244842529 23.7589550018311 23.7129554748535 23.6745986938477 23.6081447601318 23.5296649932861 23.4681587219238 23.4288463592529 23.4165153503418 23.4001846313477 23.3536567687988 23.3434677124023 23.4369335174561 23.5247936248779 23.5351810455322 23.538459777832 23.5259113311768 23.499044418335 23.4532814025879 23.3795166015625 23.2806358337402 23.2184371948242 23.1693534851074 23.0950355529785 23.0325489044189 22.9396591186523 22.8336143493652 22.7889881134033 22.8002433776855 22.8343276977539 22.8376064300537 22.7956199645996
-9999 -9999 -9999 -9999 -9999 -9999 -9999 -9999 -9999 24.9310970306396 24.9525108337402 25.0992908477783 25.3441848754883 25.5111656188965 25.544921875 25.9577293395996 26.9618549346924 27.2639408111572 27.3361892700195 27.286449432373 27.0872821807861 26.7694072723389 26.4700813293457 26.0730686187744 25.6210823059082 25.2651195526123 24.8759460449219 24.434850692749 24.0830898284912 23.8801975250244 23.8420066833496 23.8771686553955 23.9639759063721 23.9975872039795 23.9072551727295 23.8511543273926 23.8766441345215 23.929666519165 23.9562320709229 23.9097805023193 23.8322677612305 23.7718658447266 23.6911735534668 23.5930595397949 23.503978729248 23.4526977539062 23.4571094512939 23.4854698181152 23.4719200134277 23.4090614318848 23.4070129394531 23.498664855957 23.5612983703613 23.5760688781738 23.5722618103027 23.5667839050293 23.5303230285645 23.4417400360107 23.289831161499 23.1555595397949 23.0565528869629 22.9587421417236 22.9124393463135 22.889087677002 22.8575344085693 22.8496475219727 22.869291305542 22.9192504882812 22.9231185913086 22.8566837310791
-9999 -9999 -9999 -9999 -9999 -9999 -9999 -9999 -9999 25.1349296569824 25.2800254821777 25.5657730102539 25.8541889190674 25.9960269927979 26.0540962219238 26.7624607086182 27.3218612670898 27.4726181030273 27.385799407959 27.1203460693359 26.7484588623047 26.3925437927246 26.1071300506592 25.8419036865234 25.5818653106689 25.3376369476318 24.9212646484375 24.4354915618896 24.109058380127 23.9095058441162 23.8326435089111 23.8413848876953 23.9667358398438 24.0737495422363 23.9898014068604 23.8831462860107 23.8574695587158 23.9047756195068 23.9673652648926 23.9792289733887 23.9233951568604 23.8442840576172 23.7501258850098 23.6339569091797 23.507682800293 23.4076881408691 23.3875675201416 23.4112358093262 23.4100818634033 23.4000492095947 23.4311103820801 23.4998245239258 23.5457096099854 23.5434989929199 23.5266799926758 23.5205059051514 23.4809761047363 23.4123268127441 23.2787742614746 23.1175003051758 22.989013671875 22.9347305297852 22.9463996887207 22.9608516693115 22.9435749053955 22.9325523376465 22.9477386474609 22.9882946014404 22.9862995147705 22.8972797393799
-9999 -9999 -9999 -9999 -9999 25.4737010002136 25.3344459533691 25.3458728790283 25.3434906005859 25.3672752380371 25.5020275115967 25.7819156646729 26.0973529815674 26.430492401123 26.9272232055664 27.4289798736572 27.5642127990723 27.3896770477295 27.1033153533936 26.7702293395996 26.4243869781494 26.0969562530518 25.8361511230469 25.6663589477539 25.6124858856201 25.4605045318604 25.0749015808105 24.5642395019531 24.1904354095459 23.9721221923828 23.8742771148682 23.8698863983154 24.02685546875 24.1947422027588 24.1132164001465 23.9857406616211 23.9472541809082 23.9572658538818 23.9826412200928 23.9951057434082 23.9620208740234 23.8945007324219 23.8004207611084 23.6805572509766 23.551456451416 23.4408493041992 23.3859710693359 23.361156463623 23.3295669555664 23.338794708252 23.4084548950195 23.475040435791 23.4986953735352 23.4740104675293 23.444543838501 23.4171409606934 23.3719444274902 23.3095321655273 23.1984767913818 23.059907913208 22.98362159729 23.0047225952148 23.0386333465576 23.0480728149414 23.0293006896973 23.0431518554688 23.0818996429443 23.1149883270264 23.1064796447754 22.9963283538818
-9999 -9999 -9999 -9999 25.6841869354248 25.4313888549805 25.4447822570801 25.5258464813232 25.5588035583496 25.6298389434814 25.7008209228516 26.0455722808838 26.5766544342041 27.1884479522705 27.5845432281494 27.6072044372559 27.3828144073486 27.1294612884521 26.8584175109863 26.4905338287354 26.1133193969727 25.8500289916992 25.6275482177734 25.4505920410156 25.4982604980469 25.5026435852051 25.2347640991211 24.7771549224854 24.3549995422363 24.1059074401855 23.9980964660645 23.9888648986816 24.1542663574219 24.3203010559082 24.2422103881836 24.1261081695557 24.0870723724365 24.0764007568359 24.0492362976074 24.0179748535156 23.9806709289551 23.928804397583 23.833683013916 23.7137851715088 23.5880222320557 23.490385055542 23.4479331970215 23.4208316802979 23.3884544372559 23.3895511627197 23.416130065918 23.4357624053955 23.4232196807861 23.390193939209 23.3905353546143 23.3813247680664 23.3021926879883 23.1946754455566 23.1027011871338 23.0269889831543 23.0504856109619 23.1110897064209 23.1395015716553 23.140022277832 23.1318416595459 23.1660213470459 23.2278919219971 23.2674503326416 23.2505722045898 23.1359519958496
-9999 -9999 -9999 25.6121869087219 25.5847873687744 25.3837356567383 25.5469455718994 25.7175617218018 25.8873863220215 26.0945377349854 26.2163066864014 26.7707347869873 27.3944225311279 27.6631031036377 27.6399211883545 27.4038696289062 27.1683464050293 26.9219493865967 26.5705966949463 26.1991367340088 25.8983268737793 25.6815605163574 25.3691596984863 24.9968547821045 25.1503772735596 25.3748989105225 25.3189029693604 25.0331478118896 24.6512355804443 24.3440818786621 24.2009658813477 24.2240142822266 24.4260120391846 24.5261726379395 24.417839050293 24.2683734893799 24.180850982666 24.1420650482178 24.0977191925049 24.0427570343018 24.0064907073975 23.9564380645752 23.8397979736328 23.7108135223389 23.5888080596924 23.5073375701904 23.4835681915283 23.4622821807861 23.4220581054688 23.4006824493408 23.390323638916 23.3739814758301 23.3426399230957 23.3311061859131 23.3562049865723 23.3445663452148 23.2443141937256 23.1483879089355 23.0976238250732 23.0897312164307 23.1660327911377 23.2280769348145 23.2506866455078 23.2694664001465 23.2641620635986 23.267635345459 23.3407020568848 23.402364730835 23.3799781799316 23.2710380554199
-9999 -9999 -9999 25.7104053497314 25.469367980957 25.483549118042 25.8391952514648 26.1949634552002 26.5620574951172 26.9600009918213 27.2981796264648 27.685474395752 27.7826843261719 27.7112693786621 27.4565238952637 27.1366653442383 26.9071731567383 26.5933647155762 26.1661949157715 25.8806381225586 25.7152538299561 25.4472732543945 25.0811061859131 24.7957630157471 24.8513469696045 25.0864334106445 25.2301292419434 25.1753387451172 24.9908504486084 24.7526359558105 24.5778312683105 24.5864295959473 24.7122707366943 24.6710662841797 24.481388092041 24.2904472351074 24.1843242645264 24.1325702667236 24.0842914581299 24.0488739013672 24.0320453643799 23.9617385864258 23.8426971435547 23.7181301116943 23.590202331543 23.5000228881836 23.4564361572266 23.4141788482666 23.3647289276123 23.3284797668457 23.290319442749 23.245849609375 23.2341365814209 23.2706241607666 23.2985229492188 23.2753295898438 23.198558807373 23.1432552337646 23.1200275421143 23.1302738189697 23.2060794830322 23.2761840820312 23.3190097808838 23.3792457580566 23.3891258239746 23.3646583557129 23.4397583007812 23.5361671447754 23.5364837646484 23.4429912567139
