NCOLS 35 
NROWS 26 
XLLCORNER -80 
YLLCORNER 33 
CELLSIZE 0.5 
NODATA_value -9999 
-9999.000000000000000 -9999 -9999 -9999 -9999 -9999 -9999 -9999 -9999 -9999 -9999 -9999 -9999 -9999 -9999 -9999 -9999 -9999 -9999 -9999 -9999 -9999 -9999 -9999 -9999 -9999 -9999 -9999 -9999 -9999 -9999 -9999 -9999 -9999 -9999
-9999 -9999 -9999 -9999 -9999 -9999 -9999 -9999 -9999 -9999 -9999 -9999 -9999 -9999 -9999 -9999 -9999 -9999 -9999 -9999 -9999 -9999 -9999 -9999 -9999 -9999 -9999 -9999 -9999 7.85340748710994 -9999 -9999 -9999 -9999 -9999
-9999 -9999 -9999 -9999 -9999 -9999 -9999 -9999 -9999 -9999 -9999 -9999 -9999 -9999 -9999 -9999 -9999 -9999 -9999 -9999 -9999 -9999 -9999 -9999 -9999 -9999 8.17145219577993 8.34742874687189 8.24431614607658 7.8623674658607 -9999 -9999 -9999 -9999 -9999
-9999 -9999 -9999 -9999 -9999 -9999 -9999 -9999 -9999 -9999 -9999 -9999 -9999 -9999 -9999 -9999 -9999 -9999 -9999 -9999 -9999 -9999 -9999 7.61577886148788 8.35420787763358 8.93570564994191 8.84910188534932 8.32270749216161 -9999 -9999 -9999 7.73821417011128 7.91301588636898 7.89439625439999 7.97336603534435
-9999 -9999 -9999 -9999 -9999 -9999 -9999 -9999 -9999 -9999 -9999 -9999 -9999 -9999 -9999 -9999 -9999 -9999 -9999 -9999 7.08357081391693 7.56441882582647 8.1597221010985 8.87130856844205 9.39546233026124 9.49846558968969 9.1731146181861 8.45484023284329 -9999 -9999 8.25768673660753 8.72020262361823 8.75882279806235 8.74001747315667 8.87857944456358
-9999 -9999 -9999 -9999 -9999 -9999 -9999 -9999 -9999 -9999 -9999 -9999 -9999 -9999 -9999 -9999 -9999 -9999 -9999 7.82087271595019 8.07727329581679 8.34078110753846 8.50708161108654 8.83098045379801 9.4413855961685 9.64113354684566 9.50429023537275 9.23181675448745 8.53384706064789 9.28402400809158 9.79937814006262 9.89638950089322 9.83066201133659 9.45975154790465 9.52500919847536
-9999 -9999 -9999 -9999 -9999 -9999 -9999 -9999 -9999 -9999 -9999 -9999 -9999 -9999 -9999 -9999 -9999 -9999 -9999 8.64140736333157 9.23749740388921 9.38364924118535 9.55950452957408 9.36649578245146 9.52542579150259 9.76187090042966 9.63896935412765 9.72772830159238 10.0329553644248 10.0545356909527 10.243415637413 10.6465351016557 10.6833065976824 10.3700692904042 10.7053848104979
-9999 -9999 -9999 -9999 -9999 -9999 -9999 -9999 -9999 -9999 -9999 -9999 -9999 -9999 -9999 -9999 -9999 -9999 -9999 8.70239911740214 9.79455861631654 9.89923782807045 10.4114584290629 10.3010360228115 10.0729232580034 10.2158313042597 10.279776499128 10.3474053765506 11.3927021342766 12.7480607525314 13.0952311158512 13.8449498384597 13.9165664931821 14.0370929272972 14.9807527460507
-9999 -9999 -9999 -9999 -9999 -9999 -9999 -9999 -9999 -9999 -9999 -9999 -9999 -9999 -9999 -9999 -9999 -9999 -9999 7.18703345731256 9.94765858093024 10.9067930651044 11.2384216985623 10.88465252209 10.4542955407379 10.6609947728271 11.0376541803703 11.6739563452168 15.1639404373292 16.890799783423 16.2434739182878 15.9115598395634 15.8968517123639 16.7785886537155 17.5770002266639
-9999 -9999 -9999 -9999 -9999 -9999 -9999 -9999 -9999 -9999 -9999 -9999 -9999 -9999 -9999 -9999 -9999 9.95714011162726 9.43402991164016 7.95866063585073 8.70116125187396 10.8497591064272 11.5007112446554 10.8030168796592 10.4230349203022 10.8995400611004 12.2844422296632 15.6346690677131 17.9296633859536 17.7965016257029 17.7220778396862 17.8149264711062 17.8472420417471 17.8394452080463 17.9958968801774
-9999 -9999 -9999 -9999 -9999 -9999 -9999 -9999 -9999 -9999 -9999 -9999 -9999 -9999 9.52343712176508 10.0837238354296 10.255825686885 10.4092794058786 10.345693105462 9.6916164387192 9.03380885948651 10.4095370124693 11.4412134865468 11.5810540216107 12.3348794472807 13.3368584882206 15.3373784884904 17.8909519146454 19.4357133125374 20.3852822337494 20.6256722125884 19.9923722989587 19.3317786963474 19.15390087092 18.6329910358395
-9999 -9999 -9999 -9999 -9999 -9999 -9999 -9999 -9999 -9999 -9999 -9999 10.1024571753976 10.6171067115412 10.8687173257652 10.9767605857524 11.3553876868423 11.8935444347448 11.7345859669354 11.5221681580336 11.5221152939118 12.4242536317982 13.7922805435836 15.0678854277986 15.732011161722 16.5533927071857 17.5513543755718 18.8445340056301 20.5843948761482 22.222131683668 22.4946395099094 21.6997976730866 20.3477189993187 19.9172484945846 19.5664475916439
-9999 -9999 -9999 -9999 -9999 -9999 -9999 -9999 -9999 -9999 -9999 -9999 10.6148774086127 11.2439020394389 11.4544423500688 12.1526497318796 13.3841106732449 14.591422107473 14.8887406779774 14.8139922301816 15.0179359967873 15.8124932743597 16.6432553376701 17.0129217772612 17.0814669279236 17.325340453359 17.8586274091508 19.0349966645807 20.8317041941042 22.4979767775741 22.6692681097219 22.0060065112435 20.6450196498909 19.8491693007927 19.4380638970183
-9999 -9999 -9999 -9999 -9999 -9999 -9999 -9999 -9999 7.36878514885007 8.41622920666476 10.144930240142 11.4125648240388 11.661271621111 12.4298273546454 14.2640969718011 15.3306703173904 15.8820980480604 16.2049418162926 16.3665162020578 16.6094843465845 16.7165710157382 16.9259469293563 17.0787928786867 17.3726531141299 17.7176064315563 18.3278091321377 19.2757011501415 20.6600501040628 21.7070752788458 22.0253583374162 21.6361435235442 20.3969746919977 19.4637314658061 19.2466696482118
-9999 -9999 -9999 -9999 -9999 -9999 -9999 -9999 -9999 -9999 10.2171243893076 12.0369812677424 12.124383646723 12.4337551642411 14.6031386684487 15.2258165754527 15.5161581984115 15.8406856289437 16.0794763507457 16.620147216837 17.1404559402528 17.9698434881029 18.5806644308511 18.7209453873651 18.5719370034187 18.915393804323 19.8549147510645 20.4156617653122 20.9786921755637 21.1182782482347 21.1793580665558 20.9948842985133 20.7919759524132 20.6661881070935 20.9063329698501
-9999 -9999 -9999 -9999 -9999 -9999 -9999 8.64319985234241 8.7010237112434 -9999 11.5999631559171 13.2508619733132 13.3714964221859 14.3339858012171 15.4309369842499 16.3440987977014 17.0151846184653 17.426753509083 17.8954852878789 18.6422812837183 20.0149824330548 20.765575126788 20.7535512779322 20.5486922676941 20.7692465158697 21.8948000657842 22.8930141727633 23.2847885395468 23.127747860559 22.7252318588854 22.2399034998281 22.1109725209445 22.3106971731343 22.2144079063691 22.025051375353
-9999 -9999 -9999 -9999 -9999 -9999 -9999 9.01737087497101 9.43121345887957 11.057342912214 13.4438958418241 15.094202629864 15.3697619977602 16.5509749966866 18.5779828182824 19.677697012745 20.5132694155879 20.9124033214344 21.2920653336994 21.9909273030083 22.6845585522965 23.1264680934399 23.3721991128881 23.0875317813932 22.9666136232274 23.3365811943037 23.6098943357285 23.5314324974404 23.4104704795484 23.4219874435161 23.4242457316537 23.2469237383498 22.8835415935992 22.5428195237287 22.383789457323
-9999 -9999 -9999 -9999 -9999 -9999 -9999 9.60872376343317 -9999 12.7371191433039 16.0469730689764 17.2187456750747 18.2503516529247 20.0580385697 21.9297590962155 22.9249437713749 23.4302058141622 23.6621233063845 23.7871661300417 23.8820474799581 23.7953350402584 23.6001837917133 23.4514746809364 23.3986049796613 23.403754867459 23.310722158478 22.9891523660652 22.6712435069721 22.5429336987445 22.616333515498 22.8067885119552 22.8634470554586 22.8002566355123 22.7518166377977 22.6929071112818
-9999 -9999 -9999 -9999 -9999 -9999 -9999 -9999 11.9080125855277 14.0268415001037 18.4457329597868 20.3644110651949 21.9934725070959 23.7994265026848 24.1313076236727 23.5740932075697 23.3001213563541 23.275784488374 23.2784136366871 23.2380579571932 23.0630606897085 22.8972178398501 22.7544101471455 22.7911415882926 22.7504494680285 22.498545605029 22.3512785826022 22.2799962984889 22.2153311486144 22.3581732137192 22.5330209119074 22.5794078256347 22.723444439985 22.8295302059125 22.8858721828357
-9999 -9999 -9999 -9999 -9999 -9999 -9999 -9999 -9999 16.950749954462 21.1118898207522 23.4066481638142 24.5917949471495 23.8557870653399 22.6211770342709 22.3863090744776 22.5136875710172 22.6308582644194 22.6990943088083 22.7456538211663 22.7451719147191 22.639744168958 22.4500554115432 22.2944307265737 22.1976611579776 22.1864296154518 22.2237642815663 22.2041288497695 22.2282127376308 22.377340240511 22.4911312102397 22.4710708687127 22.3499246773175 22.2087049520284 22.2800437557236
-9999 -9999 -9999 -9999 -9999 -9999 -9999 -9999 -9999 17.0185092496229 22.2380499626239 24.6880091465913 24.0378115611371 22.7640731025691 22.4365081855843 22.5826890141498 22.6448468654547 22.6557102322533 22.6171166777045 22.6323750923443 22.5220445948042 22.3370443374807 22.2485058425281 22.1764940896824 22.1092716907957 22.1292585348446 22.2161566766828 22.2500590718042 22.2737908532817 22.3357997328358 22.2903230093587 22.1577502179742 22.0707779901269 22.0809962393678 22.1905107341559
-9999 -9999 -9999 -9999 -9999 -9999 -9999 14.9856165363041 16.764543327524 20.2390572092543 24.266859260898 24.6092682274135 23.3403947329415 22.645687323795 22.631512897635 22.5659949495862 22.5627664912602 22.5674266336867 22.5320642058146 22.4463487144643 22.2738500830682 22.2141224398537 22.2204482415841 22.1839450184678 22.1733267465027 22.1812234398786 22.227848734421 22.3402386932035 22.3413258864085 22.2887467224164 22.1064189187284 22.0384636255239 22.0402500367098 22.0252320930073 22.0459372423728
-9999 -9999 -9999 -9999 -9999 -9999 15.3251011398636 17.9477074509818 21.9595640032287 24.5227971137597 24.7484280838671 23.9934693490157 23.0355701995633 22.3350911685445 22.6635562198836 22.678597832964 22.4095000423187 22.3609574348021 22.2901939343346 22.200745379201 22.2025187377479 22.2536506788754 22.2959235348353 22.3687489478992 22.441253244536 22.4357369961848 22.3026454636525 22.4167205869701 22.4720000297513 22.2637750445421 22.0664439550508 22.0755345119112 22.1627564816689 22.199314321622 22.2080675098423
-9999 -9999 -9999 -9999 14.7576768416277 16.9657267288428 18.7663648007383 21.3470726565897 24.5830301215978 24.8422807517648 23.8991595573639 23.3879171032799 22.8945363895459 22.1921515998203 22.3078101020721 22.7912609267987 22.5687157986287 22.2973276384668 22.2265152912133 22.264394539108 22.3330857922716 22.4146635255691 22.5969174782741 22.7735640388782 22.7726585111586 22.7490909240377 22.5101660525805 22.4117904839529 22.535556373038 22.4757965312534 22.3213923082794 22.3125301246313 22.3970915259893 22.460197074484 22.5079984033696
-9999 -9999 -9999 15.5809811486459 16.2118649724904 19.982446712538 23.279884020887 24.9440279714036 24.830055055446 23.901576097884 23.2677321407804 23.0954073855266 23.0133866854145 22.6350847831222 22.6204568622679 22.7832132719994 22.7976478906807 22.6035580172449 22.3701387329705 22.3582270913507 22.3886175448643 22.5385072398314 22.93170760888 23.124005183888 22.9599524148415 22.9252211414035 22.7317091590578 22.4718266964226 22.5323443259701 22.5276786556018 22.4344090300502 22.4080018361847 22.4567001648854 22.5313449494474 22.5819715549271
-9999 -9999 16.731007964495 19.9377202292678 21.596242152321 23.099385498426 25.1179370109248 24.8934703615262 24.08123798971 23.4649515078977 23.0001810891504 22.8326705330077 22.9538674707145 23.000838249701 22.9906418784887 23.0443870737286 23.0062210724703 22.7603496709908 22.4949496992346 22.5656885039364 22.8798860507471 23.1338063127417 23.2610178477345 23.2887422638242 23.2114372347476 23.0743394306184 22.896193592741 22.6514537606061 22.5209922768908 22.4901201983173 22.4557854901448 22.44917125059 22.4239507789583 22.4615055865779 22.5895161982609
