NCOLS 70 
NROWS 52 
XLLCORNER -80 
YLLCORNER 33 
CELLSIZE 0.25 
NODATA_value -9999 
-9999.000000000000000 -9999 -9999 -9999 -9999 -9999 -9999 -9999 -9999 -9999 -9999 -9999 -9999 -9999 -9999 -9999 -9999 -9999 -9999 -9999 -9999 -9999 -9999 -9999 -9999 -9999 -9999 -9999 -9999 -9999 -9999 -9999 -9999 -9999 -9999 -9999 -9999 -9999 -9999 -9999 -9999 -9999 -9999 -9999 -9999 -9999 -9999 -9999 -9999 -9999 -9999 -9999 -9999 -9999 -9999 -9999 -9999 -9999 -9999 -9999 -9999 -9999 -9999 -9999 -9999 -9999 -9999 -9999 -9999 -9999
-9999 -9999 -9999 -9999 -9999 -9999 -9999 -9999 -9999 -9999 -9999 -9999 -9999 -9999 -9999 -9999 -9999 -9999 -9999 -9999 -9999 -9999 -9999 -9999 -9999 -9999 -9999 -9999 -9999 -9999 -9999 -9999 -9999 -9999 -9999 -9999 -9999 -9999 -9999 -9999 -9999 -9999 -9999 -9999 -9999 -9999 -9999 -9999 -9999 -9999 -9999 -9999 -9999 -9999 -9999 -9999 -9999 -9999 -9999 -9999 -9999 -9999 -9999 -9999 -9999 -9999 -9999 -9999 -9999 -9999
-9999 -9999 -9999 -9999 -9999 -9999 -9999 -9999 -9999 -9999 -9999 -9999 -9999 -9999 -9999 -9999 -9999 -9999 -9999 -9999 -9999 -9999 -9999 -9999 -9999 -9999 -9999 -9999 -9999 -9999 -9999 -9999 -9999 -9999 -9999 -9999 -9999 -9999 -9999 -9999 -9999 -9999 -9999 -9999 -9999 -9999 -9999 -9999 -9999 -9999 -9999 -9999 -9999 -9999 -9999 -9999 -9999 -9999 -9999 4.12612295150757 -9999 -9999 -9999 -9999 -9999 -9999 -9999 -9999 -9999 -9999
-9999 -9999 -9999 -9999 -9999 -9999 -9999 -9999 -9999 -9999 -9999 -9999 -9999 -9999 -9999 -9999 -9999 -9999 -9999 -9999 -9999 -9999 -9999 -9999 -9999 -9999 -9999 -9999 -9999 -9999 -9999 -9999 -9999 -9999 -9999 -9999 -9999 -9999 -9999 -9999 -9999 -9999 -9999 -9999 -9999 -9999 -9999 -9999 -9999 -9999 -9999 -9999 -9999 -9999 -9999 7.14143037796021 6.95267009735107 6.4037880897522 5.64531230926514 4.64499950408936 -9999 -9999 -9999 -9999 -9999 -9999 -9999 -9999 -9999 -9999
-9999 -9999 -9999 -9999 -9999 -9999 -9999 -9999 -9999 -9999 -9999 -9999 -9999 -9999 -9999 -9999 -9999 -9999 -9999 -9999 -9999 -9999 -9999 -9999 -9999 -9999 -9999 -9999 -9999 -9999 -9999 -9999 -9999 -9999 -9999 -9999 -9999 -9999 -9999 -9999 -9999 -9999 -9999 -9999 -9999 -9999 -9999 -9999 -9999 -9999 -9999 -9999 6.55500984191895 7.07278680801392 7.12425708770752 7.05213785171509 6.75350761413574 6.27245759963989 -9999 -9999 -9999 -9999 -9999 -9999 -9999 -9999 -9999 -9999 -9999 -9999
-9999 -9999 -9999 -9999 -9999 -9999 -9999 -9999 -9999 -9999 -9999 -9999 -9999 -9999 -9999 -9999 -9999 -9999 -9999 -9999 -9999 -9999 -9999 -9999 -9999 -9999 -9999 -9999 -9999 -9999 -9999 -9999 -9999 -9999 -9999 -9999 -9999 -9999 -9999 -9999 -9999 -9999 -9999 -9999 -9999 -9999 -9999 -9999 -9999 -9999 7.28147411346436 7.29817819595337 7.66741752624512 7.6110725402832 7.22596073150635 6.73789739608765 -9999 -9999 -9999 -9999 -9999 -9999 -9999 -9999 -9999 -9999 -9999 4.41662247975667 4.37629663944244 4.1474757194519
-9999 -9999 -9999 -9999 -9999 -9999 -9999 -9999 -9999 -9999 -9999 -9999 -9999 -9999 -9999 -9999 -9999 -9999 -9999 -9999 -9999 -9999 -9999 -9999 -9999 -9999 -9999 -9999 -9999 -9999 -9999 -9999 -9999 -9999 -9999 -9999 -9999 -9999 -9999 -9999 -9999 -9999 -9999 -9999 4.93906688690186 -9999 -9999 7.17333281040192 7.29961729049683 7.49548816680908 7.76624631881714 7.90273427963257 8.04262924194336 7.71557807922363 7.21860313415527 -9999 -9999 -9999 -9999 -9999 -9999 -9999 -9999 4.19494104385376 4.40567636489868 4.40301847457886 4.35187721252441 4.43499612808228 4.46299409866333 4.45972061157227
-9999 -9999 -9999 -9999 -9999 -9999 -9999 -9999 -9999 -9999 -9999 -9999 -9999 -9999 -9999 -9999 -9999 -9999 -9999 -9999 -9999 -9999 -9999 -9999 -9999 -9999 -9999 -9999 -9999 -9999 -9999 -9999 -9999 -9999 -9999 -9999 -9999 -9999 -9999 -9999 -9999 -9999 -9999 -9999 4.82203722000122 5.04493236541748 6.15748262405396 7.32199621200562 7.91423511505127 8.20169162750244 8.36935520172119 8.4117603302002 8.33564186096191 8.08265399932861 7.75633502006531 -9999 -9999 -9999 -9999 -9999 -9999 -9999 4.50815343856812 4.40855646133423 4.39410305023193 4.43139362335205 4.49706363677979 4.62850189208984 4.76344966888428 4.91524076461792
-9999 -9999 -9999 -9999 -9999 -9999 -9999 -9999 -9999 -9999 -9999 -9999 -9999 -9999 -9999 -9999 -9999 -9999 -9999 -9999 -9999 -9999 -9999 -9999 -9999 -9999 -9999 -9999 -9999 -9999 -9999 -9999 -9999 -9999 -9999 -9999 -9999 -9999 -9999 -9999 7.28817431131999 7.63135035832723 7.12796440124512 6.83472108840942 6.6759033203125 7.02151107788086 7.63500499725342 8.06975173950195 8.23863506317139 8.30244731903076 8.35705280303955 8.35950088500977 8.22441864013672 8.00850486755371 7.56091871261597 -9999 -9999 -9999 -9999 -9999 4.94027773539225 4.73328399658203 4.57895565032959 4.51753044128418 4.66604852676392 4.88486099243164 5.02130126953125 5.12250995635986 5.27797317504883 5.52329206466675
-9999 -9999 -9999 -9999 -9999 -9999 -9999 -9999 -9999 -9999 -9999 -9999 -9999 -9999 -9999 -9999 -9999 -9999 -9999 -9999 -9999 -9999 -9999 -9999 -9999 -9999 -9999 -9999 -9999 -9999 -9999 -9999 -9999 -9999 -9999 -9999 -9999 -9999 -9999 7.01005411148071 7.21095418930054 7.64351463317871 8.03958225250244 8.17177295684814 8.20729541778564 8.28117752075195 8.33832359313965 8.39018058776855 8.42363166809082 8.42967796325684 8.42615699768066 8.37839508056641 8.12394237518311 7.7597508430481 7.3291597366333 6.62452411651611 -9999 -9999 -9999 5.20754075050354 5.11358499526978 4.97396421432495 4.89721059799194 4.99300146102905 5.32414484024048 5.7211742401123 5.94652891159058 5.98103761672974 5.96322917938232 6.08371591567993
-9999 -9999 -9999 -9999 -9999 -9999 -9999 -9999 -9999 -9999 -9999 -9999 -9999 -9999 -9999 -9999 -9999 -9999 -9999 -9999 -9999 -9999 -9999 -9999 -9999 -9999 -9999 -9999 -9999 -9999 -9999 -9999 -9999 -9999 -9999 -9999 -9999 -9999 7.53688907623291 7.76556921005249 7.95313596725464 8.18684577941895 8.29173469543457 8.33884143829346 8.36013317108154 8.390456199646 8.4343843460083 8.48177909851074 8.5068826675415 8.50475025177002 8.48371696472168 8.34042072296143 7.9250922203064 7.43161535263062 6.98254013061523 6.3645601272583 5.66829109191895 5.67005530993144 5.07960224151611 5.27960824966431 5.35736751556396 5.38863706588745 5.47285652160645 5.7169451713562 6.15863990783691 6.59421873092651 6.80923700332642 6.7812442779541 6.62161207199097 6.62422323226929
-9999 -9999 -9999 -9999 -9999 -9999 -9999 -9999 -9999 -9999 -9999 -9999 -9999 -9999 -9999 -9999 -9999 -9999 -9999 -9999 -9999 -9999 -9999 -9999 -9999 -9999 -9999 -9999 -9999 -9999 -9999 -9999 -9999 -9999 -9999 -9999 -9999 7.20368146896362 7.63250017166138 8.07264041900635 8.20614624023438 8.28364849090576 8.31251335144043 8.32950782775879 8.35009860992432 8.37611675262451 8.40790271759033 8.4373893737793 8.45866012573242 8.4650239944458 8.41873836517334 8.20157241821289 7.75361061096191 7.25686550140381 6.83504199981689 6.3710675239563 5.9195990562439 5.68729639053345 5.61372709274292 5.62848901748657 5.72746467590332 5.89324903488159 6.13074779510498 6.51070547103882 6.93441200256348 7.21918344497681 7.34303617477417 7.32624959945679 7.25748729705811 7.24352788925171
-9999 -9999 -9999 -9999 -9999 -9999 -9999 -9999 -9999 -9999 -9999 -9999 -9999 -9999 -9999 -9999 -9999 -9999 -9999 -9999 -9999 -9999 -9999 -9999 -9999 -9999 -9999 -9999 -9999 -9999 -9999 -9999 -9999 -9999 -9999 -9999 -9999 8.10720539093018 8.19540119171143 8.26882839202881 8.26628494262695 8.26545429229736 8.26052951812744 8.25359058380127 8.24841403961182 8.24949645996094 8.25769996643066 8.26995372772217 8.29949951171875 8.33291912078857 8.2898006439209 8.08950328826904 7.71318435668945 7.3508620262146 7.07975912094116 6.74839878082275 6.41468572616577 6.18390703201294 6.05781507492065 6.07732963562012 6.20998859405518 6.44993591308594 6.77717542648315 7.12641000747681 7.41362524032593 7.6334753036499 7.79294395446777 7.91581678390503 7.89799785614014 7.80289268493652
-9999 -9999 -9999 -9999 -9999 -9999 -9999 -9999 -9999 -9999 -9999 -9999 -9999 -9999 -9999 -9999 -9999 -9999 -9999 -9999 -9999 -9999 -9999 -9999 -9999 -9999 -9999 -9999 -9999 -9999 -9999 -9999 -9999 -9999 -9999 -9999 -9999 7.87773370742798 8.19902896881104 8.24276351928711 8.21461200714111 8.19768810272217 8.19217109680176 8.18397426605225 8.17930507659912 8.17402362823486 8.17665672302246 8.18246269226074 8.20926761627197 8.26415157318115 8.24869060516357 8.08224582672119 7.78294563293457 7.57134628295898 7.50681447982788 7.39856338500977 7.13996982574463 6.85977220535278 6.67531871795654 6.63752698898315 6.6901478767395 6.91674566268921 7.28740692138672 7.59818267822266 7.80855846405029 8.05131912231445 8.18264389038086 8.35308361053467 8.4009895324707 8.324049949646
-9999 -9999 -9999 -9999 -9999 -9999 -9999 -9999 -9999 -9999 -9999 -9999 -9999 -9999 -9999 -9999 -9999 -9999 -9999 -9999 -9999 -9999 -9999 -9999 -9999 -9999 -9999 -9999 -9999 -9999 -9999 -9999 -9999 -9999 -9999 -9999 6.7334771156311 7.46599197387695 8.04827308654785 8.16750049591064 8.17720890045166 8.20748043060303 8.22793006896973 8.22283363342285 8.22679138183594 8.2326774597168 8.24847030639648 8.26915073394775 8.29051113128662 8.33315563201904 8.33731651306152 8.23474979400635 8.0117301940918 7.84289455413818 7.83189296722412 7.8912558555603 7.78384113311768 7.53106689453125 7.34910821914673 7.36125993728638 7.38006496429443 7.66385221481323 8.23361301422119 8.70823764801025 8.91799354553223 9.12601470947266 9.09694290161133 9.0268087387085 8.95093154907227 8.84014225006104
-9999 -9999 -9999 -9999 -9999 -9999 -9999 -9999 -9999 -9999 -9999 -9999 -9999 -9999 -9999 -9999 -9999 -9999 -9999 -9999 -9999 -9999 -9999 -9999 -9999 -9999 -9999 -9999 -9999 -9999 -9999 -9999 -9999 -9999 -9999 -9999 -9999 7.61386442184448 7.67619657516479 7.81725120544434 8.02541065216064 8.23433113098145 8.32899951934814 8.33463001251221 8.32701778411865 8.32542514801025 8.35447597503662 8.40851211547852 8.4475040435791 8.46757984161377 8.4821605682373 8.4643087387085 8.34609031677246 8.19128894805908 8.09196662902832 8.09595108032227 8.03234386444092 7.93612766265869 7.96949863433838 8.18971920013428 8.35823249816895 8.65494537353516 9.26349830627441 9.75062656402588 9.86605262756348 10.0050106048584 9.94241523742676 9.78273487091064 9.61867809295654 9.35913753509521
-9999 -9999 -9999 -9999 -9999 -9999 -9999 -9999 -9999 -9999 -9999 -9999 -9999 -9999 -9999 -9999 -9999 -9999 -9999 -9999 -9999 -9999 -9999 -9999 -9999 -9999 -9999 -9999 -9999 -9999 -9999 -9999 -9999 -9999 -9999 -9999 -9999 -9999 7.14667940139771 -9999 7.79698705673218 8.19067096710205 8.38080596923828 8.4234676361084 8.41857528686523 8.43011569976807 8.48430252075195 8.53134536743164 8.52764797210693 8.49314117431641 8.52517127990723 8.56588649749756 8.53232288360596 8.49712944030762 8.43170928955078 8.39373302459717 8.32180213928223 8.34216690063477 8.62129402160645 9.23676300048828 9.69788455963135 9.94912147521973 10.3492336273193 10.6451654434204 10.7002172470093 10.790509223938 10.6336297988892 10.4735536575317 10.3060970306396 10.0679225921631
-9999 -9999 -9999 -9999 -9999 -9999 -9999 -9999 -9999 -9999 -9999 -9999 -9999 -9999 -9999 -9999 -9999 -9999 -9999 -9999 -9999 -9999 -9999 -9999 -9999 -9999 -9999 -9999 -9999 -9999 -9999 -9999 -9999 -9999 -9999 -9999 -9999 -9999 -9999 -9999 7.87701320648193 8.229172706604 8.43136024475098 8.49235534667969 8.52021408081055 8.60199737548828 8.65967559814453 8.65116882324219 8.57993984222412 8.53382205963135 8.59468555450439 8.62589931488037 8.61384773254395 8.70034885406494 8.79822635650635 8.7668981552124 8.7590446472168 8.91542816162109 9.55539417266846 10.57581615448 11.259952545166 11.4837970733643 11.5028524398804 11.4815988540649 11.4772005081177 11.5797452926636 11.4525327682495 11.3629541397095 11.3547401428223 11.5059432983398
-9999 -9999 -9999 -9999 -9999 -9999 -9999 -9999 -9999 -9999 -9999 -9999 -9999 -9999 -9999 -9999 -9999 -9999 -9999 -9999 -9999 -9999 -9999 -9999 -9999 -9999 -9999 -9999 -9999 -9999 -9999 -9999 -9999 -9999 8.2685045003891 7.37702035903931 7.05680990219116 -9999 6.73668527603149 6.87918663024902 7.52308130264282 8.13094806671143 8.48566055297852 8.64497470855713 8.74378108978271 8.87357521057129 8.89093017578125 8.84040832519531 8.7905330657959 8.77741432189941 8.82229804992676 8.81721305847168 8.83076953887939 9.04120922088623 9.24656391143799 9.23044967651367 9.41134643554688 9.871826171875 10.8352251052856 11.7110109329224 12.1274194717407 12.217414855957 12.1534433364868 12.0605621337891 12.1267671585083 12.3465299606323 12.4209184646606 12.4663925170898 12.6863212585449 13.1609525680542
-9999 -9999 -9999 -9999 -9999 -9999 -9999 -9999 -9999 -9999 -9999 -9999 -9999 -9999 -9999 -9999 -9999 -9999 -9999 -9999 -9999 -9999 -9999 -9999 -9999 -9999 -9999 5.20971155166626 5.20971155166626 5.35261821746826 5.86660385131836 7.24844884872437 8.47480583190918 8.63760185241699 8.59604740142822 8.46334838867188 8.14169692993164 7.73192882537842 7.23593139648438 7.00449562072754 7.42028999328613 8.02892971038818 8.53056812286377 8.83014965057373 9.05083751678467 9.2062406539917 9.24238872528076 9.23220252990723 9.20675659179688 9.18789958953857 9.18865585327148 9.20194339752197 9.299635887146 9.53981494903564 9.72246837615967 9.93632411956787 10.4330902099609 11.1021890640259 11.8053684234619 12.4323701858521 12.7432384490967 12.8135290145874 12.9131460189819 13.0676851272583 13.2755870819092 13.5225811004639 13.6194982528687 13.7668170928955 14.2524690628052 14.8509998321533
-9999 -9999 -9999 -9999 -9999 -9999 -9999 -9999 -9999 -9999 -9999 -9999 -9999 -9999 -9999 -9999 -9999 -9999 -9999 -9999 -9999 -9999 -9999 -9999 -9999 -9999 -9999 -9999 -9999 -9999 7.38230514526367 8.6325159072876 9.79374313354492 10.1281337738037 10.0614404678345 9.77202129364014 9.29954147338867 8.79697513580322 8.11971569061279 7.58393239974976 7.70185565948486 8.18380451202393 8.7065544128418 9.11635971069336 9.47527122497559 9.68302822113037 9.75023174285889 9.75659561157227 9.70564079284668 9.62910270690918 9.64738655090332 9.76903057098389 9.96556663513184 10.1884307861328 10.5059852600098 11.1098880767822 11.7364912033081 12.1849403381348 12.6682395935059 13.2643222808838 13.5807027816772 13.653660774231 13.7718172073364 14.0511312484741 14.3834838867188 14.7508516311646 15.1266565322876 15.6533432006836 16.2927589416504 16.7334156036377
-9999 -9999 -9999 -9999 -9999 -9999 -9999 -9999 -9999 -9999 -9999 -9999 -9999 -9999 -9999 -9999 -9999 -9999 -9999 -9999 -9999 -9999 -9999 -9999 -9999 8.30656464894613 8.63969294230143 9.0782995223999 9.56664729118347 9.35066604614258 9.78571796417236 10.2648696899414 10.6901082992554 10.8659257888794 10.705267906189 10.3631868362427 9.95899105072021 9.55532646179199 9.02987575531006 8.57646560668945 8.57338333129883 8.88929557800293 9.29801654815674 9.7069673538208 10.0790376663208 10.2711925506592 10.2894229888916 10.2089042663574 10.1044912338257 10.0507678985596 10.1466064453125 10.3543186187744 10.6094646453857 10.9589262008667 11.4935436248779 12.1119527816772 12.5048265457153 12.7173261642456 13.1024293899536 13.6998176574707 14.2452964782715 14.5462141036987 14.6616678237915 14.7967777252197 15.0655698776245 15.553656578064 16.1806869506836 16.8028984069824 17.2209491729736 17.5438385009766
-9999 -9999 -9999 -9999 -9999 -9999 -9999 -9999 -9999 -9999 -9999 -9999 -9999 -9999 -9999 -9999 -9999 -9999 -9999 -9999 -9999 -9999 -9999 -9999 8.00050354003906 8.33088493347168 8.58830547332764 8.99988842010498 9.64670467376709 10.2693300247192 10.754469871521 11.1343488693237 11.2764282226562 11.1890573501587 10.9764909744263 10.7057771682739 10.4610214233398 10.2387208938599 9.9554386138916 9.8187952041626 9.86450481414795 9.98687553405762 10.1655473709106 10.4403553009033 10.6972045898438 10.7707986831665 10.6856117248535 10.5734672546387 10.528697013855 10.5697536468506 10.6858682632446 10.8662672042847 11.1696653366089 11.609486579895 12.1260051727295 12.5586423873901 12.882378578186 13.2407131195068 13.7532787322998 14.4449892044067 15.0502281188965 15.3593807220459 15.5020809173584 15.5780801773071 15.8935708999634 16.5216464996338 17.1180572509766 17.4398460388184 17.6624603271484 17.9272441864014
-9999 -9999 -9999 -9999 -9999 -9999 -9999 -9999 -9999 -9999 -9999 -9999 -9999 -9999 -9999 -9999 -9999 -9999 -9999 -9999 -9999 -9999 -9999 -9999 8.49914646148682 9.05705547332764 9.5581636428833 10.0855445861816 10.6848917007446 11.1271858215332 11.4043207168579 11.5658922195435 11.5917139053345 11.5406370162964 11.4805765151978 11.3850908279419 11.2739591598511 11.1391544342041 10.9817247390747 10.9342460632324 10.9041528701782 10.9150199890137 10.9986228942871 11.1880178451538 11.4110584259033 11.459080696106 11.3136024475098 11.1918153762817 11.1815385818481 11.1842851638794 11.216136932373 11.360426902771 11.7152214050293 12.2693614959717 12.8930387496948 13.4502716064453 13.934045791626 14.4042453765869 14.8836793899536 15.4191846847534 15.8615455627441 16.035852432251 16.1294937133789 16.2277393341064 16.5892868041992 17.0625514984131 17.3422985076904 17.4662456512451 17.6666679382324 17.9783763885498
-9999 -9999 -9999 -9999 -9999 -9999 -9999 -9999 -9999 -9999 -9999 -9999 -9999 -9999 -9999 -9999 -9999 -9999 -9999 -9999 -9999 -9999 -9999 8.42860317230225 8.56572914123535 9.30053997039795 10.0364646911621 10.6980314254761 11.2490530014038 11.5771226882935 11.7830305099487 12.0988569259644 12.5066795349121 12.761323928833 12.8760023117065 12.877833366394 12.7695064544678 12.6004047393799 12.3758487701416 12.2068977355957 12.1305303573608 12.1253452301025 12.1487989425659 12.2954378128052 12.5670795440674 12.6480388641357 12.4469203948975 12.271897315979 12.1699523925781 12.0001335144043 11.9080400466919 12.0948152542114 12.5977420806885 13.2879257202148 13.9334239959717 14.4120435714722 14.7554225921631 15.0268487930298 15.2619857788086 15.5420742034912 15.8647804260254 16.1573810577393 16.4138736724854 16.6257171630859 16.8464126586914 17.0726432800293 17.2273654937744 17.3343029022217 17.5980415344238 17.9976539611816
-9999 -9999 -9999 -9999 -9999 -9999 -9999 -9999 -9999 -9999 -9999 -9999 -9999 -9999 -9999 -9999 -9999 -9999 -9999 -9999 -9999 -9999 -9999 8.0222692489624 8.62726783752441 9.42109298706055 10.1971464157104 10.9691562652588 11.5918054580688 11.9690799713135 12.3399457931519 13.0261993408203 13.7804851531982 14.213830947876 14.3965969085693 14.3985967636108 14.2888927459717 14.1259231567383 13.8651943206787 13.6594896316528 13.616005897522 13.5721406936646 13.4486846923828 13.4601755142212 13.6619348526001 13.7415418624878 13.5889577865601 13.4100847244263 13.1384649276733 12.7601175308228 12.6330766677856 12.9272022247314 13.4607591629028 14.0174598693848 14.4784069061279 14.8676958084106 15.2255306243896 15.5750637054443 15.8606815338135 16.0555019378662 16.1809387207031 16.3084125518799 16.4585857391357 16.6363658905029 16.813045501709 16.9858512878418 17.1426906585693 17.2891292572021 17.5808811187744 18.030122756958
-9999 -9999 -9999 -9999 -9999 -9999 -9999 -9999 -9999 -9999 -9999 -9999 -9999 -9999 -9999 -9999 -9999 -9999 -9999 -9999 -9999 -9999 8.08733940124512 8.40362930297852 9.1389045715332 9.93989181518555 10.7005014419556 11.4357423782349 12.0192670822144 12.5165786743164 13.2298936843872 14.1582727432251 14.8597774505615 15.1948280334473 15.313346862793 15.2867393493652 15.1796464920044 14.9850654602051 14.7024087905884 14.4997100830078 14.4857425689697 14.467137336731 14.2800846099854 14.1236019134521 14.1373195648193 14.1613025665283 14.1285839080811 14.014799118042 13.6833553314209 13.2889776229858 13.2364435195923 13.5574703216553 14.0215129852295 14.5984601974487 15.2330522537231 15.8248310089111 16.3468322753906 16.7856578826904 17.0865039825439 17.2406139373779 17.2534637451172 17.1710357666016 17.0551261901855 16.9969425201416 17.0042324066162 17.0472030639648 17.1316204071045 17.2834434509277 17.5798530578613 18.0385799407959
-9999 -9999 -9999 -9999 -9999 -9999 -9999 -9999 -9999 -9999 -9999 -9999 -9999 -9999 7.68328493171268 -9999 -9999 -9999 -9999 7.53052282333374 -9999 8.26931667327881 8.59689617156982 9.24970054626465 9.9753532409668 10.6778831481934 11.3730621337891 12.0087556838989 12.6731595993042 13.6333141326904 14.6825637817383 15.413293838501 15.7311201095581 15.7907905578613 15.7710790634155 15.7196664810181 15.626124382019 15.4397888183594 15.1461791992188 14.8776969909668 14.8111476898193 14.8211345672607 14.6714162826538 14.5230770111084 14.5374898910522 14.5735721588135 14.5347328186035 14.3653631210327 14.0442657470703 13.7541589736938 13.8085985183716 14.2633867263794 14.961537361145 15.7856025695801 16.5372905731201 17.1492786407471 17.6755790710449 18.0924263000488 18.3650283813477 18.4968433380127 18.5130519866943 18.4479789733887 18.3316116333008 18.1839962005615 18.0250072479248 17.8993301391602 17.8533935546875 17.9506702423096 18.2181816101074 18.6131820678711
-9999 -9999 -9999 -9999 -9999 -9999 -9999 -9999 -9999 -9999 -9999 -9999 -9999 -9999 7.68148553371429 -9999 -9999 -9999 -9999 7.68921041488647 8.50314712524414 8.96880626678467 9.64461803436279 10.2366075515747 10.7214012145996 11.2238130569458 11.8118181228638 12.5992851257324 13.7677574157715 15.0211572647095 15.7891674041748 16.0270118713379 16.0560741424561 16.0667705535889 16.0345249176025 15.9112253189087 15.7682962417603 15.6496896743774 15.5177659988403 15.3923797607422 15.3211517333984 15.2274379730225 15.0002918243408 14.7859983444214 14.7854804992676 14.9590511322021 15.0514297485352 14.8595209121704 14.5089406967163 14.3034238815308 14.579873085022 15.3389844894409 16.2517528533936 17.0335292816162 17.5923290252686 18.1024265289307 18.6338558197021 19.0908737182617 19.4152717590332 19.6130123138428 19.7074546813965 19.7206592559814 19.679349899292 19.5981388092041 19.4945011138916 19.4015789031982 19.3632698059082 19.4272613525391 19.5914325714111 19.819881439209
-9999 -9999 -9999 -9999 -9999 -9999 -9999 -9999 -9999 -9999 -9999 -9999 -9999 -9999 7.68958282470703 -9999 -9999 -9999 -9999 -9999 9.80103206634521 9.89919185638428 10.5717458724976 11.0159425735474 11.3998136520386 11.8260154724121 12.5234127044678 13.7410526275635 15.0612096786499 15.8610677719116 16.1570739746094 16.2448883056641 16.3895626068115 16.656364440918 16.8717613220215 16.9155139923096 16.9514083862305 17.1138820648193 17.2873344421387 17.3742523193359 17.3456516265869 17.1203956604004 16.6820468902588 16.1968593597412 15.8361654281616 15.6256408691406 15.5041389465332 15.4073543548584 15.2277822494507 15.0674686431885 15.3911352157593 16.1999645233154 17.0918807983398 17.7801456451416 18.2660312652588 18.8036460876465 19.3968162536621 19.8987312316895 20.2564735412598 20.4862670898438 20.6207218170166 20.6909217834473 20.7177658081055 20.7148132324219 20.6875839233398 20.6584053039551 20.6538314819336 20.6942081451416 20.786600112915 20.9069290161133
-9999 -9999 -9999 -9999 -9999 -9999 -9999 -9999 -9999 -9999 -9999 -9999 -9999 -9999 7.67720079421997 -9999 7.65719366073608 -9999 -9999 -9999 9.86377048492432 10.4723596572876 11.2116250991821 11.7432146072388 12.3089380264282 12.9677639007568 13.9874429702759 15.1263694763184 15.8423166275024 16.222583770752 16.4118976593018 16.5058536529541 16.7543430328369 17.2452983856201 17.7522239685059 18.119441986084 18.4860649108887 18.9362659454346 19.3218631744385 19.5438079833984 19.5990219116211 19.4589405059814 19.1095657348633 18.6060981750488 18.0088176727295 17.3965396881104 16.8742008209229 16.5126647949219 16.2672328948975 16.1462631225586 16.3685111999512 16.9890804290771 17.733003616333 18.297248840332 18.7645969390869 19.3654937744141 19.9938888549805 20.5008983612061 20.8492259979248 21.0630397796631 21.1927471160889 21.279821395874 21.3412952423096 21.3844509124756 21.4118690490723 21.4296245574951 21.4499893188477 21.4865703582764 21.538423538208 21.5717258453369
-9999 -9999 -9999 -9999 -9999 -9999 -9999 -9999 -9999 -9999 -9999 -9999 -9999 -9999 7.67720079421997 7.66481876373291 7.62347936630249 -9999 -9999 10.1078221797943 10.0361461639404 10.9722023010254 11.8143796920776 12.5615224838257 13.4406509399414 14.3334741592407 15.1612691879272 15.7391633987427 16.1015644073486 16.5019149780273 16.8507328033447 17.0748462677002 17.3329601287842 17.8151378631592 18.4484405517578 18.9862880706787 19.4731731414795 20.001823425293 20.434627532959 20.6964321136475 20.8068141937256 20.7902698516846 20.6448726654053 20.3541946411133 19.909008026123 19.363597869873 18.7789916992188 18.1870098114014 17.6450424194336 17.3165302276611 17.305362701416 17.6480197906494 18.1508159637451 18.6280632019043 19.2118339538574 19.9324588775635 20.5764713287354 21.0327491760254 21.3149185180664 21.4697666168213 21.5581932067871 21.6171741485596 21.6597080230713 21.6961669921875 21.7318916320801 21.7740592956543 21.8223628997803 21.8334274291992 21.7992668151855 21.7701816558838
-9999 -9999 -9999 -9999 -9999 -9999 -9999 -9999 -9999 -9999 -9999 -9999 -9999 -9999 -9999 7.75204496383667 7.61605501174927 -9999 9.40558469295502 9.89176940917969 10.6396026611328 11.6828479766846 12.5975999832153 13.4357137680054 14.2521142959595 14.9015483856201 15.3111391067505 15.6352128982544 15.9984750747681 16.4535312652588 17.0701522827148 17.7608413696289 18.2736625671387 18.6970882415771 19.1956844329834 19.5862350463867 19.9965858459473 20.5437412261963 21.0097198486328 21.2867412567139 21.4188175201416 21.4477634429932 21.3933734893799 21.2597637176514 21.0186519622803 20.6659564971924 20.2049102783203 19.7108783721924 19.179723739624 18.7153701782227 18.492883682251 18.6035747528076 18.9567737579346 19.4389038085938 20.037015914917 20.6282005310059 21.09885597229 21.4091396331787 21.5693435668945 21.6267356872559 21.6540012359619 21.688663482666 21.721622467041 21.7432308197021 21.7757987976074 21.8436965942383 21.8863906860352 21.8396797180176 21.793909072876 21.8161296844482
-9999 -9999 -9999 -9999 -9999 -9999 -9999 -9999 -9999 -9999 -9999 -9999 -9999 -9999 -9999 7.82320356369019 8.0326681137085 -9999 9.77644729614258 10.3832445144653 11.4377574920654 12.5258016586304 13.4700613021851 14.1210699081421 14.528980255127 14.9873142242432 15.4721450805664 15.9168062210083 16.2905426025391 16.6163806915283 17.0909328460693 17.7968235015869 18.6352291107178 19.2484645843506 19.5402641296387 19.7098178863525 20.1240921020508 20.7650756835938 21.2937030792236 21.5992698669434 21.7379570007324 21.7954292297363 21.8090019226074 21.7508850097656 21.6118431091309 21.409553527832 21.1168251037598 20.7798709869385 20.4312305450439 20.0908126831055 19.8819389343262 19.8893337249756 20.0930709838867 20.3985843658447 20.7470741271973 21.093147277832 21.3812389373779 21.5390167236328 21.5820121765137 21.5760974884033 21.5892734527588 21.6440277099609 21.669771194458 21.6567687988281 21.6544208526611 21.6902885437012 21.7066307067871 21.6789569854736 21.720552444458 21.8242225646973
-9999 -9999 -9999 -9999 -9999 -9999 -9999 -9999 -9999 -9999 -9999 -9999 -9999 -9999 -9999 7.98951625823975 -9999 9.43762683868408 10.1993246078491 11.1047372817993 12.1893348693848 13.2897977828979 14.2572364807129 15.0423669815063 15.7612066268921 16.6538429260254 17.5391368865967 18.1582889556885 18.4896278381348 18.6235179901123 18.680944442749 18.7539920806885 18.993579864502 19.2873725891113 19.4845771789551 19.7291049957275 20.3085746765137 21.0403385162354 21.5564861297607 21.7989826202393 21.8685264587402 21.9002380371094 21.9293613433838 21.9048137664795 21.8283386230469 21.7215118408203 21.5749969482422 21.3803253173828 21.183572769165 20.9960269927979 20.8567085266113 20.8088760375977 20.8473129272461 20.9526309967041 21.1162090301514 21.3182334899902 21.473503112793 21.5229110717773 21.4972114562988 21.5004024505615 21.5495491027832 21.6152191162109 21.608678817749 21.5560646057129 21.4959831237793 21.4729499816895 21.5108661651611 21.548189163208 21.5995635986328 21.6678409576416
-9999 -9999 -9999 -9999 -9999 -9999 -9999 -9999 -9999 -9999 -9999 -9999 -9999 -9999 7.98951625823975 8.40031782786051 8.82049751281738 10.0506439208984 10.7928667068481 11.6577224731445 12.6387138366699 13.7202939987183 14.9079504013062 16.2197303771973 17.5988712310791 18.9085350036621 19.8944892883301 20.4609622955322 20.7244129180908 20.7955322265625 20.7285423278809 20.5488414764404 20.3380794525146 20.2109794616699 20.2019309997559 20.4425868988037 21.0022945404053 21.5412082672119 21.8103504180908 21.8345546722412 21.7383117675781 21.694034576416 21.737964630127 21.7615776062012 21.7279758453369 21.6764030456543 21.6212253570557 21.5230979919434 21.4120769500732 21.3141403198242 21.2402763366699 21.2014045715332 21.19948387146 21.2432956695557 21.3318786621094 21.4381446838379 21.4743061065674 21.4493236541748 21.4334583282471 21.4819278717041 21.5500984191895 21.562047958374 21.4923286437988 21.4056034088135 21.3369674682617 21.3324871063232 21.4176712036133 21.4955806732178 21.5170783996582 21.5110492706299
-9999 -9999 -9999 -9999 -9999 -9999 -9999 -9999 -9999 -9999 -9999 -9999 -9999 -9999 -9999 -9999 10.1720888614655 10.5228748321533 11.456337928772 12.1437635421753 12.9121208190918 13.9878530502319 15.5646553039551 17.4254779815674 19.3303928375244 20.8090114593506 21.6054725646973 21.9504299163818 22.0432357788086 22.0143566131592 21.9381847381592 21.8040084838867 21.6122303009033 21.4463901519775 21.3722057342529 21.481388092041 21.7159061431885 21.8504638671875 21.8202724456787 21.6564674377441 21.4752750396729 21.433967590332 21.4819297790527 21.5176525115967 21.5100116729736 21.4837512969971 21.4661312103271 21.4318923950195 21.4125919342041 21.4014720916748 21.3814659118652 21.3653221130371 21.3517246246338 21.3599224090576 21.4199771881104 21.4530792236328 21.4133186340332 21.3682403564453 21.3942565917969 21.4480476379395 21.4716892242432 21.4147777557373 21.3162841796875 21.2593173980713 21.2468662261963 21.2629776000977 21.3453941345215 21.4504680633545 21.5467395782471 21.5872802734375
-9999 -9999 -9999 -9999 -9999 -9999 -9999 -9999 -9999 -9999 -9999 -9999 -9999 -9999 -9999 -9999 10.908607006073 11.2943391799927 12.2596817016602 12.8137521743774 13.4146404266357 14.7203540802002 17.00124168396 19.3033638000488 21.1749362945557 22.1676902770996 22.5325298309326 22.5737590789795 22.4713039398193 22.3307609558105 22.2134666442871 22.1109638214111 22.0124740600586 21.9266471862793 21.8731117248535 21.8506126403809 21.8253498077393 21.7574405670166 21.6030616760254 21.3935565948486 21.2728996276855 21.2623615264893 21.2783622741699 21.2971878051758 21.310022354126 21.3204402923584 21.3452835083008 21.3779067993164 21.4096870422363 21.4135990142822 21.3933429718018 21.3750457763672 21.3617992401123 21.3827152252197 21.4208183288574 21.3753509521484 21.2779560089111 21.2496242523193 21.286003112793 21.3202133178711 21.3316345214844 21.3083934783936 21.2752227783203 21.3003940582275 21.339485168457 21.3562183380127 21.42698097229 21.5354595184326 21.6586399078369 21.7161407470703
-9999 -9999 -9999 -9999 -9999 -9999 -9999 -9999 -9999 -9999 -9999 -9999 -9999 -9999 -9999 -9999 -9999 12.4108409881592 12.7444725036621 13.494532585144 14.2437343597412 16.1254501342773 19.0734424591064 21.1918716430664 22.3588790893555 22.8281631469727 22.8558959960938 22.675178527832 22.4324378967285 22.2113018035889 22.0548877716064 21.9406585693359 21.8507461547852 21.7629375457764 21.6837062835693 21.6120891571045 21.5589752197266 21.5019435882568 21.3723258972168 21.2327575683594 21.1677780151367 21.1470127105713 21.1395626068115 21.1420154571533 21.1543636322021 21.1775169372559 21.2202301025391 21.2637882232666 21.2891273498535 21.2826881408691 21.2638454437256 21.2511577606201 21.2592220306396 21.2829856872559 21.2627716064453 21.1683788299561 21.0812549591064 21.0936717987061 21.1601715087891 21.222074508667 21.2910766601562 21.360200881958 21.3966598510742 21.4591770172119 21.5379676818848 21.5842628479004 21.6148433685303 21.555233001709 21.5335578918457 21.5034828186035
-9999 -9999 -9999 -9999 -9999 -9999 -9999 -9999 -9999 -9999 -9999 -9999 -9999 -9999 11.1979061365128 11.2943391799927 12.5236805677414 13.0446715354919 13.3448705673218 14.057149887085 15.318507194519 18.0254230499268 20.9226722717285 22.2875156402588 22.9822578430176 23.143648147583 22.9310188293457 22.5951805114746 22.2784481048584 22.0409564971924 21.8859710693359 21.7250995635986 21.5651073455811 21.4366893768311 21.3596572875977 21.3353252410889 21.3522205352783 21.3469715118408 21.2587966918945 21.1630878448486 21.1072597503662 21.0751037597656 21.060432434082 21.0620079040527 21.0804462432861 21.1051635742188 21.1387844085693 21.1692314147949 21.1866874694824 21.1900577545166 21.1831607818604 21.1783504486084 21.1938343048096 21.2011775970459 21.1431121826172 21.0592613220215 21.041389465332 21.1200904846191 21.2096519470215 21.2793846130371 21.3788757324219 21.4935283660889 21.5540103912354 21.6230430603027 21.7284450531006 21.776252746582 21.7271823883057 21.5157871246338 21.3162078857422 21.2339725494385
-9999 -9999 -9999 -9999 -9999 -9999 -9999 -9999 -9999 -9999 -9999 -9999 -9999 -9999 -9999 -9999 -9999 -9999 14.4690761566162 14.744460105896 16.3306198120117 19.2602272033691 21.8886013031006 22.9864387512207 23.3637180328369 23.2300701141357 22.863166809082 22.5027961730957 22.2069187164307 22.0202884674072 21.8967037200928 21.7112064361572 21.5275344848633 21.3932132720947 21.3304443359375 21.3272590637207 21.3434410095215 21.3188152313232 21.22385597229 21.128734588623 21.0716953277588 21.0316371917725 21.0023155212402 20.9991569519043 21.0328521728516 21.0812587738037 21.1226387023926 21.1426544189453 21.1494998931885 21.1727142333984 21.2042446136475 21.2078323364258 21.1984958648682 21.199125289917 21.1871242523193 21.1735248565674 21.2381896972656 21.3715076446533 21.4874134063721 21.558500289917 21.6372203826904 21.7377109527588 21.797571182251 21.8459186553955 21.9186515808105 21.9074306488037 21.7797737121582 21.518928527832 21.2411403656006 21.1080932617188
-9999 -9999 -9999 -9999 -9999 -9999 -9999 -9999 -9999 -9999 -9999 -9999 -9999 -9999 -9999 -9999 -9999 16.1335601806641 16.1795709133148 15.7298240661621 17.9423065185547 21.2689590454102 22.994836807251 23.5780735015869 23.5467395782471 23.1714248657227 22.7599067687988 22.4201011657715 22.1156921386719 21.9356536865234 21.8349571228027 21.672779083252 21.5274143218994 21.4409809112549 21.4096965789795 21.401309967041 21.3812141418457 21.3192138671875 21.2150840759277 21.1316757202148 21.0923690795898 21.0637989044189 21.0390491485596 21.0415172576904 21.0849418640137 21.1400871276855 21.1832580566406 21.2068424224854 21.2120094299316 21.2079067230225 21.2095336914062 21.2282447814941 21.2568664550781 21.2724876403809 21.2930870056152 21.3206920623779 21.3768367767334 21.4732303619385 21.5878467559814 21.7159233093262 21.8362350463867 21.9453563690186 22.0042400360107 21.9738063812256 21.9768314361572 21.8995819091797 21.7387256622314 21.5165100097656 21.2688674926758 21.0982494354248
-9999 -9999 -9999 -9999 -9999 -9999 -9999 -9999 -9999 -9999 -9999 -9999 -9999 18.0466842651367 18.3471965789795 -9999 18.3667106628418 17.9161291122437 16.1335601806641 18.1104393005371 21.4261112213135 23.1858062744141 23.7640438079834 23.8188495635986 23.476318359375 22.981201171875 22.6285133361816 22.3215599060059 21.9787769317627 21.7498264312744 21.6437530517578 21.5291576385498 21.4635047912598 21.4531745910645 21.4532012939453 21.4338932037354 21.3900279998779 21.3202857971191 21.2335109710693 21.175163269043 21.1635971069336 21.1626129150391 21.1638298034668 21.1850776672363 21.2312355041504 21.2768096923828 21.3046493530273 21.3064785003662 21.2959461212158 21.2819519042969 21.2694854736328 21.2681217193604 21.2994976043701 21.3437080383301 21.4011650085449 21.46728515625 21.533971786499 21.5943870544434 21.6522560119629 21.7380676269531 21.8506145477295 21.9693794250488 22.0293273925781 21.9756298065186 21.9318828582764 21.8702812194824 21.7412147521973 21.5420246124268 21.3377170562744 21.1573677062988
-9999 -9999 -9999 -9999 -9999 -9999 -9999 -9999 -9999 -9999 -9999 -9999 -9999 -9999 18.0466842651367 18.7115478515625 18.2833576202393 18.4500637054443 18.797534942627 21.8119621276855 23.6040058135986 24.0527305603027 24.0737743377686 23.7884407043457 23.2429542541504 22.7739181518555 22.5053806304932 22.2155933380127 21.8356590270996 21.5677947998047 21.4691352844238 21.4119300842285 21.4072704315186 21.434850692749 21.4556159973145 21.4485282897949 21.4075298309326 21.3492755889893 21.2850818634033 21.2456321716309 21.2444305419922 21.2587928771973 21.2814311981201 21.3151912689209 21.3586559295654 21.3951816558838 21.4132595062256 21.4084949493408 21.3997116088867 21.3888492584229 21.3754062652588 21.3603553771973 21.374626159668 21.4168014526367 21.481409072876 21.5534229278564 21.6158676147461 21.6605739593506 21.695198059082 21.7599906921387 21.8439846038818 21.9326324462891 21.9986038208008 21.9620933532715 21.9097232818604 21.8662376403809 21.795202255249 21.6264019012451 21.4398918151855 21.2428760528564
-9999 -9999 -9999 -9999 -9999 -9999 -9999 -9999 -9999 -9999 -9999 -9999 -9999 -9999 18.9044861793518 18.0466842651367 19.8046016693115 20.6391487121582 22.0876560211182 23.8344135284424 24.2474269866943 24.1939601898193 23.9573020935059 23.4550075531006 22.8672847747803 22.5543727874756 22.3750267028809 22.0958442687988 21.7380924224854 21.5003051757812 21.417407989502 21.3776969909668 21.3844432830811 21.4240093231201 21.4715785980225 21.5025577545166 21.4927291870117 21.4570808410645 21.4158992767334 21.3905563354492 21.3908748626709 21.4126625061035 21.4548053741455 21.5134925842285 21.5677528381348 21.6014537811279 21.6124496459961 21.5988502502441 21.5794506072998 21.5583934783936 21.5426120758057 21.5227012634277 21.5223789215088 21.5401191711426 21.5752983093262 21.6130790710449 21.6454429626465 21.676097869873 21.7147521972656 21.77756690979 21.8445739746094 21.92138671875 21.973653793335 21.9273262023926 21.8432006835938 21.829345703125 21.8401565551758 21.753490447998 21.5799369812012 21.3637371063232
-9999 -9999 -9999 -9999 -9999 -9999 -9999 -9999 -9999 -9999 -9999 17.9363822937012 18.2929344177246 19.0837211608887 18.6614837646484 19.8260555267334 21.962438583374 23.1266536712646 23.94677734375 24.330493927002 24.3613033294678 24.1642475128174 23.712926864624 23.0493621826172 22.5657520294189 22.4076271057129 22.2982921600342 22.0752639770508 21.7953681945801 21.6123504638672 21.5270214080811 21.4537029266357 21.4046726226807 21.4099941253662 21.4789810180664 21.5698356628418 21.6146774291992 21.6195373535156 21.6100006103516 21.6042671203613 21.6147232055664 21.6468715667725 21.6979179382324 21.7469539642334 21.7716083526611 21.764591217041 21.7332592010498 21.6891250610352 21.6518669128418 21.6264495849609 21.6266632080078 21.6384735107422 21.6530780792236 21.6702728271484 21.6826152801514 21.6951770782471 21.7151107788086 21.753454208374 21.809175491333 21.8551750183105 21.8950614929199 21.9391040802002 21.9429149627686 21.8652229309082 21.7626800537109 21.7444801330566 21.8055744171143 21.8200187683105 21.7113380432129 21.5154724121094
-9999 -9999 -9999 -9999 -9999 -9999 -9999 -9999 -9999 17.7520713806152 18.2385730743408 18.9985504150391 19.7950134277344 20.4559154510498 20.1814727783203 21.3618392944336 23.2499237060547 24.0289402008057 24.3591232299805 24.4260597229004 24.2685985565186 23.8723392486572 23.242223739624 22.6416816711426 22.3979988098145 22.3026065826416 22.2252063751221 22.0844459533691 21.9005031585693 21.7755489349365 21.7037982940674 21.6385326385498 21.5833587646484 21.5377807617188 21.5262184143066 21.5851154327393 21.6709537506104 21.7251682281494 21.7377014160156 21.7321166992188 21.742561340332 21.7867393493652 21.8454036712646 21.8781661987305 21.8578586578369 21.7962245941162 21.723030090332 21.6653690338135 21.6407222747803 21.6481189727783 21.6766529083252 21.7137298583984 21.7456893920898 21.7702980041504 21.7883396148682 21.8210048675537 21.8772087097168 21.9239368438721 21.8911666870117 21.8248043060303 21.7938747406006 21.8299179077148 21.8634605407715 21.8142223358154 21.7285900115967 21.69970703125 21.7350997924805 21.785945892334 21.7739009857178 21.6473636627197
-9999 -9999 -9999 -9999 -9999 -9999 -9999 -9999 -9999 18.254545211792 19.1064548492432 20.3034820556641 21.1628818511963 21.6302680969238 21.6017189025879 22.9505195617676 23.922872543335 24.3519172668457 24.5106258392334 24.4332637786865 24.1465854644775 23.6332702636719 22.973653793335 22.499324798584 22.3245906829834 22.2143154144287 22.1348152160645 22.0659599304199 21.9864311218262 21.9313507080078 21.8932647705078 21.8538875579834 21.8146591186523 21.7673740386963 21.7108993530273 21.6827812194824 21.7101821899414 21.7625255584717 21.7892303466797 21.8025379180908 21.8660583496094 21.969367980957 22.0430450439453 22.0510177612305 21.9947566986084 21.8665657043457 21.7253532409668 21.6695499420166 21.6875305175781 21.7213306427002 21.7413711547852 21.7528076171875 21.7851276397705 21.8338775634766 21.8939342498779 21.960470199585 21.9837055206299 21.9164867401123 21.7892627716064 21.6812019348145 21.6362819671631 21.6766986846924 21.7654361724854 21.766393661499 21.7073268890381 21.6924610137939 21.7135143280029 21.7429370880127 21.7735080718994 21.7363300323486
-9999 -9999 -9999 -9999 -9999 18.1814866065979 18.1947536468506 18.4885158538818 18.4514846801758 18.6442928314209 19.6555786132812 21.1785583496094 22.1396484375 22.6374282836914 23.3236751556396 24.0783576965332 24.4219532012939 24.5867786407471 24.5529117584229 24.2968559265137 23.9064998626709 23.4152679443359 22.881778717041 22.5380878448486 22.3530788421631 22.2468147277832 22.1975078582764 22.1794719696045 22.1599044799805 22.1379909515381 22.0978107452393 22.0423736572266 21.9760093688965 21.8999977111816 21.8305473327637 21.7887153625488 21.7805709838867 21.8129768371582 21.8612289428711 21.940393447876 22.0584411621094 22.1433925628662 22.1562633514404 22.138463973999 22.1054763793945 21.9925994873047 21.83984375 21.7696514129639 21.7665596008301 21.7717342376709 21.7557106018066 21.7549686431885 21.8242969512939 21.9233989715576 21.9846954345703 21.9921989440918 21.9223480224609 21.8144607543945 21.7267818450928 21.6659259796143 21.6400470733643 21.6797046661377 21.7381210327148 21.7511005401611 21.713960647583 21.7169036865234 21.732120513916 21.756519317627 21.7819995880127 21.7893104553223
-9999 -9999 -9999 -9999 17.4221954345703 17.9043369293213 19.2046604156494 19.7821788787842 19.9420566558838 20.0534725189209 20.8078231811523 22.1619129180908 22.9280567169189 23.5078201293945 24.0394821166992 24.3436126708984 24.572057723999 24.6627464294434 24.4756660461426 24.1048526763916 23.7048225402832 23.3308124542236 22.9516716003418 22.6688365936279 22.4154930114746 22.3069858551025 22.262264251709 22.2256622314453 22.1933364868164 22.1734867095947 22.1581516265869 22.1298942565918 22.0699634552002 21.968297958374 21.8677864074707 21.8344612121582 21.8550033569336 21.9131088256836 21.9985065460205 22.0897731781006 22.1547031402588 22.1476020812988 22.1104011535645 22.0971755981445 22.0890598297119 22.0233764648438 21.9266757965088 21.8575897216797 21.8125514984131 21.788516998291 21.7648525238037 21.7679557800293 21.8542041778564 21.9545803070068 21.9864559173584 21.952278137207 21.8645534515381 21.820873260498 21.8062267303467 21.7712707519531 21.7137241363525 21.6878356933594 21.6897087097168 21.6865844726562 21.6806945800781 21.6990242004395 21.7296752929688 21.7590961456299 21.7799835205078 21.7966480255127
-9999 -9999 -9999 17.8889031410217 17.8378982543945 19.0472030639648 20.2408428192139 20.8385581970215 21.2603530883789 21.5337238311768 22.02880859375 22.7733631134033 23.2885894775391 23.7476100921631 24.2473201751709 24.5622482299805 24.658561706543 24.5447769165039 24.1422061920166 23.7441368103027 23.5424289703369 23.30446434021 23.0358200073242 22.861608505249 22.5632724761963 22.3524341583252 22.2662315368652 22.2037239074707 22.1369209289551 22.1080379486084 22.129487991333 22.1331214904785 22.1015224456787 22.0253887176514 21.9152393341064 21.8679084777832 21.93310546875 22.0223979949951 22.0717468261719 22.1131114959717 22.1242771148682 22.07861328125 22.0298252105713 22.0144557952881 22.0054740905762 21.9648818969727 21.9123649597168 21.8616180419922 21.8176593780518 21.7957763671875 21.7852516174316 21.8036575317383 21.8764762878418 21.94260597229 21.9585590362549 21.9194946289062 21.8820495605469 21.9312477111816 21.9528522491455 21.9321002960205 21.849250793457 21.7455177307129 21.7027359008789 21.7096118927002 21.7004909515381 21.6799259185791 21.6730918884277 21.6956424713135 21.7080364227295 21.7284297943115
-9999 -9999 -9999 17.7777538299561 18.517765045166 20.0109157562256 21.1216487884521 21.6620807647705 22.0911998748779 22.3792419433594 22.698299407959 23.2038116455078 23.747932434082 24.3043117523193 24.6784439086914 24.7304172515869 24.6829948425293 24.4474277496338 23.9327392578125 23.5506706237793 23.5112457275391 23.3379917144775 23.1478977203369 23.0708484649658 22.8813552856445 22.6271305084229 22.4331893920898 22.3114852905273 22.1953582763672 22.1104888916016 22.1430740356445 22.1899681091309 22.1772060394287 22.1097259521484 22.0114250183105 21.9215831756592 21.9475402832031 22.0318546295166 22.0732727050781 22.1013793945312 22.0774440765381 22.0059471130371 21.9537582397461 21.9338569641113 21.9217376708984 21.9017848968506 21.8834743499756 21.8659725189209 21.8450698852539 21.8268451690674 21.8218936920166 21.8396949768066 21.8735504150391 21.9002685546875 21.8958644866943 21.8508987426758 21.8588695526123 21.9623374938965 22.0116233825684 22.0544242858887 22.0947723388672 22.0645980834961 22.0421123504639 22.096134185791 22.1108989715576 22.0635356903076 21.9931125640869 21.9512271881104 21.8933544158936 21.8132076263428
