NCOLS 35 
NROWS 26 
XLLCORNER -80 
YLLCORNER 33 
CELLSIZE 0.5 
NODATA_value -9999 
-9999.000000000000000 -9999 -9999 -9999 -9999 -9999 -9999 -9999 -9999 -9999 -9999 -9999 -9999 -9999 -9999 -9999 -9999 -9999 -9999 -9999 -9999 -9999 -9999 -9999 -9999 -9999 -9999 -9999 -9999 -9999 -9999 -9999 -9999 -9999 -9999
-9999 -9999 -9999 -9999 -9999 -9999 -9999 -9999 -9999 -9999 -9999 -9999 -9999 -9999 -9999 -9999 -9999 -9999 -9999 -9999 -9999 -9999 -9999 -9999 -9999 -9999 -9999 -9999 -9999 3.99017802751864 -9999 -9999 -9999 -9999 -9999
-9999 -9999 -9999 -9999 -9999 -9999 -9999 -9999 -9999 -9999 -9999 -9999 -9999 -9999 -9999 -9999 -9999 -9999 -9999 -9999 -9999 -9999 -9999 -9999 -9999 -9999 4.52715562087378 4.55864616057293 4.54153966407015 4.34233830267642 -9999 -9999 -9999 -9999 -9999
-9999 -9999 -9999 -9999 -9999 -9999 -9999 -9999 -9999 -9999 -9999 -9999 -9999 -9999 -9999 -9999 -9999 -9999 -9999 -9999 -9999 -9999 -9999 5.47956948745136 5.20496161995258 4.91437501670925 4.78090274052309 4.95474042416634 -9999 -9999 -9999 4.30409572920912 3.49347997657907 3.01553640412916 2.91281695942665
-9999 -9999 -9999 -9999 -9999 -9999 -9999 -9999 -9999 -9999 -9999 -9999 -9999 -9999 -9999 -9999 -9999 -9999 -9999 -9999 6.25498488599493 5.85102107573863 5.56935025611405 5.31979298252989 5.20908991425358 5.18592554105994 5.18583872887261 5.26001670249299 -9999 -9999 4.75698892095772 4.14869805914123 3.19136811199918 2.79701546104915 3.24927139536797
-9999 -9999 -9999 -9999 -9999 -9999 -9999 -9999 -9999 -9999 -9999 -9999 -9999 -9999 -9999 -9999 -9999 -9999 -9999 6.28283931922646 6.17557729067661 5.88893628116323 5.76169773459327 5.56332533413505 5.37574690210929 5.33963929674926 5.13805145969658 4.99068263106379 5.16344793590521 4.58991244095122 3.98991393698406 3.81281958541411 3.39033286763059 3.27510558217823 3.7630418264514
-9999 -9999 -9999 -9999 -9999 -9999 -9999 -9999 -9999 -9999 -9999 -9999 -9999 -9999 -9999 -9999 -9999 -9999 -9999 6.69098863829306 6.7745108941435 6.47366927205971 6.31051934628444 6.01252486465727 5.4811151656723 5.49087640384274 5.24753909519154 4.69437923469671 4.3051495832754 3.86207097550648 3.72454842777499 3.84322033886432 3.89269952458441 4.33378439405577 5.17139277871574
-9999 -9999 -9999 -9999 -9999 -9999 -9999 -9999 -9999 -9999 -9999 -9999 -9999 -9999 -9999 -9999 -9999 -9999 -9999 7.10641695787738 7.03142527140792 6.87036574067189 6.66880609773165 6.33049013837544 5.90764847650987 5.9751664506082 5.784081780703 4.81468540110103 3.83664408048666 4.05951781822974 4.58831795268944 5.4304050139017 6.08880083567347 6.53498521494575 8.08244281440764
-9999 -9999 -9999 -9999 -9999 -9999 -9999 -9999 -9999 -9999 -9999 -9999 -9999 -9999 -9999 -9999 -9999 -9999 -9999 8.2287426472101 7.46310955144435 7.14126533445634 7.04982570615633 7.03481937080945 7.04216266538638 6.82410089883607 6.53771391321475 5.49958797377718 4.98344066426997 6.15989506094856 7.73127976979233 8.65982722940188 8.55870846558288 8.43422272194094 8.62809572813876
-9999 -9999 -9999 -9999 -9999 -9999 -9999 -9999 -9999 -9999 -9999 -9999 -9999 -9999 -9999 -9999 -9999 8.79410051048398 8.65208563412276 8.55528019816943 8.13347499715824 7.47810278479404 7.42774168600021 7.60143493167644 7.56161441424705 7.19997495166938 6.49825112347743 5.79526302958376 7.03244466750358 8.68617876716481 11.1508751339918 12.7157452842717 13.6981523877975 14.240725243164 13.6969312323142
-9999 -9999 -9999 -9999 -9999 -9999 -9999 -9999 -9999 -9999 -9999 -9999 -9999 -9999 9.12138239732185 8.99386338244607 8.87371529436607 8.61623741360994 8.15185118745491 7.68333587152331 7.47811044471186 7.40537114390835 7.67928444337151 7.90406731196242 7.83115814913292 7.300146347979 6.96623800874841 8.2283204052681 10.4003058469224 12.132376246185 14.850877604383 16.7386036463763 18.0313598792419 19.0024515108263 19.954799737535
-9999 -9999 -9999 -9999 -9999 -9999 -9999 -9999 -9999 -9999 -9999 -9999 9.71639555006266 9.34629522244556 9.15325818655615 8.97262987884158 8.65568597622184 8.47803550985318 8.48724634210448 8.43050611899659 8.14226262711584 8.18471131798316 8.64506880726951 9.36030577491478 9.27881100002111 8.47910521003633 9.47647768933999 10.9112800306716 12.1824078088235 14.7661822883957 16.1492860336872 16.7443512962345 17.7350061615418 19.0539039482984 20.086403875132
-9999 -9999 -9999 -9999 -9999 -9999 -9999 -9999 -9999 -9999 -9999 -9999 9.72875695175656 9.46265120799283 9.54595664232275 9.05715967853125 9.25882504778341 9.75417078735738 9.66202805123412 10.5490748281732 11.3700133173193 11.4180664299445 11.9394399662892 12.7461269870891 12.512017297345 11.9005657642252 12.8409200831102 13.911236053858 14.0689647726011 14.8855546518358 16.1512359026 16.3105796560338 17.4303500452623 19.3443056078593 20.1585449850331
-9999 -9999 -9999 -9999 -9999 -9999 -9999 -9999 -9999 11.062790837456 11.1180335737417 10.3641917928336 9.89974843989231 10.1307318426117 10.0231941011419 9.90875942529976 10.9349315323984 11.8022527215442 12.0312605351291 12.9264920128165 14.5480502149265 15.4329344894035 16.2488166555919 16.7731150184865 17.3283461565614 17.0442036253793 18.0378106575283 18.5406987742055 17.8514542135576 17.2345479136161 16.9311332313834 16.356813811837 18.0692689966952 19.6228733685574 20.564998140037
-9999 -9999 -9999 -9999 -9999 -9999 -9999 -9999 -9999 -9999 10.8603296397702 10.4686824459095 10.6499727421894 11.0234379073374 10.738153682017 11.3120604666326 12.3959772853395 13.6477432419502 14.1519538940502 14.7990959784653 16.2308383854582 16.825390290564 16.8304577698545 16.9522177598142 17.6710905748059 18.7768473736118 19.6875575342938 19.9421508417031 20.5762333959746 20.6175890334392 19.9566360437875 19.2173870850062 19.5452456834721 20.4274980054208 21.1678668537173
-9999 -9999 -9999 -9999 -9999 -9999 -9999 11.142635219022 12.3241709005184 -9999 11.2418212320351 11.3852034378935 12.0750352893858 12.4385467351719 13.3914555402427 15.8625858124167 16.4449278078721 17.9671988853776 18.6988984104787 18.8346020870279 18.6940571305705 18.1199188555888 17.9497569575899 18.1736873879505 18.5232179190193 19.8516814441187 21.0578213056353 22.4075520433119 23.1129739421605 22.8211747365171 22.0011713207639 21.4268887829234 21.3607676414585 21.4520978506399 21.7221108089366
-9999 -9999 -9999 -9999 -9999 -9999 -9999 12.578831942277 12.9546715174313 12.5400667276358 11.8155423428441 13.0337416535473 14.7921268447314 16.0891432674852 17.8421944862274 20.0919377304765 20.3524768623613 20.9116934364899 21.7988891549161 22.3163234742085 22.2822167339089 21.8126382888652 21.1597364530035 20.6390456808838 20.5885648978058 21.5017015390004 22.5440301822398 23.0676571774196 22.6851660637529 21.8364562804769 21.5569213302359 21.650810045336 21.7664475716729 21.7486168508993 21.8109606683446
-9999 -9999 -9999 -9999 -9999 -9999 -9999 14.4553672963567 -9999 12.9599654828036 12.8259596602651 15.204520719316 17.4924528966058 20.0564128429334 21.8723002664426 22.8430039382567 23.1213362601508 23.2112053992473 23.2500843114912 23.0276606937257 22.7812678177131 22.7640628444865 22.8533259061074 22.9160045326624 23.0053576285814 23.1298289107157 23.0619167013294 22.642338923622 21.4957153518577 20.5624928504573 20.681100976118 21.0021339142786 21.2311120225013 21.4420409471109 21.6880103544572
-9999 -9999 -9999 -9999 -9999 -9999 -9999 -9999 14.5314952696924 13.3801987481912 13.8758025888765 17.039944648612 20.5645686360303 23.4104046522907 23.8592671940779 23.0241871882153 22.20667569582 21.4953035314693 20.8597413142979 20.6546441061142 20.8944960504196 21.4676315754498 21.7948495952584 21.9738479116102 22.1326612582327 22.1408467329573 22.2431979721449 22.1289773194033 21.2832794704178 20.7862116936175 20.6581541797478 20.9045792620574 21.0852134370527 21.2230356191856 21.5262984134126
-9999 -9999 -9999 -9999 -9999 -9999 -9999 -9999 -9999 15.0524722513962 16.626418310296 21.4362187862651 24.1393616370537 23.2431543994211 21.4159250754511 20.4501009728318 20.0985187119121 20.0838039743632 20.3566300065721 20.7901935778803 21.1569374594059 21.4357791104592 21.352839729539 21.2528004880607 21.6058330387741 21.9132852922797 22.1245706322989 22.0980933594576 21.6400159011169 21.4620406345291 20.5318018868287 20.4843609050488 20.6728691465276 20.8450214815128 21.2034894380519
-9999 -9999 -9999 -9999 -9999 -9999 -9999 -9999 -9999 18.6010670253889 21.9539067888227 24.4341978661804 22.9178457107154 20.8607329858292 20.2655748100758 20.2254478907823 20.411031161476 20.5795878765615 20.6619451616789 20.6865125296962 20.815438791317 20.9768059555712 21.0179534153231 21.0229445620129 21.4710087486076 21.9958091226581 22.1942655465424 21.993019966028 21.6447768227178 21.4135797819541 20.8042027807204 20.3001602372876 20.3575515720836 20.4246365676529 20.7113046193291
-9999 -9999 -9999 -9999 -9999 -9999 -9999 20.0486449944251 20.5937537939593 22.1603154589924 24.3470061523254 23.5819450895248 21.2486697569651 20.3639724299428 20.406062140719 20.5144676202935 20.6416619034076 20.6641013029837 20.6636775406958 20.716274312969 20.8367336043243 20.8251294122053 20.8016436205922 20.9836426376327 21.2219506989723 21.3384019608646 21.5976482530301 21.5894191729226 21.3983450399118 21.1888413532496 20.6660430103751 20.1363035256922 20.0465880099308 20.1294604200143 20.3942817511729
-9999 -9999 -9999 -9999 -9999 -9999 20.3787633421358 20.8266028076223 23.0170277413247 24.821023709055 24.3733382344379 22.4118719703854 20.7190859071828 20.4273460118144 20.5030523034868 20.580899557 20.6063480016558 20.6013876253504 20.537864385967 20.549575882614 20.58441548568 20.4856994183803 20.3317151348183 20.2700169564954 20.3886130282168 20.6600892858045 20.9849318450726 21.1947822737293 21.2454553474024 21.0271135978488 20.4461346260453 20.0796638615425 19.9338517045127 19.9691470553035 20.3009388586618
-9999 -9999 -9999 -9999 20.8885224112539 21.1564750668826 21.8606234613217 23.1450875392166 24.9541160213587 24.9974756333107 24.0385569453192 22.4194311656958 21.0404301164324 20.5734696228028 20.3742230812285 20.4585223847444 20.6285336613028 20.5586963135403 20.4659647373322 20.464397251311 20.4125048289577 20.2453590396984 20.0743617637856 20.0596289376009 20.1729652439441 20.2628787443703 20.3660820695709 20.544493366807 20.6925900711463 20.6291851799401 20.4177185839603 20.2316290999735 20.0635183342798 19.9808437137572 20.2982215684934
-9999 -9999 -9999 21.2652070114979 21.2240578054703 22.1214771188534 23.6940908839195 24.8445939831999 25.3788364519248 24.9779064595455 24.3238179101427 23.4065996203084 22.4499308155362 21.6117899075427 21.0150839615568 20.825097395217 20.8983098981327 20.7977741773037 20.3787774599965 20.2184400080121 20.3539651710006 20.2533373373417 20.1404583678859 20.1267269175551 20.0607839419411 20.0638262190618 20.114852214305 20.1344654673687 20.2419667958969 20.464091859737 20.6349709265566 20.5410572130546 20.3366569987971 20.2668415696293 20.4206089647045
-9999 -9999 21.5013342730718 21.9459061675671 22.6623221308841 23.6587106591015 24.8204677439646 25.3648949990488 25.5875450093686 25.1167226438311 24.638657057491 23.7359525237976 22.5544601526137 21.69154058399 21.3986826059094 21.3925665346735 21.3689706204733 21.0871018279776 20.4235870603937 20.3162754561691 20.3766765179424 20.3862389688179 20.3390897889546 20.2663852559102 20.1356470686101 20.127821694053 20.2700966576957 20.3085778189193 20.2067322572941 20.1938632927187 20.483018779721 20.7190177918015 20.548091290606 20.3744570937784 20.395352019282
