NCOLS 35 
NROWS 26 
XLLCORNER -80 
YLLCORNER 33 
CELLSIZE 0.5 
NODATA_value -9999 
-9999.000000000000000 -9999 -9999 -9999 -9999 -9999 -9999 -9999 -9999 -9999 -9999 -9999 -9999 -9999 -9999 -9999 -9999 -9999 -9999 -9999 -9999 -9999 -9999 -9999 -9999 -9999 -9999 -9999 -9999 -9999 -9999 -9999 -9999 -9999 -9999
-9999 -9999 -9999 -9999 -9999 -9999 -9999 -9999 -9999 -9999 -9999 -9999 -9999 -9999 -9999 -9999 -9999 -9999 -9999 -9999 -9999 -9999 -9999 -9999 -9999 -9999 -9999 -9999 -9999 7.89329493100495 -9999 -9999 -9999 -9999 -9999
-9999 -9999 -9999 -9999 -9999 -9999 -9999 -9999 -9999 -9999 -9999 -9999 -9999 -9999 -9999 -9999 -9999 -9999 -9999 -9999 -9999 -9999 -9999 -9999 -9999 -9999 8.21157812871339 8.21118989505815 8.09464998181913 7.9333179963166 -9999 -9999 -9999 -9999 -9999
-9999 -9999 -9999 -9999 -9999 -9999 -9999 -9999 -9999 -9999 -9999 -9999 -9999 -9999 -9999 -9999 -9999 -9999 -9999 -9999 -9999 -9999 -9999 8.73621961316179 8.42071871316062 8.13911954273423 8.00780979283856 8.19298035284269 -9999 -9999 -9999 6.84209710662117 6.48135204567376 6.23214391781328 6.18113024615082
-9999 -9999 -9999 -9999 -9999 -9999 -9999 -9999 -9999 -9999 -9999 -9999 -9999 -9999 -9999 -9999 -9999 -9999 -9999 -9999 9.08705877634696 8.91239904160551 8.83463394423043 8.75829308622021 8.33384781946393 8.19758431341654 8.08506110065339 8.32982642882304 -9999 -9999 7.1176863913574 6.93651975386081 6.59468138978065 6.69005952039623 6.7757559611137
-9999 -9999 -9999 -9999 -9999 -9999 -9999 -9999 -9999 -9999 -9999 -9999 -9999 -9999 -9999 -9999 -9999 -9999 -9999 9.16724081944129 9.22659537369409 9.08776406886199 8.93176147937424 8.88841490203191 8.59716795096476 8.33604364153831 7.95401092398608 7.82310290009429 8.08795783611592 7.63889716542875 7.00751702063464 6.73118325796984 6.57033525597866 6.84828662123529 7.0423238430385
-9999 -9999 -9999 -9999 -9999 -9999 -9999 -9999 -9999 -9999 -9999 -9999 -9999 -9999 -9999 -9999 -9999 -9999 -9999 9.47862008580565 9.50290380956437 9.39543312199525 9.16637630773059 8.94760704513073 8.80929497274757 8.5712039821205 8.18436919730928 7.72524520591583 7.29557188446343 7.09183956790592 6.73983537725764 7.09375853829681 7.13725170429008 7.76271009642848 8.52975886411785
-9999 -9999 -9999 -9999 -9999 -9999 -9999 -9999 -9999 -9999 -9999 -9999 -9999 -9999 -9999 -9999 -9999 -9999 -9999 9.9941515064582 9.7928939572522 9.61524018691267 9.44712390551151 9.16034404195823 8.87154410044712 8.54212845562448 8.24095293362764 7.42385187915245 7.13012698266074 8.47363682329346 9.32299972467182 10.0436768501766 9.61931331730643 8.97378506927098 10.830671861646
-9999 -9999 -9999 -9999 -9999 -9999 -9999 -9999 -9999 -9999 -9999 -9999 -9999 -9999 -9999 -9999 -9999 -9999 -9999 11.3033254903893 9.96699324821925 9.66720050024577 9.61476309688989 9.49975630773535 9.23345925245611 8.78652675947994 8.3989052098025 7.65405600242467 9.28571998382546 12.3371543733315 12.5872343452496 12.5250981562645 12.1182247115631 12.004511156199 13.6414023064732
-9999 -9999 -9999 -9999 -9999 -9999 -9999 -9999 -9999 -9999 -9999 -9999 -9999 -9999 -9999 -9999 -9999 11.0353643503014 11.0656643091625 10.9383335563571 10.0963594115274 9.51294324003268 9.70990994254563 9.72081482653664 9.49005776357119 9.17469331720405 8.50878313601105 9.6194078364168 12.547186105598 13.5009808578199 13.5346999854153 13.9697745386165 14.5681964008486 15.5084332672312 16.5390916509165
-9999 -9999 -9999 -9999 -9999 -9999 -9999 -9999 -9999 -9999 -9999 -9999 -9999 -9999 11.5304783050221 11.1415327147334 11.0253778317503 10.6751514992712 10.3032221946515 9.90057315985739 9.55756765019746 9.73831016963056 10.203159133765 10.4691925844597 10.4941821230268 10.7552679145796 11.8789268402273 13.9501663885159 15.2626860631802 15.4578021357292 15.7858155867485 15.9454570158185 16.1347343430525 16.9479245297694 18.0321287885667
-9999 -9999 -9999 -9999 -9999 -9999 -9999 -9999 -9999 -9999 -9999 -9999 12.2398162716597 11.531513868199 10.9243161721808 10.8845315152208 11.1107453995368 11.4489611785522 11.7801645049893 12.0580003372302 11.9420014412632 12.4040760502579 13.7463358883732 15.789471299914 16.8639000361078 16.7555621667695 17.1762832445195 17.3418093217475 17.5703698247212 18.0501465978106 18.7050992478874 18.3886235983106 17.5581873674023 17.9817239375792 19.2922023368669
-9999 -9999 -9999 -9999 -9999 -9999 -9999 -9999 -9999 -9999 -9999 -9999 12.0515467698416 11.1052817635398 10.8046621425646 12.1381762798103 13.1938944890205 13.8181924564093 15.1991260567065 16.4145239939318 16.7409507544033 17.3147731022045 18.977878104249 21.1230797572263 22.1478080065184 20.7592039637402 19.8243278930339 19.5459269306522 19.1062835069117 19.083673481636 19.4833332450907 19.4747277401633 18.3257185057958 18.4809481795694 19.4331516366645
-9999 -9999 -9999 -9999 -9999 -9999 -9999 -9999 -9999 16.6784268459947 15.0481002940604 13.1215403618015 12.0049436769101 11.2910600813945 12.8363835051516 15.4269766097009 15.3971997280965 15.6145816286472 17.1850158953256 18.193922975854 18.6949286825365 19.2126541141209 20.0532068170399 21.0763074020492 21.5065664457887 20.5254486276155 19.9581653087763 20.1483787911669 20.360202247496 20.3943126696559 20.8164119427948 20.913479978389 20.3160646625841 19.6712647087947 19.8215699124496
-9999 -9999 -9999 -9999 -9999 -9999 -9999 -9999 -9999 -9999 14.2891266038822 12.847809536571 12.3056436800172 13.4724118253604 16.4096670207219 17.2499348276271 18.2124515102474 19.2646001739284 20.0465669380738 20.5763261900581 20.6268426121015 20.3801828044368 20.2194190460879 20.4102151870559 20.1220378469621 19.7005039905026 19.7489433185539 20.803358480187 22.1214348231774 22.9290200936157 23.3310717591327 22.969525447363 22.1911443553978 21.7172471172009 21.5737339271341
-9999 -9999 -9999 -9999 -9999 -9999 -9999 17.8815119274921 18.0561708677066 -9999 14.1157517908287 13.2795722274587 14.5256263689244 16.5463082406911 17.7056113550415 18.9949383052864 20.5719686942299 22.2071603961798 23.757745947166 24.6199795825763 24.6930655023881 24.193417802678 23.2424152920446 22.0074719289886 21.0064518735723 20.3890364807855 20.6948535453109 22.0024110600475 23.0887434038332 23.9262877796287 24.0945946819741 23.4631133510564 22.980440365357 22.8297945265216 22.9252472119107
-9999 -9999 -9999 -9999 -9999 -9999 -9999 18.2353010195119 17.7801625805585 15.714726751736 13.9613570957468 14.7261057194111 16.7160974472429 17.664180798352 19.0423648738517 21.7574971946569 24.1048412193378 25.0304917470932 24.8411105106529 24.2964875467933 24.1734304795623 24.2854874972093 24.1322239117223 23.8014099172212 23.280952164103 22.9739003995102 23.0722009130486 23.4189785871012 23.7205791913953 23.8559254255032 23.6577117043378 23.3815727917985 23.1428620168473 22.9487186482609 22.8673737749197
-9999 -9999 -9999 -9999 -9999 -9999 -9999 18.6660466512246 -9999 15.2664753818996 14.349946604436 16.3947262840458 18.9573621160906 21.4667134387431 24.0301505164789 25.3472424396187 24.9465252069945 23.875778526846 23.1727836062502 22.8497869641908 23.2442560386799 23.5411146792834 23.7281044901528 23.8411931157319 23.9233990981551 24.0418412567833 24.0062294611108 23.7210681318827 23.4422368496641 23.0960301060667 22.9704581292851 22.9156330530483 22.8314299125373 22.65011069453 22.5773992079339
-9999 -9999 -9999 -9999 -9999 -9999 -9999 -9999 17.3123475334641 15.9331246646739 16.5659786353509 20.0268166867103 23.3660417102269 25.4785067488508 25.6159100668964 24.3804661910561 23.0092065660071 22.5149400409864 22.5134367975678 22.7351085875737 22.9831968552965 22.9510351423729 22.8848115553023 22.8463194908013 22.9437374969397 23.4186856409619 23.5580889889205 23.3096431023259 23.0748043353448 22.7739595568289 22.72850777509 22.5486478680136 22.4599655171515 22.4385530037374 22.3859615011992
-9999 -9999 -9999 -9999 -9999 -9999 -9999 -9999 -9999 17.736893802637 19.536634034384 23.5065060269896 25.869763215429 25.3133615484158 23.9748644994071 22.3782515015786 22.2125778073801 22.3720936295092 22.4973419689677 22.7515243741999 22.8260325770698 22.393953540462 21.9146534980953 22.2523041508333 22.6092741291815 22.8588349452756 22.8542689214493 22.5849661970947 22.1061862152414 21.9326797792237 22.126019984564 22.2628384399384 22.212282963003 21.9102846147716 21.3232607772234
-9999 -9999 -9999 -9999 -9999 -9999 -9999 -9999 -9999 19.9295388037805 22.9105647869035 25.911530722863 25.2510023654175 23.7230764681962 22.7917857477166 22.1392837150068 22.1510127594077 22.3236034778774 22.6456204540517 22.9324115299578 22.8590331598152 22.1733101633216 21.5417859617189 22.0973352767853 22.5912787858533 22.2488732584451 22.1793858232753 22.2135602394898 21.9359608763041 21.7404868461883 21.7778878089688 21.9984661714621 22.0572120702597 21.8818330341707 21.2886593051366
-9999 -9999 -9999 -9999 -9999 -9999 -9999 22.4878938491346 22.8025181323715 23.4950949171353 25.8843796979191 25.9076816405581 24.1043821290916 22.8848454750359 22.4865902955673 22.2327715368204 22.2949605757615 22.4329024112711 22.6824947459695 22.9618394912303 23.0197384836027 22.7617185973384 22.5098474834495 22.6410710926071 22.6222845878156 22.3804250019725 22.2753899203662 22.2439277087426 22.1718794392863 21.9874044130496 21.8581022095391 21.9806010409417 21.9643134001819 21.8056893454795 21.4810972061559
-9999 -9999 -9999 -9999 -9999 -9999 22.1886963111007 22.8162857893206 24.4502580364856 26.1077951037631 26.4443622374296 25.3426119239977 23.2971948504947 22.3388808736081 22.1765107765327 22.2462384398868 22.4222270447151 22.609969202977 22.8004230822555 23.0124108185807 23.0686278962167 23.0158865899999 22.8491396895446 22.629287643215 22.5052250134466 22.4516989133629 22.333067037192 22.2387456867654 22.1748079193646 22.0627208138746 22.0090106400932 21.9986336149734 21.957979998417 21.8854049975707 21.783869332293
-9999 -9999 -9999 -9999 22.3170323722046 22.39077777192 23.1095712394333 24.3570236276922 26.0273654379956 26.5699411960949 26.0274035637298 24.6561041799985 23.0698055763863 22.0167782803378 22.1298742477447 22.3577891238302 22.4663981559334 22.5753670277437 22.6746865601882 22.811855241094 22.8529232729842 22.7407131271666 22.387368282196 22.392539198709 22.4702586353924 22.3508728645205 22.161996921874 22.0069165128289 21.9900434517744 22.0979397760448 22.1374131213498 22.137629709132 22.174821544437 22.2655192759553 22.2689381729997
-9999 -9999 -9999 22.5148592873201 22.4007136606919 23.3260414558136 25.3749408943435 26.406125046134 26.6247238246936 25.9795495677579 24.8050169952661 24.057425553406 23.6070899906198 22.4764727772078 22.1430485871526 22.6854758602948 22.6571527874359 22.5191382310001 22.5030568903202 22.5915878966342 22.6998885867815 22.4012844559266 22.166394359898 22.2094764794791 22.3011884579086 22.2873984204105 22.1023384683997 21.9952444522669 22.0760503252139 22.2196115088898 22.2813280115185 22.3911135789247 22.4989435524408 22.6351153004511 22.5261215989425
-9999 -9999 22.9396118346801 23.3684783725192 24.0065879418521 25.1103377552615 26.4905715413197 26.7265113358479 25.9773278747875 24.6563228595127 23.1979915059194 22.8744384103662 23.3333344213306 23.3952636524848 23.0847853309298 23.2287042072049 23.0486586131218 22.6120115617272 22.6763203712073 22.881617203765 22.6804446220227 22.5265421610126 22.4541715517058 22.2480247702624 22.2216668642592 22.3085864581814 22.2057767349862 22.2541400626928 22.4113222206075 22.4635217106248 22.5059389553273 22.6164292641488 22.7096642858156 22.6932718604579 22.4916011776851
