NCOLS 35 
NROWS 26 
XLLCORNER -80 
YLLCORNER 33 
CELLSIZE 0.5 
NODATA_value -9999 
-9999.000000000000000 -9999 -9999 -9999 -9999 -9999 -9999 -9999 -9999 -9999 -9999 -9999 -9999 -9999 -9999 -9999 -9999 -9999 -9999 -9999 -9999 -9999 -9999 -9999 -9999 -9999 -9999 -9999 -9999 -9999 -9999 -9999 -9999 -9999 -9999
-9999 -9999 -9999 -9999 -9999 -9999 -9999 -9999 -9999 -9999 -9999 -9999 -9999 -9999 -9999 -9999 -9999 -9999 -9999 -9999 -9999 -9999 -9999 -9999 -9999 -9999 -9999 -9999 -9999 13.8249639172053 -9999 -9999 -9999 -9999 -9999
-9999 -9999 -9999 -9999 -9999 -9999 -9999 -9999 -9999 -9999 -9999 -9999 -9999 -9999 -9999 -9999 -9999 -9999 -9999 -9999 -9999 -9999 -9999 -9999 -9999 -9999 12.250522722945 12.4741217808176 13.0628099800361 13.8048052593725 -9999 -9999 -9999 -9999 -9999
-9999 -9999 -9999 -9999 -9999 -9999 -9999 -9999 -9999 -9999 -9999 -9999 -9999 -9999 -9999 -9999 -9999 -9999 -9999 -9999 -9999 -9999 -9999 12.2338380979763 11.8746163756536 11.3553538978218 11.5390493980218 12.274278958169 -9999 -9999 -9999 10.7197765239911 10.3975386364759 10.1866943054637 10.3370454999343
-9999 -9999 -9999 -9999 -9999 -9999 -9999 -9999 -9999 -9999 -9999 -9999 -9999 -9999 -9999 -9999 -9999 -9999 -9999 -9999 13.9511097541432 13.5452898775854 13.1064393054624 12.7096147904273 12.1787047820146 11.9553491352487 11.7096098390197 12.3948093505237 -9999 -9999 10.3046909318219 10.6522047852872 10.6541796764604 10.7858390651426 11.2133836216408
-9999 -9999 -9999 -9999 -9999 -9999 -9999 -9999 -9999 -9999 -9999 -9999 -9999 -9999 -9999 -9999 -9999 -9999 -9999 14.3185109431702 14.5671197857481 14.3774128914044 13.960018764641 13.5593252651414 13.0172462143359 12.6477446439159 11.9382815788615 11.6452171332852 11.9649169901139 11.574317090404 11.0709279863831 11.1087072554799 11.1386702963968 11.2351019226316 11.4514017876725
-9999 -9999 -9999 -9999 -9999 -9999 -9999 -9999 -9999 -9999 -9999 -9999 -9999 -9999 -9999 -9999 -9999 -9999 -9999 15.0748123360424 15.2529565251959 14.883457238714 14.2718484042623 13.7623167138806 13.1836295565212 12.596289663011 12.1589496260113 11.7533203893082 11.3779455608013 11.3137075234629 11.5573428741334 11.9291710402787 12.0343507009021 11.9604395949365 11.9265123514435
-9999 -9999 -9999 -9999 -9999 -9999 -9999 -9999 -9999 -9999 -9999 -9999 -9999 -9999 -9999 -9999 -9999 -9999 -9999 15.88880202601 15.6796112733686 15.2265482115761 14.368813971714 13.4848475107023 12.9823818015328 12.6754882017513 12.4203903629341 12.0761605651832 11.7785896829355 13.2795737026497 13.9218657577481 14.4128016325366 14.4009003410782 13.7720293010128 13.3882154967417
-9999 -9999 -9999 -9999 -9999 -9999 -9999 -9999 -9999 -9999 -9999 -9999 -9999 -9999 -9999 -9999 -9999 -9999 -9999 17.4297333823805 16.3691047376553 15.1184096327461 14.3353465924434 13.8120753874395 13.2160791390212 12.7860314732124 12.7723246175539 12.5290452283385 14.407743564591 15.5189882418491 15.2650335208487 16.1641009477135 16.3380868162877 16.1576348289865 15.8578176275447
-9999 -9999 -9999 -9999 -9999 -9999 -9999 -9999 -9999 -9999 -9999 -9999 -9999 -9999 -9999 -9999 -9999 16.5032193613742 16.4307243159641 16.0359702237238 16.132165096677 15.2568052166492 14.7351468886036 14.4225171436506 13.8922910442724 13.53627146366 13.2291676642976 15.6990443441726 19.0102131105792 19.1260596008393 17.0860267225935 16.4846991372448 18.3933562401594 19.7957179679718 19.9404103275651
-9999 -9999 -9999 -9999 -9999 -9999 -9999 -9999 -9999 -9999 -9999 -9999 -9999 -9999 17.8830299801146 17.1247842988639 16.9329022557922 16.7803391387536 16.5736363181706 16.1614495743059 15.3673552104996 15.0714068663909 15.230567182951 15.0246310379794 15.0673531336959 16.1847652669353 18.9229603260074 21.6418175954358 22.742237319456 23.0586961121911 21.9697427455548 20.2882838366986 19.7850244464576 20.453074595299 21.4002660199365
-9999 -9999 -9999 -9999 -9999 -9999 -9999 -9999 -9999 -9999 -9999 -9999 18.6162278770341 17.933401600349 17.6946645752407 17.4456616897631 17.5029525905189 17.8972987805059 18.1156580501254 18.0591500392035 17.6072178561793 17.2642762446317 17.1577039502924 17.9947532337129 19.6937539763932 21.6603067813155 23.3940332752872 24.2792658860725 24.7574579087059 24.8429476488333 24.6984402579684 23.8989861686592 22.5544348277509 21.4926095281979 22.219968986746
-9999 -9999 -9999 -9999 -9999 -9999 -9999 -9999 -9999 -9999 -9999 -9999 18.3115200067555 17.7403848069644 17.6375185786751 18.0774297453905 18.8632541113744 19.5714455128794 20.2017102317216 20.892229695415 21.4231325790538 21.1772616605047 20.5774738364729 21.3827483570938 22.6242843183119 23.3393372669916 23.7850601774252 24.2991358616426 24.6450094928252 24.7678839113248 24.8733135463091 24.8964467685693 24.3719633867215 22.9079999539544 22.6163956686224
-9999 -9999 -9999 -9999 -9999 -9999 -9999 -9999 -9999 23.3246535152309 21.0805839825904 19.2567427878561 18.2473730678661 17.8407763776183 18.2988451676828 18.9891126473815 19.4162504330101 20.0261223237881 20.6844492384949 22.2169199788653 22.861235266422 22.7199508471515 22.197601326138 21.7497545347849 22.182005557024 23.0292355705116 23.6658872384259 24.0547097995997 24.1130168661096 24.1949197943414 24.3737235625601 24.7103564532986 24.5842753173494 23.366685294642 23.0140377719902
-9999 -9999 -9999 -9999 -9999 -9999 -9999 -9999 -9999 -9999 20.0103370599233 18.8807444538864 18.3066678407281 18.4263129979496 19.2144872742438 19.4388764291115 19.7082105890063 20.3744059765763 21.6721945565219 22.7267509121529 22.934020412117 22.7481218188715 22.1609595432473 22.208791762284 22.7777395871896 23.3167890200863 23.7887373526553 23.7925768774484 23.5767400762038 23.9442435226757 24.7215557264244 24.7914565318669 24.771233708776 24.5179785901691 24.3135734976721
-9999 -9999 -9999 -9999 -9999 -9999 -9999 24.2982057211275 24.3994558605833 -9999 20.1726901469072 19.1903787852712 19.2369669044861 19.8548581142915 19.8260382472114 20.9123166322334 21.4938865806051 22.0978505775381 22.964779435429 23.5508175698199 23.5228516599467 23.4530306133342 23.6170949984631 24.1668482618252 24.5912614862873 24.8274879958666 24.944953200746 24.9376692158001 25.086148870313 25.5303289949984 25.7171775088446 25.6509690188179 25.5006633174229 25.2816631871149 24.6198167088731
-9999 -9999 -9999 -9999 -9999 -9999 -9999 24.331314465857 23.8947198501043 21.801341557691 20.6150976110409 20.0446406380894 20.8365124924514 21.8951180953211 21.8676644946086 22.8891748565961 23.7322896886986 24.1377982565836 24.9774524117351 25.7361572842577 26.1752563316243 26.3152523097043 26.2678861466998 26.1840027620405 26.0718845139878 26.0567019103841 26.2069907491422 26.4516056182432 26.4669675512378 26.2346604482677 25.9812085793658 25.817032442887 25.6859540283215 25.0660494603719 23.9653562297652
-9999 -9999 -9999 -9999 -9999 -9999 -9999 24.4156261980661 -9999 21.4433009169869 20.769345695579 20.8949166292312 22.0922091601028 23.6721512083416 24.3548389244082 25.2613772817419 26.178509879787 26.7016936029402 27.0350004293521 27.1078094710802 26.926674275258 26.7270298757749 26.6070872914652 26.4960615829774 26.4216811666736 26.3626169994496 26.269648104873 26.0844814458799 25.7997477320794 25.5321615002678 25.5139440766305 25.5794986526858 25.3667269756706 24.4341261890274 23.3674187568857
-9999 -9999 -9999 -9999 -9999 -9999 -9999 -9999 23.1412588403482 21.8445049069319 21.8407405408971 22.3977446743553 24.0640935595183 25.914610840467 26.9164702518548 27.1371273300487 27.0879797828402 26.7824340626616 26.3308459500617 25.9028766744298 25.5419090051895 25.2071453082543 24.9435022052302 24.9594009615694 25.1174214687069 25.1678441649334 25.050098136752 24.8310129572742 24.7389646681437 24.8539767302528 25.1545227867836 25.4392496416866 25.089833795608 23.9553138122122 22.7115901943046
-9999 -9999 -9999 -9999 -9999 -9999 -9999 -9999 -9999 23.7555762477552 24.5612729749847 25.3937343359453 26.66891134717 27.3090820158447 27.1487943649164 26.4928312109598 25.7166835104676 25.4358372223467 25.2968100165329 24.8386580581508 24.6762236592334 24.3282859403364 24.156208649494 24.1744102903265 24.1354568555045 24.2216021657321 24.3074626849028 24.3592444074065 24.5792221527557 24.6698985303858 25.1323402597442 25.5456648317295 25.240254314638 24.3507833456318 23.5197032321794
-9999 -9999 -9999 -9999 -9999 -9999 -9999 -9999 -9999 24.8226855370001 25.6333974609583 26.8030761162228 27.3266353968533 27.2172013318461 26.5113537293299 25.3418288248941 24.9259980592835 24.8574590553575 24.6980010000582 24.5732001811247 24.5177358237034 24.3213298618171 24.3297419499561 24.3906902187184 24.4110657243962 24.4739729269943 24.5610622989127 24.6373173377997 24.7870664227925 24.9495124989636 25.4189831848809 25.646492382807 25.4614122655602 25.0618430805049 24.7989984756206
-9999 -9999 -9999 -9999 -9999 -9999 -9999 25.7998964617211 25.4408350735082 25.6869388635481 26.7712867618463 27.3587199710046 27.2035123433194 26.8320396795236 25.6511417603961 24.9670793794827 24.7969294195198 24.6405287049018 24.5462581349139 24.571267539944 24.5646451263117 24.4444426959027 24.4272142400313 24.4983077904918 24.5535777176151 24.6069378680519 24.7447636200052 24.8197219576626 24.9637556093968 25.1805028230395 25.4034460576664 25.5221097093605 25.3757487053104 25.2185434082753 25.2570059914938
-9999 -9999 -9999 -9999 -9999 -9999 25.4306192867708 25.3987866396913 25.8945644981224 26.9336606888806 27.4030855073697 27.1367331849077 26.8159539847444 26.3306489769749 25.226762279881 25.0001696797238 24.9083474611942 24.7808165872796 24.6479492567299 24.5922184512307 24.5562794606488 24.4605146670917 24.4354192154797 24.4897390822745 24.5580792161637 24.6083636661984 24.7427661129199 24.8961568816322 25.0687411307681 25.2621053216447 25.4054932846756 25.3500560814569 25.1731626842508 25.0607314523166 25.0872912901346
-9999 -9999 -9999 -9999 25.6731228192337 25.4140475368585 25.4906430783231 26.0329557192195 27.0685970993557 27.4386667264739 27.0501449381291 26.7751276072926 26.4895505498045 25.7628202856377 24.9659414953421 25.0888610014985 25.0460862341883 24.8833958745065 24.7454349973787 24.6252214132125 24.4795340260445 24.3935604142656 24.3319546108428 24.3835303049952 24.5466009767637 24.5858852883553 24.6010969283019 24.7221045148491 24.839885806598 25.0206161658472 25.0168067559412 24.9141054534868 24.8770910461152 24.9124221305257 24.8392687376298
-9999 -9999 -9999 25.6368457948557 25.4643978795077 25.531368846872 26.3187786316874 27.2806338524583 27.4681705264704 26.9671502114695 26.7219537765012 26.5304095849322 26.195792620883 25.4357997791539 24.9396266190688 25.0788061732818 25.1023087348092 24.9552985269675 24.8128227754108 24.7927824993141 24.5833609294694 24.4624113731099 24.3711140830306 24.3554208025704 24.5020226812874 24.7956647855033 24.8251761262948 24.8361841487354 24.8061322795584 24.8028801660205 24.7611480734722 24.8210900984436 24.8416996887889 24.7911996091054 24.7578548052615
-9999 -9999 25.7921277612696 25.6159133028511 26.0375723879562 26.5904174825568 27.4383581340382 27.5654563867921 27.0861893185816 26.4976931625368 26.8554281967483 26.4785087112993 25.9941066659237 25.5697397415953 25.3052009880634 25.0666673638436 24.9933466929205 25.0171995182919 25.1185422236332 25.2701725908174 25.0721296373333 24.8663635504573 24.682099557339 24.5517741578976 24.6564259651231 24.9103559478599 24.904494171279 24.8205321955151 24.8058486240314 24.9109776964224 24.9186843055506 24.8568779656594 24.7419918614206 24.7222766302277 24.7398393182683
