NCOLS 70 
NROWS 52 
XLLCORNER -80 
YLLCORNER 33 
CELLSIZE 0.25 
NODATA_value -9999 
-9999.000000000000000 -9999 -9999 -9999 -9999 -9999 -9999 -9999 -9999 -9999 -9999 -9999 -9999 -9999 -9999 -9999 -9999 -9999 -9999 -9999 -9999 -9999 -9999 -9999 -9999 -9999 -9999 -9999 -9999 -9999 -9999 -9999 -9999 -9999 -9999 -9999 -9999 -9999 -9999 -9999 -9999 -9999 -9999 -9999 -9999 -9999 -9999 -9999 -9999 -9999 -9999 -9999 -9999 -9999 -9999 -9999 -9999 -9999 -9999 -9999 -9999 -9999 -9999 -9999 -9999 -9999 -9999 -9999 -9999 -9999
-9999 -9999 -9999 -9999 -9999 -9999 -9999 -9999 -9999 -9999 -9999 -9999 -9999 -9999 -9999 -9999 -9999 -9999 -9999 -9999 -9999 -9999 -9999 -9999 -9999 -9999 -9999 -9999 -9999 -9999 -9999 -9999 -9999 -9999 -9999 -9999 -9999 -9999 -9999 -9999 -9999 -9999 -9999 -9999 -9999 -9999 -9999 -9999 -9999 -9999 -9999 -9999 -9999 -9999 -9999 -9999 -9999 -9999 -9999 -9999 -9999 -9999 -9999 -9999 -9999 -9999 -9999 -9999 -9999 -9999
-9999 -9999 -9999 -9999 -9999 -9999 -9999 -9999 -9999 -9999 -9999 -9999 -9999 -9999 -9999 -9999 -9999 -9999 -9999 -9999 -9999 -9999 -9999 -9999 -9999 -9999 -9999 -9999 -9999 -9999 -9999 -9999 -9999 -9999 -9999 -9999 -9999 -9999 -9999 -9999 -9999 -9999 -9999 -9999 -9999 -9999 -9999 -9999 -9999 -9999 -9999 -9999 -9999 -9999 -9999 -9999 -9999 -9999 -9999 -0.951370656490326 -9999 -9999 -9999 -9999 -9999 -9999 -9999 -9999 -9999 -9999
-9999 -9999 -9999 -9999 -9999 -9999 -9999 -9999 -9999 -9999 -9999 -9999 -9999 -9999 -9999 -9999 -9999 -9999 -9999 -9999 -9999 -9999 -9999 -9999 -9999 -9999 -9999 -9999 -9999 -9999 -9999 -9999 -9999 -9999 -9999 -9999 -9999 -9999 -9999 -9999 -9999 -9999 -9999 -9999 -9999 -9999 -9999 -9999 -9999 -9999 -9999 -9999 -9999 -9999 -9999 3.14192342758179 2.62168121337891 1.87999737262726 1.13546431064606 -0.313502281904221 -9999 -9999 -9999 -9999 -9999 -9999 -9999 -9999 -9999 -9999
-9999 -9999 -9999 -9999 -9999 -9999 -9999 -9999 -9999 -9999 -9999 -9999 -9999 -9999 -9999 -9999 -9999 -9999 -9999 -9999 -9999 -9999 -9999 -9999 -9999 -9999 -9999 -9999 -9999 -9999 -9999 -9999 -9999 -9999 -9999 -9999 -9999 -9999 -9999 -9999 -9999 -9999 -9999 -9999 -9999 -9999 -9999 -9999 -9999 -9999 -9999 -9999 3.36702442169189 4.16322612762451 4.17921733856201 3.53911900520325 2.60540843009949 1.61933279037476 -9999 -9999 -9999 -9999 -9999 -9999 -9999 -9999 -9999 -9999 -9999 -9999
-9999 -9999 -9999 -9999 -9999 -9999 -9999 -9999 -9999 -9999 -9999 -9999 -9999 -9999 -9999 -9999 -9999 -9999 -9999 -9999 -9999 -9999 -9999 -9999 -9999 -9999 -9999 -9999 -9999 -9999 -9999 -9999 -9999 -9999 -9999 -9999 -9999 -9999 -9999 -9999 -9999 -9999 -9999 -9999 -9999 -9999 -9999 -9999 -9999 -9999 4.02054724693298 4.15415620803833 4.52082347869873 4.70552825927734 4.37028884887695 3.60544323921204 -9999 -9999 -9999 -9999 -9999 -9999 -9999 -9999 -9999 -9999 -9999 1.49779180685679 1.2886184155941 0.964581727981567
-9999 -9999 -9999 -9999 -9999 -9999 -9999 -9999 -9999 -9999 -9999 -9999 -9999 -9999 -9999 -9999 -9999 -9999 -9999 -9999 -9999 -9999 -9999 -9999 -9999 -9999 -9999 -9999 -9999 -9999 -9999 -9999 -9999 -9999 -9999 -9999 -9999 -9999 -9999 -9999 -9999 -9999 -9999 -9999 1.80022835731506 -9999 -9999 3.55615884065628 3.84906482696533 4.12549543380737 4.47575902938843 4.4420747756958 4.70435285568237 4.77049541473389 4.35032844543457 -9999 -9999 -9999 -9999 -9999 -9999 -9999 -9999 1.85963237285614 1.95939517021179 1.85857737064362 1.64203703403473 1.48637175559998 1.36496663093567 1.33855354785919
-9999 -9999 -9999 -9999 -9999 -9999 -9999 -9999 -9999 -9999 -9999 -9999 -9999 -9999 -9999 -9999 -9999 -9999 -9999 -9999 -9999 -9999 -9999 -9999 -9999 -9999 -9999 -9999 -9999 -9999 -9999 -9999 -9999 -9999 -9999 -9999 -9999 -9999 -9999 -9999 -9999 -9999 -9999 -9999 1.80113506317139 1.52192807197571 2.29749608039856 3.60127782821655 4.47679662704468 4.9148645401001 5.14413928985596 5.18380117416382 5.17352533340454 5.07849454879761 4.85047280788422 -9999 -9999 -9999 -9999 -9999 -9999 -9999 2.24653911590576 2.21208214759827 2.0700831413269 1.92628729343414 1.83107697963715 1.76608383655548 1.758056640625 1.81383585929871
-9999 -9999 -9999 -9999 -9999 -9999 -9999 -9999 -9999 -9999 -9999 -9999 -9999 -9999 -9999 -9999 -9999 -9999 -9999 -9999 -9999 -9999 -9999 -9999 -9999 -9999 -9999 -9999 -9999 -9999 -9999 -9999 -9999 -9999 -9999 -9999 -9999 -9999 -9999 -9999 3.57696930567423 3.98165289560954 3.90257015228271 4.05655813217163 3.96045207977295 4.03609085083008 4.40182161331177 4.86933612823486 5.15594100952148 5.25656461715698 5.29758834838867 5.31419277191162 5.28765535354614 5.2025728225708 4.93244638442993 -9999 -9999 -9999 -9999 -9999 2.44840590159098 2.30595850944519 2.24304533004761 2.14904975891113 2.07591605186462 2.06095457077026 2.07691287994385 2.11003613471985 2.19896531105042 2.30331945419312
-9999 -9999 -9999 -9999 -9999 -9999 -9999 -9999 -9999 -9999 -9999 -9999 -9999 -9999 -9999 -9999 -9999 -9999 -9999 -9999 -9999 -9999 -9999 -9999 -9999 -9999 -9999 -9999 -9999 -9999 -9999 -9999 -9999 -9999 -9999 -9999 -9999 -9999 -9999 3.32486867904663 3.47035837173462 3.93568086624146 4.53891944885254 4.90407037734985 5.14578247070312 5.33384323120117 5.46661758422852 5.55610132217407 5.55996561050415 5.53560924530029 5.51800632476807 5.49246168136597 5.43006277084351 5.33612871170044 4.99819278717041 4.0468430519104 -9999 -9999 -9999 2.71641653776169 2.54684710502625 2.49241209030151 2.41667437553406 2.33173775672913 2.33389568328857 2.410813331604 2.50392436981201 2.63250684738159 2.7822482585907 2.88830184936523
-9999 -9999 -9999 -9999 -9999 -9999 -9999 -9999 -9999 -9999 -9999 -9999 -9999 -9999 -9999 -9999 -9999 -9999 -9999 -9999 -9999 -9999 -9999 -9999 -9999 -9999 -9999 -9999 -9999 -9999 -9999 -9999 -9999 -9999 -9999 -9999 -9999 -9999 3.76827363967895 4.26146793365479 4.50123643875122 4.81183385848999 5.06121301651001 5.20365953445435 5.34018468856812 5.508141040802 5.65120410919189 5.73534059524536 5.74846363067627 5.737868309021 5.69849967956543 5.62318849563599 5.51974773406982 5.45806121826172 5.2586841583252 4.28997373580933 3.17710709571838 3.41088875134786 2.72463917732239 2.79158091545105 2.80259895324707 2.75391983985901 2.73960041999817 2.76718211174011 2.84095358848572 2.91947412490845 3.03108596801758 3.29750514030457 3.5793833732605 3.67440462112427
-9999 -9999 -9999 -9999 -9999 -9999 -9999 -9999 -9999 -9999 -9999 -9999 -9999 -9999 -9999 -9999 -9999 -9999 -9999 -9999 -9999 -9999 -9999 -9999 -9999 -9999 -9999 -9999 -9999 -9999 -9999 -9999 -9999 -9999 -9999 -9999 -9999 3.10699152946472 3.69293761253357 4.45510244369507 4.85612297058105 5.16007471084595 5.39560461044312 5.49424839019775 5.57520389556885 5.71401786804199 5.85353851318359 5.90155220031738 5.84652757644653 5.78975343704224 5.71898221969604 5.61114549636841 5.47018480300903 5.36709260940552 5.28947782516479 4.8657112121582 4.09776258468628 3.73786807060242 3.54898118972778 3.37539124488831 3.30942273139954 3.27740597724915 3.31573343276978 3.40780735015869 3.45505666732788 3.51681160926819 3.70698261260986 4.16238117218018 4.56262636184692 4.64931774139404
-9999 -9999 -9999 -9999 -9999 -9999 -9999 -9999 -9999 -9999 -9999 -9999 -9999 -9999 -9999 -9999 -9999 -9999 -9999 -9999 -9999 -9999 -9999 -9999 -9999 -9999 -9999 -9999 -9999 -9999 -9999 -9999 -9999 -9999 -9999 -9999 -9999 4.18280458450317 4.42103099822998 4.80450677871704 5.09635257720947 5.34926128387451 5.55555152893066 5.66227626800537 5.75637292861938 5.89053058624268 6.01212692260742 6.02889633178711 5.92372894287109 5.78643131256104 5.65624284744263 5.53117561340332 5.40368461608887 5.32539653778076 5.32635498046875 5.24023866653442 4.9318323135376 4.61436080932617 4.22298288345337 3.9237813949585 3.81375288963318 3.83639192581177 3.97055721282959 4.07423257827759 4.1287636756897 4.35445690155029 4.70333766937256 5.17921161651611 5.50226736068726 5.64106369018555
-9999 -9999 -9999 -9999 -9999 -9999 -9999 -9999 -9999 -9999 -9999 -9999 -9999 -9999 -9999 -9999 -9999 -9999 -9999 -9999 -9999 -9999 -9999 -9999 -9999 -9999 -9999 -9999 -9999 -9999 -9999 -9999 -9999 -9999 -9999 -9999 -9999 4.02350950241089 4.52280759811401 4.88156604766846 5.16658973693848 5.44704914093018 5.6736912727356 5.82163047790527 5.91749811172485 5.98009872436523 6.02617454528809 6.04023218154907 5.98141002655029 5.86963796615601 5.72547245025635 5.58862686157227 5.46156358718872 5.37529993057251 5.38847970962524 5.39421081542969 5.26436328887939 5.0776481628418 4.75418472290039 4.45660591125488 4.33312559127808 4.48292875289917 4.75664567947388 4.85425806045532 4.81685495376587 5.09806299209595 5.43430662155151 5.79427909851074 6.2113733291626 6.75383234024048
-9999 -9999 -9999 -9999 -9999 -9999 -9999 -9999 -9999 -9999 -9999 -9999 -9999 -9999 -9999 -9999 -9999 -9999 -9999 -9999 -9999 -9999 -9999 -9999 -9999 -9999 -9999 -9999 -9999 -9999 -9999 -9999 -9999 -9999 -9999 -9999 2.89776158332825 3.72209119796753 4.46583318710327 4.75726222991943 5.08474826812744 5.44385576248169 5.6841459274292 5.84324407577515 5.92645215988159 5.94302225112915 5.94379615783691 5.94907665252686 5.92377471923828 5.86942672729492 5.76890325546265 5.64330673217773 5.50820875167847 5.36566686630249 5.32310390472412 5.34408378601074 5.32027673721313 5.30916261672974 5.21999835968018 5.26942491531372 5.37430238723755 5.69595575332642 6.1554799079895 6.25669479370117 5.98073291778564 6.14307165145874 6.48472213745117 7.45122003555298 8.77482891082764 9.781494140625
-9999 -9999 -9999 -9999 -9999 -9999 -9999 -9999 -9999 -9999 -9999 -9999 -9999 -9999 -9999 -9999 -9999 -9999 -9999 -9999 -9999 -9999 -9999 -9999 -9999 -9999 -9999 -9999 -9999 -9999 -9999 -9999 -9999 -9999 -9999 -9999 -9999 4.11308336257935 4.19726753234863 4.3416600227356 4.86431503295898 5.42659759521484 5.64440059661865 5.75624656677246 5.82799768447876 5.8401198387146 5.82097387313843 5.80739545822144 5.77158164978027 5.73024320602417 5.70086669921875 5.65945339202881 5.59050512313843 5.43097066879272 5.31297969818115 5.45102405548096 5.71418523788452 6.15545749664307 6.69240665435791 7.22631597518921 7.54538774490356 7.65871953964233 7.7935094833374 7.56437110900879 7.19006681442261 7.60798168182373 8.24123668670654 10.3286561965942 11.9477834701538 12.0404014587402
-9999 -9999 -9999 -9999 -9999 -9999 -9999 -9999 -9999 -9999 -9999 -9999 -9999 -9999 -9999 -9999 -9999 -9999 -9999 -9999 -9999 -9999 -9999 -9999 -9999 -9999 -9999 -9999 -9999 -9999 -9999 -9999 -9999 -9999 -9999 -9999 -9999 -9999 3.59581613540649 -9999 4.73141241073608 5.43332195281982 5.62899684906006 5.69276237487793 5.75023937225342 5.7563681602478 5.71770048141479 5.64931917190552 5.55841493606567 5.48014163970947 5.50103092193604 5.57029485702515 5.6519341468811 5.68962812423706 5.53520154953003 5.68936824798584 6.10914659500122 6.90563297271729 8.29420948028564 9.40612697601318 9.58990097045898 8.89939212799072 8.46001529693604 7.79135417938232 8.21947383880615 9.22193431854248 10.2209196090698 12.191388130188 12.5188589096069 11.9200067520142
-9999 -9999 -9999 -9999 -9999 -9999 -9999 -9999 -9999 -9999 -9999 -9999 -9999 -9999 -9999 -9999 -9999 -9999 -9999 -9999 -9999 -9999 -9999 -9999 -9999 -9999 -9999 -9999 -9999 -9999 -9999 -9999 -9999 -9999 -9999 -9999 -9999 -9999 -9999 -9999 4.78712272644043 5.36170864105225 5.60303974151611 5.66923379898071 5.6912579536438 5.68030881881714 5.61020469665527 5.4999680519104 5.41869068145752 5.39447546005249 5.46888971328735 5.62932252883911 5.91761016845703 6.15186643600464 6.0491099357605 6.14629411697388 6.66813135147095 7.91199064254761 9.68808364868164 10.8664712905884 10.7443494796753 9.41865634918213 8.54735851287842 7.97517538070679 9.55171966552734 10.4044704437256 10.8615503311157 12.1925859451294 12.7505750656128 12.569504737854
-9999 -9999 -9999 -9999 -9999 -9999 -9999 -9999 -9999 -9999 -9999 -9999 -9999 -9999 -9999 -9999 -9999 -9999 -9999 -9999 -9999 -9999 -9999 -9999 -9999 -9999 -9999 -9999 -9999 -9999 -9999 -9999 -9999 -9999 4.72568470239639 3.90571856498718 3.69619727134705 -9999 3.26193141937256 3.24429988861084 4.01524972915649 4.9376540184021 5.48193311691284 5.68218469619751 5.69092130661011 5.65153503417969 5.57418584823608 5.54218006134033 5.54797315597534 5.56600570678711 5.64757204055786 5.88708066940308 6.31007623672485 6.64343547821045 6.7060604095459 7.03170013427734 8.29499530792236 9.98731994628906 11.5206480026245 12.0428009033203 11.9046230316162 10.4099750518799 9.22922325134277 9.35901546478271 11.2822046279907 12.0056667327881 11.883677482605 12.5565481185913 13.3950300216675 13.7523336410522
-9999 -9999 -9999 -9999 -9999 -9999 -9999 -9999 -9999 -9999 -9999 -9999 -9999 -9999 -9999 -9999 -9999 -9999 -9999 -9999 -9999 -9999 -9999 -9999 -9999 -9999 -9999 1.57147538661957 1.57147538661957 1.75782752037048 2.28073835372925 3.61085343360901 4.82939577102661 4.99989700317383 4.99358558654785 5.00353765487671 4.81731224060059 4.42205905914307 3.84319353103638 3.43643569946289 3.79681038856506 4.63732433319092 5.36463737487793 5.72180080413818 5.78350448608398 5.78930711746216 5.86039018630981 5.95184755325317 5.95949649810791 5.94927883148193 6.06052875518799 6.3653450012207 6.79385709762573 7.10042190551758 7.81424951553345 9.28608703613281 11.0474376678467 11.8479452133179 12.1853818893433 12.1434640884399 11.879714012146 10.9007968902588 10.1147480010986 10.9761734008789 12.3857402801514 13.2289171218872 13.2605876922607 13.3851089477539 13.9549942016602 14.5469970703125
-9999 -9999 -9999 -9999 -9999 -9999 -9999 -9999 -9999 -9999 -9999 -9999 -9999 -9999 -9999 -9999 -9999 -9999 -9999 -9999 -9999 -9999 -9999 -9999 -9999 -9999 -9999 -9999 -9999 -9999 3.6971435546875 4.87101793289185 6.10117626190186 6.55792903900146 6.60192108154297 6.38772678375244 5.96155500411987 5.41771030426025 4.67048120498657 4.05678272247314 4.18460607528687 4.85006999969482 5.48305368423462 5.86068248748779 6.08508396148682 6.35632467269897 6.6303071975708 6.77053165435791 6.72678327560425 6.71922826766968 6.93334627151489 7.31820583343506 7.80786085128784 8.41836738586426 10.1905250549316 12.2418441772461 12.9664936065674 12.8142948150635 12.4717960357666 12.3620862960815 12.0718431472778 11.5341024398804 11.2253122329712 12.0473117828369 12.9543352127075 13.7466440200806 14.1466026306152 14.4418487548828 14.6582365036011 14.9801034927368
-9999 -9999 -9999 -9999 -9999 -9999 -9999 -9999 -9999 -9999 -9999 -9999 -9999 -9999 -9999 -9999 -9999 -9999 -9999 -9999 -9999 -9999 -9999 -9999 -9999 5.30717658996582 5.61449321111043 5.98324330647786 6.28396809101105 5.87117052078247 6.17214250564575 6.60775709152222 7.06205463409424 7.34218072891235 7.23680353164673 6.89197111129761 6.5549054145813 6.09771776199341 5.43610620498657 4.92321157455444 5.04199457168579 5.54043579101562 5.94871616363525 6.29819965362549 6.78873729705811 7.33875417709351 7.6343731880188 7.68266344070435 7.66535520553589 7.9467339515686 8.31428909301758 8.72671985626221 9.37051963806152 10.5581140518188 12.2384347915649 13.406590461731 13.7240009307861 13.694206237793 13.2149696350098 13.1214218139648 13.0805521011353 12.9162445068359 13.1339111328125 13.8003759384155 14.422758102417 14.902795791626 15.318452835083 15.811297416687 16.0564231872559 16.0810260772705
-9999 -9999 -9999 -9999 -9999 -9999 -9999 -9999 -9999 -9999 -9999 -9999 -9999 -9999 -9999 -9999 -9999 -9999 -9999 -9999 -9999 -9999 -9999 -9999 5.00014972686768 5.34812211990356 5.57325792312622 5.92209959030151 6.45437240600586 6.88822984695435 7.22239828109741 7.58081245422363 7.81797218322754 7.86795997619629 7.67767381668091 7.44522190093994 7.41198253631592 7.0859522819519 6.39492130279541 6.00127506256104 6.22060441970825 6.55655527114868 6.76598215103149 7.21096324920654 7.80181980133057 8.28120899200439 8.53596305847168 8.67180156707764 8.93523502349854 9.67637729644775 10.0667638778687 10.2254009246826 10.6226720809937 11.391697883606 12.2449626922607 13.2626476287842 13.9235372543335 14.1497678756714 14.0144968032837 14.1106042861938 14.3888177871704 14.7507009506226 15.3558616638184 16.0028114318848 16.5366401672363 16.9102478027344 17.2192974090576 17.477014541626 17.6016311645508 17.5236625671387
-9999 -9999 -9999 -9999 -9999 -9999 -9999 -9999 -9999 -9999 -9999 -9999 -9999 -9999 -9999 -9999 -9999 -9999 -9999 -9999 -9999 -9999 -9999 -9999 5.4570631980896 6.15124988555908 6.76476812362671 7.28577899932861 7.72709178924561 7.93705654144287 8.04469966888428 8.18057918548584 8.41502475738525 8.60099506378174 8.37187194824219 8.07897567749023 8.1481351852417 7.94852590560913 7.43451070785522 7.23880243301392 7.39182472229004 7.52533769607544 7.91870021820068 8.65292549133301 8.98434162139893 9.14736366271973 9.67266178131104 10.3346090316772 11.0530109405518 11.8126192092896 12.1489219665527 12.4130477905273 12.7105522155762 12.9516153335571 13.352746963501 13.9647245407104 14.348349571228 14.325005531311 14.3887538909912 14.8127689361572 15.5077953338623 16.3231868743896 17.059476852417 17.5467853546143 17.8832092285156 18.0918712615967 18.2705345153809 18.4266242980957 18.5277404785156 18.5082321166992
-9999 -9999 -9999 -9999 -9999 -9999 -9999 -9999 -9999 -9999 -9999 -9999 -9999 -9999 -9999 -9999 -9999 -9999 -9999 -9999 -9999 -9999 -9999 5.26470601558685 5.429612159729 6.35113286972046 7.32800483703613 8.09474945068359 8.57783889770508 8.77469062805176 8.89550018310547 9.13421630859375 9.68199825286865 10.1745929718018 9.92838001251221 9.24282646179199 8.81044673919678 8.56784439086914 8.63535594940186 8.77420139312744 8.67145442962646 8.75785636901855 9.64592266082764 10.7603902816772 10.9437742233276 10.9661865234375 11.6075420379639 12.3977308273315 13.0389099121094 13.4397974014282 13.8767681121826 14.4911956787109 14.9902248382568 15.1759099960327 15.282000541687 15.4886541366577 15.482476234436 15.0916080474854 15.0106859207153 15.5350942611694 16.5221061706543 17.3509120941162 17.7333393096924 17.9226036071777 18.0763149261475 18.2240715026855 18.4197025299072 18.6840209960938 18.9149932861328 18.9930248260498
-9999 -9999 -9999 -9999 -9999 -9999 -9999 -9999 -9999 -9999 -9999 -9999 -9999 -9999 -9999 -9999 -9999 -9999 -9999 -9999 -9999 -9999 -9999 4.82759952545166 5.34454917907715 6.23219680786133 7.25319051742554 8.23397254943848 9.01277637481689 9.65728187561035 10.3200664520264 10.982177734375 11.6746835708618 12.0639753341675 11.8317232131958 11.1468553543091 10.326358795166 9.81581878662109 10.1565494537354 10.3768453598022 10.0170745849609 10.0995302200317 11.136682510376 12.4207630157471 12.9508848190308 13.1481199264526 13.4963464736938 13.7944889068604 13.9839019775391 14.2603397369385 14.8360061645508 15.4499797821045 15.8939180374146 16.0844020843506 16.1644477844238 16.3132286071777 16.2451477050781 15.7777328491211 15.667121887207 16.391918182373 17.2055644989014 17.5317268371582 17.6492919921875 17.7957363128662 17.9498977661133 18.1162891387939 18.3676624298096 18.7272186279297 19.0775279998779 19.2481727600098
-9999 -9999 -9999 -9999 -9999 -9999 -9999 -9999 -9999 -9999 -9999 -9999 -9999 -9999 -9999 -9999 -9999 -9999 -9999 -9999 -9999 -9999 4.91438436508179 5.12672805786133 5.63750076293945 6.36798572540283 7.27260398864746 8.29618072509766 9.3940486907959 10.5993881225586 11.6749753952026 12.4298973083496 12.9738578796387 13.1557331085205 12.9368896484375 12.5045471191406 11.7668123245239 11.256630897522 11.7061729431152 12.0049171447754 11.5060615539551 11.2734823226929 12.0359411239624 13.1825342178345 13.9177169799805 14.2367238998413 14.3773031234741 14.478120803833 14.6526918411255 15.0013065338135 15.4687175750732 15.9121408462524 16.3252983093262 16.5959129333496 16.6885318756104 16.8002052307129 16.75950050354 16.3197135925293 16.2910938262939 16.9571971893311 17.3499565124512 17.3902397155762 17.47043800354 17.6300411224365 17.793270111084 17.968864440918 18.2706966400146 18.7147998809814 19.1488399505615 19.3837852478027
-9999 -9999 -9999 -9999 -9999 -9999 -9999 -9999 -9999 -9999 -9999 -9999 -9999 -9999 5.00057937039269 -9999 -9999 -9999 -9999 4.5582423210144 -9999 4.98040008544922 5.26239919662476 5.73174905776978 6.18041372299194 6.73076152801514 7.5499210357666 8.76449394226074 10.2965984344482 11.6476993560791 12.4177646636963 12.9013090133667 13.4942226409912 13.8702344894409 13.748046875 13.2872467041016 12.4490184783936 11.9965076446533 12.615665435791 13.1794681549072 12.9495363235474 12.7963123321533 13.3872079849243 14.1514959335327 14.5635147094727 14.7312307357788 14.8165512084961 14.9232273101807 15.1513652801514 15.5265455245972 15.9175071716309 16.2241706848145 16.5369071960449 16.8702697753906 17.0725250244141 17.206600189209 17.1865139007568 16.8013324737549 16.7989749908447 17.1946887969971 17.275053024292 17.2231273651123 17.2954978942871 17.4772872924805 17.6660671234131 17.8574733734131 18.2080574035645 18.7144393920898 19.1737308502197 19.4265117645264
-9999 -9999 -9999 -9999 -9999 -9999 -9999 -9999 -9999 -9999 -9999 -9999 -9999 -9999 5.00066888332367 -9999 -9999 -9999 -9999 4.63656997680664 5.212770652771 5.51798343658447 6.0807032585144 6.62080907821655 6.97740793228149 7.39322471618652 8.19472599029541 9.61282634735107 11.2469434738159 12.3072462081909 12.8509960174561 13.5137748718262 14.3407497406006 14.7195510864258 14.4579973220825 13.8667964935303 13.0071954727173 12.5291156768799 13.0587215423584 13.8114204406738 14.0864553451538 14.2366104125977 14.5726146697998 14.8080339431763 14.8828525543213 14.957818031311 15.070219039917 15.2244005203247 15.4787006378174 15.8905563354492 16.3249320983887 16.634485244751 16.8480892181396 17.0786914825439 17.2877883911133 17.446460723877 17.495433807373 17.2355327606201 17.1578178405762 17.3096790313721 17.2094421386719 17.0737800598145 17.1401176452637 17.3731174468994 17.6127052307129 17.8574047088623 18.2636585235596 18.7888565063477 19.2128829956055 19.4259605407715
-9999 -9999 -9999 -9999 -9999 -9999 -9999 -9999 -9999 -9999 -9999 -9999 -9999 -9999 5.00026607513428 -9999 -9999 -9999 -9999 -9999 6.28901469707489 6.29232978820801 6.92889070510864 7.51627969741821 7.98855304718018 8.61235427856445 9.59910583496094 10.8610429763794 12.0148010253906 12.729588508606 13.3649806976318 14.2400798797607 14.9950428009033 15.1962862014771 14.9165325164795 14.4907627105713 13.9138641357422 13.4855985641479 13.7812004089355 14.4560871124268 14.9063520431519 15.0730648040771 15.0954103469849 15.0429458618164 15.0366106033325 15.1547384262085 15.3885431289673 15.7136087417603 16.1481075286865 16.6791324615479 17.1386203765869 17.4351673126221 17.5797729492188 17.6167812347412 17.6527652740479 17.7231521606445 17.7841510772705 17.627010345459 17.4528980255127 17.4461669921875 17.2750434875488 17.101053237915 17.1689987182617 17.4274883270264 17.7034606933594 18.0091819763184 18.459264755249 18.9524421691895 19.287727355957 19.4334239959717
-9999 -9999 -9999 -9999 -9999 -9999 -9999 -9999 -9999 -9999 -9999 -9999 -9999 -9999 5.03344988822937 -9999 5.00187730789185 -9999 -9999 -9999 6.44845247268677 6.89729309082031 7.68782329559326 8.4549388885498 9.33974170684814 10.3513059616089 11.2190389633179 11.9201774597168 12.6265659332275 13.1956806182861 13.8358516693115 14.6354637145996 15.283673286438 15.5349950790405 15.515438079834 15.4841899871826 15.277416229248 14.9546356201172 14.9976596832275 15.3354873657227 15.6152276992798 15.7599496841431 15.8308229446411 15.9250707626343 16.0671463012695 16.2827796936035 16.6356391906738 17.1183662414551 17.6420955657959 18.0779876708984 18.3504695892334 18.4596405029297 18.4593467712402 18.3727912902832 18.2201290130615 18.1030406951904 18.0938816070557 18.0299835205078 17.8177299499512 17.7100067138672 17.5511093139648 17.3932342529297 17.4423351287842 17.6617832183838 17.9270038604736 18.2744255065918 18.7362022399902 19.1642875671387 19.3919563293457 19.4735565185547
-9999 -9999 -9999 -9999 -9999 -9999 -9999 -9999 -9999 -9999 -9999 -9999 -9999 -9999 5.03344988822937 5.06663370132446 5.07240200042725 -9999 -9999 7.25715577602386 6.95339632034302 7.87122917175293 8.76095771789551 9.49874496459961 10.5121984481812 11.6065654754639 12.2064437866211 12.4947605133057 12.9938669204712 13.6334733963013 14.3073921203613 15.0178337097168 15.8011159896851 16.3558216094971 16.5606422424316 16.7791557312012 16.9498100280762 16.9393501281738 16.968391418457 17.1216850280762 17.2769756317139 17.4085750579834 17.5677680969238 17.7596435546875 17.9306240081787 18.1152400970459 18.3660717010498 18.6487693786621 18.8734283447266 18.9645767211914 18.9564609527588 18.8992500305176 18.8242073059082 18.7767009735107 18.6886196136475 18.502311706543 18.3652248382568 18.3336429595947 18.2248039245605 18.0973052978516 17.9687519073486 17.8542175292969 17.8747634887695 18.0369834899902 18.2804546356201 18.6461277008057 19.0541152954102 19.3729038238525 19.4870948791504 19.5315914154053
-9999 -9999 -9999 -9999 -9999 -9999 -9999 -9999 -9999 -9999 -9999 -9999 -9999 -9999 -9999 5.43904113769531 5.23168706893921 -9999 7.29521071910858 7.54644632339478 8.0803279876709 9.13255405426025 9.79184627532959 10.3244438171387 11.435133934021 12.618821144104 13.3092851638794 13.6914005279541 14.0628566741943 14.5523834228516 15.0404720306396 15.5770215988159 16.3817386627197 17.189510345459 17.6032848358154 17.8053512573242 18.0051403045654 18.1778297424316 18.3480949401855 18.5798988342285 18.7845287322998 18.9069366455078 19.0045204162598 19.0981330871582 19.1687049865723 19.1991176605225 19.2120780944824 19.2090263366699 19.15771484375 19.0759086608887 19.0224494934082 19.0168361663818 19.0203418731689 18.9926891326904 18.9752502441406 18.8931083679199 18.7190093994141 18.6052894592285 18.5140628814697 18.4247665405273 18.3408794403076 18.288948059082 18.3238697052002 18.4670085906982 18.7186756134033 19.0407390594482 19.3428268432617 19.5286922454834 19.5602073669434 19.6346302032471
-9999 -9999 -9999 -9999 -9999 -9999 -9999 -9999 -9999 -9999 -9999 -9999 -9999 -9999 -9999 5.83765411376953 5.98682880401611 -9999 8.08869647979736 8.45701789855957 9.28455066680908 10.1676845550537 10.5321550369263 10.8203020095825 11.9912576675415 13.3973026275635 14.5265703201294 15.4917678833008 16.1207008361816 16.3931369781494 16.6322803497314 16.9587993621826 17.330961227417 17.6851501464844 17.9267063140869 18.0759048461914 18.263126373291 18.5270366668701 18.8695240020752 19.2463836669922 19.5158634185791 19.6273612976074 19.6619720458984 19.6497001647949 19.5745658874512 19.4456996917725 19.3311386108398 19.2552680969238 19.18630027771 19.1342906951904 19.1618251800537 19.2527599334717 19.335901260376 19.3395481109619 19.2826519012451 19.2297592163086 19.1178092956543 18.9810047149658 18.8454780578613 18.7404689788818 18.686393737793 18.686466217041 18.7622013092041 18.9212970733643 19.1586761474609 19.3863716125488 19.5883903503418 19.6916389465332 19.6906661987305 19.7990036010742
-9999 -9999 -9999 -9999 -9999 -9999 -9999 -9999 -9999 -9999 -9999 -9999 -9999 -9999 -9999 6.11413860321045 -9999 7.9331899370466 8.92677974700928 9.8049488067627 10.6311340332031 11.7871761322021 12.8010997772217 13.2525863647461 13.9784517288208 15.020486831665 16.1946849822998 17.363338470459 17.9536838531494 18.0469970703125 18.1800804138184 18.3528270721436 18.4926414489746 18.5938453674316 18.6852111816406 18.7782192230225 18.9428462982178 19.2155628204346 19.5632915496826 19.8764743804932 20.0336093902588 20.0319328308105 19.9578952789307 19.8297748565674 19.6402034759521 19.4627876281738 19.3627681732178 19.2728805541992 19.1821212768555 19.1707706451416 19.2966899871826 19.448184967041 19.536600112915 19.571849822998 19.5447959899902 19.4932899475098 19.4157695770264 19.3158435821533 19.2145481109619 19.1320018768311 19.0921688079834 19.1178760528564 19.2073764801025 19.3508930206299 19.513090133667 19.6300621032715 19.732931137085 19.7685260772705 19.7510643005371 19.8676776885986
-9999 -9999 -9999 -9999 -9999 -9999 -9999 -9999 -9999 -9999 -9999 -9999 -9999 -9999 6.11413860321045 6.59244473775228 7.12790060043335 8.81938648223877 10.0474424362183 11.1281661987305 12.0661239624023 13.7519884109497 15.7667541503906 16.6384868621826 16.9396533966064 17.3613967895508 18.0766277313232 18.8180675506592 19.2008571624756 19.3820285797119 19.5960922241211 19.7999858856201 19.9559268951416 20.0337066650391 20.0401973724365 20.0055465698242 20.0010547637939 20.0664501190186 20.1655921936035 20.2123317718506 20.1507720947266 20.0309829711914 19.9243049621582 19.7999877929688 19.6398105621338 19.5097789764404 19.4126739501953 19.3246173858643 19.2676849365234 19.339693069458 19.5069732666016 19.6324691772461 19.6807975769043 19.6823921203613 19.659969329834 19.6276702880859 19.5813274383545 19.5201740264893 19.461145401001 19.4189872741699 19.3972663879395 19.4229850769043 19.4858436584473 19.5720272064209 19.6338882446289 19.6611366271973 19.676685333252 19.669038772583 19.7190799713135 19.8595733642578
-9999 -9999 -9999 -9999 -9999 -9999 -9999 -9999 -9999 -9999 -9999 -9999 -9999 -9999 -9999 -9999 9.16488778591156 9.6496524810791 11.2597389221191 12.1817579269409 13.1370487213135 15.165488243103 17.6951427459717 18.8089561462402 19.2621059417725 19.6077766418457 20.0387554168701 20.3949165344238 20.6021614074707 20.7230033874512 20.7861919403076 20.7688636779785 20.6885032653809 20.5685520172119 20.4359664916992 20.3091468811035 20.2130832672119 20.1559448242188 20.1126365661621 20.0532665252686 19.9759292602539 19.9216213226318 19.883092880249 19.7865123748779 19.6415348052979 19.5511016845703 19.5135478973389 19.4925384521484 19.461446762085 19.5072002410889 19.6014232635498 19.6713027954102 19.7246208190918 19.740442276001 19.7267932891846 19.6975612640381 19.6573371887207 19.6244297027588 19.6001815795898 19.5896434783936 19.5859622955322 19.6035118103027 19.6362609863281 19.6682929992676 19.6515502929688 19.6112308502197 19.5722808837891 19.5735092163086 19.709659576416 19.8268089294434
-9999 -9999 -9999 -9999 -9999 -9999 -9999 -9999 -9999 -9999 -9999 -9999 -9999 -9999 -9999 -9999 10.3561320304871 11.062611579895 12.5849094390869 13.4574537277222 14.6840467453003 16.8454666137695 18.9485893249512 19.9529666900635 20.5812740325928 21.0334053039551 21.2720890045166 21.3224010467529 21.2391796112061 21.0476779937744 20.7740325927734 20.4851894378662 20.2777614593506 20.1658954620361 20.0936737060547 20.0230617523193 19.9728603363037 19.9423694610596 19.9092674255371 19.8829250335693 19.8731117248535 19.8938140869141 19.894401550293 19.8117580413818 19.7013072967529 19.6602783203125 19.6668643951416 19.6489791870117 19.5957450866699 19.609691619873 19.6567325592041 19.7000007629395 19.7694396972656 19.8128299713135 19.8074131011963 19.7597484588623 19.7190799713135 19.710693359375 19.7169952392578 19.7250442504883 19.7283191680908 19.7286891937256 19.7035007476807 19.6608600616455 19.5764751434326 19.4845600128174 19.4544792175293 19.5539493560791 19.7036914825439 19.7588901519775
-9999 -9999 -9999 -9999 -9999 -9999 -9999 -9999 -9999 -9999 -9999 -9999 -9999 -9999 -9999 -9999 -9999 12.461140871048 13.0185995101929 14.3681211471558 16.0892124176025 18.1902503967285 19.8155193328857 20.6669235229492 21.2295932769775 21.5728874206543 21.6312160491943 21.4347820281982 21.0301990509033 20.4997138977051 20.0724849700928 19.8459625244141 19.7545852661133 19.7228260040283 19.7272033691406 19.7568511962891 19.8028106689453 19.8448963165283 19.8597946166992 19.8653926849365 19.8684349060059 19.8701133728027 19.8629684448242 19.8314437866211 19.7968082427979 19.7561931610107 19.7572364807129 19.7145576477051 19.6353073120117 19.6717643737793 19.7330379486084 19.7880115509033 19.8656806945801 19.8840198516846 19.8355274200439 19.7884216308594 19.7773036956787 19.7814483642578 19.7705192565918 19.7284545898438 19.672061920166 19.6153430938721 19.54296875 19.4769420623779 19.4308319091797 19.4050350189209 19.4477138519287 19.5902709960938 19.6790904998779 19.6958065032959
-9999 -9999 -9999 -9999 -9999 -9999 -9999 -9999 -9999 -9999 -9999 -9999 -9999 -9999 10.885991692543 11.062611579895 12.4501791596413 13.098521232605 13.1784429550171 14.9072580337524 17.1711025238037 19.109260559082 20.387674331665 21.1330165863037 21.5954723358154 21.7491512298584 21.5747337341309 21.1377754211426 20.5199451446533 19.9590473175049 19.6142139434814 19.4121017456055 19.4120941162109 19.4856491088867 19.5466976165771 19.6212310791016 19.6996612548828 19.775785446167 19.7962760925293 19.7662944793701 19.7217254638672 19.6892967224121 19.6794013977051 19.6900310516357 19.7086277008057 19.7107639312744 19.7556190490723 19.7242488861084 19.6508502960205 19.6829700469971 19.7391014099121 19.7879066467285 19.8265895843506 19.816312789917 19.7660369873047 19.7284183502197 19.699291229248 19.683464050293 19.6646881103516 19.6256885528564 19.564359664917 19.4905700683594 19.4208545684814 19.3691730499268 19.3778705596924 19.4199867248535 19.5002708435059 19.6238269805908 19.6617755889893 19.6615180969238
-9999 -9999 -9999 -9999 -9999 -9999 -9999 -9999 -9999 -9999 -9999 -9999 -9999 -9999 -9999 -9999 -9999 -9999 15.3973031044006 16.1699314117432 18.1242828369141 19.717041015625 20.8283233642578 21.5429267883301 21.8278999328613 21.7571640014648 21.4197425842285 20.867115020752 20.2240390777588 19.7492828369141 19.4587383270264 19.281566619873 19.3440608978271 19.4273052215576 19.4350700378418 19.4527931213379 19.4846305847168 19.5052280426025 19.4939708709717 19.4722671508789 19.4733867645264 19.4915370941162 19.4953155517578 19.5203762054443 19.596342086792 19.6827507019043 19.7400455474854 19.7089710235596 19.6889495849609 19.7152519226074 19.7494144439697 19.769193649292 19.7868995666504 19.7858791351318 19.7623653411865 19.7296466827393 19.6834850311279 19.6451396942139 19.6074314117432 19.5658340454102 19.5142974853516 19.4552326202393 19.4121894836426 19.3866195678711 19.4184970855713 19.4764442443848 19.5599842071533 19.6426544189453 19.6413898468018 19.6232852935791
-9999 -9999 -9999 -9999 -9999 -9999 -9999 -9999 -9999 -9999 -9999 -9999 -9999 -9999 -9999 -9999 -9999 17.0407409667969 17.275013923645 17.3335800170898 18.8885955810547 20.5073413848877 21.5162391662598 21.9765949249268 21.9693851470947 21.6795139312744 21.2545566558838 20.6916904449463 20.0638771057129 19.6380500793457 19.4207820892334 19.2979869842529 19.3154582977295 19.3253517150879 19.2954559326172 19.2928943634033 19.3078918457031 19.3062992095947 19.2949066162109 19.3152961730957 19.3740901947021 19.4213256835938 19.439624786377 19.5213298797607 19.6450672149658 19.7127857208252 19.732292175293 19.7233753204346 19.7330894470215 19.748592376709 19.7617835998535 19.7671298980713 19.7868099212646 19.7955513000488 19.7880268096924 19.7644691467285 19.727632522583 19.6940536499023 19.6593704223633 19.6210994720459 19.5717945098877 19.5214366912842 19.4922389984131 19.4811172485352 19.5067157745361 19.5551471710205 19.6147975921631 19.6498184204102 19.6173648834229 19.6017875671387
-9999 -9999 -9999 -9999 -9999 -9999 -9999 -9999 -9999 -9999 -9999 -9999 -9999 18.2156162261963 18.3763298458523 -9999 18.4134063720703 18.1536207199097 17.0407409667969 18.5558032989502 20.688102722168 21.835563659668 22.2095165252686 22.1674537658691 21.8535766601562 21.4555549621582 21.0527229309082 20.5191879272461 19.8716926574707 19.4319610595703 19.2985420227051 19.2675189971924 19.2523155212402 19.2377586364746 19.2223472595215 19.2476387023926 19.2909355163574 19.3119220733643 19.3061599731445 19.3176956176758 19.376220703125 19.4548435211182 19.5395622253418 19.6449909210205 19.7232360839844 19.7343063354492 19.7369918823242 19.7445468902588 19.7440166473389 19.7502384185791 19.7542400360107 19.7654209136963 19.8031387329102 19.8406009674072 19.8589668273926 19.8513240814209 19.8287467956543 19.8086948394775 19.78590965271 19.7520580291748 19.7068386077881 19.6547164916992 19.6092395782471 19.592845916748 19.6077823638916 19.6446590423584 19.6839351654053 19.6845607757568 19.6371326446533 19.6264514923096
-9999 -9999 -9999 -9999 -9999 -9999 -9999 -9999 -9999 -9999 -9999 -9999 -9999 -9999 18.2156162261963 18.650883992513 18.2624893188477 18.564323425293 18.7469291687012 20.923583984375 22.2437801361084 22.4478740692139 22.3018703460693 21.9720001220703 21.5506839752197 21.1604709625244 20.7772693634033 20.2709102630615 19.6532459259033 19.2456722259521 19.1622791290283 19.1758842468262 19.1948223114014 19.1991577148438 19.2019348144531 19.2397537231445 19.2829742431641 19.3039245605469 19.3080558776855 19.3210144042969 19.3669319152832 19.4714508056641 19.6048583984375 19.6972427368164 19.7437553405762 19.7537326812744 19.7451152801514 19.7340717315674 19.7230186462402 19.7252407073975 19.7163925170898 19.7196922302246 19.7504177093506 19.8099021911621 19.8804321289062 19.9300594329834 19.952953338623 19.9585666656494 19.9401950836182 19.9020481109619 19.8491096496582 19.7815933227539 19.7188777923584 19.6916179656982 19.6956844329834 19.7232227325439 19.7475128173828 19.7447872161865 19.7037658691406 19.6974010467529
-9999 -9999 -9999 -9999 -9999 -9999 -9999 -9999 -9999 -9999 -9999 -9999 -9999 -9999 18.6983523368835 18.2156162261963 19.4745464324951 20.2033729553223 21.1948890686035 22.4495754241943 22.5688495635986 22.3500957489014 22.0484504699707 21.6474895477295 21.1690082550049 20.7658920288086 20.4547996520996 20.032320022583 19.4583530426025 19.1289653778076 19.0972232818604 19.1062965393066 19.137601852417 19.1385307312012 19.1475276947021 19.1955070495605 19.2388324737549 19.2671566009521 19.286319732666 19.3097896575928 19.3330936431885 19.4132404327393 19.5644569396973 19.6702747344971 19.718957901001 19.7361526489258 19.7228088378906 19.699125289917 19.6775798797607 19.6670989990234 19.6519908905029 19.6455345153809 19.660551071167 19.7074928283691 19.7850761413574 19.866886138916 19.9422130584717 20.0327415466309 20.0989456176758 20.1123008728027 20.0764751434326 19.9831619262695 19.8690738677979 19.7917518615723 19.7519645690918 19.7681636810303 19.8048610687256 19.820276260376 19.8145427703857 19.8225250244141
-9999 -9999 -9999 -9999 -9999 -9999 -9999 -9999 -9999 -9999 -9999 18.1269359588623 18.2439155578613 18.7043190002441 18.4624843597412 19.4109897613525 21.1418876647949 22.02419090271 22.5747928619385 22.6681079864502 22.4315166473389 22.1490898132324 21.7988376617432 21.2611122131348 20.7438049316406 20.4275054931641 20.198844909668 19.7852630615234 19.2587146759033 19.0479431152344 19.0454063415527 19.0411624908447 19.0505123138428 19.0609130859375 19.1086273193359 19.1661815643311 19.209171295166 19.2370910644531 19.2525844573975 19.269287109375 19.282169342041 19.3298034667969 19.4704685211182 19.6008701324463 19.6642761230469 19.6852359771729 19.6689434051514 19.6362361907959 19.6073265075684 19.6002101898193 19.6023902893066 19.6017189025879 19.6004161834717 19.6422481536865 19.7350997924805 19.8267974853516 19.8714160919189 19.9234256744385 20.02659034729 20.1606483459473 20.2363243103027 20.2377052307129 20.1736679077148 20.0807857513428 19.9854564666748 19.8882999420166 19.8466262817383 19.8513813018799 19.8732357025146 19.9074649810791
-9999 -9999 -9999 -9999 -9999 -9999 -9999 -9999 -9999 17.9789295196533 18.4232330322266 18.9625434875488 19.278112411499 19.7381725311279 19.6258411407471 20.3606662750244 21.9472064971924 22.6044616699219 22.7660274505615 22.5969676971436 22.260986328125 21.9557437896729 21.4781150817871 20.8467636108398 20.4764595031738 20.2688808441162 19.9917125701904 19.4941024780273 19.0632915496826 18.9948997497559 18.9709510803223 18.9390430450439 18.9427642822266 19.00124168396 19.0939407348633 19.1724452972412 19.2347545623779 19.2505664825439 19.228931427002 19.2023429870605 19.1870594024658 19.2105388641357 19.3336372375488 19.4860649108887 19.586519241333 19.6338558197021 19.6239986419678 19.5914878845215 19.5709571838379 19.5807018280029 19.6110229492188 19.6106147766113 19.5771980285645 19.5816287994385 19.6681995391846 19.7820720672607 19.8438777923584 19.8944358825684 19.9526405334473 20.0044441223145 20.0844287872314 20.2085723876953 20.3138542175293 20.3359069824219 20.3195972442627 20.2473392486572 20.1311664581299 20.0499782562256 20.0392456054688 20.0642948150635
-9999 -9999 -9999 -9999 -9999 -9999 -9999 -9999 -9999 18.2976169586182 18.9416675567627 19.6144409179688 20.174222946167 20.7828750610352 20.6903972625732 21.6578922271729 22.5847339630127 22.8888092041016 22.771520614624 22.4132194519043 22.0339183807373 21.6522274017334 21.0851554870605 20.5962581634521 20.3212509155273 20.0652313232422 19.6974849700928 19.2681713104248 19.0242233276367 18.9863395690918 18.9302539825439 18.8854293823242 18.9023513793945 18.9696292877197 19.0334053039551 19.102237701416 19.1922168731689 19.2561302185059 19.2531795501709 19.1940670013428 19.1133499145508 19.0871448516846 19.1769542694092 19.3252487182617 19.4609775543213 19.5661220550537 19.6099452972412 19.5994968414307 19.5896472930908 19.6074485778809 19.6282444000244 19.6029300689697 19.537878036499 19.5216445922852 19.6043872833252 19.725564956665 19.7990608215332 19.8718338012695 19.9262714385986 19.9262790679932 19.9682636260986 20.1428623199463 20.3694343566895 20.4937019348145 20.5392894744873 20.5410442352295 20.4434833526611 20.3241958618164 20.2469711303711 20.2458000183105
-9999 -9999 -9999 -9999 -9999 16.6850531101227 16.9140892028809 17.5461330413818 17.791711807251 18.3261337280273 19.1496105194092 20.2438716888428 21.1667385101318 21.7381687164307 22.0794944763184 22.7136783599854 22.9546566009521 22.8765258789062 22.5679264068604 22.1835880279541 21.8532390594482 21.4604187011719 20.8821544647217 20.4831733703613 20.2087306976318 19.9153480529785 19.5857925415039 19.2983779907227 19.1796035766602 19.1552886962891 19.1089096069336 19.0742473602295 19.0739784240723 19.1058673858643 19.1411113739014 19.1863231658936 19.2469291687012 19.2929458618164 19.293363571167 19.255989074707 19.1763114929199 19.0960350036621 19.1127262115479 19.2036762237549 19.3137874603271 19.4372234344482 19.5408096313477 19.5760364532471 19.5835914611816 19.5933456420898 19.5811004638672 19.5248527526855 19.463996887207 19.4649925231934 19.5735301971436 19.7036666870117 19.7893905639648 19.8798160552979 19.9315986633301 19.943883895874 20.0849266052246 20.305700302124 20.5357971191406 20.6688995361328 20.7092571258545 20.7265872955322 20.6607532501221 20.5333442687988 20.3949203491211 20.3769016265869
-9999 -9999 -9999 -9999 15.8711519241333 16.4698848724365 17.48508644104 18.42799949646 18.802490234375 19.3434066772461 19.8472347259521 21.041145324707 21.8568801879883 22.3558235168457 22.691686630249 22.9296417236328 22.9557456970215 22.7399196624756 22.3690128326416 21.9079360961914 21.5300884246826 21.1808090209961 20.7037086486816 20.4052963256836 20.1417407989502 19.8875331878662 19.6582889556885 19.4838085174561 19.3952484130859 19.3538627624512 19.3392467498779 19.3454093933105 19.360237121582 19.3818454742432 19.4097938537598 19.4424533843994 19.4714851379395 19.4671440124512 19.4016895294189 19.3068027496338 19.2146987915039 19.1473484039307 19.1420421600342 19.1786003112793 19.2588863372803 19.3670120239258 19.4731540679932 19.4975814819336 19.4904270172119 19.5150585174561 19.5048656463623 19.4717216491699 19.4543933868408 19.4976902008057 19.6295051574707 19.747428894043 19.8454399108887 19.9758892059326 20.05712890625 20.1056118011475 20.226318359375 20.3953342437744 20.5562610626221 20.6892948150635 20.7383518218994 20.751672744751 20.7024688720703 20.5795516967773 20.4507122039795 20.4895515441895
-9999 -9999 -9999 15.9503045082092 15.8928060531616 16.7981014251709 18.0643539428711 19.050817489624 19.9460792541504 20.791690826416 21.0496082305908 21.9726810455322 22.423412322998 22.6826553344727 22.9339408874512 23.0765609741211 22.8847732543945 22.5446395874023 22.0597915649414 21.5320014953613 21.1651420593262 20.8645267486572 20.5349292755127 20.32155418396 20.0835018157959 19.8901348114014 19.7739105224609 19.6764450073242 19.6155414581299 19.5647888183594 19.5411548614502 19.5464973449707 19.5713157653809 19.5979766845703 19.6244068145752 19.6406288146973 19.6377143859863 19.5938758850098 19.5050926208496 19.3842754364014 19.2603282928467 19.1850814819336 19.1784629821777 19.2182178497314 19.3069324493408 19.4222621917725 19.5420265197754 19.5817699432373 19.5244827270508 19.4991512298584 19.5199031829834 19.5252418518066 19.528190612793 19.6186981201172 19.7579803466797 19.8552951812744 19.9713668823242 20.1348514556885 20.2461261749268 20.2680549621582 20.3264408111572 20.4620018005371 20.5598964691162 20.6527118682861 20.6830234527588 20.6563091278076 20.6213684082031 20.4938430786133 20.4090785980225 20.4695720672607
-9999 -9999 -9999 15.7422981262207 16.2949619293213 17.6887664794922 19.0341091156006 20.0697002410889 21.2694816589355 21.9628639221191 22.2776832580566 22.5725574493408 22.763334274292 22.9408149719238 23.1151123046875 23.0433292388916 22.7359733581543 22.2880249023438 21.7285022735596 21.2175807952881 20.8754558563232 20.7366600036621 20.4754295349121 20.2475051879883 20.0038642883301 19.8890209197998 19.9066963195801 19.9027729034424 19.8925914764404 19.8664131164551 19.8371696472168 19.8205089569092 19.8155403137207 19.8109722137451 19.799165725708 19.7728214263916 19.722728729248 19.6433658599854 19.547306060791 19.4321689605713 19.3230400085449 19.241304397583 19.2237167358398 19.2885684967041 19.4018402099609 19.5300827026367 19.6930618286133 19.8225555419922 19.7969341278076 19.7193241119385 19.6688957214355 19.6271190643311 19.6758804321289 19.8288726806641 19.9678916931152 20.0687999725342 20.2151317596436 20.3811111450195 20.4756603240967 20.4413604736328 20.4456787109375 20.5558929443359 20.6040935516357 20.6376914978027 20.6288776397705 20.583610534668 20.5462169647217 20.4459552764893 20.40895652771 20.4788055419922
