NCOLS 70 
NROWS 52 
XLLCORNER -80 
YLLCORNER 33 
CELLSIZE 0.25 
NODATA_value -9999 
-9999.000000000000000 -9999 -9999 -9999 -9999 -9999 -9999 -9999 -9999 -9999 -9999 -9999 -9999 -9999 -9999 -9999 -9999 -9999 -9999 -9999 -9999 -9999 -9999 -9999 -9999 -9999 -9999 -9999 -9999 -9999 -9999 -9999 -9999 -9999 -9999 -9999 -9999 -9999 -9999 -9999 -9999 -9999 -9999 -9999 -9999 -9999 -9999 -9999 -9999 -9999 -9999 -9999 -9999 -9999 -9999 -9999 -9999 -9999 -9999 -9999 -9999 -9999 -9999 -9999 -9999 -9999 -9999 -9999 -9999 -9999
-9999 -9999 -9999 -9999 -9999 -9999 -9999 -9999 -9999 -9999 -9999 -9999 -9999 -9999 -9999 -9999 -9999 -9999 -9999 -9999 -9999 -9999 -9999 -9999 -9999 -9999 -9999 -9999 -9999 -9999 -9999 -9999 -9999 -9999 -9999 -9999 -9999 -9999 -9999 -9999 -9999 -9999 -9999 -9999 -9999 -9999 -9999 -9999 -9999 -9999 -9999 -9999 -9999 -9999 -9999 -9999 -9999 -9999 -9999 -9999 -9999 -9999 -9999 -9999 -9999 -9999 -9999 -9999 -9999 -9999
-9999 -9999 -9999 -9999 -9999 -9999 -9999 -9999 -9999 -9999 -9999 -9999 -9999 -9999 -9999 -9999 -9999 -9999 -9999 -9999 -9999 -9999 -9999 -9999 -9999 -9999 -9999 -9999 -9999 -9999 -9999 -9999 -9999 -9999 -9999 -9999 -9999 -9999 -9999 -9999 -9999 -9999 -9999 -9999 -9999 -9999 -9999 -9999 -9999 -9999 -9999 -9999 -9999 -9999 -9999 -9999 -9999 -9999 -9999 1.95457899570465 -9999 -9999 -9999 -9999 -9999 -9999 -9999 -9999 -9999 -9999
-9999 -9999 -9999 -9999 -9999 -9999 -9999 -9999 -9999 -9999 -9999 -9999 -9999 -9999 -9999 -9999 -9999 -9999 -9999 -9999 -9999 -9999 -9999 -9999 -9999 -9999 -9999 -9999 -9999 -9999 -9999 -9999 -9999 -9999 -9999 -9999 -9999 -9999 -9999 -9999 -9999 -9999 -9999 -9999 -9999 -9999 -9999 -9999 -9999 -9999 -9999 -9999 -9999 -9999 -9999 3.47361350059509 3.39369463920593 3.1138322353363 2.81264448165894 2.00011658668518 -9999 -9999 -9999 -9999 -9999 -9999 -9999 -9999 -9999 -9999
-9999 -9999 -9999 -9999 -9999 -9999 -9999 -9999 -9999 -9999 -9999 -9999 -9999 -9999 -9999 -9999 -9999 -9999 -9999 -9999 -9999 -9999 -9999 -9999 -9999 -9999 -9999 -9999 -9999 -9999 -9999 -9999 -9999 -9999 -9999 -9999 -9999 -9999 -9999 -9999 -9999 -9999 -9999 -9999 -9999 -9999 -9999 -9999 -9999 -9999 -9999 -9999 3.80525684356689 3.89060878753662 3.71546006202698 3.61285805702209 3.45523738861084 3.19979548454285 -9999 -9999 -9999 -9999 -9999 -9999 -9999 -9999 -9999 -9999 -9999 -9999
-9999 -9999 -9999 -9999 -9999 -9999 -9999 -9999 -9999 -9999 -9999 -9999 -9999 -9999 -9999 -9999 -9999 -9999 -9999 -9999 -9999 -9999 -9999 -9999 -9999 -9999 -9999 -9999 -9999 -9999 -9999 -9999 -9999 -9999 -9999 -9999 -9999 -9999 -9999 -9999 -9999 -9999 -9999 -9999 -9999 -9999 -9999 -9999 -9999 -9999 4.4807834148407 4.27597665786743 4.40535497665405 4.35707759857178 4.16793537139893 3.92435812950134 -9999 -9999 -9999 -9999 -9999 -9999 -9999 -9999 -9999 -9999 -9999 2.02521800994873 2.16491547226906 1.98418128490448
-9999 -9999 -9999 -9999 -9999 -9999 -9999 -9999 -9999 -9999 -9999 -9999 -9999 -9999 -9999 -9999 -9999 -9999 -9999 -9999 -9999 -9999 -9999 -9999 -9999 -9999 -9999 -9999 -9999 -9999 -9999 -9999 -9999 -9999 -9999 -9999 -9999 -9999 -9999 -9999 -9999 -9999 -9999 -9999 3.95791578292847 -9999 -9999 4.79753446578979 4.60888862609863 4.7622447013855 4.88040256500244 4.97139453887939 4.92903614044189 4.41669988632202 4.10486841201782 -9999 -9999 -9999 -9999 -9999 -9999 -9999 -9999 1.44666802883148 1.61593842506409 1.69937014579773 1.82418704032898 2.03471875190735 2.21674823760986 2.42401361465454
-9999 -9999 -9999 -9999 -9999 -9999 -9999 -9999 -9999 -9999 -9999 -9999 -9999 -9999 -9999 -9999 -9999 -9999 -9999 -9999 -9999 -9999 -9999 -9999 -9999 -9999 -9999 -9999 -9999 -9999 -9999 -9999 -9999 -9999 -9999 -9999 -9999 -9999 -9999 -9999 -9999 -9999 -9999 -9999 3.87894582748413 4.23274707794189 4.68050622940063 4.92473745346069 4.97600555419922 5.02510452270508 5.0156364440918 4.91095781326294 4.69145536422729 4.33197402954102 4.24360990524292 -9999 -9999 -9999 -9999 -9999 -9999 -9999 1.57204520702362 1.63815426826477 1.80719339847565 2.0717556476593 2.42909502983093 2.74963569641113 2.9749870300293 3.1204993724823
-9999 -9999 -9999 -9999 -9999 -9999 -9999 -9999 -9999 -9999 -9999 -9999 -9999 -9999 -9999 -9999 -9999 -9999 -9999 -9999 -9999 -9999 -9999 -9999 -9999 -9999 -9999 -9999 -9999 -9999 -9999 -9999 -9999 -9999 -9999 -9999 -9999 -9999 -9999 -9999 4.51574945449829 4.69531027475993 4.58878269195557 4.47172689437866 4.57623910903931 4.90524339675903 5.14944219589233 5.21959829330444 5.20441865921021 5.17041873931885 5.09624195098877 4.85874271392822 4.48727607727051 4.12089729309082 3.79777498245239 -9999 -9999 -9999 -9999 -9999 1.97142271200816 1.8284102678299 1.80497801303864 1.97898411750793 2.35496878623962 2.80740165710449 3.19828581809998 3.54719018936157 3.79628920555115 3.85367298126221
-9999 -9999 -9999 -9999 -9999 -9999 -9999 -9999 -9999 -9999 -9999 -9999 -9999 -9999 -9999 -9999 -9999 -9999 -9999 -9999 -9999 -9999 -9999 -9999 -9999 -9999 -9999 -9999 -9999 -9999 -9999 -9999 -9999 -9999 -9999 -9999 -9999 -9999 -9999 4.38528442382812 4.48237562179565 4.67958831787109 4.92396688461304 5.10657691955566 5.2507758140564 5.369300365448 5.4082727432251 5.44365692138672 5.48365926742554 5.51481580734253 5.44570779800415 5.07027578353882 4.43841123580933 3.88113117218018 3.49141550064087 3.16345691680908 -9999 -9999 -9999 2.15612721443176 2.07205510139465 2.01380276679993 2.01834487915039 2.19263792037964 2.51925873756409 2.9043562412262 3.34898233413696 3.91563868522644 4.39971828460693 4.51118803024292
-9999 -9999 -9999 -9999 -9999 -9999 -9999 -9999 -9999 -9999 -9999 -9999 -9999 -9999 -9999 -9999 -9999 -9999 -9999 -9999 -9999 -9999 -9999 -9999 -9999 -9999 -9999 -9999 -9999 -9999 -9999 -9999 -9999 -9999 -9999 -9999 -9999 -9999 4.89246597290039 4.87400007247925 4.98775053024292 5.15637254714966 5.30223274230957 5.42472457885742 5.49089860916138 5.52861309051514 5.5541524887085 5.61596059799194 5.69494962692261 5.75096416473389 5.66990566253662 5.21192646026611 4.42238855361938 3.71469402313232 3.25981736183167 2.96209335327148 2.69476628303528 2.50327757994334 2.20909929275513 2.20453071594238 2.13882374763489 2.1196141242981 2.18841576576233 2.32129073143005 2.49889707565308 2.84608960151672 3.51206660270691 4.42806911468506 5.09705352783203 5.18595314025879
-9999 -9999 -9999 -9999 -9999 -9999 -9999 -9999 -9999 -9999 -9999 -9999 -9999 -9999 -9999 -9999 -9999 -9999 -9999 -9999 -9999 -9999 -9999 -9999 -9999 -9999 -9999 -9999 -9999 -9999 -9999 -9999 -9999 -9999 -9999 -9999 -9999 4.90883207321167 5.04647970199585 5.24773359298706 5.43882703781128 5.57417011260986 5.65051031112671 5.71562337875366 5.75220060348511 5.77518081665039 5.8119215965271 5.86816644668579 5.92369222640991 5.93929100036621 5.81239175796509 5.31016254425049 4.43065309524536 3.59903621673584 3.04581356048584 2.73714971542358 2.54322504997253 2.36745190620422 2.26022553443909 2.25395584106445 2.32992267608643 2.54159665107727 2.79682755470276 2.98180913925171 3.10142087936401 3.48346495628357 4.30775690078735 5.2705659866333 5.8386287689209 5.99601411819458
-9999 -9999 -9999 -9999 -9999 -9999 -9999 -9999 -9999 -9999 -9999 -9999 -9999 -9999 -9999 -9999 -9999 -9999 -9999 -9999 -9999 -9999 -9999 -9999 -9999 -9999 -9999 -9999 -9999 -9999 -9999 -9999 -9999 -9999 -9999 -9999 -9999 5.49825429916382 5.58746337890625 5.75517416000366 5.92368412017822 6.0154013633728 6.02210712432861 6.0188364982605 6.03775835037231 6.08050727844238 6.13492488861084 6.17102527618408 6.16489124298096 6.08888816833496 5.88424491882324 5.38958978652954 4.56631565093994 3.77670669555664 3.27685379981995 2.95395112037659 2.72863125801086 2.58733320236206 2.57168936729431 2.70958280563354 2.92142462730408 3.23599433898926 3.62483549118042 3.98028111457825 4.17190504074097 4.52213478088379 5.24240922927856 5.97485733032227 6.46641159057617 6.8751654624939
-9999 -9999 -9999 -9999 -9999 -9999 -9999 -9999 -9999 -9999 -9999 -9999 -9999 -9999 -9999 -9999 -9999 -9999 -9999 -9999 -9999 -9999 -9999 -9999 -9999 -9999 -9999 -9999 -9999 -9999 -9999 -9999 -9999 -9999 -9999 -9999 -9999 5.61273908615112 5.8953161239624 6.10001516342163 6.2483959197998 6.33636713027954 6.34646797180176 6.3241286277771 6.33921527862549 6.38974761962891 6.44397592544556 6.44811725616455 6.34995698928833 6.15331172943115 5.85377359390259 5.41370868682861 4.85228490829468 4.34596014022827 4.00918054580688 3.72512125968933 3.4251663684845 3.23258590698242 3.13885688781738 3.15690350532532 3.23570203781128 3.5049946308136 3.97189998626709 4.49966907501221 4.91658306121826 5.34065961837769 6.1432523727417 6.88190126419067 7.327223777771 8.04476070404053
-9999 -9999 -9999 -9999 -9999 -9999 -9999 -9999 -9999 -9999 -9999 -9999 -9999 -9999 -9999 -9999 -9999 -9999 -9999 -9999 -9999 -9999 -9999 -9999 -9999 -9999 -9999 -9999 -9999 -9999 -9999 -9999 -9999 -9999 -9999 -9999 4.93427991867065 5.46169710159302 5.96073770523071 6.18618249893188 6.33218622207642 6.47960042953491 6.55761861801147 6.56144285202026 6.58310794830322 6.62820243835449 6.67655563354492 6.65767335891724 6.47739362716675 6.19230604171753 5.87675046920776 5.55695962905884 5.18818283081055 4.78563928604126 4.47237253189087 4.21974515914917 3.95940685272217 3.85110259056091 3.77343726158142 3.77630472183228 4.0861873626709 5.08799266815186 5.72628736495972 5.7071328163147 5.54111337661743 5.7481369972229 6.86325025558472 7.90555953979492 8.57227516174316 9.87280941009521
-9999 -9999 -9999 -9999 -9999 -9999 -9999 -9999 -9999 -9999 -9999 -9999 -9999 -9999 -9999 -9999 -9999 -9999 -9999 -9999 -9999 -9999 -9999 -9999 -9999 -9999 -9999 -9999 -9999 -9999 -9999 -9999 -9999 -9999 -9999 -9999 -9999 5.57447147369385 5.6715202331543 5.85208177566528 6.11694765090942 6.43790292739868 6.62891340255737 6.68216276168823 6.70724964141846 6.76309871673584 6.83061933517456 6.83769178390503 6.63965797424316 6.33169460296631 6.06295204162598 5.84074115753174 5.54408979415894 5.1372127532959 4.70894718170166 4.37965774536133 4.37048578262329 4.92009162902832 6.18339538574219 6.93789863586426 8.03756141662598 10.0717067718506 10.8302478790283 9.8294677734375 8.02942276000977 6.79092454910278 7.47032785415649 8.45889282226562 9.47465038299561 11.5292911529541
-9999 -9999 -9999 -9999 -9999 -9999 -9999 -9999 -9999 -9999 -9999 -9999 -9999 -9999 -9999 -9999 -9999 -9999 -9999 -9999 -9999 -9999 -9999 -9999 -9999 -9999 -9999 -9999 -9999 -9999 -9999 -9999 -9999 -9999 -9999 -9999 -9999 -9999 5.23027372360229 -9999 5.78260231018066 6.28278064727783 6.58342409133911 6.69391822814941 6.76498174667358 6.8774528503418 6.95187711715698 6.86083793640137 6.55101442337036 6.22523736953735 6.01224565505981 5.86065196990967 5.69055843353271 5.4779314994812 5.11486053466797 4.94587755203247 5.31539058685303 6.81508922576904 9.99299621582031 11.6060590744019 12.8073577880859 13.5390377044678 13.5607089996338 12.7402954101562 10.9224138259888 8.61544132232666 8.5427360534668 9.29676055908203 10.4834823608398 12.7007188796997
-9999 -9999 -9999 -9999 -9999 -9999 -9999 -9999 -9999 -9999 -9999 -9999 -9999 -9999 -9999 -9999 -9999 -9999 -9999 -9999 -9999 -9999 -9999 -9999 -9999 -9999 -9999 -9999 -9999 -9999 -9999 -9999 -9999 -9999 -9999 -9999 -9999 -9999 -9999 -9999 5.96031093597412 6.31392335891724 6.57085037231445 6.73116588592529 6.86755990982056 6.98187446594238 6.9208984375 6.59917831420898 6.24070167541504 6.06214141845703 5.98529243469238 5.92204666137695 5.8467960357666 5.79505681991577 5.53841400146484 5.42223882675171 5.96156120300293 8.21395015716553 10.8023147583008 12.0902738571167 13.0995225906372 13.507716178894 13.3179521560669 12.7302265167236 11.5861854553223 10.1809148788452 9.92235469818115 10.4145622253418 11.5989418029785 13.4336595535278
-9999 -9999 -9999 -9999 -9999 -9999 -9999 -9999 -9999 -9999 -9999 -9999 -9999 -9999 -9999 -9999 -9999 -9999 -9999 -9999 -9999 -9999 -9999 -9999 -9999 -9999 -9999 -9999 -9999 -9999 -9999 -9999 -9999 -9999 5.47085320949554 5.00603246688843 4.71850490570068 -9999 4.23009014129639 4.75036478042603 5.63872003555298 6.26001358032227 6.65605354309082 6.9191780090332 7.0551929473877 7.01195621490479 6.67536783218384 6.3338885307312 6.15355491638184 6.11299848556519 6.14254522323608 6.18658828735352 6.15812683105469 6.12859392166138 5.87088775634766 5.77736854553223 6.48115682601929 8.4769344329834 9.83370494842529 10.7299909591675 12.0184679031372 13.6623792648315 13.7651958465576 13.630223274231 12.7742528915405 11.8472967147827 11.3967733383179 11.4906940460205 12.6172542572021 13.9952793121338
-9999 -9999 -9999 -9999 -9999 -9999 -9999 -9999 -9999 -9999 -9999 -9999 -9999 -9999 -9999 -9999 -9999 -9999 -9999 -9999 -9999 -9999 -9999 -9999 -9999 -9999 -9999 2.99443984031677 2.99443984031677 3.22834086418152 3.71030139923096 4.80348300933838 5.72104835510254 5.74407577514648 5.62134075164795 5.51196384429932 5.27551794052124 4.88938522338867 4.55646991729736 4.78755044937134 5.5432243347168 6.23457908630371 6.76148700714111 7.08969068527222 7.15271806716919 6.91176986694336 6.50711965560913 6.24548721313477 6.17175436019897 6.20490217208862 6.33246564865112 6.4935302734375 6.55798816680908 6.57097101211548 6.40349769592285 6.45340204238892 7.11027097702026 8.22858428955078 8.83161449432373 9.76615524291992 11.6011238098145 14.1710968017578 15.0258827209473 15.1635627746582 14.8958539962769 14.1060085296631 13.1243667602539 12.6692934036255 13.3717670440674 14.6160917282104
-9999 -9999 -9999 -9999 -9999 -9999 -9999 -9999 -9999 -9999 -9999 -9999 -9999 -9999 -9999 -9999 -9999 -9999 -9999 -9999 -9999 -9999 -9999 -9999 -9999 -9999 -9999 -9999 -9999 -9999 4.735915184021 5.67692852020264 6.44013547897339 6.4736762046814 6.35676002502441 6.15267705917358 5.85489177703857 5.57938671112061 5.29350423812866 5.3696174621582 5.86064481735229 6.38328504562378 6.84621286392212 7.11840629577637 7.09440565109253 6.82279825210571 6.55865526199341 6.44823694229126 6.44181203842163 6.47134733200073 6.58457517623901 6.73796272277832 6.79585409164429 6.79963684082031 6.81903266906738 7.04905557632446 7.56079721450806 8.23947620391846 9.46183776855469 11.219277381897 13.1854114532471 14.8671522140503 15.7815170288086 16.0328350067139 16.028341293335 15.7813119888306 14.940655708313 13.89430809021 13.924599647522 14.8220357894897
-9999 -9999 -9999 -9999 -9999 -9999 -9999 -9999 -9999 -9999 -9999 -9999 -9999 -9999 -9999 -9999 -9999 -9999 -9999 -9999 -9999 -9999 -9999 -9999 -9999 5.81295124689738 6.00481605529785 6.33197863896688 6.67165303230286 6.39303398132324 6.66959619522095 6.95630931854248 7.11072874069214 7.172532081604 7.13006591796875 6.92318201065063 6.67801523208618 6.48150110244751 6.25965356826782 6.18341732025146 6.35439538955688 6.62320899963379 6.90430879592896 7.05382585525513 7.0142183303833 6.9881329536438 6.96120166778564 6.91905403137207 6.84346008300781 6.76780796051025 6.78096437454224 6.94966745376587 6.99770545959473 6.87668752670288 6.99713325500488 7.34540987014771 8.14111614227295 9.74943161010742 12.0265989303589 13.9619846343994 15.2112770080566 15.778772354126 16.1844367980957 16.4034175872803 16.6029624938965 16.4781475067139 16.0535163879395 14.9849796295166 14.3019342422485 14.5457954406738
-9999 -9999 -9999 -9999 -9999 -9999 -9999 -9999 -9999 -9999 -9999 -9999 -9999 -9999 -9999 -9999 -9999 -9999 -9999 -9999 -9999 -9999 -9999 -9999 5.70096063613892 5.80699586868286 5.93089723587036 6.27655506134033 6.78848361968994 7.22853946685791 7.56929302215576 7.84829044342041 8.00545310974121 8.06534194946289 7.91333436965942 7.5915961265564 7.33307123184204 7.12009048461914 6.89919233322144 6.81249856948853 6.85483360290527 6.90518045425415 6.98612785339355 7.06569051742554 7.16667127609253 7.3767466545105 7.45142078399658 7.38855218887329 7.29445219039917 7.28129911422729 7.46712589263916 7.96248149871826 8.31081676483154 8.07805633544922 8.0438928604126 8.58663654327393 10.3726406097412 12.882830619812 14.4646978378296 15.20814037323 15.998272895813 16.5776309967041 17.0202350616455 17.4547386169434 17.7446556091309 17.5258560180664 17.0058155059814 16.0790176391602 14.9883241653442 14.5918712615967
-9999 -9999 -9999 -9999 -9999 -9999 -9999 -9999 -9999 -9999 -9999 -9999 -9999 -9999 -9999 -9999 -9999 -9999 -9999 -9999 -9999 -9999 -9999 -9999 6.07910346984863 6.45464849472046 6.83985805511475 7.29503393173218 7.7842435836792 8.18265914916992 8.50432777404785 8.72583866119385 8.81027507781982 8.71451282501221 8.44168090820312 8.20598316192627 8.10636901855469 7.98176908493042 7.71731996536255 7.47926330566406 7.34331560134888 7.25690174102783 7.28712511062622 7.48271322250366 7.83641290664673 8.21183109283447 8.54314613342285 8.81995296478271 8.95431709289551 8.94346618652344 9.17053985595703 9.78247356414795 10.1828155517578 9.88365268707275 9.72355842590332 10.4270401000977 12.42689037323 14.2395401000977 15.0174264907837 15.5224380493164 16.2604846954346 16.8398971557617 17.4313182830811 18.1695766448975 18.6133193969727 18.6445789337158 18.1528930664062 17.212194442749 15.9355316162109 15.1604671478271
-9999 -9999 -9999 -9999 -9999 -9999 -9999 -9999 -9999 -9999 -9999 -9999 -9999 -9999 -9999 -9999 -9999 -9999 -9999 -9999 -9999 -9999 -9999 6.08488392829895 6.22014951705933 6.83514976501465 7.47641706466675 8.02224636077881 8.45544052124023 8.79456901550293 9.07140254974365 9.32767581939697 9.53978824615479 9.5791130065918 9.65974712371826 9.9599142074585 10.2977590560913 10.6002931594849 10.5574016571045 9.89181423187256 8.95996952056885 8.30190944671631 8.16168785095215 8.52326107025146 9.05655193328857 9.51463317871094 10.0678396224976 10.6395978927612 10.9158010482788 10.7360372543335 10.6311855316162 10.9829730987549 11.2759809494019 11.1310796737671 11.1834115982056 11.9801969528198 13.4024696350098 14.5287055969238 15.0636625289917 15.611385345459 16.2228965759277 16.6709938049316 17.3237686157227 18.2031879425049 18.7067832946777 18.8491649627686 18.6470031738281 17.9012813568115 16.5571956634521 15.8301782608032
-9999 -9999 -9999 -9999 -9999 -9999 -9999 -9999 -9999 -9999 -9999 -9999 -9999 -9999 -9999 -9999 -9999 -9999 -9999 -9999 -9999 -9999 -9999 5.7924542427063 6.24782848358154 7.02175092697144 7.77563285827637 8.39297485351562 8.8339376449585 9.17565536499023 9.66577053070068 10.4170513153076 11.1219120025635 11.5423746109009 11.8703660964966 12.2386627197266 12.6516532897949 13.1963148117065 13.5401315689087 13.1561326980591 12.2928142547607 11.3945074081421 10.6829528808594 10.4548320770264 10.5992097854614 10.7875595092773 11.0092935562134 11.2193698883057 11.318323135376 11.1876354217529 11.0686340332031 11.2330474853516 11.6378059387207 12.0402193069458 12.4862070083618 13.3514127731323 14.3840913772583 15.0079803466797 15.3512468338013 15.8440380096436 16.292989730835 16.5107460021973 17.0425395965576 17.9974155426025 18.6487522125244 18.8203773498535 18.6847171783447 18.0523509979248 16.7872867584229 16.2943229675293
-9999 -9999 -9999 -9999 -9999 -9999 -9999 -9999 -9999 -9999 -9999 -9999 -9999 -9999 -9999 -9999 -9999 -9999 -9999 -9999 -9999 -9999 5.63234996795654 5.78656768798828 6.44540643692017 7.38395881652832 8.1944694519043 8.81149673461914 9.33304595947266 9.98389720916748 10.9678897857666 12.0283737182617 12.754002571106 13.2279090881348 13.5485343933105 13.6969766616821 13.8438491821289 14.1009931564331 14.3709239959717 14.4831924438477 14.4831428527832 14.2634267807007 13.5940389633179 12.639497756958 11.9087505340576 11.5921602249146 11.4907560348511 11.4696493148804 11.4861164093018 11.5186967849731 11.6097211837769 11.8560514450073 12.5499410629272 13.3623809814453 13.9305095672607 14.6152563095093 15.2802925109863 15.6184768676758 15.8491621017456 16.1886768341064 16.4556427001953 16.4750747680664 16.7718982696533 17.6405086517334 18.4816856384277 18.7674083709717 18.6134624481201 18.026819229126 16.9302387237549 16.5280208587646
-9999 -9999 -9999 -9999 -9999 -9999 -9999 -9999 -9999 -9999 -9999 -9999 -9999 -9999 6.24123089843326 -9999 -9999 -9999 -9999 6.02926158905029 -9999 5.81362533569336 5.72573089599609 6.05833148956299 6.96958684921265 8.03812503814697 8.87614250183105 9.57779121398926 10.3829259872437 11.3362064361572 12.2085914611816 12.8570461273193 13.3289165496826 13.777174949646 14.2189235687256 14.4781646728516 14.5478096008301 14.6174907684326 14.7359580993652 14.8099184036255 14.8738889694214 14.9224071502686 14.6813316345215 13.7985401153564 12.6089105606079 11.8696069717407 11.6448974609375 11.6289949417114 11.7986316680908 12.2187633514404 12.8007669448853 13.6190786361694 14.6390600204468 15.4442977905273 15.929859161377 16.3352222442627 16.6844005584717 16.8766765594482 16.9739227294922 17.066162109375 17.1398448944092 17.0608081817627 17.0686950683594 17.4103965759277 18.0856761932373 18.5665969848633 18.5528507232666 18.128475189209 17.2678127288818 16.8096618652344
-9999 -9999 -9999 -9999 -9999 -9999 -9999 -9999 -9999 -9999 -9999 -9999 -9999 -9999 6.24211180210114 -9999 -9999 -9999 -9999 6.01601529121399 6.079541015625 6.06301498413086 6.1324315071106 6.72080326080322 7.74280595779419 8.79630756378174 9.74604797363281 10.7297964096069 11.7186508178711 12.4590873718262 12.9682512283325 13.5422525405884 14.1418237686157 14.7088804244995 15.3110694885254 15.7871370315552 16.0130310058594 16.0344676971436 15.9686031341553 15.8680686950684 15.7977180480957 15.7204084396362 15.3345193862915 14.5054540634155 13.320107460022 12.3216104507446 11.9684820175171 12.0608062744141 12.7277164459229 13.9558544158936 15.1090078353882 16.0672721862793 16.9044494628906 17.531925201416 18.0294704437256 18.4044189453125 18.6347503662109 18.724983215332 18.7181587219238 18.6512470245361 18.554515838623 18.4053344726562 18.2335510253906 18.0610370635986 18.0419178009033 18.2830085754395 18.4784469604492 18.3396148681641 17.7922077178955 17.3818778991699
-9999 -9999 -9999 -9999 -9999 -9999 -9999 -9999 -9999 -9999 -9999 -9999 -9999 -9999 6.2381477355957 -9999 -9999 -9999 -9999 -9999 6.65080797672272 6.4890341758728 6.76869201660156 7.5638689994812 8.65824222564697 9.71053409576416 10.7119970321655 11.7447805404663 12.5819673538208 13.1089277267456 13.7496566772461 14.6027746200562 15.3580741882324 16.1308612823486 16.9870796203613 17.690881729126 18.1194725036621 18.2178611755371 18.0810832977295 17.8516311645508 17.603759765625 17.3210277557373 16.7349739074707 15.8156423568726 14.7037267684937 13.7393245697021 13.42919921875 13.7076091766357 14.5933036804199 15.7960319519043 16.7197113037109 17.4452342987061 18.0938625335693 18.6714019775391 19.2289409637451 19.6301689147949 19.8062076568604 19.8320293426514 19.7996959686279 19.7342720031738 19.63938331604 19.5414772033691 19.4030494689941 19.1812438964844 18.8245162963867 18.5244617462158 18.4501190185547 18.4428482055664 18.2281112670898 17.9937591552734
-9999 -9999 -9999 -9999 -9999 -9999 -9999 -9999 -9999 -9999 -9999 -9999 -9999 -9999 6.25091600418091 -9999 6.25400400161743 -9999 -9999 -9999 7.02463865280151 7.02654409408569 7.45403051376343 8.41238689422607 9.74311542510986 10.8150701522827 11.5599088668823 12.3424825668335 13.0485877990723 13.6993865966797 14.5104236602783 15.3018255233765 16.0077037811279 16.8833866119385 17.9543170928955 18.8566036224365 19.4004554748535 19.648193359375 19.659704208374 19.5052013397217 19.1819553375244 18.7230815887451 18.0540771484375 17.0503959655762 15.9046039581299 15.0818881988525 15.0811576843262 15.6223220825195 16.2387657165527 16.8197746276855 17.368745803833 18.0276126861572 18.7012691497803 19.3952503204346 19.9925441741943 20.2601566314697 20.2829074859619 20.2377548217773 20.1976337432861 20.1645660400391 20.1297016143799 20.0989151000977 20.0420970916748 19.9349899291992 19.7419986724854 19.385383605957 18.9658622741699 18.7029399871826 18.5172710418701 18.3275737762451
-9999 -9999 -9999 -9999 -9999 -9999 -9999 -9999 -9999 -9999 -9999 -9999 -9999 -9999 6.25091600418091 6.26368427276611 6.26098823547363 -9999 -9999 7.54026281833649 7.43045473098755 7.73547744750977 8.41868686676025 9.74812602996826 11.2678384780884 12.0218725204468 12.2909774780273 12.8570213317871 13.578369140625 14.4106721878052 15.3925294876099 16.3812522888184 17.412956237793 18.403190612793 19.3483562469482 20.1233654022217 20.5959396362305 20.8871822357178 21.0205383300781 21.0077056884766 20.8067455291748 20.314136505127 19.5248394012451 18.4204044342041 17.0570220947266 16.117130279541 16.2908992767334 16.9006786346436 17.2681198120117 17.5814876556396 18.0511913299561 18.6699504852295 19.3810977935791 20.1452026367188 20.5377788543701 20.5606555938721 20.4596633911133 20.3799476623535 20.3148250579834 20.2478694915771 20.2063617706299 20.1765937805176 20.1521186828613 20.1405334472656 20.1254787445068 20.026481628418 19.7453765869141 19.3792972564697 19.0690650939941 18.7890777587891
-9999 -9999 -9999 -9999 -9999 -9999 -9999 -9999 -9999 -9999 -9999 -9999 -9999 -9999 -9999 6.5734673500061 6.37394332885742 -9999 7.48465538024902 7.71347570419312 7.99248218536377 8.62609958648682 9.72745513916016 11.2839527130127 12.5648040771484 12.9173946380615 12.9799947738647 13.5123519897461 14.4130783081055 15.7030830383301 17.2306137084961 18.6507511138916 19.8392848968506 20.7070636749268 21.2993202209473 21.7101154327393 21.9823303222656 22.1828269958496 22.314115524292 22.3476867675781 22.2777290344238 21.9695377349854 21.2503910064697 20.0840034484863 18.6248989105225 17.5536289215088 17.4505596160889 17.7142772674561 17.9111766815186 18.2162265777588 18.6387901306152 19.2343597412109 20.0264511108398 20.5934925079346 20.7386741638184 20.6285953521729 20.4669437408447 20.3408946990967 20.2467041015625 20.1866855621338 20.1711006164551 20.1518020629883 20.1100997924805 20.0931148529053 20.1241207122803 20.1651229858398 20.1422939300537 19.9903182983398 19.7769432067871 19.5449542999268
-9999 -9999 -9999 -9999 -9999 -9999 -9999 -9999 -9999 -9999 -9999 -9999 -9999 -9999 -9999 7.02685689926147 6.94186401367188 -9999 7.91775417327881 8.03893280029297 8.59876823425293 9.47683620452881 10.8615894317627 12.2766447067261 13.1061506271362 13.5060787200928 13.9206495285034 14.8886604309082 16.3525333404541 18.1952266693115 19.8937206268311 21.0623302459717 21.8290748596191 22.3451023101807 22.6678810119629 22.8256759643555 22.8822154998779 22.8834800720215 22.8424243927002 22.7574577331543 22.6369075775146 22.477144241333 22.1245212554932 21.3921413421631 20.2724208831787 19.1200408935547 18.5220108032227 18.4474105834961 18.5688533782959 18.8254718780518 19.1783103942871 19.7454090118408 20.4008121490479 20.729024887085 20.727783203125 20.5552577972412 20.3829536437988 20.2684078216553 20.2009906768799 20.1916122436523 20.209566116333 20.2005786895752 20.177827835083 20.1566562652588 20.1766471862793 20.2198028564453 20.2827701568604 20.3114185333252 20.2713012695312 20.1685523986816
-9999 -9999 -9999 -9999 -9999 -9999 -9999 -9999 -9999 -9999 -9999 -9999 -9999 -9999 -9999 7.27096891403198 -9999 7.70387431553432 8.04738426208496 8.40028667449951 9.15627002716064 10.3082027435303 11.7165803909302 12.8311290740967 13.8040218353271 15.069263458252 16.5973606109619 18.2636432647705 19.7473735809326 21.0396862030029 21.9631080627441 22.5078296661377 22.8729190826416 23.0846576690674 23.1213054656982 23.0066699981689 22.8239326477051 22.636137008667 22.4657974243164 22.3367786407471 22.2083625793457 22.0794353485107 21.9688930511475 21.7553405761719 21.2962894439697 20.5948543548584 19.9567356109619 19.6517028808594 19.5520324707031 19.5848712921143 19.7307167053223 20.1455841064453 20.5896167755127 20.7636108398438 20.6603507995605 20.4600353240967 20.2912788391113 20.1842575073242 20.1242008209229 20.1131401062012 20.1306133270264 20.1762351989746 20.256175994873 20.3030014038086 20.3544883728027 20.3988933563232 20.448616027832 20.528470993042 20.5885963439941 20.5931262969971
-9999 -9999 -9999 -9999 -9999 -9999 -9999 -9999 -9999 -9999 -9999 -9999 -9999 -9999 7.27096891403198 7.39525111516317 7.57785940170288 7.907057762146 8.19827556610107 8.68196678161621 9.57968330383301 10.9752597808838 12.485294342041 13.7847709655762 15.4255409240723 17.3933048248291 19.3889389038086 20.9403057098389 21.8937301635742 22.4851131439209 22.8662281036377 23.107795715332 23.2011623382568 23.0796985626221 22.759729385376 22.3574886322021 22.0062484741211 21.73268699646 21.5962600708008 21.6008758544922 21.6201877593994 21.6197509765625 21.5970363616943 21.5588130950928 21.5516548156738 21.4749317169189 21.2143211364746 20.9239120483398 20.7063102722168 20.5412769317627 20.4118576049805 20.5180320739746 20.6656398773193 20.6047477722168 20.4045257568359 20.2486896514893 20.1272029876709 20.0473155975342 19.9977359771729 20.0018768310547 20.0560626983643 20.1553211212158 20.2580146789551 20.3345260620117 20.4483947753906 20.5405197143555 20.6124248504639 20.7000122070312 20.7625865936279 20.7715358734131
-9999 -9999 -9999 -9999 -9999 -9999 -9999 -9999 -9999 -9999 -9999 -9999 -9999 -9999 -9999 -9999 7.98734700679779 8.11254119873047 8.45442008972168 9.05121326446533 10.0182962417603 11.4721736907959 13.2630453109741 15.0841083526611 17.2860202789307 19.6298313140869 21.3507461547852 22.4082508087158 22.9528160095215 23.2126960754395 23.2853832244873 23.1601581573486 22.8324508666992 22.3763580322266 21.9207763671875 21.5347080230713 21.2015533447266 21.0350589752197 21.0880966186523 21.1717128753662 21.2398815155029 21.3566417694092 21.4229984283447 21.4380283355713 21.4995708465576 21.5919342041016 21.6169090270996 21.5359745025635 21.3462886810303 21.0792808532715 20.7824420928955 20.6169414520264 20.533971786499 20.3455257415771 20.119743347168 19.9982318878174 19.9619770050049 19.9576663970947 19.954216003418 19.9828071594238 20.0418853759766 20.1564235687256 20.2775955200195 20.3948402404785 20.567024230957 20.684871673584 20.7316970825195 20.7309741973877 20.6987342834473 20.6488437652588
-9999 -9999 -9999 -9999 -9999 -9999 -9999 -9999 -9999 -9999 -9999 -9999 -9999 -9999 -9999 -9999 8.23223543167114 8.35192966461182 8.78350925445557 9.45354557037354 10.5393905639648 12.4889316558838 15.1569490432739 17.6123714447021 19.9444713592529 21.7268123626709 22.8070297241211 23.3179206848145 23.4193153381348 23.24436378479 22.8999805450439 22.4443683624268 21.9966716766357 21.6215858459473 21.2964859008789 20.9686641693115 20.7283115386963 20.7780590057373 21.0183773040771 21.1467361450195 21.1868209838867 21.308952331543 21.4057502746582 21.4415187835693 21.471004486084 21.4866619110107 21.477014541626 21.4577178955078 21.3377876281738 21.1325759887695 20.8539505004883 20.5562515258789 20.3540592193604 20.1598358154297 19.9584884643555 19.8357963562012 19.8426475524902 19.8976936340332 19.9299507141113 19.9636631011963 20.0075511932373 20.1028995513916 20.2196483612061 20.3176651000977 20.3935432434082 20.3945217132568 20.3351192474365 20.2743911743164 20.2308921813965 20.2130107879639
-9999 -9999 -9999 -9999 -9999 -9999 -9999 -9999 -9999 -9999 -9999 -9999 -9999 -9999 -9999 -9999 -9999 8.76028108596802 8.99385929107666 9.86127948760986 11.3879747390747 14.5698022842407 18.4754867553711 20.7562599182129 22.2568473815918 23.1545143127441 23.6048278808594 23.5728149414062 23.1274662017822 22.5038661956787 21.9709587097168 21.6087169647217 21.4265289306641 21.2296562194824 20.9228954315186 20.6516189575195 20.530891418457 20.6563701629639 20.9534091949463 21.0910625457764 21.1537570953369 21.27565574646 21.3352756500244 21.3575172424316 21.3822193145752 21.3358974456787 21.2303256988525 21.1865749359131 21.1327285766602 21.0036239624023 20.7618522644043 20.4487323760986 20.2207736968994 20.0464000701904 19.8918838500977 19.7892932891846 19.7992706298828 19.8739433288574 19.9090003967285 19.9283123016357 19.9574489593506 20.0207977294922 20.0845203399658 20.0892372131348 20.0412864685059 19.9642200469971 19.8921070098877 19.8518333435059 19.8471546173096 19.8805751800537
-9999 -9999 -9999 -9999 -9999 -9999 -9999 -9999 -9999 -9999 -9999 -9999 -9999 -9999 8.32200610637665 8.35192966461182 8.74421989917755 8.95284271240234 8.91182613372803 9.66897773742676 12.0682125091553 16.9076366424561 20.794261932373 22.3011875152588 23.3503684997559 23.7690696716309 23.6921501159668 23.0794544219971 22.227087020874 21.6304817199707 21.3042297363281 21.20192527771 21.1905250549316 20.995454788208 20.6835746765137 20.5194206237793 20.4487419128418 20.5027503967285 20.7229862213135 20.8341846466064 20.856014251709 20.8770446777344 20.8817977905273 20.9287147521973 20.9895305633545 20.9684886932373 20.8753662109375 20.7951221466064 20.7429790496826 20.6806964874268 20.5310535430908 20.3032302856445 20.1092624664307 19.9546375274658 19.8532409667969 19.8086318969727 19.8171138763428 19.8708686828613 19.8808689117432 19.8725357055664 19.8704986572266 19.8758678436279 19.8435935974121 19.7567024230957 19.6916790008545 19.6484146118164 19.6359920501709 19.674446105957 19.7393951416016 19.7945423126221
-9999 -9999 -9999 -9999 -9999 -9999 -9999 -9999 -9999 -9999 -9999 -9999 -9999 -9999 -9999 -9999 -9999 -9999 10.5335335731506 10.9399518966675 14.0765132904053 18.8744792938232 22.0423316955566 23.3602313995361 23.8922824859619 23.7501125335693 23.0780868530273 22.1725196838379 21.5218410491943 21.2147693634033 21.0581951141357 21.0286293029785 20.9885635375977 20.7599201202393 20.5403366088867 20.4678363800049 20.3653793334961 20.2807121276855 20.3005962371826 20.2770900726318 20.1697101593018 20.0649318695068 20.0117130279541 20.0603275299072 20.1857872009277 20.282808303833 20.3346939086914 20.3458919525146 20.3239593505859 20.2886180877686 20.222599029541 20.1147899627686 20.0018882751465 19.8871822357178 19.8407211303711 19.8373775482178 19.8432197570801 19.8674507141113 19.8565654754639 19.83180809021 19.7922496795654 19.7125873565674 19.5946407318115 19.4751968383789 19.4417839050293 19.4693450927734 19.530647277832 19.6335716247559 19.743673324585 19.8014297485352
-9999 -9999 -9999 -9999 -9999 -9999 -9999 -9999 -9999 -9999 -9999 -9999 -9999 -9999 -9999 -9999 -9999 13.8879747390747 13.6363406181335 12.6133785247803 16.5563545227051 21.5600070953369 23.4853572845459 23.9938316345215 23.862771987915 23.1868095397949 22.2714157104492 21.5748748779297 21.2223110198975 21.0557270050049 20.9531688690186 20.8705406188965 20.7424583435059 20.5758533477783 20.4830551147461 20.405912399292 20.2194175720215 20.0288352966309 19.9045467376709 19.7762622833252 19.6412658691406 19.5259265899658 19.4545116424561 19.4700622558594 19.5534839630127 19.6486701965332 19.7495212554932 19.8227310180664 19.8442363739014 19.8639125823975 19.8827800750732 19.8891086578369 19.8860473632812 19.8681011199951 19.8725471496582 19.8754081726074 19.8617744445801 19.8636474609375 19.8433113098145 19.8131904602051 19.7585525512695 19.6564426422119 19.5220851898193 19.406286239624 19.4025211334229 19.4805736541748 19.5889568328857 19.7094879150391 19.8154716491699 19.8506546020508
-9999 -9999 -9999 -9999 -9999 -9999 -9999 -9999 -9999 -9999 -9999 -9999 -9999 15.8420658111572 16.5378735860189 -9999 16.9293699264526 16.3525922298431 13.8879747390747 17.1040573120117 21.5612850189209 23.593578338623 24.0528144836426 23.9830551147461 23.4110336303711 22.4674606323242 21.72873878479 21.3043060302734 21.1094188690186 20.9869537353516 20.8769226074219 20.7272720336914 20.5989532470703 20.5284843444824 20.4527320861816 20.294506072998 20.0414981842041 19.8186569213867 19.6670932769775 19.5723133087158 19.5428504943848 19.5280094146729 19.499418258667 19.4745101928711 19.4750480651855 19.5064182281494 19.5316925048828 19.5484085083008 19.5667972564697 19.608211517334 19.6718063354492 19.7411251068115 19.8003807067871 19.8388614654541 19.8750953674316 19.8974494934082 19.8814430236816 19.8756885528564 19.8548278808594 19.8236446380615 19.7769775390625 19.6903800964355 19.6061820983887 19.569263458252 19.6273670196533 19.7374439239502 19.8397178649902 19.9123306274414 19.9680976867676 19.9511528015137
-9999 -9999 -9999 -9999 -9999 -9999 -9999 -9999 -9999 -9999 -9999 -9999 -9999 -9999 15.8420658111572 17.0167980194092 16.7547569274902 17.103982925415 17.6636543273926 21.9632740020752 23.8416481018066 24.2163162231445 24.1451187133789 23.6725940704346 22.7646961212158 21.9668464660645 21.4828014373779 21.2335910797119 21.113842010498 20.9879169464111 20.8305072784424 20.6756134033203 20.5981845855713 20.5233154296875 20.3718223571777 20.1491794586182 19.8899059295654 19.6919593811035 19.5888614654541 19.5690975189209 19.6127643585205 19.647741317749 19.644702911377 19.6157627105713 19.5911636352539 19.6117115020752 19.6442584991455 19.6544952392578 19.6620807647705 19.698278427124 19.7461013793945 19.783088684082 19.8054332733154 19.8252086639404 19.8512535095215 19.8792953491211 19.8782691955566 19.8753776550293 19.8744411468506 19.8607158660889 19.831672668457 19.7763633728027 19.7494430541992 19.7833461761475 19.8588886260986 19.9480323791504 20.018741607666 20.049919128418 20.0568923950195 20.0025196075439
-9999 -9999 -9999 -9999 -9999 -9999 -9999 -9999 -9999 -9999 -9999 -9999 -9999 -9999 16.4025354385376 15.8420658111572 18.4535713195801 20.193489074707 22.1378974914551 24.0566635131836 24.2868709564209 24.1446170806885 23.7737274169922 23.0456504821777 22.1538772583008 21.6194400787354 21.3435707092285 21.221004486084 21.0895404815674 20.9298515319824 20.7667369842529 20.6534519195557 20.5865211486816 20.4562644958496 20.2543048858643 20.0266075134277 19.8089542388916 19.6752319335938 19.6381168365479 19.6551628112793 19.7183094024658 19.7646751403809 19.7544689178467 19.7240428924561 19.7135143280029 19.7356395721436 19.7655487060547 19.7842464447021 19.8169422149658 19.8871746063232 19.9406433105469 19.9370460510254 19.9015121459961 19.875036239624 19.8703193664551 19.871883392334 19.8711090087891 19.8659191131592 19.8694629669189 19.8857498168945 19.8967304229736 19.8791790008545 19.8639698028564 19.9024486541748 19.9536380767822 20.0214500427246 20.0886764526367 20.1172924041748 20.1243915557861 20.0672187805176
-9999 -9999 -9999 -9999 -9999 -9999 -9999 -9999 -9999 -9999 -9999 13.9745054244995 14.4091081619263 15.7676763534546 15.6880197525024 18.3123798370361 21.9568424224854 23.4129486083984 24.1024017333984 24.3337898254395 24.1766471862793 23.8592128753662 23.2963771820068 22.4622173309326 21.7964897155762 21.4360103607178 21.2687530517578 21.1905612945557 21.0252265930176 20.8468971252441 20.7066955566406 20.6159553527832 20.5295581817627 20.385778427124 20.2013549804688 19.9959239959717 19.7929363250732 19.680269241333 19.6657314300537 19.697473526001 19.7976951599121 19.859468460083 19.8397464752197 19.8201217651367 19.8284511566162 19.8326549530029 19.8386707305908 19.8811435699463 19.9579696655273 20.0253677368164 20.0246047973633 19.9796371459961 19.940113067627 19.9293670654297 19.9344158172607 19.9309482574463 19.915246963501 19.9074172973633 19.8976497650146 19.8997631072998 19.9245052337646 19.9381427764893 19.9497337341309 19.9750900268555 20.0352249145508 20.1176586151123 20.1700801849365 20.1933670043945 20.2192783355713 20.1631126403809
-9999 -9999 -9999 -9999 -9999 -9999 -9999 -9999 -9999 13.2574644088745 14.0958299636841 15.4135971069336 16.7792739868164 18.164701461792 17.7274894714355 20.1989727020264 23.0953598022461 24.1827716827393 24.3778343200684 24.2399215698242 23.9497089385986 23.5567436218262 22.8773136138916 22.0757789611816 21.6402435302734 21.3809852600098 21.3026714324951 21.2506942749023 21.0994148254395 20.9067726135254 20.7300910949707 20.5952453613281 20.5015735626221 20.3814907073975 20.2410869598389 20.0657024383545 19.8630275726318 19.7338275909424 19.7001552581787 19.7470321655273 19.8662528991699 19.9163112640381 19.8830585479736 19.873233795166 19.8877334594727 19.887659072876 19.9067325592041 19.9695587158203 20.0235252380371 20.021089553833 19.9781799316406 19.9394149780273 19.9283218383789 19.94309425354 19.9672393798828 19.9729518890381 19.9617519378662 19.9586181640625 19.9558506011963 19.9524402618408 19.9693470001221 19.9995994567871 20.0290145874023 20.0846157073975 20.1947402954102 20.257661819458 20.2747802734375 20.2929878234863 20.279899597168 20.1977348327637
-9999 -9999 -9999 -9999 -9999 -9999 -9999 -9999 -9999 14.4743041992188 15.668083190918 17.7541370391846 19.6728668212891 20.790470123291 20.5734443664551 22.7795486450195 24.2215461730957 24.4752750396729 24.3284721374512 24.0592784881592 23.7339916229248 23.2692337036133 22.528148651123 21.8894195556641 21.5700378417969 21.3696594238281 21.3296051025391 21.2788829803467 21.1471157073975 20.9602432250977 20.7722091674805 20.6141490936279 20.5141735076904 20.4186763763428 20.3128795623779 20.1948833465576 20.0230693817139 19.8775844573975 19.8092632293701 19.8334465026855 19.9347381591797 19.9555587768555 19.9001388549805 19.9029655456543 19.9432373046875 19.9648456573486 20.0017719268799 20.0600776672363 20.0790233612061 20.0548458099365 20.0199871063232 19.9900894165039 19.9815635681152 20.0006237030029 20.0281925201416 20.0412464141846 20.0476055145264 20.0485210418701 20.03542137146 20.0221767425537 20.0298461914062 20.0727462768555 20.1394882202148 20.2350749969482 20.3192729949951 20.3557834625244 20.375524520874 20.3884735107422 20.3474349975586 20.298547744751
-9999 -9999 -9999 -9999 -9999 15.2398271560669 14.8858861923218 15.3147478103638 15.3371114730835 15.4389896392822 16.9415225982666 19.6773509979248 21.6861839294434 22.7714767456055 23.5529041290283 24.3694725036621 24.539665222168 24.3875465393066 24.1124897003174 23.8900337219238 23.6059856414795 23.2657108306885 22.5195350646973 21.890832901001 21.5720748901367 21.4234848022461 21.3780918121338 21.3129177093506 21.1855773925781 21.0176315307617 20.8514099121094 20.7043972015381 20.5892028808594 20.4937629699707 20.4053039550781 20.3262767791748 20.1975250244141 20.0609550476074 19.9687824249268 19.9504928588867 20.0208320617676 20.0170879364014 19.9302673339844 19.9392490386963 20.0233631134033 20.0798454284668 20.1248016357422 20.1729068756104 20.1854038238525 20.1679191589355 20.140941619873 20.1124572753906 20.0946407318115 20.1056823730469 20.1307945251465 20.144718170166 20.14577293396 20.1294364929199 20.1037197113037 20.0927696228027 20.1072406768799 20.1681575775146 20.2458763122559 20.3259658813477 20.3978786468506 20.4644432067871 20.4845180511475 20.4595336914062 20.4018611907959 20.3780860900879
-9999 -9999 -9999 -9999 14.7986869812012 14.7921342849731 16.4826011657715 17.4801826477051 17.7884120941162 17.8649616241455 19.1265182495117 21.5004978179932 22.9061965942383 23.7929019927979 24.3027687072754 24.520809173584 24.4617729187012 24.1625423431396 23.9368858337402 23.7471199035645 23.4496459960938 23.253360748291 22.6650714874268 22.0222778320312 21.7233924865723 21.6421794891357 21.6106510162354 21.5353565216064 21.3791828155518 21.1888294219971 21.00537109375 20.8423824310303 20.6878700256348 20.5408134460449 20.4402351379395 20.3858871459961 20.2997341156006 20.2040596008301 20.122745513916 20.0813827514648 20.1144847869873 20.0917625427246 19.9755840301514 19.9574356079102 20.0698585510254 20.1789817810059 20.2633113861084 20.3352966308594 20.3559589385986 20.3361663818359 20.309534072876 20.2758388519287 20.2358531951904 20.2124652862549 20.2174339294434 20.2232131958008 20.2139530181885 20.1921920776367 20.1680145263672 20.1704978942871 20.2037029266357 20.2471504211426 20.3199462890625 20.3977508544922 20.4892482757568 20.5854511260986 20.6284313201904 20.5798187255859 20.4925098419189 20.4530735015869
-9999 -9999 -9999 15.4512374401093 15.459210395813 16.2911243438721 18.275369644165 19.5473003387451 20.0804710388184 20.5261173248291 21.8811740875244 23.2754802703857 23.9192867279053 24.3474273681641 24.5892105102539 24.5436172485352 24.2087554931641 23.860725402832 23.7693519592285 23.6051998138428 23.2331867218018 23.1174221038818 22.8065795898438 22.2021083831787 21.925407409668 21.95823097229 21.9756908416748 21.9427623748779 21.8230361938477 21.6250152587891 21.3896598815918 21.1525840759277 20.9598636627197 20.7910499572754 20.6279697418213 20.4990043640137 20.3861331939697 20.2965698242188 20.2137508392334 20.158618927002 20.1688079833984 20.1613655090332 20.0630626678467 19.9722518920898 20.0268955230713 20.1457824707031 20.2457294464111 20.3465366363525 20.426700592041 20.4710731506348 20.5011863708496 20.4888439178467 20.4372882843018 20.3610305786133 20.2863540649414 20.2630615234375 20.2617206573486 20.2459182739258 20.2463188171387 20.2764987945557 20.2972030639648 20.3325672149658 20.3760719299316 20.4193515777588 20.4678001403809 20.5658493041992 20.6781330108643 20.6745491027832 20.5832366943359 20.542516708374
-9999 -9999 -9999 15.2524166107178 16.2946357727051 18.0558452606201 20.2019271850586 21.3281211853027 21.8757915496826 22.4526634216309 23.3427581787109 23.9717216491699 24.4006729125977 24.5896129608154 24.5397109985352 24.2483234405518 23.9019107818604 23.7256984710693 23.7759342193604 23.6314735412598 23.2855472564697 23.1227283477783 22.9772415161133 22.5806732177734 22.2291507720947 22.0861625671387 22.0544700622559 22.0293598175049 21.9608154296875 21.7996597290039 21.5410785675049 21.2752380371094 21.0865955352783 20.9612560272217 20.8693752288818 20.7903690338135 20.6929111480713 20.5773525238037 20.4464664459229 20.347484588623 20.3115062713623 20.2665233612061 20.1509265899658 19.9896831512451 19.9464893341064 20.0246410369873 20.1169242858887 20.2210369110107 20.3034076690674 20.350492477417 20.4108905792236 20.481201171875 20.5357761383057 20.5351619720459 20.4416732788086 20.3483238220215 20.3096466064453 20.2846717834473 20.2789039611816 20.2978744506836 20.3185958862305 20.3470497131348 20.4175815582275 20.5056018829346 20.5562076568604 20.5922260284424 20.7092609405518 20.7565479278564 20.6661033630371 20.5952854156494
