NCOLS 35 
NROWS 26 
XLLCORNER -80 
YLLCORNER 33 
CELLSIZE 0.5 
NODATA_value -9999 
-9999.000000000000000 -9999 -9999 -9999 -9999 -9999 -9999 -9999 -9999 -9999 -9999 -9999 -9999 -9999 -9999 -9999 -9999 -9999 -9999 -9999 -9999 -9999 -9999 -9999 -9999 -9999 -9999 -9999 -9999 -9999 -9999 -9999 -9999 -9999 -9999
-9999 -9999 -9999 -9999 -9999 -9999 -9999 -9999 -9999 -9999 -9999 -9999 -9999 -9999 -9999 -9999 -9999 -9999 -9999 -9999 -9999 -9999 -9999 -9999 -9999 -9999 -9999 -9999 -9999 12.8469131544005 -9999 -9999 -9999 -9999 -9999
-9999 -9999 -9999 -9999 -9999 -9999 -9999 -9999 -9999 -9999 -9999 -9999 -9999 -9999 -9999 -9999 -9999 -9999 -9999 -9999 -9999 -9999 -9999 -9999 -9999 -9999 12.2405699619094 12.4191084583656 12.3033672634826 12.3398600322289 -9999 -9999 -9999 -9999 -9999
-9999 -9999 -9999 -9999 -9999 -9999 -9999 -9999 -9999 -9999 -9999 -9999 -9999 -9999 -9999 -9999 -9999 -9999 -9999 -9999 -9999 -9999 -9999 12.9296125683137 12.4755178944931 12.3056584715425 12.5812060387772 13.038383915642 -9999 -9999 -9999 12.6722370760788 12.272556384692 11.9366929413535 11.6083933368073
-9999 -9999 -9999 -9999 -9999 -9999 -9999 -9999 -9999 -9999 -9999 -9999 -9999 -9999 -9999 -9999 -9999 -9999 -9999 -9999 14.3846965473477 13.7487093773552 13.4254151088167 13.3660912436077 12.9568620969757 12.6437023882194 12.7936153391761 13.5193061215012 -9999 -9999 12.7305366598281 12.2329474035214 12.0395909674881 11.9260185237018 11.7107262984423
-9999 -9999 -9999 -9999 -9999 -9999 -9999 -9999 -9999 -9999 -9999 -9999 -9999 -9999 -9999 -9999 -9999 -9999 -9999 14.7622793612427 14.4741102213606 13.9463592013769 13.5562645864462 13.541662244798 13.1870007381243 12.836102706962 12.6072001155099 12.6903298044354 13.023974590594 12.4863303463122 11.8865696590976 11.7911879502907 12.0601387388968 12.1917891154564 11.9256771274233
-9999 -9999 -9999 -9999 -9999 -9999 -9999 -9999 -9999 -9999 -9999 -9999 -9999 -9999 -9999 -9999 -9999 -9999 -9999 15.4023942328551 15.1899159630165 14.8333181416726 14.1062425971802 13.8401358408916 13.4199744838196 12.9610748380001 12.7131674624304 12.2212155133226 11.8189133061627 11.9730953355 12.0999416171374 12.5213407128739 13.1218801637662 13.2258684096834 12.830978102817
-9999 -9999 -9999 -9999 -9999 -9999 -9999 -9999 -9999 -9999 -9999 -9999 -9999 -9999 -9999 -9999 -9999 -9999 -9999 16.0971056592815 15.6822686399547 15.3279022306856 14.6233626158012 14.2757737515576 13.8973835148818 13.2932611535265 12.9416815178156 12.5462243068446 12.631481703429 14.1791414671561 15.1368870673228 14.8564571636033 14.3611675759403 14.1833339231779 14.0113547148272
-9999 -9999 -9999 -9999 -9999 -9999 -9999 -9999 -9999 -9999 -9999 -9999 -9999 -9999 -9999 -9999 -9999 -9999 -9999 17.7240069405796 16.0764419411583 15.5385912980013 14.85278704495 14.3315056677965 13.7711417762895 13.44343935425 13.2097177826773 12.9915705992861 15.0662187981269 17.1350239233097 17.7742969688674 16.6190451480922 15.3204884302225 15.3500307319948 15.7593050438757
-9999 -9999 -9999 -9999 -9999 -9999 -9999 -9999 -9999 -9999 -9999 -9999 -9999 -9999 -9999 -9999 -9999 18.0216292498352 17.8213268004587 17.4683833262511 16.2692321255926 15.3426962834125 15.0983339333929 14.7942545581854 14.4722172467837 13.9807271283902 13.8940445569612 16.328443970724 18.8733389984583 19.9689737110284 19.8511514732325 17.8714628087854 16.333148629018 16.8023104205072 17.4195370088115
-9999 -9999 -9999 -9999 -9999 -9999 -9999 -9999 -9999 -9999 -9999 -9999 -9999 -9999 19.1150451832062 18.6260968058427 18.0793183092044 17.483812604602 17.0081726868078 16.4492259007027 15.5618964968781 15.1944550309636 15.3543556177963 15.295564062772 15.1106307659827 15.6379897051913 17.151658722028 18.9319633617389 19.5555118522728 20.0097019473928 19.2042428437438 17.5467865275569 17.1407795659856 18.0188807643038 19.6294148231171
-9999 -9999 -9999 -9999 -9999 -9999 -9999 -9999 -9999 -9999 -9999 -9999 19.9700546497318 19.4988792466317 18.8097743178634 18.0246093294019 17.6795380250302 17.6317600957254 17.2853275204166 16.7296920654017 16.3368785241348 16.0918009853086 16.2001282868449 16.9109878149301 17.6335495809234 18.6578490628383 19.4691409975163 19.6676395895831 19.0950182725954 18.5016507623215 18.0448282929142 18.3966060279052 19.4310466885429 20.2528323635696 20.6740177240319
-9999 -9999 -9999 -9999 -9999 -9999 -9999 -9999 -9999 -9999 -9999 -9999 19.876976816586 19.1469860797183 18.2930736436844 18.1820714023877 18.723135360832 19.0277458530802 18.6746181586666 17.8904540875973 17.3918434786875 17.3390318964593 17.7732776312273 18.5612130205955 19.0473171910169 19.2460628154333 19.6588797208275 19.9590642699321 19.7019433364527 19.1799386746497 19.6517847992147 20.4553521291733 21.0048880269135 21.2747282938567 21.6540817284958
-9999 -9999 -9999 -9999 -9999 -9999 -9999 -9999 -9999 23.9828455200993 22.3959783067068 20.8243975977196 19.8832303752071 19.0031373980004 18.828907727558 19.4545411870666 20.2562342840057 20.8600381792552 20.7389521622582 20.1378580099431 19.3084608459856 18.5192349768174 18.603445896369 18.9103491766485 19.2969968040914 19.7529509404239 20.4881162795661 20.8695007920266 20.8547047786028 20.7522256118334 20.9391314482136 21.4638877996295 21.7665158934265 21.9721816895316 22.6659625280774
-9999 -9999 -9999 -9999 -9999 -9999 -9999 -9999 -9999 -9999 21.6201576646156 20.6783620558251 19.8716296337858 19.7012503379696 20.5926415529465 21.0407044246832 21.3440629627317 21.5705529131646 22.1274564638401 22.5381070117009 22.1460186584726 20.690552151169 20.1137029948254 19.773913883757 20.5890178503303 21.569880996841 21.6293735566882 22.0534789034513 22.5206956913891 22.6249948806466 22.3475405336909 22.1333408447767 22.4603367907153 23.2651219600361 24.138641103175
-9999 -9999 -9999 -9999 -9999 -9999 -9999 24.6823102589392 24.4788130460991 -9999 21.3328575029473 20.7178423051011 20.9460208405032 21.5337783663065 21.931626729832 22.5394485649174 23.032069285507 23.5401306863432 24.1483779392014 24.5941608649881 24.636431124071 24.2227999931083 22.8562301907358 21.8767056882697 21.7945134165584 22.3804843985309 23.3567950252332 24.0344210912994 24.4520916048455 24.7318011846 24.7758777722006 24.6401987399045 24.5593380994466 24.6083860941236 24.4534823010452
-9999 -9999 -9999 -9999 -9999 -9999 -9999 24.5030589282476 24.0066109845877 22.0620862645285 21.2339088989326 21.2896045342308 22.3872075758838 23.4735868669299 24.6149160021428 25.3474123917917 25.7087495219976 25.9938901071172 26.1216106902037 26.013882166813 25.8538187494188 25.7583574788176 25.502438945742 24.7580960875216 23.9998938243446 24.2153319486306 24.8410768014768 24.8591166040086 24.6659876729299 24.4694226318845 24.4398292399541 24.5061280694908 24.4304401014803 24.1475419373416 23.8999452533445
-9999 -9999 -9999 -9999 -9999 -9999 -9999 24.2464148803506 -9999 22.0294479251073 21.2678583243783 22.1849199252362 23.9990780430967 25.4089770791762 26.2767851798584 25.9569705073264 25.4172945419601 25.0718631042597 24.8100030409245 24.6199934542651 24.5045365290353 24.5378023235571 24.8583965002598 25.1506239909939 25.1073874605796 24.9506320781157 24.835514495101 24.5418938922281 23.9976607522495 23.7425639436836 23.8122764881011 24.069660457595 24.1302863472286 23.7301078426259 23.4536436849276
-9999 -9999 -9999 -9999 -9999 -9999 -9999 -9999 23.2209914445793 22.0423489591496 21.5480437166441 23.8987140297312 25.9722008849671 26.3369303851802 25.5366935039111 24.5811211085849 24.0761539095309 24.0554874139034 23.9656164435354 23.7866539097401 23.5555935839573 23.5315579034823 23.8483827270904 24.1856928064631 24.4331266289912 24.4913733652775 24.3606322903764 23.8079316386066 23.4785056449105 23.6050660009269 23.798023419002 23.9030591805741 23.874148627562 23.4276905639848 23.0135298104896
-9999 -9999 -9999 -9999 -9999 -9999 -9999 -9999 -9999 22.6546156328298 22.5998247783191 25.802765939312 26.8405374691103 25.8995953590649 24.5553087695396 23.7603854012109 23.6965000838997 23.8468697870761 23.58900833542 23.2178179231118 22.969255240156 23.0869668457123 23.345663643731 24.1365676594918 24.4226451312464 24.1042257601371 23.6283380791587 23.3559485837089 23.3666372218323 23.4480299065569 23.2934003161286 23.516854559868 23.6421179751213 23.2891916497477 22.9018938932189
-9999 -9999 -9999 -9999 -9999 -9999 -9999 -9999 -9999 24.2054175898206 24.9953324815422 27.0288801691791 26.6802486984278 25.2586958288621 24.0302210449018 23.5822217068262 23.5086564310828 23.6802545012142 23.5438556059905 23.2675042331128 23.0274272381553 23.058882330743 23.2714067481094 23.5810103966811 23.5034487346013 23.2775624527878 23.201247070155 23.1289132041142 23.0993460662044 23.1020420681631 23.2144074000781 23.4637545349862 23.6055947387311 23.3726931550508 23.1173595902471
-9999 -9999 -9999 -9999 -9999 -9999 -9999 24.9898103537968 25.0380727412666 25.5749737466056 26.8497002935865 26.9877691429738 25.9489307616369 24.8003552881455 24.1123809525588 23.9451269940044 23.4749605729991 23.4350315430721 23.3846133954048 23.2901895993725 23.2247500038607 23.2514281776217 23.326455990914 23.3704014230269 23.2531740658076 23.0773721354174 23.0515646462797 23.0542168612737 22.9788595536801 22.9480286903066 23.1213806916664 23.3626146156023 23.503199116321 23.4228431135157 23.2626424814689
-9999 -9999 -9999 -9999 -9999 -9999 24.9097990570535 24.9617969857563 25.6722452866594 26.8411169886411 27.1338144671037 26.218265155914 25.3414106285384 24.763108745213 24.378389124752 24.3629376294433 23.7799206211154 23.2732731737563 23.2486992707268 23.2520618014392 23.2925246669822 23.3115233977299 23.2886184598229 23.3025540531451 23.3121472341609 23.1379249242195 23.1016627309517 23.1789898782341 23.0737340176549 22.9650855011736 22.9757036630305 23.1048987596924 23.2512880312604 23.3518651765592 23.2598571651002
-9999 -9999 -9999 -9999 25.4424094556616 25.1177594809321 25.0781551680343 25.6472521097377 26.8129635955826 27.1909325773444 26.492647809501 25.2689327668601 25.0374647867671 24.9894831941816 24.7917337583042 24.5573388280561 23.9552828441484 23.4128816408694 23.267224828982 23.2443225877575 23.2792732428902 23.2552279817228 23.214562630605 23.2068520604828 23.2240060182447 23.2580856384688 23.3771796679514 23.4744781655922 23.3087309752034 23.1690096878549 23.0554438756669 23.1178312907682 23.1974695619781 23.2584731378455 23.2884213032225
-9999 -9999 -9999 25.6309242063963 25.4904921693361 25.4297519108707 26.0479486262216 26.9386562804605 27.1966605738727 26.7520203248264 25.5723808858961 24.9870045597765 25.067586998278 25.012769075848 24.7096107658363 24.3033687872201 23.6144745731583 23.3047331857936 23.2521756899164 23.2538680333708 23.2849255468614 23.2767340902407 23.266832394058 23.3206965330891 23.3075722477928 23.2987267606535 23.3086963993286 23.3150572560007 23.217054124477 23.1017926662356 23.1466849861472 23.2587235771072 23.285797129735 23.3113052523366 23.3767252601971
-9999 -9999 25.6428498996769 25.4569072673771 25.8143181291787 26.2941439969582 27.0549142788142 27.2761080972887 26.9801834180506 26.1714205463212 25.0383066250001 25.0270101518571 25.0183470909794 24.7846024887845 24.3078735471576 23.7626624486134 23.4746365663953 23.308180924721 23.2127877872085 23.2216728073408 23.2937942519997 23.3184326944731 23.3965328128457 23.4866509836231 23.4949599629322 23.4569001651209 23.4601291044455 23.4348466403442 23.2890393058559 23.1859676928005 23.2452615004458 23.3689973284101 23.4068254459027 23.3786829355165 23.3177682580952
