NCOLS 35 
NROWS 26 
XLLCORNER -80 
YLLCORNER 33 
CELLSIZE 0.5 
NODATA_value -9999 
-9999.000000000000000 -9999 -9999 -9999 -9999 -9999 -9999 -9999 -9999 -9999 -9999 -9999 -9999 -9999 -9999 -9999 -9999 -9999 -9999 -9999 -9999 -9999 -9999 -9999 -9999 -9999 -9999 -9999 -9999 -9999 -9999 -9999 -9999 -9999 -9999
-9999 -9999 -9999 -9999 -9999 -9999 -9999 -9999 -9999 -9999 -9999 -9999 -9999 -9999 -9999 -9999 -9999 -9999 -9999 -9999 -9999 -9999 -9999 -9999 -9999 -9999 -9999 -9999 -9999 8.1050348818055 -9999 -9999 -9999 -9999 -9999
-9999 -9999 -9999 -9999 -9999 -9999 -9999 -9999 -9999 -9999 -9999 -9999 -9999 -9999 -9999 -9999 -9999 -9999 -9999 -9999 -9999 -9999 -9999 -9999 -9999 -9999 8.47445870201071 8.14615081968871 8.08714153909847 7.92153359651766 -9999 -9999 -9999 -9999 -9999
-9999 -9999 -9999 -9999 -9999 -9999 -9999 -9999 -9999 -9999 -9999 -9999 -9999 -9999 -9999 -9999 -9999 -9999 -9999 -9999 -9999 -9999 -9999 8.91937197686386 8.51779623994411 8.06941909202495 7.90245034552772 8.26103245585676 -9999 -9999 -9999 6.85054296657049 6.22450519641506 5.95991664099865 6.00059492555185
-9999 -9999 -9999 -9999 -9999 -9999 -9999 -9999 -9999 -9999 -9999 -9999 -9999 -9999 -9999 -9999 -9999 -9999 -9999 -9999 10.0749873177755 9.38785033105973 8.90123926757432 8.67081019226814 8.37949899924352 8.08473688896524 7.61569533036905 8.07798589915789 -9999 -9999 6.72785328101009 6.27799502495521 6.43357849526684 6.77868161186453 6.83146923302499
-9999 -9999 -9999 -9999 -9999 -9999 -9999 -9999 -9999 -9999 -9999 -9999 -9999 -9999 -9999 -9999 -9999 -9999 -9999 10.1234984865344 9.65897858295994 9.55941215274235 9.1400337885293 8.89212462611766 8.62131864739813 8.31788342968299 7.55641485288673 7.04850728401146 7.5138450765935 7.12178629994597 6.57031028140127 6.36981784929968 6.42074563777709 6.68749156642992 6.94147601661707
-9999 -9999 -9999 -9999 -9999 -9999 -9999 -9999 -9999 -9999 -9999 -9999 -9999 -9999 -9999 -9999 -9999 -9999 -9999 9.91890601348528 9.89925097729555 9.91874845845401 9.66505740192149 9.25816234254957 8.77967469383598 8.28705832155041 7.86855711837735 7.19695842310233 6.62676828843636 6.64808535358225 6.58586527124022 6.67142205625355 6.85990416412226 7.0425465402105 7.40799343461181
-9999 -9999 -9999 -9999 -9999 -9999 -9999 -9999 -9999 -9999 -9999 -9999 -9999 -9999 -9999 -9999 -9999 -9999 -9999 10.6417087877982 10.1970265828349 10.0519329454027 9.94853329810517 9.63599019341626 9.25703724962175 8.8343886825911 8.34164240850483 7.71939307634975 6.85855130583034 7.4351661849783 7.34990684701424 7.58914991799983 7.80649069156572 8.60124185919818 10.0008319858612
-9999 -9999 -9999 -9999 -9999 -9999 -9999 -9999 -9999 -9999 -9999 -9999 -9999 -9999 -9999 -9999 -9999 -9999 -9999 12.7305216944211 10.8380869876909 10.0633151473596 9.88122076897824 9.72301707287128 9.62348082257537 9.06584007950286 8.12182327419436 7.69299992030099 8.07836228745404 8.84346304583407 9.13774791541532 10.1270667702578 11.0622358392598 12.5336026830503 14.747880836825
-9999 -9999 -9999 -9999 -9999 -9999 -9999 -9999 -9999 -9999 -9999 -9999 -9999 -9999 -9999 -9999 -9999 12.3424545739628 12.2542227060954 12.324261131969 11.5108027809279 10.1094797302979 9.87297966712687 9.89057152157945 9.64898018095865 8.79225315461151 7.89632255874868 8.14626581182254 8.76567947858788 8.66910485026416 9.7147051199996 10.3358764281856 11.6236960094997 13.3675509444256 14.9155922056721
-9999 -9999 -9999 -9999 -9999 -9999 -9999 -9999 -9999 -9999 -9999 -9999 -9999 -9999 13.6442370807876 12.9931243669023 12.6638946398932 11.9848740322145 11.1439357919035 10.5539855721261 10.1679313262441 9.90116447640857 9.86107629584877 9.55648733649502 8.97713909268394 8.81457705143547 8.70150573729637 9.33379072404904 9.71540610614925 10.0986821585618 11.1409054154722 11.228541071661 12.6173403689382 14.5100807479324 16.2155023079058
-9999 -9999 -9999 -9999 -9999 -9999 -9999 -9999 -9999 -9999 -9999 -9999 14.2600783181645 13.5564021629745 13.1738339015209 12.7602449722238 12.5658381156 12.7965410040929 13.0216128362582 12.692935592446 11.8037098689476 11.6258273674674 11.9804759026343 11.7965861646913 10.6714688102652 10.2898243609147 10.366930674492 10.6431270898593 11.1610071202979 12.0216908541436 12.7097929601988 13.6098232431123 15.1823832348599 16.4063844201187 17.2470545446326
-9999 -9999 -9999 -9999 -9999 -9999 -9999 -9999 -9999 -9999 -9999 -9999 13.8702647544139 13.3116629084242 12.8168623810154 13.2072901051415 14.5963988100407 15.9655227468472 16.8641185240596 16.8751822631302 16.6441689258176 16.7538941964834 17.0213678218366 16.4726093162522 13.5918852873527 12.2089422979542 12.2318258034163 12.486567787023 13.0390682777224 13.7972440235208 14.5842178601081 15.0282236959068 16.340207713986 17.1361553509947 18.5049882096362
-9999 -9999 -9999 -9999 -9999 -9999 -9999 -9999 -9999 18.3346074828214 16.7454240408099 14.8202252281699 13.8279527184167 13.2376151203171 13.5683781038608 15.3006909830505 16.188047767733 16.6951051224328 17.4515253246596 18.192730971329 18.6984655323992 19.5332560614935 19.807769325179 19.5765064082206 16.8600520941623 14.7112792079756 14.5314349948448 15.1961028585506 16.1940346174559 16.2241142171324 15.8805461375059 16.093982182323 17.2390375481779 19.0296666270546 21.0681930281809
-9999 -9999 -9999 -9999 -9999 -9999 -9999 -9999 -9999 -9999 15.6951345285583 14.2617514200974 13.6322940389504 13.9302132684529 16.0647989391985 16.4074030114705 16.4060942067208 17.5182471064492 18.8365202357934 19.2213554130946 19.7403184571378 19.8937703345573 19.5834000973017 19.8653684423289 19.4913196527428 19.1136599034604 17.3783994793936 16.6504059958739 17.4827349734162 18.1726334692844 18.8755362081522 20.5235414381473 22.3057134101262 23.0251592180072 23.2933978435256
-9999 -9999 -9999 -9999 -9999 -9999 -9999 18.7000663653451 18.9832738701932 -9999 15.255751283817 14.2334470913717 14.8299884160908 17.0356732502344 18.6288271808795 19.5529104544202 20.2108558774026 21.1221699616911 21.9484048493732 22.3951409024175 22.3015189309486 22.020514446465 21.6587931961065 22.0519249793996 22.6079112059791 23.1001321588317 23.0909014620491 22.5879514659081 22.5086540867975 22.768644682669 22.8302816814549 22.8052861970505 22.8080450320994 22.8262191896928 22.7872920713505
-9999 -9999 -9999 -9999 -9999 -9999 -9999 18.8123252552991 18.4891845574372 16.6562308472267 15.0325009538382 15.3482185857773 17.4537502056136 19.5552190419979 21.3864079601016 22.5873989537691 23.2485293269246 23.6104291056537 23.9445888236063 24.2390198948504 24.4407227047197 24.6037608424424 24.4758726671022 23.9863389365362 23.7117806270478 24.081343867662 24.0440490271962 23.6212069596692 23.2984599771001 22.7790227811818 22.1698568069494 21.9318802978379 21.9729324271566 22.0198013439171 21.9599359625535
-9999 -9999 -9999 -9999 -9999 -9999 -9999 18.8981802201279 -9999 16.0943768062088 15.1964045418641 17.0729542937046 19.8014033964514 22.5830785514922 24.4303182324196 24.4713128299345 23.9054967124628 23.4692237523691 23.4263923135149 23.277520896317 23.2918664201605 23.4356203509616 23.4174742335869 23.1003574670466 22.7640789840157 22.672697645398 22.688620029905 22.3803622165314 21.4925361285937 20.7918974215139 20.6635236572223 20.8224848397436 20.9708072682617 21.1475026608419 21.1409260006663
-9999 -9999 -9999 -9999 -9999 -9999 -9999 -9999 17.195023436943 15.8383368042606 15.6343359334055 18.7016222395229 22.1149573967993 24.8720795004513 24.7707304638943 23.6099221924337 22.5028775403243 22.0564382034948 22.1081606286017 22.0400669378874 21.9475005115938 22.1360542290052 22.2054796507785 22.0074757319034 22.1459002484803 21.7682737994929 21.4059544007297 20.8241959646777 20.1911703045667 20.3112602798355 20.3794133085127 20.5043517870386 20.5959094351232 20.5428865103793 20.6134536159884
-9999 -9999 -9999 -9999 -9999 -9999 -9999 -9999 -9999 16.6020381215399 16.6278192710174 20.5351437661555 24.4685921779275 25.2039979738411 23.7380672898914 22.0181079135477 21.3991765872229 20.933893685782 20.6337988303486 20.6831423673979 20.983511039781 20.8595612109309 20.6216584877678 20.6109660493053 21.4315820962197 21.0842822232385 20.6754711734774 19.6222880628782 19.0690363413211 19.7599028483575 20.5252984601293 20.3486729752457 20.2740013661614 20.2762241293052 20.4453913731955
-9999 -9999 -9999 -9999 -9999 -9999 -9999 -9999 -9999 19.1145108321766 20.883611322006 24.436981680958 25.4907795733677 24.6455667106366 22.4154591364299 21.0524588641327 20.9373451986483 20.9655105761042 21.0178041654045 20.8790133880797 20.5877903124407 20.471197367825 20.3963490075536 20.5848362827761 21.1614305227726 20.9998000688043 20.5855100071907 19.6601169913716 19.2570123421414 19.9933299374289 20.8037620295899 20.4624046565923 20.1155846327755 20.1264471843878 20.2862756175762
-9999 -9999 -9999 -9999 -9999 -9999 -9999 21.2444297948926 21.3611517925538 22.5783271253641 24.9980660580507 25.4913044309883 24.7319861243526 24.108088635574 21.6740773380509 20.7460634030503 20.8460163667841 20.8654236500921 21.0013334007098 21.2622218405585 21.2236524454009 21.031475414293 20.8792641608853 20.772857130432 20.8091063064756 21.0870617283464 20.9679619880525 20.7150753677703 20.5802441362862 20.7950544422203 20.9022207555885 20.6046340525455 20.1869634990772 20.0813012365869 20.1416131597368
-9999 -9999 -9999 -9999 -9999 -9999 21.5305484754169 22.0080509915973 23.8792577753631 25.6504052872432 25.5385656577548 24.3876494863307 23.7881825597977 23.8126352119173 21.3450669187211 20.838670794708 20.8977859368307 20.8224833523184 21.0049662938108 21.3393472472665 21.550254394941 21.2307499761249 21.0868314562523 20.9309945620683 20.8503148131196 20.9649142699176 20.9782039536764 20.9768450555367 20.9278311821363 20.8463256707371 20.7660142462581 20.6165004287901 20.3671832072262 20.1596102422579 20.130374388067
-9999 -9999 -9999 -9999 21.7645665502637 22.0526152512585 22.9908540713116 24.2457578155182 25.8345025905434 25.9012448595223 24.3748034429131 23.4796182235055 23.6427809353423 23.3479484157639 21.1420385148706 21.0957024169969 21.3086370031303 21.3254403850753 21.4349068765956 21.6771137594812 21.9115112595622 21.3064949608135 20.9326369595875 20.850316133129 20.8246865941333 20.8901282990844 20.9642002987391 20.9226929715922 20.8621138515006 20.7366105982706 20.6316542375161 20.5527313959341 20.45192451234 20.3247163208345 20.2205432059944
-9999 -9999 -9999 21.9611223200141 22.0144177249568 23.0765491263132 24.8238422864404 25.9501754016968 26.1501664987448 25.0544512443539 23.5618126941592 23.0651242075651 23.0640060025106 22.2424990780491 21.3728359308446 21.7750532749237 21.9788386674484 22.0423610085815 22.1196878010712 21.9989492498201 22.0173622157829 21.425703677862 21.0318055067839 20.974710270052 20.9501004183379 21.0277569240572 21.3689186439773 21.3948679684443 21.0493703725179 20.8406298322128 20.7029153660645 20.5578655279712 20.4123347042176 20.3740363185751 20.3789436298597
-9999 -9999 22.4223644950657 23.0011184938086 23.6107056434325 24.6254596146995 25.929166780888 26.2816071547905 25.6701471765083 24.2760641943171 23.3397065727756 22.6889639065133 22.3482264594994 22.0548133566272 22.1465898329685 22.4136518710275 22.4624716061418 22.2264843820669 21.948515271055 21.7164655666936 21.8188156706731 21.5835050817945 21.2646020061276 21.2755936015345 21.242034538276 21.5018054127918 21.7197623715636 21.6557625624343 21.3120282382515 21.0966447997002 21.0479757291683 20.8265652076522 20.5439451137909 20.4972545383459 20.6052401403235
