NCOLS 35 
NROWS 26 
XLLCORNER -80 
YLLCORNER 33 
CELLSIZE 0.5 
NODATA_value -9999 
-9999.000000000000000 -9999 -9999 -9999 -9999 -9999 -9999 -9999 -9999 -9999 -9999 -9999 -9999 -9999 -9999 -9999 -9999 -9999 -9999 -9999 -9999 -9999 -9999 -9999 -9999 -9999 -9999 -9999 -9999 -9999 -9999 -9999 -9999 -9999 -9999
-9999 -9999 -9999 -9999 -9999 -9999 -9999 -9999 -9999 -9999 -9999 -9999 -9999 -9999 -9999 -9999 -9999 -9999 -9999 -9999 -9999 -9999 -9999 -9999 -9999 -9999 -9999 -9999 -9999 18.155564201747 -9999 -9999 -9999 -9999 -9999
-9999 -9999 -9999 -9999 -9999 -9999 -9999 -9999 -9999 -9999 -9999 -9999 -9999 -9999 -9999 -9999 -9999 -9999 -9999 -9999 -9999 -9999 -9999 -9999 -9999 -9999 15.6208426092198 16.4052505763336 17.1931414829956 18.077395236141 -9999 -9999 -9999 -9999 -9999
-9999 -9999 -9999 -9999 -9999 -9999 -9999 -9999 -9999 -9999 -9999 -9999 -9999 -9999 -9999 -9999 -9999 -9999 -9999 -9999 -9999 -9999 -9999 15.8688726000707 15.1974392762151 15.2424781525465 15.8339427887902 16.5563225457468 -9999 -9999 -9999 16.0592308320651 16.4739423313112 17.2257071443835 17.5140550625559
-9999 -9999 -9999 -9999 -9999 -9999 -9999 -9999 -9999 -9999 -9999 -9999 -9999 -9999 -9999 -9999 -9999 -9999 -9999 -9999 17.8959358754007 17.8829026840023 17.9408364277651 17.6797980427065 17.0561854547952 16.5212266639874 16.3358076462457 16.9323576416378 -9999 -9999 16.4071022453771 16.8723692525242 17.113518977044 17.3240373227179 17.4950619060832
-9999 -9999 -9999 -9999 -9999 -9999 -9999 -9999 -9999 -9999 -9999 -9999 -9999 -9999 -9999 -9999 -9999 -9999 -9999 18.6454720856343 19.6851050392939 19.2189462736417 18.8315480978825 18.3848404070104 17.8154606009878 17.1729933973868 16.6753938119897 16.902125950016 17.4010612033195 17.5202217548355 17.1430704454766 17.1715553006163 17.5187879851202 17.9623549319674 18.0950274123916
-9999 -9999 -9999 -9999 -9999 -9999 -9999 -9999 -9999 -9999 -9999 -9999 -9999 -9999 -9999 -9999 -9999 -9999 -9999 19.6543631851185 20.1218649238022 19.6489377740175 19.1967066603822 18.4946878319877 17.8328532711768 17.3663082636983 17.1067100068086 17.0930784998608 17.1893755958914 17.6867571331251 18.1162779722456 18.542036885739 19.1891345682583 19.9672408832083 20.2298721539725
-9999 -9999 -9999 -9999 -9999 -9999 -9999 -9999 -9999 -9999 -9999 -9999 -9999 -9999 -9999 -9999 -9999 -9999 -9999 20.1932712757226 20.5891282286464 20.1940130477823 19.7626297951994 19.0887733217612 18.4203393663498 17.9023449670793 17.6247995188717 17.4935725221192 17.599887284561 18.998122247745 20.0236720869701 20.6535381726396 21.4594891143576 22.5780446571037 23.147273784378
-9999 -9999 -9999 -9999 -9999 -9999 -9999 -9999 -9999 -9999 -9999 -9999 -9999 -9999 -9999 -9999 -9999 -9999 -9999 21.5026632061816 21.1868596473548 20.2777063279109 19.9186349422858 19.4926340375908 18.8985557177218 18.3482973415037 18.3642102155041 19.0070138115823 21.0174004936593 22.4213570078623 23.2859337217295 23.3352036904709 22.808723465406 22.9208563056793 24.0642566399156
-9999 -9999 -9999 -9999 -9999 -9999 -9999 -9999 -9999 -9999 -9999 -9999 -9999 -9999 -9999 -9999 -9999 21.4972955021543 21.4414526742008 21.2642316972827 21.1069796679645 20.310528948924 20.0652999541537 19.6756522641339 19.1748710369581 19.2225163085401 20.6747564289665 23.1684263840826 24.5425344026312 25.1121072989813 25.0431575686648 25.0496233796044 25.0432635557591 23.6675373145362 24.0007132494623
-9999 -9999 -9999 -9999 -9999 -9999 -9999 -9999 -9999 -9999 -9999 -9999 -9999 -9999 22.4487311573485 22.2212994500198 21.9989497720287 21.8619279933565 21.5718339397659 21.148436298966 20.5538786714585 20.4283370561804 20.6080578677517 20.370415038981 20.7112364778695 22.0164526997033 23.7411132289112 24.9987848900832 25.6086228855961 26.1159177769489 25.8721110736077 25.6108228943539 25.6304282267174 24.8245371149073 24.1341028941999
-9999 -9999 -9999 -9999 -9999 -9999 -9999 -9999 -9999 -9999 -9999 -9999 23.2700871207085 23.3874614766096 23.2197043401398 22.8026055799621 22.5321320285403 22.5556837723292 22.5735362906429 22.2995806961477 22.0153125528735 22.2713920099018 22.7698476342572 23.2743756397917 23.8222617795117 24.3718744663826 24.7613100057833 25.0940143554477 25.5592505774937 26.0605932175352 26.1497343585828 25.9135828351946 25.6923055914837 24.9979543910526 24.8694314811553
-9999 -9999 -9999 -9999 -9999 -9999 -9999 -9999 -9999 -9999 -9999 -9999 23.5319156981407 23.4222760928639 23.0742215743861 23.0507923899263 23.4275815196201 23.8064409616773 24.1036750419231 24.2556968578877 24.2595570836473 24.3717457912248 24.4938027955282 24.4438074726202 24.3174336963876 24.2683222807333 24.3669537128952 24.8808290615434 25.4434157953947 25.9216269794129 25.9844622427878 25.790294343276 25.3318908658001 25.206778725553 25.5332223692663
-9999 -9999 -9999 -9999 -9999 -9999 -9999 -9999 -9999 25.7718741372228 24.3766631616247 23.725104689646 23.769967991888 23.4285484078144 23.3365324904651 23.7494040564817 24.1611678963864 24.3508115854616 24.5508485763381 24.7999479892721 24.9521036883144 24.9860000223392 24.9381207749098 24.6139638008235 24.4076167459478 24.4317995108821 24.7678792230378 25.4514447846176 25.6684479886443 25.7067314678395 25.7185836935836 25.4574135779001 25.266135806077 25.4775368181958 26.0727776374826
-9999 -9999 -9999 -9999 -9999 -9999 -9999 -9999 -9999 -9999 23.7740633164687 24.0620839914107 24.0422787787202 23.7387548686092 24.1926824949968 24.5044578062518 24.5770042800857 24.381748722468 24.3385745138816 24.4816928286169 24.7110493223564 24.8613928436298 24.9133497300898 25.1265509317168 25.3648384421202 25.8552444477598 26.5083796657865 27.032750309175 27.3191795614965 26.9273787410812 26.4344968292705 26.2701497650996 26.2416900165383 26.181370735463 26.7555880712794
-9999 -9999 -9999 -9999 -9999 -9999 -9999 27.1149081380855 27.0242929118751 -9999 24.037313886051 24.3427575115533 24.2403519646044 24.3184548137867 24.6083937199143 24.9693788235809 25.0471061410422 24.8841191237411 24.8078234523898 25.0928140657712 25.266091695871 25.2216646657423 25.6120764744187 26.012181067511 26.2947049149813 26.8367136917072 27.6082183583822 28.2364338682695 28.5215696749552 28.5380746922834 28.050311365375 27.5874346291805 27.4775325970252 27.6122087344906 27.7971795298487
-9999 -9999 -9999 -9999 -9999 -9999 -9999 27.0149186896682 26.5538015976061 24.7107067085375 24.4695477404414 24.5875853316497 24.7021155838976 25.0394825679086 25.4758779134765 26.1039370808094 26.4343591902831 26.5138264591077 26.4318735920237 26.4138708392575 26.3824088587966 26.3932390399155 26.4624256996807 26.7007022160157 27.0886815062634 27.6241864068428 28.1725655623376 28.3439490504571 28.2860700114751 28.2562854107135 28.2810525231934 28.2239572658564 28.2452692640981 28.3684416447725 28.3217427336292
-9999 -9999 -9999 -9999 -9999 -9999 -9999 26.7443269961194 -9999 25.0942775814149 24.7711545661651 24.9254031606776 25.252784313684 25.9499169116657 27.012816023392 27.8488339809117 28.1568206707986 28.0919951198239 27.9713633972535 27.9176882681113 27.8924360187027 28.047995640088 28.2258952772216 28.1761818986576 28.029027678437 28.1121484853092 28.1853316080358 28.0463220066397 27.9117838178809 27.8487581962759 27.858572652717 27.9022215250845 28.0215404403791 28.1776008926388 28.1563454545453
-9999 -9999 -9999 -9999 -9999 -9999 -9999 -9999 25.8195621513524 25.3789553403399 24.9952118738953 25.1897641169956 26.0513875230179 27.7444506787251 28.8469950692313 28.8452635685037 28.5689046554749 28.427524033921 28.3935643909589 28.3743029145986 28.3331675004152 28.3335738572527 28.3304349425676 28.1993091415973 28.0888168798058 28.1061184848017 28.0107455363497 27.8751138543998 27.8073228804697 27.8150700579934 27.8493665293577 27.8674335659366 27.8973795375225 27.9805145876178 27.9006461840416
-9999 -9999 -9999 -9999 -9999 -9999 -9999 -9999 -9999 25.8406306439229 25.3910203664053 26.5303630678018 28.4302015634754 29.0987592591413 28.6464399424795 28.0580802857068 27.8574105570288 27.8427517865896 28.0205827156254 28.0275417393754 27.9492257807966 27.9995428492289 27.9803164896254 27.9546599644868 27.9783580342126 28.0110440233088 28.0287398004898 27.9479967812381 27.9048371326771 27.9263111585281 27.9536328181864 27.9877490825146 27.9993602487905 27.9469706143202 27.736993938679
-9999 -9999 -9999 -9999 -9999 -9999 -9999 -9999 -9999 26.6776282747467 27.0731480770069 28.7866863643287 29.0728603300565 28.5273734483925 27.9552221120503 27.8524635063791 27.8729471485127 27.9100887423291 27.9320699402506 27.9109539975284 27.8388719718909 27.801959124109 27.8468940919137 27.9063084215663 27.9971565420747 28.112457229707 28.1871287383418 28.1777538946036 28.1273065740851 28.1170915115401 28.0973614086709 28.0896477104484 28.0785738729842 27.9431354339678 27.644020359035
-9999 -9999 -9999 -9999 -9999 -9999 -9999 27.4896301451032 27.2808037033629 27.7465330274744 28.8846799409162 29.1787838397877 28.4839878245289 27.934958228941 27.7521155810303 27.7232510396816 27.6692469442418 27.6465336291983 27.6817019049401 27.7513885147149 27.8002065341389 27.8089724672107 27.8609582058561 27.9239588979572 28.0062635282226 28.1190855170591 28.2091093966693 28.240591453507 28.2321456362308 28.2743813844735 28.2900787910898 28.2253382725434 28.1379237449692 27.9814951833047 27.8416644678228
-9999 -9999 -9999 -9999 -9999 -9999 27.7906490308313 27.6250499297083 28.1331978409634 29.1053943467953 29.3933354483526 28.7411713006964 27.9328193102171 27.6547193228512 27.7235703840766 27.6137210582859 27.5914152887321 27.6181321014212 27.6683567582508 27.7437813631419 27.7824378860013 27.7899781465821 27.8572850898157 27.913978333468 27.9753497032257 28.0890741451258 28.1899227905969 28.2584312385596 28.2985358020455 28.3209522173607 28.3184518684795 28.245596426812 28.1604896497365 28.1328925517706 28.1309886088815
-9999 -9999 -9999 -9999 28.1865913943983 27.8530157669114 27.8308254778879 28.2725331762997 29.0804706335543 29.547659135301 29.1409674133928 28.3262232144089 27.7898507206039 27.6134545715736 27.7177002798463 27.6771518165245 27.668796520984 27.7035553362567 27.7748180797238 27.8611888514162 27.8497822692081 27.8237100821318 27.8451273301942 27.9082918554199 27.9503656926004 28.0563166945853 28.1571217514152 28.2204442405532 28.2827691380787 28.3020938300099 28.2955317208449 28.2928329629642 28.2943347080111 28.2501703803532 28.2183385873534
-9999 -9999 -9999 28.1455366125047 27.9746489572534 27.8703813451958 28.409322756896 29.0882088099019 29.5411057813397 29.4134586905801 28.7208667793277 28.2037746219193 27.8995538666247 27.7580795656152 27.7647381951535 27.8198066025626 27.8546949571163 27.9253327321639 28.049808323324 28.1012553629237 28.0408019624567 27.9837386216587 27.9512771043422 28.0085238968237 28.0812723436824 28.1101890640358 28.1911217782935 28.2324656335476 28.2914606715586 28.34820948503 28.3798315446377 28.3744892348879 28.3430867720399 28.3136364948821 28.2619960442892
-9999 -9999 28.1600556248446 28.0289625314669 28.1754602234537 28.5402318297123 29.1768846344445 29.5698239278534 29.6145287198281 29.0462273769192 28.5767677372266 28.2125737400268 28.0238802857789 28.0511307644145 28.1303555259459 28.2397798785816 28.3176578976499 28.3606845317637 28.382708061742 28.3118817867798 28.1685240062462 28.0831573360661 28.1124928065353 28.1654326804747 28.2949179071486 28.3540852009099 28.2899840736561 28.2493927399713 28.2622775865133 28.3093716006092 28.4267606332208 28.5244350975417 28.5158759848267 28.4753851875633 28.3770542246282
