NCOLS 35 
NROWS 26 
XLLCORNER -80 
YLLCORNER 33 
CELLSIZE 0.5 
NODATA_value -9999 
-9999.000000000000000 -9999 -9999 -9999 -9999 -9999 -9999 -9999 -9999 -9999 -9999 -9999 -9999 -9999 -9999 -9999 -9999 -9999 -9999 -9999 -9999 -9999 -9999 -9999 -9999 -9999 -9999 -9999 -9999 -9999 -9999 -9999 -9999 -9999 -9999
-9999 -9999 -9999 -9999 -9999 -9999 -9999 -9999 -9999 -9999 -9999 -9999 -9999 -9999 -9999 -9999 -9999 -9999 -9999 -9999 -9999 -9999 -9999 -9999 -9999 -9999 -9999 -9999 -9999 2.50869611168842 -9999 -9999 -9999 -9999 -9999
-9999 -9999 -9999 -9999 -9999 -9999 -9999 -9999 -9999 -9999 -9999 -9999 -9999 -9999 -9999 -9999 -9999 -9999 -9999 -9999 -9999 -9999 -9999 -9999 -9999 -9999 3.80801887384047 3.72032796598357 3.62381492108749 2.98091336960401 -9999 -9999 -9999 -9999 -9999
-9999 -9999 -9999 -9999 -9999 -9999 -9999 -9999 -9999 -9999 -9999 -9999 -9999 -9999 -9999 -9999 -9999 -9999 -9999 -9999 -9999 -9999 -9999 4.27183810718633 4.16126621993877 4.02013213307629 3.97580371952959 4.08887490562317 -9999 -9999 -9999 2.28290094176878 1.56663807068658 1.78004872021829 2.30152579207622
-9999 -9999 -9999 -9999 -9999 -9999 -9999 -9999 -9999 -9999 -9999 -9999 -9999 -9999 -9999 -9999 -9999 -9999 -9999 -9999 4.37790381665532 4.223070795905 4.27626822920963 4.32632165522431 4.43601102049484 4.2654827020592 4.05309691529699 4.17893118949603 -9999 -9999 2.74432385188898 1.91645032557126 2.06498642683684 2.76140341038939 3.64583860930599
-9999 -9999 -9999 -9999 -9999 -9999 -9999 -9999 -9999 -9999 -9999 -9999 -9999 -9999 -9999 -9999 -9999 -9999 -9999 4.5138335855493 4.67593191822655 4.73882733346285 4.72096587514412 4.74195082721891 4.82024716466326 4.54654400811709 4.08794780605287 3.88150280583766 3.89397267169552 3.33317740563191 2.54592290028035 2.33397030775598 2.4638110815308 3.35644705569039 4.98284277535993
-9999 -9999 -9999 -9999 -9999 -9999 -9999 -9999 -9999 -9999 -9999 -9999 -9999 -9999 -9999 -9999 -9999 -9999 -9999 4.78268672865246 5.28794769160764 5.39309038681729 5.31047176624366 5.32776298308773 4.98269120544434 4.62841126454421 4.49855917410365 4.28962214235408 3.86509281437465 3.78436386642286 4.00817715850761 4.41000777203499 4.61333135123081 5.58690340792562 6.48322885787103
-9999 -9999 -9999 -9999 -9999 -9999 -9999 -9999 -9999 -9999 -9999 -9999 -9999 -9999 -9999 -9999 -9999 -9999 -9999 5.08042229333818 5.64422192585317 5.95164334587147 5.86807136301418 5.43852153906335 5.12381909542749 5.06812775498904 5.10500575838685 4.79497469915007 4.50544686583481 6.42722632683208 8.62119481828449 9.92062383118893 9.70777228072827 8.87010717365566 8.0897279236152
-9999 -9999 -9999 -9999 -9999 -9999 -9999 -9999 -9999 -9999 -9999 -9999 -9999 -9999 -9999 -9999 -9999 -9999 -9999 6.25153552844091 5.59417866046805 5.83606274477789 5.99172240742016 5.79801340884579 5.63048755604804 5.40758848571528 5.30858204210928 5.01476103154951 6.4078744027855 9.78328794823693 11.3918455338314 11.6895115572037 11.9027524466834 10.8782204853611 9.20827142980753
-9999 -9999 -9999 -9999 -9999 -9999 -9999 -9999 -9999 -9999 -9999 -9999 -9999 -9999 -9999 -9999 -9999 6.20677612030265 6.36396897146401 6.45662585442936 5.99219265777486 5.55034558342634 5.7952553381145 5.80398608488759 5.7199419791062 5.7948835577958 5.80570957734371 7.85350146361676 10.5448045102716 13.094668321805 14.2607665656096 12.8252247234743 12.2033059545061 12.0123873694684 11.3517744979398
-9999 -9999 -9999 -9999 -9999 -9999 -9999 -9999 -9999 -9999 -9999 -9999 -9999 -9999 6.57050377095118 6.29130262054655 6.00055263396324 5.71190253154567 5.64554952560471 5.76021710647677 5.69084300344851 5.74342548935683 6.16009337658152 6.59928945429586 7.47931073825187 8.71903270523932 11.7117756691933 16.3018953594248 19.0137442663722 19.7671881404346 18.8927779021079 17.3305138353919 15.7990393910931 15.5091035905289 14.3607772285629
-9999 -9999 -9999 -9999 -9999 -9999 -9999 -9999 -9999 -9999 -9999 -9999 7.30171930313535 6.97977921739621 6.76396218860428 6.31650916506263 6.22760525352435 6.57868365527506 6.91079956600866 7.37236604157967 7.50067302047987 8.01680389361667 9.40192439881319 11.6491020026539 13.7629738422358 15.8619887940689 17.9477016295865 19.0561769812627 19.8260304005605 20.3579647781599 19.2703010555324 18.1562629016721 16.8587109446754 17.4257191774242 17.3502335507533
-9999 -9999 -9999 -9999 -9999 -9999 -9999 -9999 -9999 -9999 -9999 -9999 7.254681701887 7.25997460181101 7.37318986136275 7.8537595157911 8.61124869573744 9.42286936104299 9.54954101509865 9.56231294610687 10.2713433423515 11.6747099514476 14.6576946752621 17.0458111888169 17.7648785210341 17.754428740861 18.2329910666903 19.3132767430794 20.2899244493076 20.1138972293757 18.742184348522 17.6840708342011 17.4421575452253 18.4235256017613 18.8861218700905
-9999 -9999 -9999 -9999 -9999 -9999 -9999 -9999 -9999 10.3929440478812 9.06743912147502 7.78923623279736 7.58824402776066 8.0572495861597 9.03376684519785 10.4381381642984 11.2561996788442 11.797006978529 11.2239700762286 10.8586019561234 11.7988324935439 13.9482490407706 16.5897490312879 18.8720340082136 20.3909090312759 21.0076783032979 21.2666130577969 21.4131911344912 21.2036138131987 20.1111940220975 18.257865353629 17.2892210999155 17.7329503853792 18.4432329335029 19.0271589402091
-9999 -9999 -9999 -9999 -9999 -9999 -9999 -9999 -9999 -9999 8.32770702960366 7.83840729999727 8.21791198646188 9.45230892230027 12.142505685195 14.573232934612 16.4230225723047 16.0897439354979 14.3246325927545 13.5512686696932 14.0912354376323 16.7636996073188 19.0671383455572 21.1712222473644 22.1311142278495 21.8034983082781 21.5404062801925 21.5454775417928 21.097586603531 19.8701060847595 17.2253265206459 17.2909557847634 18.3633579453336 19.2374920158061 19.5614738330191
-9999 -9999 -9999 -9999 -9999 -9999 -9999 11.8031942093106 12.0668821746911 -9999 8.39938950256911 8.57677667278475 10.3810533492015 13.1884298008795 16.6063063473877 19.5289184050843 21.2170136572132 20.9128171186175 18.8363183368179 17.2219461041284 17.8498963700439 18.7081476318222 19.845037726179 21.764604814116 22.2611773285498 21.3474100712273 21.2403628774368 21.2077133141603 20.4352924785585 18.5515755799873 17.527414753145 18.9060885933331 19.5999849011478 20.1333935044963 20.3416101665634
-9999 -9999 -9999 -9999 -9999 -9999 -9999 12.2109247862304 11.6383730834384 9.64465527727415 8.8728408151988 10.9736788854249 14.6867978234373 18.2164891684477 20.2632280825979 22.325371721227 23.5802275796088 23.7618836749551 23.586096216375 22.4625576543334 21.1453593667699 20.5746977247549 20.4003304938818 21.721318811682 22.7238503930928 21.6470195089884 21.2722985487355 20.9806527964357 20.1706955979307 18.8648234196525 19.090646257308 20.2083970688945 20.3854684020765 20.4510985721712 20.4157461119796
-9999 -9999 -9999 -9999 -9999 -9999 -9999 12.6968199589235 -9999 9.49445928235591 9.9967921712163 14.61584430923 17.9790735480615 20.7719173314057 23.0077512627535 23.77725383193 23.0509487176707 22.4612137244562 22.8346288940881 23.5934649407716 23.0539648135323 22.3222477638579 21.629672482148 21.5613177025938 23.1433552818143 22.3196970872045 21.5397782950687 21.0703601217 20.8335974577954 20.6286194219899 20.6734128616089 20.6115109060338 20.3068093266996 20.1088831737622 20.1230996071279
-9999 -9999 -9999 -9999 -9999 -9999 -9999 -9999 11.2720692945276 10.0493876002994 11.1128363298028 16.4322676307893 20.6403498913571 23.60446536189 23.8276279331382 22.3313829891917 21.0449394706465 20.4321719371161 20.4860425744567 21.2907564478174 22.2724733029869 22.5375331038197 22.611837338197 22.7143942702602 23.3233074755754 22.2839301427812 21.1399456799277 20.7199391548042 20.697221647926 20.8137295749232 20.7413533719962 20.4043080279088 19.9988385670722 19.9015531175631 20.1426005035692
-9999 -9999 -9999 -9999 -9999 -9999 -9999 -9999 -9999 12.0809552983413 14.7332162197102 20.3128013978646 23.8819091655123 23.7140811645001 21.9914638610632 20.7331199500238 20.2064711050295 20.0274183669448 19.8234427951961 19.6786541244992 20.614781748895 21.9610888716204 22.8171900248587 23.1546457888369 22.7798011495006 21.4825808986259 20.2447385284033 19.8738262356315 20.0974819475727 20.1269729898395 19.968890548506 19.7821889497715 19.6390139081163 19.76966019411 19.7519775758128
-9999 -9999 -9999 -9999 -9999 -9999 -9999 -9999 -9999 14.7736885094202 19.8250314290554 23.8578202976741 23.6605056509922 21.7745459843742 20.4512944737967 19.9232262961262 19.7530010035502 19.8927349449593 20.2053008787275 20.4796993994712 20.8336021615362 21.5461766496657 22.0534362156359 22.0337308381521 21.5238875618109 20.5195317081258 19.8246245493654 19.5038085029111 19.3991402725154 19.3784938365231 19.4462534277131 19.441001604284 19.457748681712 19.4423491419723 19.2511558153344
-9999 -9999 -9999 -9999 -9999 -9999 -9999 17.9213711972845 18.3671500237335 19.8665385102578 23.6947882725607 23.9098171462911 21.9167714627971 20.3377457212812 19.6478274452335 19.6368002626958 19.8075149349039 20.1954295337457 20.6268057200931 20.8667320433853 21.1927334807382 21.380746795326 21.3331979191993 21.0822481499618 20.7185457574146 20.42304782111 20.0168100684555 19.5987733257131 19.2486635255933 19.3662192444814 19.5548351047148 19.6020803825485 19.588977426672 19.3624257500251 19.1129523108248
-9999 -9999 -9999 -9999 -9999 -9999 17.5225815523485 18.8911451888662 21.9374913666479 24.493152578227 24.3451850390588 22.4672203820466 20.737897087135 19.8813295713647 19.6849591074281 19.8439555245412 20.1040736197964 20.3360412240819 20.5091870921337 20.6435608914322 20.7623552156837 20.7290996303076 20.5866590090297 20.5658614210175 20.5303253906635 20.3592359555595 20.1843091566143 19.8662064396565 19.4641040213888 19.7629676564284 20.1143018573228 20.0837055113224 20.0018855189578 19.8116529827148 19.6247957265431
-9999 -9999 -9999 -9999 17.4191630583652 17.9571073040754 19.4266512206503 21.7920654667581 24.5200710085042 24.6942830532799 23.0876756965422 21.2734596354214 20.3450736457977 19.9012395895801 19.8723783695038 20.0281002239049 20.1869133818627 20.3136760508867 20.4048511802154 20.4514648837876 20.5393079424251 20.586342501689 20.5247456047879 20.4555386574445 20.2926632717265 20.1651729716806 20.1034842137173 19.9913756815776 19.9635392968194 20.2411279234996 20.3989617330184 20.4502892087444 20.401421320654 20.3164399225763 20.2091367171529
-9999 -9999 -9999 17.9954191185596 18.0417201048278 20.0103222590768 23.0903230487505 24.676818988613 24.8089164935583 23.5567529044062 22.0511757246925 20.8060734155875 20.4618821769203 20.2662305308503 20.1318986112639 20.1375369282869 20.1526824067879 20.2063881839722 20.2518077310822 20.3255191923907 20.492095732436 20.5996415839146 20.643989363256 20.5012257079959 20.2016959704691 20.1073959398037 20.1372152310556 20.209930538596 20.3651901875288 20.4272828335901 20.4760048542054 20.4804849409141 20.5439757396182 20.5679140645724 20.6465273085799
-9999 -9999 18.555444225405 19.8001766373673 21.2243280081699 22.7693865327675 24.6896750312626 24.9338736189873 23.8266604396712 23.0708132187434 21.5643049340357 20.700034204137 20.6940492088662 20.8902905910177 20.6013314702198 20.243278797323 20.3009056736261 20.2620681208175 20.1271251193103 20.187386167689 20.4078722657124 20.372232839346 20.4224325312568 20.6063960963583 20.5895487416816 20.2488566437507 20.258893719773 20.3284746341434 20.3474324935373 20.3283309952305 20.4639165116233 20.4551075852022 20.4883719850214 20.6035399431353 20.7518840275341
