NCOLS 35 
NROWS 26 
XLLCORNER -80 
YLLCORNER 33 
CELLSIZE 0.5 
NODATA_value -9999 
-9999.000000000000000 -9999 -9999 -9999 -9999 -9999 -9999 -9999 -9999 -9999 -9999 -9999 -9999 -9999 -9999 -9999 -9999 -9999 -9999 -9999 -9999 -9999 -9999 -9999 -9999 -9999 -9999 -9999 -9999 -9999 -9999 -9999 -9999 -9999 -9999
-9999 -9999 -9999 -9999 -9999 -9999 -9999 -9999 -9999 -9999 -9999 -9999 -9999 -9999 -9999 -9999 -9999 -9999 -9999 -9999 -9999 -9999 -9999 -9999 -9999 -9999 -9999 -9999 -9999 7.71642206885437 -9999 -9999 -9999 -9999 -9999
-9999 -9999 -9999 -9999 -9999 -9999 -9999 -9999 -9999 -9999 -9999 -9999 -9999 -9999 -9999 -9999 -9999 -9999 -9999 -9999 -9999 -9999 -9999 -9999 -9999 -9999 8.21782643597516 8.15747225437006 7.95603054541382 7.56075274360229 -9999 -9999 -9999 -9999 -9999
-9999 -9999 -9999 -9999 -9999 -9999 -9999 -9999 -9999 -9999 -9999 -9999 -9999 -9999 -9999 -9999 -9999 -9999 -9999 -9999 -9999 -9999 -9999 8.05637640126076 8.45468559732219 8.68460749772992 8.64603455811714 7.96967645543456 -9999 -9999 -9999 6.63736706324051 6.51288310542015 6.43256298229132 6.60964195882071
-9999 -9999 -9999 -9999 -9999 -9999 -9999 -9999 -9999 -9999 -9999 -9999 -9999 -9999 -9999 -9999 -9999 -9999 -9999 -9999 8.23641678084246 8.40320694316898 8.69449679929813 9.02332905039296 8.85026728077732 9.01938862633182 8.6992974639921 7.84391628922692 -9999 -9999 7.0311550471499 6.93454842203613 7.03555782783988 7.64479119144852 8.16301616416158
-9999 -9999 -9999 -9999 -9999 -9999 -9999 -9999 -9999 -9999 -9999 -9999 -9999 -9999 -9999 -9999 -9999 -9999 -9999 8.50609315391098 8.62546831129157 8.69967494353176 8.95212787827512 9.16913284531928 9.17766186310832 9.26934546841929 8.6117376375127 7.89429663669081 7.41934799621626 7.53497288330245 7.56601805824688 7.33132561977831 7.50581203397601 8.28048142892434 9.15161089727542
-9999 -9999 -9999 -9999 -9999 -9999 -9999 -9999 -9999 -9999 -9999 -9999 -9999 -9999 -9999 -9999 -9999 -9999 -9999 8.76977186373302 8.85943954428639 8.91020440819195 9.05058516256596 9.13586839849489 9.33381896774232 9.40255388617209 9.03639450351018 8.45341350696981 7.99370597098282 7.93691775362185 8.09103783910453 8.04272763437032 8.22089871050503 8.83453341872156 8.79887980837149
-9999 -9999 -9999 -9999 -9999 -9999 -9999 -9999 -9999 -9999 -9999 -9999 -9999 -9999 -9999 -9999 -9999 -9999 -9999 8.89262617259665 9.1109009097676 8.97154952392909 9.10254925370151 9.25286083332366 9.48954278992323 9.562516987361 9.56743719030786 9.08520829053338 8.56953505692023 8.54895395688464 8.82941400833052 8.89967685499811 9.09202766823785 9.34715711323075 9.31126762621996
-9999 -9999 -9999 -9999 -9999 -9999 -9999 -9999 -9999 -9999 -9999 -9999 -9999 -9999 -9999 -9999 -9999 -9999 -9999 8.59091022755666 9.42102152151106 9.65607113481644 9.71402528104405 9.74223963857465 9.67976512281569 9.91277314625689 10.3842181547437 9.94395980688919 9.6759894471981 10.3182455941781 10.0929685675212 9.96659091303665 10.8141512682071 11.791832717563 11.9716116468935
-9999 -9999 -9999 -9999 -9999 -9999 -9999 -9999 -9999 -9999 -9999 -9999 -9999 -9999 -9999 -9999 -9999 10.8648315030043 10.5790282553437 9.64524328619212 9.10135970811102 10.2296266314539 10.5117609351428 10.4246820762942 10.2153938962944 10.5089064135801 10.8128266716379 10.9556749015085 12.9146545035672 13.2444294208148 13.6968960640449 15.622368615078 17.116240688278 17.1135644188497 15.7561945712073
-9999 -9999 -9999 -9999 -9999 -9999 -9999 -9999 -9999 -9999 -9999 -9999 -9999 -9999 10.4590462372794 10.908238301448 11.1870457018673 11.5293290382612 11.5566186867263 10.7654334722657 10.0116713478063 10.432916534313 10.7293931410226 10.9041813055001 11.1329931363271 11.7866769818018 12.6393173737373 14.7661311209689 16.4951883663811 16.8407401020091 18.0537639328304 18.6338549220926 18.6605243509524 17.5590130345546 17.2531320899461
-9999 -9999 -9999 -9999 -9999 -9999 -9999 -9999 -9999 -9999 -9999 -9999 10.8993140602147 11.4146861892136 11.7459343940378 11.8410175875536 12.0070046764463 12.4163826856881 12.4393007341859 11.7749849581907 11.2233856623606 11.1777106007138 11.7170813155217 12.5729454781402 13.3254239437065 14.7702915664413 16.5168592281667 17.9220704402572 19.216433622917 20.5395737556107 21.0203380393043 20.3640461366907 18.8367765809702 17.6881757851916 18.2965301835328
-9999 -9999 -9999 -9999 -9999 -9999 -9999 -9999 -9999 -9999 -9999 -9999 11.2329365069827 11.8900744198543 12.2904030063035 13.0468206541512 14.0178794889758 14.5790307287287 14.5260296543253 13.9307302356369 13.5009115322153 13.6946660691815 14.3499112442824 15.5930734828076 16.2666968941026 17.0255692764588 17.6881299403001 18.3966019146272 20.0157238726625 21.283806123895 21.1845106368702 19.9393833261437 18.1923568156373 17.6211866821863 18.7405353606146
-9999 -9999 -9999 -9999 -9999 -9999 -9999 -9999 -9999 8.26398663328107 9.28114752414852 10.6888372328479 11.7245783377467 12.2423649507998 13.4957227878489 15.3598221314137 15.7655687066477 15.8325295356961 15.5660535747169 15.5386170162913 15.3951218504696 15.3580963440729 15.5094549744491 16.2754308732889 16.104392333239 17.0369704865507 17.5092724760317 18.5098799969666 20.2167264375191 21.2253758374075 20.6569643361747 19.1500146564295 18.1195203853244 18.1896308449584 18.8559815718756
-9999 -9999 -9999 -9999 -9999 -9999 -9999 -9999 -9999 -9999 10.7027778711816 11.9425489206249 12.360635592561 13.2236611460254 15.3805674760305 15.7040057140265 15.6809223250178 15.8438142926292 16.1057650979163 16.1213553674204 16.361612991817 16.4594412568693 16.4252543920006 16.201499425013 15.4906583802786 16.1673804852511 17.2369889741152 19.3274195328001 21.1851590125974 21.7904691505843 21.0924944368457 19.5627458784053 18.5252177718579 18.5502275452028 19.5780199528636
-9999 -9999 -9999 -9999 -9999 -9999 -9999 9.34815979530375 9.65873219258551 -9999 11.7197418877849 12.5241290800741 13.0984154742737 14.6772315648176 15.6640580751869 16.0216267196409 16.3306569445495 17.6302298281734 19.1616795889409 20.3856956136806 21.0802778634015 21.1818936564679 20.5110421946759 19.3759468803645 18.4331106379973 17.949504705086 19.2616572851429 21.8490387714664 22.7507868167075 22.4464521838821 22.2042088243083 21.3271651222036 20.5107804754511 20.373557374744 20.9603069098367
-9999 -9999 -9999 -9999 -9999 -9999 -9999 10.1419014023266 10.4658179422588 11.7891771991504 12.4510792583333 13.0124290931749 14.2581831166649 15.9544724847505 17.3802811785148 18.2802498337321 19.4621669314546 21.548927553712 23.1772698429148 23.5678975561881 23.3004048692556 23.1178112974555 23.0776389981714 22.8025524022575 22.1120646831799 21.8523099729838 22.3483639658419 22.7163772353496 22.2297584055068 21.7806578441363 21.8025533612152 21.8290406751425 21.5704709598996 21.3936005263494 21.31065933927
-9999 -9999 -9999 -9999 -9999 -9999 -9999 11.161636176883 -9999 12.7947841134678 13.2820479250039 13.8926053803587 16.3962981962839 19.0573049228351 20.4665548330357 21.8675668158465 23.4038045802999 24.0106678220011 23.3423754907176 22.4321067933273 21.8842663156293 21.6980258483262 21.8418682873657 22.1463851716319 22.3876496856582 22.4848834983322 22.4337050317036 22.0616092178817 21.6541392100748 21.4786452964675 21.5882391070775 21.7515989278656 21.766471267451 21.7143540906427 21.5526103412356
-9999 -9999 -9999 -9999 -9999 -9999 -9999 -9999 12.9166415033779 13.7145602073621 14.4726148265246 16.845746662545 21.3947082698467 23.2859840720384 23.962690284098 24.1025634388472 23.7566660616617 22.7688504862966 21.8813935476736 21.3717807642866 21.1544067966703 21.2195121059249 21.284734721515 21.3193167624199 21.3905832489185 21.6102386299488 21.6497193383305 21.5606525402108 21.5223288155396 21.534843112913 21.6327425895736 21.5997323237546 21.4805699989186 21.3917673031236 21.7026692375801
-9999 -9999 -9999 -9999 -9999 -9999 -9999 -9999 -9999 15.9943342779072 18.1693268400032 22.2488919484901 24.4575282939779 24.7580650351059 24.0429543814115 22.902993723099 21.9962589850729 21.6960514169365 21.5412555156293 21.2156880664515 21.3182849613156 21.5077315015174 21.5690946827097 21.5274905531581 21.6253703732693 21.60678946026 21.4325629185618 21.4119609533633 21.5727598085079 21.6162447460135 21.6159808484513 21.58451281784 21.3985563869349 21.2916364555703 21.506864605643
-9999 -9999 -9999 -9999 -9999 -9999 -9999 -9999 -9999 17.2756603372396 21.5545855208454 24.583535281459 24.7239754542843 23.6224260926406 22.4565629792085 21.8176494011797 21.4790875150621 21.3319435207287 21.394598947314 21.2087732308203 21.3983220839829 21.498741116627 21.5333372835639 21.5862409696073 21.6252601730915 21.6237208142164 21.589707347067 21.5969615648356 21.770333900135 21.6512857438757 21.5321233069999 21.6259137296945 21.6094473628847 21.5960829183022 21.6726478818686
-9999 -9999 -9999 -9999 -9999 -9999 -9999 15.4052590425628 17.3781828114659 20.5869863110797 24.2857166798127 24.8880356095881 23.7605123300929 22.497837710401 21.8868275369038 21.5881390445717 21.4007148437292 21.386180294543 21.2428079546279 21.1921231380226 21.3293787437996 21.4478831836896 21.5149613042638 21.5737732743599 21.6274991671993 21.8155601263987 21.9328794676664 21.8935778871327 21.8185952690296 21.6962973713859 21.6352226605352 21.715600853664 21.8319874505506 21.8883072590432 21.8675028237237
-9999 -9999 -9999 -9999 -9999 -9999 15.1067403826037 18.3201414815814 21.9795657221735 24.2762914799706 25.0885139053551 24.0616558048377 22.599782143304 21.8608586151268 21.6200295786327 21.4085398303323 21.36143371497 21.3347671270279 21.2829316370009 21.2931359566013 21.3119349441742 21.4261369042952 21.5360901116043 21.6458255399031 21.7776043714044 21.9686833878061 22.0561031979934 22.0515923750274 21.9156944703671 21.7733011859132 21.7360185481292 21.8566372444607 22.1005840400751 22.2441116440003 22.2081677307492
-9999 -9999 -9999 -9999 13.6839034838109 15.1307740807234 17.9531775194139 21.2713557417115 24.2651126624827 25.0577357026289 24.350121699625 22.9638340170261 21.9054370091209 21.5503255775734 21.5244745088091 21.51078099426 21.451267929194 21.4202913940932 21.3957400986388 21.403077817625 21.5001014577623 21.7478805966748 21.9845960267804 22.1202345611888 22.1882268841978 22.1671055622763 22.126488382486 22.2249884524661 22.142672117903 21.9294637875814 21.8801800173371 21.9680844886059 22.0997207442848 22.1827304630314 22.1093207642369
-9999 -9999 -9999 16.7173402631142 16.3401802977133 19.5048762565634 22.8940849476272 24.6828660191732 25.0148735017611 24.260606732566 22.9824781082597 22.3107128554895 21.7127148353898 21.7414758158858 21.8172431808505 21.8162945924934 21.8430281712333 21.7707971474448 21.6314816367735 21.5483652619133 21.63758838327 21.9242101412515 22.2538841273628 22.3532945801213 22.3434206871995 22.2802150993796 22.2670809049983 22.2788910353215 22.1750056683594 21.998150158642 21.9468403974418 21.9660910999498 22.0370525683405 22.116219806117 22.119606049349
-9999 -9999 18.2841087268701 20.3872797475957 21.7242216575001 23.1754262872351 24.9505956181689 25.0332047446556 24.2750190775379 23.0946089012308 22.3511855222632 21.965389484703 21.7169939596857 21.9023391361029 21.9513082041998 21.8981008432385 21.9875230516288 22.0401149739944 21.8427850454674 21.6853445011907 21.6769151779146 21.9173312530171 22.2797326684701 22.4410078126171 22.4922563739973 22.4297485273577 22.3451665602536 22.3310727428808 22.2850711440757 22.1563338601484 22.0826163634995 22.1177164211568 22.2162858866054 22.3013170454951 22.2657129084526
